; GCODE Generated by cam.openbuilds.com on 2023-04-24 
G21 ; mm-mode
G54; Work Coordinates
G21; mm-mode
G90; Absolute Positioning
; Plotter Mode Active

; Operation 0: Pen Plotter: (lines fill)
; Pen Diameter: 2

G0 Z0; move to z-safe height
G0 F1000 X4.0000 Y5.1300
M3S0
G4 P0.5; Tool On
G1 F300 Z0.0000
G1 F15000 X1196.0000 Y5.1300 Z0.0000
M3S245
G4 P0.5; Tool Off

G0 Z0; move to z-safe height
G0 X1196.0000 Y13.1300
M3S0
G4 P0.5; Tool On
G1 F300 Z0.0000
G1 F15000 X4.0000 Y13.1300 Z0.0000
M3S245
G4 P0.5; Tool Off

G0 Z0; move to z-safe height
G0 X4.0000 Y21.1300
M3S0
G4 P0.5; Tool On
G1 F300 Z0.0000
G1 F15000 X1196.0000 Y21.1300 Z0.0000
M3S245
G4 P0.5; Tool Off

G0 Z0; move to z-safe height
G0 X1196.0000 Y29.1300
M3S0
G4 P0.5; Tool On
G1 F300 Z0.0000
G1 F15000 X4.0000 Y29.1300 Z0.0000
M3S245
G4 P0.5; Tool Off

G0 Z0; move to z-safe height
G0 X4.0000 Y37.1300
M3S0
G4 P0.5; Tool On
G1 F300 Z0.0000
G1 F15000 X1196.0000 Y37.1300 Z0.0000
M3S245
G4 P0.5; Tool Off

G0 Z0; move to z-safe height
G0 X1196.0000 Y45.1300
M3S0
G4 P0.5; Tool On
G1 F300 Z0.0000
G1 F15000 X4.0000 Y45.1300 Z0.0000
M3S245
G4 P0.5; Tool Off

G0 Z0; move to z-safe height
G0 X4.0000 Y53.1300
M3S0
G4 P0.5; Tool On
G1 F300 Z0.0000
G1 F15000 X1196.0000 Y53.1300 Z0.0000
M3S245
G4 P0.5; Tool Off

G0 Z0; move to z-safe height
G0 X1196.0000 Y61.1300
M3S0
G4 P0.5; Tool On
G1 F300 Z0.0000
G1 F15000 X4.0000 Y61.1300 Z0.0000
M3S245
G4 P0.5; Tool Off

G0 Z0; move to z-safe height
G0 X4.0000 Y69.1300
M3S0
G4 P0.5; Tool On
G1 F300 Z0.0000
G1 F15000 X1196.0000 Y69.1300 Z0.0000
M3S245
G4 P0.5; Tool Off

G0 Z0; move to z-safe height
G0 X1196.0000 Y77.1300
M3S0
G4 P0.5; Tool On
G1 F300 Z0.0000
G1 F15000 X4.0000 Y77.1300 Z0.0000
M3S245
G4 P0.5; Tool Off

G0 Z0; move to z-safe height
G0 X4.0000 Y85.1300
M3S0
G4 P0.5; Tool On
G1 F300 Z0.0000
G1 F15000 X1196.0000 Y85.1300 Z0.0000
M3S245
G4 P0.5; Tool Off

G0 Z0; move to z-safe height
G0 X1196.0000 Y93.1300
M3S0
G4 P0.5; Tool On
G1 F300 Z0.0000
G1 F15000 X4.0000 Y93.1300 Z0.0000
M3S245
G4 P0.5; Tool Off

G0 Z0; move to z-safe height
G0 X4.0000 Y101.1300
M3S0
G4 P0.5; Tool On
G1 F300 Z0.0000
G1 F15000 X1196.0000 Y101.1300 Z0.0000
M3S245
G4 P0.5; Tool Off

G0 Z0; move to z-safe height
G0 X1196.0000 Y109.1300
M3S0
G4 P0.5; Tool On
G1 F300 Z0.0000
G1 F15000 X4.0000 Y109.1300 Z0.0000
M3S245
G4 P0.5; Tool Off

G0 Z0; move to z-safe height
G0 X4.0000 Y117.1300
M3S0
G4 P0.5; Tool On
G1 F300 Z0.0000
G1 F15000 X1196.0000 Y117.1300 Z0.0000
M3S245
G4 P0.5; Tool Off

G0 Z0; move to z-safe height
G0 X1196.0000 Y125.1300
M3S0
G4 P0.5; Tool On
G1 F300 Z0.0000
G1 F15000 X4.0000 Y125.1300 Z0.0000
M3S245
G4 P0.5; Tool Off

G0 Z0; move to z-safe height
G0 X4.0000 Y133.1300
M3S0
G4 P0.5; Tool On
G1 F300 Z0.0000
G1 F15000 X1196.0000 Y133.1300 Z0.0000
M3S245
G4 P0.5; Tool Off

G0 Z0; move to z-safe height
G0 X1196.0000 Y141.1300
M3S0
G4 P0.5; Tool On
G1 F300 Z0.0000
G1 F15000 X4.0000 Y141.1300 Z0.0000
M3S245
G4 P0.5; Tool Off

G0 Z0; move to z-safe height
G0 X4.0000 Y149.1300
M3S0
G4 P0.5; Tool On
G1 F300 Z0.0000
G1 F15000 X1196.0000 Y149.1300 Z0.0000
M3S245
G4 P0.5; Tool Off

G0 Z0; move to z-safe height
G0 X1196.0000 Y157.1300
M3S0
G4 P0.5; Tool On
G1 F300 Z0.0000
G1 F15000 X4.0000 Y157.1300 Z0.0000
M3S245
G4 P0.5; Tool Off

G0 Z0; move to z-safe height
G0 X4.0000 Y165.1300
M3S0
G4 P0.5; Tool On
G1 F300 Z0.0000
G1 F15000 X1196.0000 Y165.1300 Z0.0000
M3S245
G4 P0.5; Tool Off

G0 Z0; move to z-safe height
G0 X1196.0000 Y173.1300
M3S0
G4 P0.5; Tool On
G1 F300 Z0.0000
G1 F15000 X4.0000 Y173.1300 Z0.0000
M3S245
G4 P0.5; Tool Off

G0 Z0; move to z-safe height
G0 X4.0000 Y181.1300
M3S0
G4 P0.5; Tool On
G1 F300 Z0.0000
G1 F15000 X1196.0000 Y181.1300 Z0.0000
M3S245
G4 P0.5; Tool Off

G0 Z0; move to z-safe height
G0 X1196.0000 Y189.1300
M3S0
G4 P0.5; Tool On
G1 F300 Z0.0000
G1 F15000 X4.0000 Y189.1300 Z0.0000
M3S245
G4 P0.5; Tool Off

G0 Z0; move to z-safe height
G0 X4.0000 Y197.1300
M3S0
G4 P0.5; Tool On
G1 F300 Z0.0000
G1 F15000 X1196.0000 Y197.1300 Z0.0000
M3S245
G4 P0.5; Tool Off

G0 Z0; move to z-safe height
G0 X1196.0000 Y205.1300
M3S0
G4 P0.5; Tool On
G1 F300 Z0.0000
G1 F15000 X4.0000 Y205.1300 Z0.0000
M3S245
G4 P0.5; Tool Off

G0 Z0; move to z-safe height
G0 X4.0000 Y213.1300
M3S0
G4 P0.5; Tool On
G1 F300 Z0.0000
G1 F15000 X1196.0000 Y213.1300 Z0.0000
M3S245
G4 P0.5; Tool Off

G0 Z0; move to z-safe height
G0 X1196.0000 Y221.1300
M3S0
G4 P0.5; Tool On
G1 F300 Z0.0000
G1 F15000 X4.0000 Y221.1300 Z0.0000
M3S245
G4 P0.5; Tool Off

G0 Z0; move to z-safe height
G0 X4.0000 Y229.1300
M3S0
G4 P0.5; Tool On
G1 F300 Z0.0000
G1 F15000 X1196.0000 Y229.1300 Z0.0000
M3S245
G4 P0.5; Tool Off

G0 Z0; move to z-safe height
G0 X1196.0000 Y237.1300
M3S0
G4 P0.5; Tool On
G1 F300 Z0.0000
G1 F15000 X4.0000 Y237.1300 Z0.0000
M3S245
G4 P0.5; Tool Off

G0 Z0; move to z-safe height
G0 X4.0000 Y245.1300
M3S0
G4 P0.5; Tool On
G1 F300 Z0.0000
G1 F15000 X1196.0000 Y245.1300 Z0.0000
M3S245
G4 P0.5; Tool Off

G0 Z0; move to z-safe height
G0 X1196.0000 Y253.1300
M3S0
G4 P0.5; Tool On
G1 F300 Z0.0000
G1 F15000 X4.0000 Y253.1300 Z0.0000
M3S245
G4 P0.5; Tool Off

G0 Z0; move to z-safe height
G0 X4.0000 Y261.1300
M3S0
G4 P0.5; Tool On
G1 F300 Z0.0000
G1 F15000 X1196.0000 Y261.1300 Z0.0000
M3S245
G4 P0.5; Tool Off

G0 Z0; move to z-safe height
G0 X1196.0000 Y269.1300
M3S0
G4 P0.5; Tool On
G1 F300 Z0.0000
G1 F15000 X4.0000 Y269.1300 Z0.0000
M3S245
G4 P0.5; Tool Off

G0 Z0; move to z-safe height
G0 X4.0000 Y277.1300
M3S0
G4 P0.5; Tool On
G1 F300 Z0.0000
G1 F15000 X1196.0000 Y277.1300 Z0.0000
M3S245
G4 P0.5; Tool Off

G0 Z0; move to z-safe height
G0 X1196.0000 Y285.1300
M3S0
G4 P0.5; Tool On
G1 F300 Z0.0000
G1 F15000 X4.0000 Y285.1300 Z0.0000
M3S245
G4 P0.5; Tool Off

G0 Z0; move to z-safe height
G0 X4.0000 Y293.1300
M3S0
G4 P0.5; Tool On
G1 F300 Z0.0000
G1 F15000 X1196.0000 Y293.1300 Z0.0000
M3S245
G4 P0.5; Tool Off

G0 Z0; move to z-safe height
G0 X1196.0000 Y301.1300
M3S0
G4 P0.5; Tool On
G1 F300 Z0.0000
G1 F15000 X4.0000 Y301.1300 Z0.0000
M3S245
G4 P0.5; Tool Off

G0 Z0; move to z-safe height
G0 X4.0000 Y309.1300
M3S0
G4 P0.5; Tool On
G1 F300 Z0.0000
G1 F15000 X1196.0000 Y309.1300 Z0.0000
M3S245
G4 P0.5; Tool Off

G0 Z0; move to z-safe height
G0 X1196.0000 Y317.1300
M3S0
G4 P0.5; Tool On
G1 F300 Z0.0000
G1 F15000 X4.0000 Y317.1300 Z0.0000
M3S245
G4 P0.5; Tool Off

G0 Z0; move to z-safe height
G0 X4.0000 Y325.1300
M3S0
G4 P0.5; Tool On
G1 F300 Z0.0000
G1 F15000 X1196.0000 Y325.1300 Z0.0000
M3S245
G4 P0.5; Tool Off

G0 Z0; move to z-safe height
G0 X1196.0000 Y333.1300
M3S0
G4 P0.5; Tool On
G1 F300 Z0.0000
G1 F15000 X4.0000 Y333.1300 Z0.0000
M3S245
G4 P0.5; Tool Off

G0 Z0; move to z-safe height
G0 X4.0000 Y341.1300
M3S0
G4 P0.5; Tool On
G1 F300 Z0.0000
G1 F15000 X1196.0000 Y341.1300 Z0.0000
M3S245
G4 P0.5; Tool Off

G0 Z0; move to z-safe height
G0 X1196.0000 Y349.1300
M3S0
G4 P0.5; Tool On
G1 F300 Z0.0000
G1 F15000 X4.0000 Y349.1300 Z0.0000
M3S245
G4 P0.5; Tool Off

G0 Z0; move to z-safe height
G0 X4.0000 Y357.1300
M3S0
G4 P0.5; Tool On
G1 F300 Z0.0000
G1 F15000 X1196.0000 Y357.1300 Z0.0000
M3S245
G4 P0.5; Tool Off

G0 Z0; move to z-safe height
G0 X1196.0000 Y365.1300
M3S0
G4 P0.5; Tool On
G1 F300 Z0.0000
G1 F15000 X4.0000 Y365.1300 Z0.0000
M3S245
G4 P0.5; Tool Off

G0 Z0; move to z-safe height
G0 X4.0000 Y373.1300
M3S0
G4 P0.5; Tool On
G1 F300 Z0.0000
G1 F15000 X1196.0000 Y373.1300 Z0.0000
M3S245
G4 P0.5; Tool Off

G0 Z0; move to z-safe height
G0 X1196.0000 Y381.1300
M3S0
G4 P0.5; Tool On
G1 F300 Z0.0000
G1 F15000 X4.0000 Y381.1300 Z0.0000
M3S245
G4 P0.5; Tool Off

G0 Z0; move to z-safe height
G0 X4.0000 Y389.1300
M3S0
G4 P0.5; Tool On
G1 F300 Z0.0000
G1 F15000 X1196.0000 Y389.1300 Z0.0000
M3S245
G4 P0.5; Tool Off

G0 Z0; move to z-safe height
G0 X1196.0000 Y397.1300
M3S0
G4 P0.5; Tool On
G1 F300 Z0.0000
G1 F15000 X4.0000 Y397.1300 Z0.0000
M3S245
G4 P0.5; Tool Off

G0 Z0; move to z-safe height
G0 X4.0000 Y405.1300
M3S0
G4 P0.5; Tool On
G1 F300 Z0.0000
G1 F15000 X1196.0000 Y405.1300 Z0.0000
M3S245
G4 P0.5; Tool Off

G0 Z0; move to z-safe height
G0 X1196.0000 Y413.1300
M3S0
G4 P0.5; Tool On
G1 F300 Z0.0000
G1 F15000 X4.0000 Y413.1300 Z0.0000
M3S245
G4 P0.5; Tool Off

G0 Z0; move to z-safe height
G0 X4.0000 Y421.1300
M3S0
G4 P0.5; Tool On
G1 F300 Z0.0000
G1 F15000 X1196.0000 Y421.1300 Z0.0000
M3S245
G4 P0.5; Tool Off

G0 Z0; move to z-safe height
G0 X1196.0000 Y429.1300
M3S0
G4 P0.5; Tool On
G1 F300 Z0.0000
G1 F15000 X4.0000 Y429.1300 Z0.0000
M3S245
G4 P0.5; Tool Off

G0 Z0; move to z-safe height
G0 X4.0000 Y437.1300
M3S0
G4 P0.5; Tool On
G1 F300 Z0.0000
G1 F15000 X1196.0000 Y437.1300 Z0.0000
M3S245
G4 P0.5; Tool Off

G0 Z0; move to z-safe height
G0 X1196.0000 Y445.1300
M3S0
G4 P0.5; Tool On
G1 F300 Z0.0000
G1 F15000 X4.0000 Y445.1300 Z0.0000
M3S245
G4 P0.5; Tool Off

G0 Z0; move to z-safe height
G0 X4.0000 Y453.1300
M3S0
G4 P0.5; Tool On
G1 F300 Z0.0000
G1 F15000 X1196.0000 Y453.1300 Z0.0000
M3S245
G4 P0.5; Tool Off

G0 Z0; move to z-safe height
G0 X1196.0000 Y461.1300
M3S0
G4 P0.5; Tool On
G1 F300 Z0.0000
G1 F15000 X4.0000 Y461.1300 Z0.0000
M3S245
G4 P0.5; Tool Off

G0 Z0; move to z-safe height
G0 X4.0000 Y469.1300
M3S0
G4 P0.5; Tool On
G1 F300 Z0.0000
G1 F15000 X1196.0000 Y469.1300 Z0.0000
M3S245
G4 P0.5; Tool Off

G0 Z0; move to z-safe height
G0 X1196.0000 Y477.1300
M3S0
G4 P0.5; Tool On
G1 F300 Z0.0000
G1 F15000 X4.0000 Y477.1300 Z0.0000
M3S245
G4 P0.5; Tool Off

G0 Z0; move to z-safe height
G0 X4.0000 Y485.1300
M3S0
G4 P0.5; Tool On
G1 F300 Z0.0000
G1 F15000 X1196.0000 Y485.1300 Z0.0000
M3S245
G4 P0.5; Tool Off

G0 Z0; move to z-safe height
G0 X1196.0000 Y493.1300
M3S0
G4 P0.5; Tool On
G1 F300 Z0.0000
G1 F15000 X4.0000 Y493.1300 Z0.0000
M3S245
G4 P0.5; Tool Off

G0 Z0; move to z-safe height
G0 X4.0000 Y501.1300
M3S0
G4 P0.5; Tool On
G1 F300 Z0.0000
G1 F15000 X1196.0000 Y501.1300 Z0.0000
M3S245
G4 P0.5; Tool Off

G0 Z0; move to z-safe height
G0 X1196.0000 Y509.1300
M3S0
G4 P0.5; Tool On
G1 F300 Z0.0000
G1 F15000 X4.0000 Y509.1300 Z0.0000
M3S245
G4 P0.5; Tool Off

G0 Z0; move to z-safe height
G0 X4.0000 Y517.1300
M3S0
G4 P0.5; Tool On
G1 F300 Z0.0000
G1 F15000 X1196.0000 Y517.1300 Z0.0000
M3S245
G4 P0.5; Tool Off

G0 Z0; move to z-safe height
G0 X1196.0000 Y525.1300
M3S0
G4 P0.5; Tool On
G1 F300 Z0.0000
G1 F15000 X4.0000 Y525.1300 Z0.0000
M3S245
G4 P0.5; Tool Off

G0 Z0; move to z-safe height
G0 X4.0000 Y533.1300
M3S0
G4 P0.5; Tool On
G1 F300 Z0.0000
G1 F15000 X1196.0000 Y533.1300 Z0.0000
M3S245
G4 P0.5; Tool Off

G0 Z0; move to z-safe height
G0 X1196.0000 Y541.1300
M3S0
G4 P0.5; Tool On
G1 F300 Z0.0000
G1 F15000 X4.0000 Y541.1300 Z0.0000
M3S245
G4 P0.5; Tool Off

G0 Z0; move to z-safe height
G0 X4.0000 Y549.1300
M3S0
G4 P0.5; Tool On
G1 F300 Z0.0000
G1 F15000 X1196.0000 Y549.1300 Z0.0000
M3S245
G4 P0.5; Tool Off

G0 Z0; move to z-safe height
G0 X1196.0000 Y557.1300
M3S0
G4 P0.5; Tool On
G1 F300 Z0.0000
G1 F15000 X4.0000 Y557.1300 Z0.0000
M3S245
G4 P0.5; Tool Off

G0 Z0; move to z-safe height
G0 X4.0000 Y565.1300
M3S0
G4 P0.5; Tool On
G1 F300 Z0.0000
G1 F15000 X1196.0000 Y565.1300 Z0.0000
M3S245
G4 P0.5; Tool Off

G0 Z0; move to z-safe height
G0 X1196.0000 Y573.1300
M3S0
G4 P0.5; Tool On
G1 F300 Z0.0000
G1 F15000 X4.0000 Y573.1300 Z0.0000
M3S245
G4 P0.5; Tool Off

G0 Z0; move to z-safe height
G0 X4.0000 Y581.1300
M3S0
G4 P0.5; Tool On
G1 F300 Z0.0000
G1 F15000 X1196.0000 Y581.1300 Z0.0000
M3S245
G4 P0.5; Tool Off

G0 Z0; move to z-safe height
G0 X1196.0000 Y589.1300
M3S0
G4 P0.5; Tool On
G1 F300 Z0.0000
G1 F15000 X4.0000 Y589.1300 Z0.0000
M3S245
G4 P0.5; Tool Off

G0 Z0; move to z-safe height
G0 X4.0000 Y597.1300
M3S0
G4 P0.5; Tool On
G1 F300 Z0.0000
G1 F15000 X1196.0000 Y597.1300 Z0.0000
M3S245
G4 P0.5; Tool Off

G0 Z0; move to z-safe height
G0 X1196.0000 Y605.1300
M3S0
G4 P0.5; Tool On
G1 F300 Z0.0000
G1 F15000 X4.0000 Y605.1300 Z0.0000
M3S245
G4 P0.5; Tool Off

G0 Z0; move to z-safe height
G0 X4.0000 Y613.1300
M3S0
G4 P0.5; Tool On
G1 F300 Z0.0000
G1 F15000 X1196.0000 Y613.1300 Z0.0000
M3S245
G4 P0.5; Tool Off

G0 Z0; move to z-safe height
G0 X1196.0000 Y621.1300
M3S0
G4 P0.5; Tool On
G1 F300 Z0.0000
G1 F15000 X4.0000 Y621.1300 Z0.0000
M3S245
G4 P0.5; Tool Off

G0 Z0; move to z-safe height
G0 X4.0000 Y629.1300
M3S0
G4 P0.5; Tool On
G1 F300 Z0.0000
G1 F15000 X1196.0000 Y629.1300 Z0.0000
M3S245
G4 P0.5; Tool Off

G0 Z0; move to z-safe height
G0 X1196.0000 Y637.1300
M3S0
G4 P0.5; Tool On
G1 F300 Z0.0000
G1 F15000 X4.0000 Y637.1300 Z0.0000
M3S245
G4 P0.5; Tool Off

G0 Z0; move to z-safe height
G0 X4.0000 Y645.1300
M3S0
G4 P0.5; Tool On
G1 F300 Z0.0000
G1 F15000 X1196.0000 Y645.1300 Z0.0000
M3S245
G4 P0.5; Tool Off

G0 Z0; move to z-safe height
G0 X1196.0000 Y653.1300
M3S0
G4 P0.5; Tool On
G1 F300 Z0.0000
G1 F15000 X4.0000 Y653.1300 Z0.0000
M3S245
G4 P0.5; Tool Off

G0 Z0; move to z-safe height
G0 X4.0000 Y661.1300
M3S0
G4 P0.5; Tool On
G1 F300 Z0.0000
G1 F15000 X1196.0000 Y661.1300 Z0.0000
M3S245
G4 P0.5; Tool Off

G0 Z0; move to z-safe height
G0 X1196.0000 Y669.1300
M3S0
G4 P0.5; Tool On
G1 F300 Z0.0000
G1 F15000 X4.0000 Y669.1300 Z0.0000
M3S245
G4 P0.5; Tool Off

G0 Z0; move to z-safe height
G0 X4.0000 Y677.1300
M3S0
G4 P0.5; Tool On
G1 F300 Z0.0000
G1 F15000 X1196.0000 Y677.1300 Z0.0000
M3S245
G4 P0.5; Tool Off

G0 Z0; move to z-safe height
G0 X1196.0000 Y685.1300
M3S0
G4 P0.5; Tool On
G1 F300 Z0.0000
G1 F15000 X4.0000 Y685.1300 Z0.0000
M3S245
G4 P0.5; Tool Off

G0 Z0; move to z-safe height
G0 X4.0000 Y693.1300
M3S0
G4 P0.5; Tool On
G1 F300 Z0.0000
G1 F15000 X1196.0000 Y693.1300 Z0.0000
M3S245
G4 P0.5; Tool Off

G0 Z0; move to z-safe height
G0 X1196.0000 Y701.1300
M3S0
G4 P0.5; Tool On
G1 F300 Z0.0000
G1 F15000 X4.0000 Y701.1300 Z0.0000
M3S245
G4 P0.5; Tool Off

G0 Z0; move to z-safe height
G0 X4.0000 Y709.1300
M3S0
G4 P0.5; Tool On
G1 F300 Z0.0000
G1 F15000 X1196.0000 Y709.1300 Z0.0000
M3S245
G4 P0.5; Tool Off

G0 Z0; move to z-safe height
G0 X1196.0000 Y717.1300
M3S0
G4 P0.5; Tool On
G1 F300 Z0.0000
G1 F15000 X4.0000 Y717.1300 Z0.0000
M3S245
G4 P0.5; Tool Off

G0 Z0; move to z-safe height
G0 X4.0000 Y725.1300
M3S0
G4 P0.5; Tool On
G1 F300 Z0.0000
G1 F15000 X1196.0000 Y725.1300 Z0.0000
M3S245
G4 P0.5; Tool Off

G0 Z0; move to z-safe height
G0 X1196.0000 Y733.1300
M3S0
G4 P0.5; Tool On
G1 F300 Z0.0000
G1 F15000 X4.0000 Y733.1300 Z0.0000
M3S245
G4 P0.5; Tool Off

G0 Z0; move to z-safe height
G0 X4.0000 Y741.1300
M3S0
G4 P0.5; Tool On
G1 F300 Z0.0000
G1 F15000 X1196.0000 Y741.1300 Z0.0000
M3S245
G4 P0.5; Tool Off

G0 Z0; move to z-safe height
G0 X1196.0000 Y749.1300
M3S0
G4 P0.5; Tool On
G1 F300 Z0.0000
G1 F15000 X4.0000 Y749.1300 Z0.0000
M3S245
G4 P0.5; Tool Off

G0 Z0; move to z-safe height
G0 X4.0000 Y757.1300
M3S0
G4 P0.5; Tool On
G1 F300 Z0.0000
G1 F15000 X1196.0000 Y757.1300 Z0.0000
M3S245
G4 P0.5; Tool Off

G0 Z0; move to z-safe height
G0 X1196.0000 Y765.1300
M3S0
G4 P0.5; Tool On
G1 F300 Z0.0000
G1 F15000 X4.0000 Y765.1300 Z0.0000
M3S245
G4 P0.5; Tool Off

G0 Z0; move to z-safe height
G0 X4.0000 Y773.1300
M3S0
G4 P0.5; Tool On
G1 F300 Z0.0000
G1 F15000 X1196.0000 Y773.1300 Z0.0000
M3S245
G4 P0.5; Tool Off

G0 Z0; move to z-safe height
G0 X1196.0000 Y781.1300
M3S0
G4 P0.5; Tool On
G1 F300 Z0.0000
G1 F15000 X4.0000 Y781.1300 Z0.0000
M3S245
G4 P0.5; Tool Off

G0 Z0; move to z-safe height
G0 X4.0000 Y789.1300
M3S0
G4 P0.5; Tool On
G1 F300 Z0.0000
G1 F15000 X1196.0000 Y789.1300 Z0.0000
M3S245
G4 P0.5; Tool Off

G0 Z0; move to z-safe height
G0 X1196.0000 Y797.1300
M3S0
G4 P0.5; Tool On
G1 F300 Z0.0000
G1 F15000 X4.0000 Y797.1300 Z0.0000
M3S245
G4 P0.5; Tool Off

G0 Z0; move to z-safe height
G0 X4.0000 Y805.1300
M3S0
G4 P0.5; Tool On
G1 F300 Z0.0000
G1 F15000 X1196.0000 Y805.1300 Z0.0000
M3S245
G4 P0.5; Tool Off

G0 Z0; move to z-safe height
G0 X1196.0000 Y813.1300
M3S0
G4 P0.5; Tool On
G1 F300 Z0.0000
G1 F15000 X4.0000 Y813.1300 Z0.0000
M3S245
G4 P0.5; Tool Off

G0 Z0; move to z-safe height
G0 X4.0000 Y821.1300
M3S0
G4 P0.5; Tool On
G1 F300 Z0.0000
G1 F15000 X1196.0000 Y821.1300 Z0.0000
M3S245
G4 P0.5; Tool Off

G0 Z0; move to z-safe height
G0 X1196.0000 Y829.1300
M3S0
G4 P0.5; Tool On
G1 F300 Z0.0000
G1 F15000 X4.0000 Y829.1300 Z0.0000
M3S245
G4 P0.5; Tool Off

G0 Z0; move to z-safe height
G0 X4.0000 Y837.1300
M3S0
G4 P0.5; Tool On
G1 F300 Z0.0000
G1 F15000 X1196.0000 Y837.1300 Z0.0000
M3S245
G4 P0.5; Tool Off

G0 Z0; move to z-safe height
G0 X1196.0000 Y845.1300
M3S0
G4 P0.5; Tool On
G1 F300 Z0.0000
G1 F15000 X4.0000 Y845.1300 Z0.0000
M3S245
G4 P0.5; Tool Off

G0 Z0; move to z-safe height
G0 X4.0000 Y853.1300
M3S0
G4 P0.5; Tool On
G1 F300 Z0.0000
G1 F15000 X1196.0000 Y853.1300 Z0.0000
M3S245
G4 P0.5; Tool Off

G0 Z0; move to z-safe height
G0 X1196.0000 Y861.1300
M3S0
G4 P0.5; Tool On
G1 F300 Z0.0000
G1 F15000 X4.0000 Y861.1300 Z0.0000
M3S245
G4 P0.5; Tool Off

G0 Z0; move to z-safe height
G0 X4.0000 Y869.1300
M3S0
G4 P0.5; Tool On
G1 F300 Z0.0000
G1 F15000 X1196.0000 Y869.1300 Z0.0000
M3S245
G4 P0.5; Tool Off

G0 Z0; move to z-safe height
G0 X1196.0000 Y877.1300
M3S0
G4 P0.5; Tool On
G1 F300 Z0.0000
G1 F15000 X4.0000 Y877.1300 Z0.0000
M3S245
G4 P0.5; Tool Off

G0 Z0; move to z-safe height
G0 X4.0000 Y885.1300
M3S0
G4 P0.5; Tool On
G1 F300 Z0.0000
G1 F15000 X1196.0000 Y885.1300 Z0.0000
M3S245
G4 P0.5; Tool Off

G0 Z0; move to z-safe height
G0 X1196.0000 Y893.1300
M3S0
G4 P0.5; Tool On
G1 F300 Z0.0000
G1 F15000 X4.0000 Y893.1300 Z0.0000
M3S245
G4 P0.5; Tool Off

G0 Z0; move to z-safe height
G0 X4.0000 Y901.1300
M3S0
G4 P0.5; Tool On
G1 F300 Z0.0000
G1 F15000 X1196.0000 Y901.1300 Z0.0000
M3S245
G4 P0.5; Tool Off

G0 Z0; move to z-safe height
G0 X1196.0000 Y909.1300
M3S0
G4 P0.5; Tool On
G1 F300 Z0.0000
G1 F15000 X4.0000 Y909.1300 Z0.0000
M3S245
G4 P0.5; Tool Off

G0 Z0; move to z-safe height
G0 X4.0000 Y917.1300
M3S0
G4 P0.5; Tool On
G1 F300 Z0.0000
G1 F15000 X1196.0000 Y917.1300 Z0.0000
M3S245
G4 P0.5; Tool Off

G0 Z0; move to z-safe height
G0 X1196.0000 Y925.1300
M3S0
G4 P0.5; Tool On
G1 F300 Z0.0000
G1 F15000 X4.0000 Y925.1300 Z0.0000
M3S245
G4 P0.5; Tool Off

G0 Z0; move to z-safe height
G0 X4.0000 Y933.1300
M3S0
G4 P0.5; Tool On
G1 F300 Z0.0000
G1 F15000 X1196.0000 Y933.1300 Z0.0000
M3S245
G4 P0.5; Tool Off

G0 Z0; move to z-safe height
G0 X1196.0000 Y941.1300
M3S0
G4 P0.5; Tool On
G1 F300 Z0.0000
G1 F15000 X4.0000 Y941.1300 Z0.0000
M3S245
G4 P0.5; Tool Off

G0 Z0; move to z-safe height
G0 X4.0000 Y949.1300
M3S0
G4 P0.5; Tool On
G1 F300 Z0.0000
G1 F15000 X1196.0000 Y949.1300 Z0.0000
M3S245
G4 P0.5; Tool Off

G0 Z0; move to z-safe height
G0 X1196.0000 Y957.1300
M3S0
G4 P0.5; Tool On
G1 F300 Z0.0000
G1 F15000 X4.0000 Y957.1300 Z0.0000
M3S245
G4 P0.5; Tool Off

G0 Z0; move to z-safe height
G0 X4.0000 Y965.1300
M3S0
G4 P0.5; Tool On
G1 F300 Z0.0000
G1 F15000 X1196.0000 Y965.1300 Z0.0000
M3S245
G4 P0.5; Tool Off

G0 Z0; move to z-safe height
G0 X1196.0000 Y973.1300
M3S0
G4 P0.5; Tool On
G1 F300 Z0.0000
G1 F15000 X4.0000 Y973.1300 Z0.0000
M3S245
G4 P0.5; Tool Off

G0 Z0; move to z-safe height
G0 X4.0000 Y981.1300
M3S0
G4 P0.5; Tool On
G1 F300 Z0.0000
G1 F15000 X1196.0000 Y981.1300 Z0.0000
M3S245
G4 P0.5; Tool Off

G0 Z0; move to z-safe height
G0 X1196.0000 Y989.1300
M3S0
G4 P0.5; Tool On
G1 F300 Z0.0000
G1 F15000 X4.0000 Y989.1300 Z0.0000
M3S245
G4 P0.5; Tool Off

G0 Z0; move to z-safe height
G0 X4.0000 Y997.1300
M3S0
G4 P0.5; Tool On
G1 F300 Z0.0000
G1 F15000 X1196.0000 Y997.1300 Z0.0000
M3S245
G4 P0.5; Tool Off

G0 Z0; move to z-safe height
G0 X1196.0000 Y1005.1300
M3S0
G4 P0.5; Tool On
G1 F300 Z0.0000
G1 F15000 X4.0000 Y1005.1300 Z0.0000
M3S245
G4 P0.5; Tool Off

G0 Z0; move to z-safe height
G0 X4.0000 Y1013.1300
M3S0
G4 P0.5; Tool On
G1 F300 Z0.0000
G1 F15000 X1196.0000 Y1013.1300 Z0.0000
M3S245
G4 P0.5; Tool Off

G0 Z0; move to z-safe height
G0 X1196.0000 Y1021.1300
M3S0
G4 P0.5; Tool On
G1 F300 Z0.0000
G1 F15000 X4.0000 Y1021.1300 Z0.0000
M3S245
G4 P0.5; Tool Off

G0 Z0; move to z-safe height
G0 X4.0000 Y1029.1300
M3S0
G4 P0.5; Tool On
G1 F300 Z0.0000
G1 F15000 X1196.0000 Y1029.1300 Z0.0000
M3S245
G4 P0.5; Tool Off

G0 Z0; move to z-safe height
G0 X1196.0000 Y1037.1300
M3S0
G4 P0.5; Tool On
G1 F300 Z0.0000
G1 F15000 X4.0000 Y1037.1300 Z0.0000
M3S245
G4 P0.5; Tool Off

G0 Z0; move to z-safe height
G0 X4.0000 Y1045.1300
M3S0
G4 P0.5; Tool On
G1 F300 Z0.0000
G1 F15000 X1196.0000 Y1045.1300 Z0.0000
M3S245
G4 P0.5; Tool Off

G0 Z0; move to z-safe height
G0 X1196.0000 Y1053.1300
M3S0
G4 P0.5; Tool On
G1 F300 Z0.0000
G1 F15000 X4.0000 Y1053.1300 Z0.0000
M3S245
G4 P0.5; Tool Off

G0 Z0; move to z-safe height
G0 X4.0000 Y1061.1300
M3S0
G4 P0.5; Tool On
G1 F300 Z0.0000
G1 F15000 X1196.0000 Y1061.1300 Z0.0000
M3S245
G4 P0.5; Tool Off

G0 Z0; move to z-safe height
G0 X1196.0000 Y1069.1300
M3S0
G4 P0.5; Tool On
G1 F300 Z0.0000
G1 F15000 X4.0000 Y1069.1300 Z0.0000
M3S245
G4 P0.5; Tool Off

G0 Z0; move to z-safe height
G0 X4.0000 Y1077.1300
M3S0
G4 P0.5; Tool On
G1 F300 Z0.0000
G1 F15000 X1196.0000 Y1077.1300 Z0.0000
M3S245
G4 P0.5; Tool Off

G0 Z0; move to z-safe height
G0 X1196.0000 Y1085.1300
M3S0
G4 P0.5; Tool On
G1 F300 Z0.0000
G1 F15000 X4.0000 Y1085.1300 Z0.0000
M3S245
G4 P0.5; Tool Off

G0 Z0; move to z-safe height
G0 X4.0000 Y1093.1300
M3S0
G4 P0.5; Tool On
G1 F300 Z0.0000
G1 F15000 X1196.0000 Y1093.1300 Z0.0000
M3S245
G4 P0.5; Tool Off

G0 Z0; move to z-safe height
G0 X1196.0000 Y1101.1300
M3S0
G4 P0.5; Tool On
G1 F300 Z0.0000
G1 F15000 X4.0000 Y1101.1300 Z0.0000
M3S245
G4 P0.5; Tool Off

G0 Z0; move to z-safe height
G0 X4.0000 Y1109.1300
M3S0
G4 P0.5; Tool On
G1 F300 Z0.0000
G1 F15000 X1196.0000 Y1109.1300 Z0.0000
M3S245
G4 P0.5; Tool Off

G0 Z0; move to z-safe height
G0 X1196.0000 Y1117.1300
M3S0
G4 P0.5; Tool On
G1 F300 Z0.0000
G1 F15000 X4.0000 Y1117.1300 Z0.0000
M3S245
G4 P0.5; Tool Off

G0 Z0; move to z-safe height
G0 X4.0000 Y1125.1300
M3S0
G4 P0.5; Tool On
G1 F300 Z0.0000
G1 F15000 X1196.0000 Y1125.1300 Z0.0000
M3S245
G4 P0.5; Tool Off

G0 Z0; move to z-safe height
G0 X1196.0000 Y1133.1300
M3S0
G4 P0.5; Tool On
G1 F300 Z0.0000
G1 F15000 X4.0000 Y1133.1300 Z0.0000
M3S245
G4 P0.5; Tool Off

G0 Z0; move to z-safe height
G0 X4.0000 Y1141.1300
M3S0
G4 P0.5; Tool On
G1 F300 Z0.0000
G1 F15000 X1196.0000 Y1141.1300 Z0.0000
M3S245
G4 P0.5; Tool Off

G0 Z0; move to z-safe height
G0 X1196.0000 Y1149.1300
M3S0
G4 P0.5; Tool On
G1 F300 Z0.0000
G1 F15000 X4.0000 Y1149.1300 Z0.0000
M3S245
G4 P0.5; Tool Off

G0 Z0; move to z-safe height
G0 X4.0000 Y1157.1300
M3S0
G4 P0.5; Tool On
G1 F300 Z0.0000
G1 F15000 X1196.0000 Y1157.1300 Z0.0000
M3S245
G4 P0.5; Tool Off

G0 Z0; move to z-safe height
G0 X1196.0000 Y1165.1300
M3S0
G4 P0.5; Tool On
G1 F300 Z0.0000
G1 F15000 X4.0000 Y1165.1300 Z0.0000
M3S245
G4 P0.5; Tool Off

G0 Z0; move to z-safe height
G0 X4.0000 Y1173.1300
M3S0
G4 P0.5; Tool On
G1 F300 Z0.0000
G1 F15000 X1196.0000 Y1173.1300 Z0.0000
M3S245
G4 P0.5; Tool Off

G0 Z0; move to z-safe height
G0 X1196.0000 Y1181.1300
M3S0
G4 P0.5; Tool On
G1 F300 Z0.0000
G1 F15000 X4.0000 Y1181.1300 Z0.0000
M3S245
G4 P0.5; Tool Off

G0 Z0; move to z-safe height
G0 X4.0000 Y1189.1300
M3S0
G4 P0.5; Tool On
G1 F300 Z0.0000
G1 F15000 X1196.0000 Y1189.1300 Z0.0000
M3S245
G4 P0.5; Tool Off
; retracting back to z-safe
G0 Z0

; Plotter Mode Complete
