; GCODE Generated by cam.openbuilds.com on 2023-04-24 
G21 ; mm-mode
G54; Work Coordinates
G21; mm-mode
G90; Absolute Positioning
; Plotter Mode Active

; Operation 0: Pen Plotter: (lines fill)
; Pen Diameter: 2

G0 Z0; move to z-safe height
G0 F1000 X1198.0000 Y2.3000
M3S0
G4 P0.5; Tool On
G1 F300 Z0.0000
G1 F15000 X2.0000 Y2.3000 Z0.0000
M3S245
G4 P0.5; Tool Off

G0 Z0; move to z-safe height
G0 X2.0000 Y6.3000
M3S0
G4 P0.5; Tool On
G1 F300 Z0.0000
G1 F15000 X1198.0000 Y6.3000 Z0.0000
M3S245
G4 P0.5; Tool Off

G0 Z0; move to z-safe height
G0 X1198.0000 Y10.3000
M3S0
G4 P0.5; Tool On
G1 F300 Z0.0000
G1 F15000 X2.0000 Y10.3000 Z0.0000
M3S245
G4 P0.5; Tool Off

G0 Z0; move to z-safe height
G0 X2.0000 Y14.3000
M3S0
G4 P0.5; Tool On
G1 F300 Z0.0000
G1 F15000 X1198.0000 Y14.3000 Z0.0000
M3S245
G4 P0.5; Tool Off

G0 Z0; move to z-safe height
G0 X1198.0000 Y18.3000
M3S0
G4 P0.5; Tool On
G1 F300 Z0.0000
G1 F15000 X2.0000 Y18.3000 Z0.0000
M3S245
G4 P0.5; Tool Off

G0 Z0; move to z-safe height
G0 X2.0000 Y22.3000
M3S0
G4 P0.5; Tool On
G1 F300 Z0.0000
G1 F15000 X1198.0000 Y22.3000 Z0.0000
M3S245
G4 P0.5; Tool Off

G0 Z0; move to z-safe height
G0 X1198.0000 Y26.3000
M3S0
G4 P0.5; Tool On
G1 F300 Z0.0000
G1 F15000 X2.0000 Y26.3000 Z0.0000
M3S245
G4 P0.5; Tool Off

G0 Z0; move to z-safe height
G0 X2.0000 Y30.3000
M3S0
G4 P0.5; Tool On
G1 F300 Z0.0000
G1 F15000 X1198.0000 Y30.3000 Z0.0000
M3S245
G4 P0.5; Tool Off

G0 Z0; move to z-safe height
G0 X1198.0000 Y34.3000
M3S0
G4 P0.5; Tool On
G1 F300 Z0.0000
G1 F15000 X2.0000 Y34.3000 Z0.0000
M3S245
G4 P0.5; Tool Off

G0 Z0; move to z-safe height
G0 X2.0000 Y38.3000
M3S0
G4 P0.5; Tool On
G1 F300 Z0.0000
G1 F15000 X1198.0000 Y38.3000 Z0.0000
M3S245
G4 P0.5; Tool Off

G0 Z0; move to z-safe height
G0 X1198.0000 Y42.3000
M3S0
G4 P0.5; Tool On
G1 F300 Z0.0000
G1 F15000 X2.0000 Y42.3000 Z0.0000
M3S245
G4 P0.5; Tool Off

G0 Z0; move to z-safe height
G0 X2.0000 Y46.3000
M3S0
G4 P0.5; Tool On
G1 F300 Z0.0000
G1 F15000 X1198.0000 Y46.3000 Z0.0000
M3S245
G4 P0.5; Tool Off

G0 Z0; move to z-safe height
G0 X1198.0000 Y50.3000
M3S0
G4 P0.5; Tool On
G1 F300 Z0.0000
G1 F15000 X2.0000 Y50.3000 Z0.0000
M3S245
G4 P0.5; Tool Off

G0 Z0; move to z-safe height
G0 X2.0000 Y54.3000
M3S0
G4 P0.5; Tool On
G1 F300 Z0.0000
G1 F15000 X1198.0000 Y54.3000 Z0.0000
M3S245
G4 P0.5; Tool Off

G0 Z0; move to z-safe height
G0 X1198.0000 Y58.3000
M3S0
G4 P0.5; Tool On
G1 F300 Z0.0000
G1 F15000 X2.0000 Y58.3000 Z0.0000
M3S245
G4 P0.5; Tool Off

G0 Z0; move to z-safe height
G0 X2.0000 Y62.3000
M3S0
G4 P0.5; Tool On
G1 F300 Z0.0000
G1 F15000 X1198.0000 Y62.3000 Z0.0000
M3S245
G4 P0.5; Tool Off

G0 Z0; move to z-safe height
G0 X1198.0000 Y66.3000
M3S0
G4 P0.5; Tool On
G1 F300 Z0.0000
G1 F15000 X2.0000 Y66.3000 Z0.0000
M3S245
G4 P0.5; Tool Off

G0 Z0; move to z-safe height
G0 X2.0000 Y70.3000
M3S0
G4 P0.5; Tool On
G1 F300 Z0.0000
G1 F15000 X1198.0000 Y70.3000 Z0.0000
M3S245
G4 P0.5; Tool Off

G0 Z0; move to z-safe height
G0 X1198.0000 Y74.3000
M3S0
G4 P0.5; Tool On
G1 F300 Z0.0000
G1 F15000 X2.0000 Y74.3000 Z0.0000
M3S245
G4 P0.5; Tool Off

G0 Z0; move to z-safe height
G0 X2.0000 Y78.3000
M3S0
G4 P0.5; Tool On
G1 F300 Z0.0000
G1 F15000 X1198.0000 Y78.3000 Z0.0000
M3S245
G4 P0.5; Tool Off

G0 Z0; move to z-safe height
G0 X1198.0000 Y82.3000
M3S0
G4 P0.5; Tool On
G1 F300 Z0.0000
G1 F15000 X2.0000 Y82.3000 Z0.0000
M3S245
G4 P0.5; Tool Off

G0 Z0; move to z-safe height
G0 X2.0000 Y86.3000
M3S0
G4 P0.5; Tool On
G1 F300 Z0.0000
G1 F15000 X1198.0000 Y86.3000 Z0.0000
M3S245
G4 P0.5; Tool Off

G0 Z0; move to z-safe height
G0 X1198.0000 Y90.3000
M3S0
G4 P0.5; Tool On
G1 F300 Z0.0000
G1 F15000 X2.0000 Y90.3000 Z0.0000
M3S245
G4 P0.5; Tool Off

G0 Z0; move to z-safe height
G0 X2.0000 Y94.3000
M3S0
G4 P0.5; Tool On
G1 F300 Z0.0000
G1 F15000 X1198.0000 Y94.3000 Z0.0000
M3S245
G4 P0.5; Tool Off

G0 Z0; move to z-safe height
G0 X1198.0000 Y98.3000
M3S0
G4 P0.5; Tool On
G1 F300 Z0.0000
G1 F15000 X2.0000 Y98.3000 Z0.0000
M3S245
G4 P0.5; Tool Off

G0 Z0; move to z-safe height
G0 X2.0000 Y102.3000
M3S0
G4 P0.5; Tool On
G1 F300 Z0.0000
G1 F15000 X1198.0000 Y102.3000 Z0.0000
M3S245
G4 P0.5; Tool Off

G0 Z0; move to z-safe height
G0 X1198.0000 Y106.3000
M3S0
G4 P0.5; Tool On
G1 F300 Z0.0000
G1 F15000 X2.0000 Y106.3000 Z0.0000
M3S245
G4 P0.5; Tool Off

G0 Z0; move to z-safe height
G0 X2.0000 Y110.3000
M3S0
G4 P0.5; Tool On
G1 F300 Z0.0000
G1 F15000 X1198.0000 Y110.3000 Z0.0000
M3S245
G4 P0.5; Tool Off

G0 Z0; move to z-safe height
G0 X1198.0000 Y114.3000
M3S0
G4 P0.5; Tool On
G1 F300 Z0.0000
G1 F15000 X2.0000 Y114.3000 Z0.0000
M3S245
G4 P0.5; Tool Off

G0 Z0; move to z-safe height
G0 X2.0000 Y118.3000
M3S0
G4 P0.5; Tool On
G1 F300 Z0.0000
G1 F15000 X1198.0000 Y118.3000 Z0.0000
M3S245
G4 P0.5; Tool Off

G0 Z0; move to z-safe height
G0 X1198.0000 Y122.3000
M3S0
G4 P0.5; Tool On
G1 F300 Z0.0000
G1 F15000 X2.0000 Y122.3000 Z0.0000
M3S245
G4 P0.5; Tool Off

G0 Z0; move to z-safe height
G0 X2.0000 Y126.3000
M3S0
G4 P0.5; Tool On
G1 F300 Z0.0000
G1 F15000 X1198.0000 Y126.3000 Z0.0000
M3S245
G4 P0.5; Tool Off

G0 Z0; move to z-safe height
G0 X1198.0000 Y130.3000
M3S0
G4 P0.5; Tool On
G1 F300 Z0.0000
G1 F15000 X2.0000 Y130.3000 Z0.0000
M3S245
G4 P0.5; Tool Off

G0 Z0; move to z-safe height
G0 X2.0000 Y134.3000
M3S0
G4 P0.5; Tool On
G1 F300 Z0.0000
G1 F15000 X1198.0000 Y134.3000 Z0.0000
M3S245
G4 P0.5; Tool Off

G0 Z0; move to z-safe height
G0 X1198.0000 Y138.3000
M3S0
G4 P0.5; Tool On
G1 F300 Z0.0000
G1 F15000 X2.0000 Y138.3000 Z0.0000
M3S245
G4 P0.5; Tool Off

G0 Z0; move to z-safe height
G0 X2.0000 Y142.3000
M3S0
G4 P0.5; Tool On
G1 F300 Z0.0000
G1 F15000 X1198.0000 Y142.3000 Z0.0000
M3S245
G4 P0.5; Tool Off

G0 Z0; move to z-safe height
G0 X1198.0000 Y146.3000
M3S0
G4 P0.5; Tool On
G1 F300 Z0.0000
G1 F15000 X2.0000 Y146.3000 Z0.0000
M3S245
G4 P0.5; Tool Off

G0 Z0; move to z-safe height
G0 X2.0000 Y150.3000
M3S0
G4 P0.5; Tool On
G1 F300 Z0.0000
G1 F15000 X1198.0000 Y150.3000 Z0.0000
M3S245
G4 P0.5; Tool Off

G0 Z0; move to z-safe height
G0 X1198.0000 Y154.3000
M3S0
G4 P0.5; Tool On
G1 F300 Z0.0000
G1 F15000 X2.0000 Y154.3000 Z0.0000
M3S245
G4 P0.5; Tool Off

G0 Z0; move to z-safe height
G0 X2.0000 Y158.3000
M3S0
G4 P0.5; Tool On
G1 F300 Z0.0000
G1 F15000 X1198.0000 Y158.3000 Z0.0000
M3S245
G4 P0.5; Tool Off

G0 Z0; move to z-safe height
G0 X1198.0000 Y162.3000
M3S0
G4 P0.5; Tool On
G1 F300 Z0.0000
G1 F15000 X2.0000 Y162.3000 Z0.0000
M3S245
G4 P0.5; Tool Off

G0 Z0; move to z-safe height
G0 X2.0000 Y166.3000
M3S0
G4 P0.5; Tool On
G1 F300 Z0.0000
G1 F15000 X1198.0000 Y166.3000 Z0.0000
M3S245
G4 P0.5; Tool Off

G0 Z0; move to z-safe height
G0 X1198.0000 Y170.3000
M3S0
G4 P0.5; Tool On
G1 F300 Z0.0000
G1 F15000 X2.0000 Y170.3000 Z0.0000
M3S245
G4 P0.5; Tool Off

G0 Z0; move to z-safe height
G0 X2.0000 Y174.3000
M3S0
G4 P0.5; Tool On
G1 F300 Z0.0000
G1 F15000 X1198.0000 Y174.3000 Z0.0000
M3S245
G4 P0.5; Tool Off

G0 Z0; move to z-safe height
G0 X1198.0000 Y178.3000
M3S0
G4 P0.5; Tool On
G1 F300 Z0.0000
G1 F15000 X2.0000 Y178.3000 Z0.0000
M3S245
G4 P0.5; Tool Off

G0 Z0; move to z-safe height
G0 X2.0000 Y182.3000
M3S0
G4 P0.5; Tool On
G1 F300 Z0.0000
G1 F15000 X1198.0000 Y182.3000 Z0.0000
M3S245
G4 P0.5; Tool Off

G0 Z0; move to z-safe height
G0 X1198.0000 Y186.3000
M3S0
G4 P0.5; Tool On
G1 F300 Z0.0000
G1 F15000 X2.0000 Y186.3000 Z0.0000
M3S245
G4 P0.5; Tool Off

G0 Z0; move to z-safe height
G0 X2.0000 Y190.3000
M3S0
G4 P0.5; Tool On
G1 F300 Z0.0000
G1 F15000 X1198.0000 Y190.3000 Z0.0000
M3S245
G4 P0.5; Tool Off

G0 Z0; move to z-safe height
G0 X1198.0000 Y194.3000
M3S0
G4 P0.5; Tool On
G1 F300 Z0.0000
G1 F15000 X2.0000 Y194.3000 Z0.0000
M3S245
G4 P0.5; Tool Off

G0 Z0; move to z-safe height
G0 X2.0000 Y198.3000
M3S0
G4 P0.5; Tool On
G1 F300 Z0.0000
G1 F15000 X1198.0000 Y198.3000 Z0.0000
M3S245
G4 P0.5; Tool Off

G0 Z0; move to z-safe height
G0 X1198.0000 Y202.3000
M3S0
G4 P0.5; Tool On
G1 F300 Z0.0000
G1 F15000 X2.0000 Y202.3000 Z0.0000
M3S245
G4 P0.5; Tool Off

G0 Z0; move to z-safe height
G0 X2.0000 Y206.3000
M3S0
G4 P0.5; Tool On
G1 F300 Z0.0000
G1 F15000 X1198.0000 Y206.3000 Z0.0000
M3S245
G4 P0.5; Tool Off

G0 Z0; move to z-safe height
G0 X1198.0000 Y210.3000
M3S0
G4 P0.5; Tool On
G1 F300 Z0.0000
G1 F15000 X2.0000 Y210.3000 Z0.0000
M3S245
G4 P0.5; Tool Off

G0 Z0; move to z-safe height
G0 X2.0000 Y214.3000
M3S0
G4 P0.5; Tool On
G1 F300 Z0.0000
G1 F15000 X1198.0000 Y214.3000 Z0.0000
M3S245
G4 P0.5; Tool Off

G0 Z0; move to z-safe height
G0 X1198.0000 Y218.3000
M3S0
G4 P0.5; Tool On
G1 F300 Z0.0000
G1 F15000 X2.0000 Y218.3000 Z0.0000
M3S245
G4 P0.5; Tool Off

G0 Z0; move to z-safe height
G0 X2.0000 Y222.3000
M3S0
G4 P0.5; Tool On
G1 F300 Z0.0000
G1 F15000 X1198.0000 Y222.3000 Z0.0000
M3S245
G4 P0.5; Tool Off

G0 Z0; move to z-safe height
G0 X1198.0000 Y226.3000
M3S0
G4 P0.5; Tool On
G1 F300 Z0.0000
G1 F15000 X2.0000 Y226.3000 Z0.0000
M3S245
G4 P0.5; Tool Off

G0 Z0; move to z-safe height
G0 X2.0000 Y230.3000
M3S0
G4 P0.5; Tool On
G1 F300 Z0.0000
G1 F15000 X1198.0000 Y230.3000 Z0.0000
M3S245
G4 P0.5; Tool Off

G0 Z0; move to z-safe height
G0 X1198.0000 Y234.3000
M3S0
G4 P0.5; Tool On
G1 F300 Z0.0000
G1 F15000 X2.0000 Y234.3000 Z0.0000
M3S245
G4 P0.5; Tool Off

G0 Z0; move to z-safe height
G0 X2.0000 Y238.3000
M3S0
G4 P0.5; Tool On
G1 F300 Z0.0000
G1 F15000 X1198.0000 Y238.3000 Z0.0000
M3S245
G4 P0.5; Tool Off

G0 Z0; move to z-safe height
G0 X1198.0000 Y242.3000
M3S0
G4 P0.5; Tool On
G1 F300 Z0.0000
G1 F15000 X2.0000 Y242.3000 Z0.0000
M3S245
G4 P0.5; Tool Off

G0 Z0; move to z-safe height
G0 X2.0000 Y246.3000
M3S0
G4 P0.5; Tool On
G1 F300 Z0.0000
G1 F15000 X1198.0000 Y246.3000 Z0.0000
M3S245
G4 P0.5; Tool Off

G0 Z0; move to z-safe height
G0 X1198.0000 Y250.3000
M3S0
G4 P0.5; Tool On
G1 F300 Z0.0000
G1 F15000 X2.0000 Y250.3000 Z0.0000
M3S245
G4 P0.5; Tool Off

G0 Z0; move to z-safe height
G0 X2.0000 Y254.3000
M3S0
G4 P0.5; Tool On
G1 F300 Z0.0000
G1 F15000 X1198.0000 Y254.3000 Z0.0000
M3S245
G4 P0.5; Tool Off

G0 Z0; move to z-safe height
G0 X1198.0000 Y258.3000
M3S0
G4 P0.5; Tool On
G1 F300 Z0.0000
G1 F15000 X2.0000 Y258.3000 Z0.0000
M3S245
G4 P0.5; Tool Off

G0 Z0; move to z-safe height
G0 X2.0000 Y262.3000
M3S0
G4 P0.5; Tool On
G1 F300 Z0.0000
G1 F15000 X1198.0000 Y262.3000 Z0.0000
M3S245
G4 P0.5; Tool Off

G0 Z0; move to z-safe height
G0 X1198.0000 Y266.3000
M3S0
G4 P0.5; Tool On
G1 F300 Z0.0000
G1 F15000 X2.0000 Y266.3000 Z0.0000
M3S245
G4 P0.5; Tool Off

G0 Z0; move to z-safe height
G0 X2.0000 Y270.3000
M3S0
G4 P0.5; Tool On
G1 F300 Z0.0000
G1 F15000 X1198.0000 Y270.3000 Z0.0000
M3S245
G4 P0.5; Tool Off

G0 Z0; move to z-safe height
G0 X1198.0000 Y274.3000
M3S0
G4 P0.5; Tool On
G1 F300 Z0.0000
G1 F15000 X2.0000 Y274.3000 Z0.0000
M3S245
G4 P0.5; Tool Off

G0 Z0; move to z-safe height
G0 X2.0000 Y278.3000
M3S0
G4 P0.5; Tool On
G1 F300 Z0.0000
G1 F15000 X1198.0000 Y278.3000 Z0.0000
M3S245
G4 P0.5; Tool Off

G0 Z0; move to z-safe height
G0 X1198.0000 Y282.3000
M3S0
G4 P0.5; Tool On
G1 F300 Z0.0000
G1 F15000 X2.0000 Y282.3000 Z0.0000
M3S245
G4 P0.5; Tool Off

G0 Z0; move to z-safe height
G0 X2.0000 Y286.3000
M3S0
G4 P0.5; Tool On
G1 F300 Z0.0000
G1 F15000 X1198.0000 Y286.3000 Z0.0000
M3S245
G4 P0.5; Tool Off

G0 Z0; move to z-safe height
G0 X1198.0000 Y290.3000
M3S0
G4 P0.5; Tool On
G1 F300 Z0.0000
G1 F15000 X2.0000 Y290.3000 Z0.0000
M3S245
G4 P0.5; Tool Off

G0 Z0; move to z-safe height
G0 X2.0000 Y294.3000
M3S0
G4 P0.5; Tool On
G1 F300 Z0.0000
G1 F15000 X1198.0000 Y294.3000 Z0.0000
M3S245
G4 P0.5; Tool Off

G0 Z0; move to z-safe height
G0 X1198.0000 Y298.3000
M3S0
G4 P0.5; Tool On
G1 F300 Z0.0000
G1 F15000 X2.0000 Y298.3000 Z0.0000
M3S245
G4 P0.5; Tool Off

G0 Z0; move to z-safe height
G0 X2.0000 Y302.3000
M3S0
G4 P0.5; Tool On
G1 F300 Z0.0000
G1 F15000 X1198.0000 Y302.3000 Z0.0000
M3S245
G4 P0.5; Tool Off

G0 Z0; move to z-safe height
G0 X1198.0000 Y306.3000
M3S0
G4 P0.5; Tool On
G1 F300 Z0.0000
G1 F15000 X2.0000 Y306.3000 Z0.0000
M3S245
G4 P0.5; Tool Off

G0 Z0; move to z-safe height
G0 X2.0000 Y310.3000
M3S0
G4 P0.5; Tool On
G1 F300 Z0.0000
G1 F15000 X1198.0000 Y310.3000 Z0.0000
M3S245
G4 P0.5; Tool Off

G0 Z0; move to z-safe height
G0 X1198.0000 Y314.3000
M3S0
G4 P0.5; Tool On
G1 F300 Z0.0000
G1 F15000 X2.0000 Y314.3000 Z0.0000
M3S245
G4 P0.5; Tool Off

G0 Z0; move to z-safe height
G0 X2.0000 Y318.3000
M3S0
G4 P0.5; Tool On
G1 F300 Z0.0000
G1 F15000 X1198.0000 Y318.3000 Z0.0000
M3S245
G4 P0.5; Tool Off

G0 Z0; move to z-safe height
G0 X1198.0000 Y322.3000
M3S0
G4 P0.5; Tool On
G1 F300 Z0.0000
G1 F15000 X2.0000 Y322.3000 Z0.0000
M3S245
G4 P0.5; Tool Off

G0 Z0; move to z-safe height
G0 X2.0000 Y326.3000
M3S0
G4 P0.5; Tool On
G1 F300 Z0.0000
G1 F15000 X1198.0000 Y326.3000 Z0.0000
M3S245
G4 P0.5; Tool Off

G0 Z0; move to z-safe height
G0 X1198.0000 Y330.3000
M3S0
G4 P0.5; Tool On
G1 F300 Z0.0000
G1 F15000 X2.0000 Y330.3000 Z0.0000
M3S245
G4 P0.5; Tool Off

G0 Z0; move to z-safe height
G0 X2.0000 Y334.3000
M3S0
G4 P0.5; Tool On
G1 F300 Z0.0000
G1 F15000 X1198.0000 Y334.3000 Z0.0000
M3S245
G4 P0.5; Tool Off

G0 Z0; move to z-safe height
G0 X1198.0000 Y338.3000
M3S0
G4 P0.5; Tool On
G1 F300 Z0.0000
G1 F15000 X2.0000 Y338.3000 Z0.0000
M3S245
G4 P0.5; Tool Off

G0 Z0; move to z-safe height
G0 X2.0000 Y342.3000
M3S0
G4 P0.5; Tool On
G1 F300 Z0.0000
G1 F15000 X1198.0000 Y342.3000 Z0.0000
M3S245
G4 P0.5; Tool Off

G0 Z0; move to z-safe height
G0 X1198.0000 Y346.3000
M3S0
G4 P0.5; Tool On
G1 F300 Z0.0000
G1 F15000 X2.0000 Y346.3000 Z0.0000
M3S245
G4 P0.5; Tool Off

G0 Z0; move to z-safe height
G0 X2.0000 Y350.3000
M3S0
G4 P0.5; Tool On
G1 F300 Z0.0000
G1 F15000 X1198.0000 Y350.3000 Z0.0000
M3S245
G4 P0.5; Tool Off

G0 Z0; move to z-safe height
G0 X1198.0000 Y354.3000
M3S0
G4 P0.5; Tool On
G1 F300 Z0.0000
G1 F15000 X2.0000 Y354.3000 Z0.0000
M3S245
G4 P0.5; Tool Off

G0 Z0; move to z-safe height
G0 X2.0000 Y358.3000
M3S0
G4 P0.5; Tool On
G1 F300 Z0.0000
G1 F15000 X1198.0000 Y358.3000 Z0.0000
M3S245
G4 P0.5; Tool Off

G0 Z0; move to z-safe height
G0 X1198.0000 Y362.3000
M3S0
G4 P0.5; Tool On
G1 F300 Z0.0000
G1 F15000 X2.0000 Y362.3000 Z0.0000
M3S245
G4 P0.5; Tool Off

G0 Z0; move to z-safe height
G0 X2.0000 Y366.3000
M3S0
G4 P0.5; Tool On
G1 F300 Z0.0000
G1 F15000 X1198.0000 Y366.3000 Z0.0000
M3S245
G4 P0.5; Tool Off

G0 Z0; move to z-safe height
G0 X1198.0000 Y370.3000
M3S0
G4 P0.5; Tool On
G1 F300 Z0.0000
G1 F15000 X2.0000 Y370.3000 Z0.0000
M3S245
G4 P0.5; Tool Off

G0 Z0; move to z-safe height
G0 X2.0000 Y374.3000
M3S0
G4 P0.5; Tool On
G1 F300 Z0.0000
G1 F15000 X1198.0000 Y374.3000 Z0.0000
M3S245
G4 P0.5; Tool Off

G0 Z0; move to z-safe height
G0 X1198.0000 Y378.3000
M3S0
G4 P0.5; Tool On
G1 F300 Z0.0000
G1 F15000 X2.0000 Y378.3000 Z0.0000
M3S245
G4 P0.5; Tool Off

G0 Z0; move to z-safe height
G0 X2.0000 Y382.3000
M3S0
G4 P0.5; Tool On
G1 F300 Z0.0000
G1 F15000 X1198.0000 Y382.3000 Z0.0000
M3S245
G4 P0.5; Tool Off

G0 Z0; move to z-safe height
G0 X1198.0000 Y386.3000
M3S0
G4 P0.5; Tool On
G1 F300 Z0.0000
G1 F15000 X2.0000 Y386.3000 Z0.0000
M3S245
G4 P0.5; Tool Off

G0 Z0; move to z-safe height
G0 X2.0000 Y390.3000
M3S0
G4 P0.5; Tool On
G1 F300 Z0.0000
G1 F15000 X1198.0000 Y390.3000 Z0.0000
M3S245
G4 P0.5; Tool Off

G0 Z0; move to z-safe height
G0 X1198.0000 Y394.3000
M3S0
G4 P0.5; Tool On
G1 F300 Z0.0000
G1 F15000 X2.0000 Y394.3000 Z0.0000
M3S245
G4 P0.5; Tool Off

G0 Z0; move to z-safe height
G0 X2.0000 Y398.3000
M3S0
G4 P0.5; Tool On
G1 F300 Z0.0000
G1 F15000 X1198.0000 Y398.3000 Z0.0000
M3S245
G4 P0.5; Tool Off

G0 Z0; move to z-safe height
G0 X1198.0000 Y402.3000
M3S0
G4 P0.5; Tool On
G1 F300 Z0.0000
G1 F15000 X2.0000 Y402.3000 Z0.0000
M3S245
G4 P0.5; Tool Off

G0 Z0; move to z-safe height
G0 X2.0000 Y406.3000
M3S0
G4 P0.5; Tool On
G1 F300 Z0.0000
G1 F15000 X1198.0000 Y406.3000 Z0.0000
M3S245
G4 P0.5; Tool Off

G0 Z0; move to z-safe height
G0 X1198.0000 Y410.3000
M3S0
G4 P0.5; Tool On
G1 F300 Z0.0000
G1 F15000 X2.0000 Y410.3000 Z0.0000
M3S245
G4 P0.5; Tool Off

G0 Z0; move to z-safe height
G0 X2.0000 Y414.3000
M3S0
G4 P0.5; Tool On
G1 F300 Z0.0000
G1 F15000 X1198.0000 Y414.3000 Z0.0000
M3S245
G4 P0.5; Tool Off

G0 Z0; move to z-safe height
G0 X1198.0000 Y418.3000
M3S0
G4 P0.5; Tool On
G1 F300 Z0.0000
G1 F15000 X2.0000 Y418.3000 Z0.0000
M3S245
G4 P0.5; Tool Off

G0 Z0; move to z-safe height
G0 X2.0000 Y422.3000
M3S0
G4 P0.5; Tool On
G1 F300 Z0.0000
G1 F15000 X1198.0000 Y422.3000 Z0.0000
M3S245
G4 P0.5; Tool Off

G0 Z0; move to z-safe height
G0 X1198.0000 Y426.3000
M3S0
G4 P0.5; Tool On
G1 F300 Z0.0000
G1 F15000 X2.0000 Y426.3000 Z0.0000
M3S245
G4 P0.5; Tool Off

G0 Z0; move to z-safe height
G0 X2.0000 Y430.3000
M3S0
G4 P0.5; Tool On
G1 F300 Z0.0000
G1 F15000 X1198.0000 Y430.3000 Z0.0000
M3S245
G4 P0.5; Tool Off

G0 Z0; move to z-safe height
G0 X1198.0000 Y434.3000
M3S0
G4 P0.5; Tool On
G1 F300 Z0.0000
G1 F15000 X2.0000 Y434.3000 Z0.0000
M3S245
G4 P0.5; Tool Off

G0 Z0; move to z-safe height
G0 X2.0000 Y438.3000
M3S0
G4 P0.5; Tool On
G1 F300 Z0.0000
G1 F15000 X1198.0000 Y438.3000 Z0.0000
M3S245
G4 P0.5; Tool Off

G0 Z0; move to z-safe height
G0 X1198.0000 Y442.3000
M3S0
G4 P0.5; Tool On
G1 F300 Z0.0000
G1 F15000 X2.0000 Y442.3000 Z0.0000
M3S245
G4 P0.5; Tool Off

G0 Z0; move to z-safe height
G0 X2.0000 Y446.3000
M3S0
G4 P0.5; Tool On
G1 F300 Z0.0000
G1 F15000 X1198.0000 Y446.3000 Z0.0000
M3S245
G4 P0.5; Tool Off

G0 Z0; move to z-safe height
G0 X1198.0000 Y450.3000
M3S0
G4 P0.5; Tool On
G1 F300 Z0.0000
G1 F15000 X2.0000 Y450.3000 Z0.0000
M3S245
G4 P0.5; Tool Off

G0 Z0; move to z-safe height
G0 X2.0000 Y454.3000
M3S0
G4 P0.5; Tool On
G1 F300 Z0.0000
G1 F15000 X1198.0000 Y454.3000 Z0.0000
M3S245
G4 P0.5; Tool Off

G0 Z0; move to z-safe height
G0 X1198.0000 Y458.3000
M3S0
G4 P0.5; Tool On
G1 F300 Z0.0000
G1 F15000 X2.0000 Y458.3000 Z0.0000
M3S245
G4 P0.5; Tool Off

G0 Z0; move to z-safe height
G0 X2.0000 Y462.3000
M3S0
G4 P0.5; Tool On
G1 F300 Z0.0000
G1 F15000 X1198.0000 Y462.3000 Z0.0000
M3S245
G4 P0.5; Tool Off

G0 Z0; move to z-safe height
G0 X1198.0000 Y466.3000
M3S0
G4 P0.5; Tool On
G1 F300 Z0.0000
G1 F15000 X2.0000 Y466.3000 Z0.0000
M3S245
G4 P0.5; Tool Off

G0 Z0; move to z-safe height
G0 X2.0000 Y470.3000
M3S0
G4 P0.5; Tool On
G1 F300 Z0.0000
G1 F15000 X1198.0000 Y470.3000 Z0.0000
M3S245
G4 P0.5; Tool Off

G0 Z0; move to z-safe height
G0 X1198.0000 Y474.3000
M3S0
G4 P0.5; Tool On
G1 F300 Z0.0000
G1 F15000 X2.0000 Y474.3000 Z0.0000
M3S245
G4 P0.5; Tool Off

G0 Z0; move to z-safe height
G0 X2.0000 Y478.3000
M3S0
G4 P0.5; Tool On
G1 F300 Z0.0000
G1 F15000 X1198.0000 Y478.3000 Z0.0000
M3S245
G4 P0.5; Tool Off

G0 Z0; move to z-safe height
G0 X1198.0000 Y482.3000
M3S0
G4 P0.5; Tool On
G1 F300 Z0.0000
G1 F15000 X2.0000 Y482.3000 Z0.0000
M3S245
G4 P0.5; Tool Off

G0 Z0; move to z-safe height
G0 X2.0000 Y486.3000
M3S0
G4 P0.5; Tool On
G1 F300 Z0.0000
G1 F15000 X1198.0000 Y486.3000 Z0.0000
M3S245
G4 P0.5; Tool Off

G0 Z0; move to z-safe height
G0 X1198.0000 Y490.3000
M3S0
G4 P0.5; Tool On
G1 F300 Z0.0000
G1 F15000 X2.0000 Y490.3000 Z0.0000
M3S245
G4 P0.5; Tool Off

G0 Z0; move to z-safe height
G0 X2.0000 Y494.3000
M3S0
G4 P0.5; Tool On
G1 F300 Z0.0000
G1 F15000 X1198.0000 Y494.3000 Z0.0000
M3S245
G4 P0.5; Tool Off

G0 Z0; move to z-safe height
G0 X1198.0000 Y498.3000
M3S0
G4 P0.5; Tool On
G1 F300 Z0.0000
G1 F15000 X2.0000 Y498.3000 Z0.0000
M3S245
G4 P0.5; Tool Off

G0 Z0; move to z-safe height
G0 X2.0000 Y502.3000
M3S0
G4 P0.5; Tool On
G1 F300 Z0.0000
G1 F15000 X1198.0000 Y502.3000 Z0.0000
M3S245
G4 P0.5; Tool Off

G0 Z0; move to z-safe height
G0 X1198.0000 Y506.3000
M3S0
G4 P0.5; Tool On
G1 F300 Z0.0000
G1 F15000 X2.0000 Y506.3000 Z0.0000
M3S245
G4 P0.5; Tool Off

G0 Z0; move to z-safe height
G0 X2.0000 Y510.3000
M3S0
G4 P0.5; Tool On
G1 F300 Z0.0000
G1 F15000 X1198.0000 Y510.3000 Z0.0000
M3S245
G4 P0.5; Tool Off

G0 Z0; move to z-safe height
G0 X1198.0000 Y514.3000
M3S0
G4 P0.5; Tool On
G1 F300 Z0.0000
G1 F15000 X2.0000 Y514.3000 Z0.0000
M3S245
G4 P0.5; Tool Off

G0 Z0; move to z-safe height
G0 X2.0000 Y518.3000
M3S0
G4 P0.5; Tool On
G1 F300 Z0.0000
G1 F15000 X1198.0000 Y518.3000 Z0.0000
M3S245
G4 P0.5; Tool Off

G0 Z0; move to z-safe height
G0 X1198.0000 Y522.3000
M3S0
G4 P0.5; Tool On
G1 F300 Z0.0000
G1 F15000 X2.0000 Y522.3000 Z0.0000
M3S245
G4 P0.5; Tool Off

G0 Z0; move to z-safe height
G0 X2.0000 Y526.3000
M3S0
G4 P0.5; Tool On
G1 F300 Z0.0000
G1 F15000 X1198.0000 Y526.3000 Z0.0000
M3S245
G4 P0.5; Tool Off

G0 Z0; move to z-safe height
G0 X1198.0000 Y530.3000
M3S0
G4 P0.5; Tool On
G1 F300 Z0.0000
G1 F15000 X2.0000 Y530.3000 Z0.0000
M3S245
G4 P0.5; Tool Off

G0 Z0; move to z-safe height
G0 X2.0000 Y534.3000
M3S0
G4 P0.5; Tool On
G1 F300 Z0.0000
G1 F15000 X1198.0000 Y534.3000 Z0.0000
M3S245
G4 P0.5; Tool Off

G0 Z0; move to z-safe height
G0 X1198.0000 Y538.3000
M3S0
G4 P0.5; Tool On
G1 F300 Z0.0000
G1 F15000 X2.0000 Y538.3000 Z0.0000
M3S245
G4 P0.5; Tool Off

G0 Z0; move to z-safe height
G0 X2.0000 Y542.3000
M3S0
G4 P0.5; Tool On
G1 F300 Z0.0000
G1 F15000 X1198.0000 Y542.3000 Z0.0000
M3S245
G4 P0.5; Tool Off

G0 Z0; move to z-safe height
G0 X1198.0000 Y546.3000
M3S0
G4 P0.5; Tool On
G1 F300 Z0.0000
G1 F15000 X2.0000 Y546.3000 Z0.0000
M3S245
G4 P0.5; Tool Off

G0 Z0; move to z-safe height
G0 X2.0000 Y550.3000
M3S0
G4 P0.5; Tool On
G1 F300 Z0.0000
G1 F15000 X1198.0000 Y550.3000 Z0.0000
M3S245
G4 P0.5; Tool Off

G0 Z0; move to z-safe height
G0 X1198.0000 Y554.3000
M3S0
G4 P0.5; Tool On
G1 F300 Z0.0000
G1 F15000 X2.0000 Y554.3000 Z0.0000
M3S245
G4 P0.5; Tool Off

G0 Z0; move to z-safe height
G0 X2.0000 Y558.3000
M3S0
G4 P0.5; Tool On
G1 F300 Z0.0000
G1 F15000 X1198.0000 Y558.3000 Z0.0000
M3S245
G4 P0.5; Tool Off

G0 Z0; move to z-safe height
G0 X1198.0000 Y562.3000
M3S0
G4 P0.5; Tool On
G1 F300 Z0.0000
G1 F15000 X2.0000 Y562.3000 Z0.0000
M3S245
G4 P0.5; Tool Off

G0 Z0; move to z-safe height
G0 X2.0000 Y566.3000
M3S0
G4 P0.5; Tool On
G1 F300 Z0.0000
G1 F15000 X1198.0000 Y566.3000 Z0.0000
M3S245
G4 P0.5; Tool Off

G0 Z0; move to z-safe height
G0 X1198.0000 Y570.3000
M3S0
G4 P0.5; Tool On
G1 F300 Z0.0000
G1 F15000 X2.0000 Y570.3000 Z0.0000
M3S245
G4 P0.5; Tool Off

G0 Z0; move to z-safe height
G0 X2.0000 Y574.3000
M3S0
G4 P0.5; Tool On
G1 F300 Z0.0000
G1 F15000 X1198.0000 Y574.3000 Z0.0000
M3S245
G4 P0.5; Tool Off

G0 Z0; move to z-safe height
G0 X1198.0000 Y578.3000
M3S0
G4 P0.5; Tool On
G1 F300 Z0.0000
G1 F15000 X2.0000 Y578.3000 Z0.0000
M3S245
G4 P0.5; Tool Off

G0 Z0; move to z-safe height
G0 X2.0000 Y582.3000
M3S0
G4 P0.5; Tool On
G1 F300 Z0.0000
G1 F15000 X1198.0000 Y582.3000 Z0.0000
M3S245
G4 P0.5; Tool Off

G0 Z0; move to z-safe height
G0 X1198.0000 Y586.3000
M3S0
G4 P0.5; Tool On
G1 F300 Z0.0000
G1 F15000 X2.0000 Y586.3000 Z0.0000
M3S245
G4 P0.5; Tool Off

G0 Z0; move to z-safe height
G0 X2.0000 Y590.3000
M3S0
G4 P0.5; Tool On
G1 F300 Z0.0000
G1 F15000 X1198.0000 Y590.3000 Z0.0000
M3S245
G4 P0.5; Tool Off

G0 Z0; move to z-safe height
G0 X1198.0000 Y594.3000
M3S0
G4 P0.5; Tool On
G1 F300 Z0.0000
G1 F15000 X2.0000 Y594.3000 Z0.0000
M3S245
G4 P0.5; Tool Off

G0 Z0; move to z-safe height
G0 X2.0000 Y598.3000
M3S0
G4 P0.5; Tool On
G1 F300 Z0.0000
G1 F15000 X1198.0000 Y598.3000 Z0.0000
M3S245
G4 P0.5; Tool Off

G0 Z0; move to z-safe height
G0 X1198.0000 Y602.3000
M3S0
G4 P0.5; Tool On
G1 F300 Z0.0000
G1 F15000 X2.0000 Y602.3000 Z0.0000
M3S245
G4 P0.5; Tool Off

G0 Z0; move to z-safe height
G0 X2.0000 Y606.3000
M3S0
G4 P0.5; Tool On
G1 F300 Z0.0000
G1 F15000 X1198.0000 Y606.3000 Z0.0000
M3S245
G4 P0.5; Tool Off

G0 Z0; move to z-safe height
G0 X1198.0000 Y610.3000
M3S0
G4 P0.5; Tool On
G1 F300 Z0.0000
G1 F15000 X2.0000 Y610.3000 Z0.0000
M3S245
G4 P0.5; Tool Off

G0 Z0; move to z-safe height
G0 X2.0000 Y614.3000
M3S0
G4 P0.5; Tool On
G1 F300 Z0.0000
G1 F15000 X1198.0000 Y614.3000 Z0.0000
M3S245
G4 P0.5; Tool Off

G0 Z0; move to z-safe height
G0 X1198.0000 Y618.3000
M3S0
G4 P0.5; Tool On
G1 F300 Z0.0000
G1 F15000 X2.0000 Y618.3000 Z0.0000
M3S245
G4 P0.5; Tool Off

G0 Z0; move to z-safe height
G0 X2.0000 Y622.3000
M3S0
G4 P0.5; Tool On
G1 F300 Z0.0000
G1 F15000 X1198.0000 Y622.3000 Z0.0000
M3S245
G4 P0.5; Tool Off

G0 Z0; move to z-safe height
G0 X1198.0000 Y626.3000
M3S0
G4 P0.5; Tool On
G1 F300 Z0.0000
G1 F15000 X2.0000 Y626.3000 Z0.0000
M3S245
G4 P0.5; Tool Off

G0 Z0; move to z-safe height
G0 X2.0000 Y630.3000
M3S0
G4 P0.5; Tool On
G1 F300 Z0.0000
G1 F15000 X1198.0000 Y630.3000 Z0.0000
M3S245
G4 P0.5; Tool Off

G0 Z0; move to z-safe height
G0 X1198.0000 Y634.3000
M3S0
G4 P0.5; Tool On
G1 F300 Z0.0000
G1 F15000 X2.0000 Y634.3000 Z0.0000
M3S245
G4 P0.5; Tool Off

G0 Z0; move to z-safe height
G0 X2.0000 Y638.3000
M3S0
G4 P0.5; Tool On
G1 F300 Z0.0000
G1 F15000 X1198.0000 Y638.3000 Z0.0000
M3S245
G4 P0.5; Tool Off

G0 Z0; move to z-safe height
G0 X1198.0000 Y642.3000
M3S0
G4 P0.5; Tool On
G1 F300 Z0.0000
G1 F15000 X2.0000 Y642.3000 Z0.0000
M3S245
G4 P0.5; Tool Off

G0 Z0; move to z-safe height
G0 X2.0000 Y646.3000
M3S0
G4 P0.5; Tool On
G1 F300 Z0.0000
G1 F15000 X1198.0000 Y646.3000 Z0.0000
M3S245
G4 P0.5; Tool Off

G0 Z0; move to z-safe height
G0 X1198.0000 Y650.3000
M3S0
G4 P0.5; Tool On
G1 F300 Z0.0000
G1 F15000 X2.0000 Y650.3000 Z0.0000
M3S245
G4 P0.5; Tool Off

G0 Z0; move to z-safe height
G0 X2.0000 Y654.3000
M3S0
G4 P0.5; Tool On
G1 F300 Z0.0000
G1 F15000 X1198.0000 Y654.3000 Z0.0000
M3S245
G4 P0.5; Tool Off

G0 Z0; move to z-safe height
G0 X1198.0000 Y658.3000
M3S0
G4 P0.5; Tool On
G1 F300 Z0.0000
G1 F15000 X2.0000 Y658.3000 Z0.0000
M3S245
G4 P0.5; Tool Off

G0 Z0; move to z-safe height
G0 X2.0000 Y662.3000
M3S0
G4 P0.5; Tool On
G1 F300 Z0.0000
G1 F15000 X1198.0000 Y662.3000 Z0.0000
M3S245
G4 P0.5; Tool Off

G0 Z0; move to z-safe height
G0 X1198.0000 Y666.3000
M3S0
G4 P0.5; Tool On
G1 F300 Z0.0000
G1 F15000 X2.0000 Y666.3000 Z0.0000
M3S245
G4 P0.5; Tool Off

G0 Z0; move to z-safe height
G0 X2.0000 Y670.3000
M3S0
G4 P0.5; Tool On
G1 F300 Z0.0000
G1 F15000 X1198.0000 Y670.3000 Z0.0000
M3S245
G4 P0.5; Tool Off

G0 Z0; move to z-safe height
G0 X1198.0000 Y674.3000
M3S0
G4 P0.5; Tool On
G1 F300 Z0.0000
G1 F15000 X2.0000 Y674.3000 Z0.0000
M3S245
G4 P0.5; Tool Off

G0 Z0; move to z-safe height
G0 X2.0000 Y678.3000
M3S0
G4 P0.5; Tool On
G1 F300 Z0.0000
G1 F15000 X1198.0000 Y678.3000 Z0.0000
M3S245
G4 P0.5; Tool Off

G0 Z0; move to z-safe height
G0 X1198.0000 Y682.3000
M3S0
G4 P0.5; Tool On
G1 F300 Z0.0000
G1 F15000 X2.0000 Y682.3000 Z0.0000
M3S245
G4 P0.5; Tool Off

G0 Z0; move to z-safe height
G0 X2.0000 Y686.3000
M3S0
G4 P0.5; Tool On
G1 F300 Z0.0000
G1 F15000 X1198.0000 Y686.3000 Z0.0000
M3S245
G4 P0.5; Tool Off

G0 Z0; move to z-safe height
G0 X1198.0000 Y690.3000
M3S0
G4 P0.5; Tool On
G1 F300 Z0.0000
G1 F15000 X2.0000 Y690.3000 Z0.0000
M3S245
G4 P0.5; Tool Off

G0 Z0; move to z-safe height
G0 X2.0000 Y694.3000
M3S0
G4 P0.5; Tool On
G1 F300 Z0.0000
G1 F15000 X1198.0000 Y694.3000 Z0.0000
M3S245
G4 P0.5; Tool Off

G0 Z0; move to z-safe height
G0 X1198.0000 Y698.3000
M3S0
G4 P0.5; Tool On
G1 F300 Z0.0000
G1 F15000 X2.0000 Y698.3000 Z0.0000
M3S245
G4 P0.5; Tool Off

G0 Z0; move to z-safe height
G0 X2.0000 Y702.3000
M3S0
G4 P0.5; Tool On
G1 F300 Z0.0000
G1 F15000 X1198.0000 Y702.3000 Z0.0000
M3S245
G4 P0.5; Tool Off

G0 Z0; move to z-safe height
G0 X1198.0000 Y706.3000
M3S0
G4 P0.5; Tool On
G1 F300 Z0.0000
G1 F15000 X2.0000 Y706.3000 Z0.0000
M3S245
G4 P0.5; Tool Off

G0 Z0; move to z-safe height
G0 X2.0000 Y710.3000
M3S0
G4 P0.5; Tool On
G1 F300 Z0.0000
G1 F15000 X1198.0000 Y710.3000 Z0.0000
M3S245
G4 P0.5; Tool Off

G0 Z0; move to z-safe height
G0 X1198.0000 Y714.3000
M3S0
G4 P0.5; Tool On
G1 F300 Z0.0000
G1 F15000 X2.0000 Y714.3000 Z0.0000
M3S245
G4 P0.5; Tool Off

G0 Z0; move to z-safe height
G0 X2.0000 Y718.3000
M3S0
G4 P0.5; Tool On
G1 F300 Z0.0000
G1 F15000 X1198.0000 Y718.3000 Z0.0000
M3S245
G4 P0.5; Tool Off

G0 Z0; move to z-safe height
G0 X1198.0000 Y722.3000
M3S0
G4 P0.5; Tool On
G1 F300 Z0.0000
G1 F15000 X2.0000 Y722.3000 Z0.0000
M3S245
G4 P0.5; Tool Off

G0 Z0; move to z-safe height
G0 X2.0000 Y726.3000
M3S0
G4 P0.5; Tool On
G1 F300 Z0.0000
G1 F15000 X1198.0000 Y726.3000 Z0.0000
M3S245
G4 P0.5; Tool Off

G0 Z0; move to z-safe height
G0 X1198.0000 Y730.3000
M3S0
G4 P0.5; Tool On
G1 F300 Z0.0000
G1 F15000 X2.0000 Y730.3000 Z0.0000
M3S245
G4 P0.5; Tool Off

G0 Z0; move to z-safe height
G0 X2.0000 Y734.3000
M3S0
G4 P0.5; Tool On
G1 F300 Z0.0000
G1 F15000 X1198.0000 Y734.3000 Z0.0000
M3S245
G4 P0.5; Tool Off

G0 Z0; move to z-safe height
G0 X1198.0000 Y738.3000
M3S0
G4 P0.5; Tool On
G1 F300 Z0.0000
G1 F15000 X2.0000 Y738.3000 Z0.0000
M3S245
G4 P0.5; Tool Off

G0 Z0; move to z-safe height
G0 X2.0000 Y742.3000
M3S0
G4 P0.5; Tool On
G1 F300 Z0.0000
G1 F15000 X1198.0000 Y742.3000 Z0.0000
M3S245
G4 P0.5; Tool Off

G0 Z0; move to z-safe height
G0 X1198.0000 Y746.3000
M3S0
G4 P0.5; Tool On
G1 F300 Z0.0000
G1 F15000 X2.0000 Y746.3000 Z0.0000
M3S245
G4 P0.5; Tool Off

G0 Z0; move to z-safe height
G0 X2.0000 Y750.3000
M3S0
G4 P0.5; Tool On
G1 F300 Z0.0000
G1 F15000 X1198.0000 Y750.3000 Z0.0000
M3S245
G4 P0.5; Tool Off

G0 Z0; move to z-safe height
G0 X1198.0000 Y754.3000
M3S0
G4 P0.5; Tool On
G1 F300 Z0.0000
G1 F15000 X2.0000 Y754.3000 Z0.0000
M3S245
G4 P0.5; Tool Off

G0 Z0; move to z-safe height
G0 X2.0000 Y758.3000
M3S0
G4 P0.5; Tool On
G1 F300 Z0.0000
G1 F15000 X1198.0000 Y758.3000 Z0.0000
M3S245
G4 P0.5; Tool Off

G0 Z0; move to z-safe height
G0 X1198.0000 Y762.3000
M3S0
G4 P0.5; Tool On
G1 F300 Z0.0000
G1 F15000 X2.0000 Y762.3000 Z0.0000
M3S245
G4 P0.5; Tool Off

G0 Z0; move to z-safe height
G0 X2.0000 Y766.3000
M3S0
G4 P0.5; Tool On
G1 F300 Z0.0000
G1 F15000 X1198.0000 Y766.3000 Z0.0000
M3S245
G4 P0.5; Tool Off

G0 Z0; move to z-safe height
G0 X1198.0000 Y770.3000
M3S0
G4 P0.5; Tool On
G1 F300 Z0.0000
G1 F15000 X2.0000 Y770.3000 Z0.0000
M3S245
G4 P0.5; Tool Off

G0 Z0; move to z-safe height
G0 X2.0000 Y774.3000
M3S0
G4 P0.5; Tool On
G1 F300 Z0.0000
G1 F15000 X1198.0000 Y774.3000 Z0.0000
M3S245
G4 P0.5; Tool Off

G0 Z0; move to z-safe height
G0 X1198.0000 Y778.3000
M3S0
G4 P0.5; Tool On
G1 F300 Z0.0000
G1 F15000 X2.0000 Y778.3000 Z0.0000
M3S245
G4 P0.5; Tool Off

G0 Z0; move to z-safe height
G0 X2.0000 Y782.3000
M3S0
G4 P0.5; Tool On
G1 F300 Z0.0000
G1 F15000 X1198.0000 Y782.3000 Z0.0000
M3S245
G4 P0.5; Tool Off

G0 Z0; move to z-safe height
G0 X1198.0000 Y786.3000
M3S0
G4 P0.5; Tool On
G1 F300 Z0.0000
G1 F15000 X2.0000 Y786.3000 Z0.0000
M3S245
G4 P0.5; Tool Off

G0 Z0; move to z-safe height
G0 X2.0000 Y790.3000
M3S0
G4 P0.5; Tool On
G1 F300 Z0.0000
G1 F15000 X1198.0000 Y790.3000 Z0.0000
M3S245
G4 P0.5; Tool Off

G0 Z0; move to z-safe height
G0 X1198.0000 Y794.3000
M3S0
G4 P0.5; Tool On
G1 F300 Z0.0000
G1 F15000 X2.0000 Y794.3000 Z0.0000
M3S245
G4 P0.5; Tool Off

G0 Z0; move to z-safe height
G0 X2.0000 Y798.3000
M3S0
G4 P0.5; Tool On
G1 F300 Z0.0000
G1 F15000 X1198.0000 Y798.3000 Z0.0000
M3S245
G4 P0.5; Tool Off

G0 Z0; move to z-safe height
G0 X1198.0000 Y802.3000
M3S0
G4 P0.5; Tool On
G1 F300 Z0.0000
G1 F15000 X2.0000 Y802.3000 Z0.0000
M3S245
G4 P0.5; Tool Off

G0 Z0; move to z-safe height
G0 X2.0000 Y806.3000
M3S0
G4 P0.5; Tool On
G1 F300 Z0.0000
G1 F15000 X1198.0000 Y806.3000 Z0.0000
M3S245
G4 P0.5; Tool Off

G0 Z0; move to z-safe height
G0 X1198.0000 Y810.3000
M3S0
G4 P0.5; Tool On
G1 F300 Z0.0000
G1 F15000 X2.0000 Y810.3000 Z0.0000
M3S245
G4 P0.5; Tool Off

G0 Z0; move to z-safe height
G0 X2.0000 Y814.3000
M3S0
G4 P0.5; Tool On
G1 F300 Z0.0000
G1 F15000 X1198.0000 Y814.3000 Z0.0000
M3S245
G4 P0.5; Tool Off

G0 Z0; move to z-safe height
G0 X1198.0000 Y818.3000
M3S0
G4 P0.5; Tool On
G1 F300 Z0.0000
G1 F15000 X2.0000 Y818.3000 Z0.0000
M3S245
G4 P0.5; Tool Off

G0 Z0; move to z-safe height
G0 X2.0000 Y822.3000
M3S0
G4 P0.5; Tool On
G1 F300 Z0.0000
G1 F15000 X1198.0000 Y822.3000 Z0.0000
M3S245
G4 P0.5; Tool Off

G0 Z0; move to z-safe height
G0 X1198.0000 Y826.3000
M3S0
G4 P0.5; Tool On
G1 F300 Z0.0000
G1 F15000 X2.0000 Y826.3000 Z0.0000
M3S245
G4 P0.5; Tool Off

G0 Z0; move to z-safe height
G0 X2.0000 Y830.3000
M3S0
G4 P0.5; Tool On
G1 F300 Z0.0000
G1 F15000 X1198.0000 Y830.3000 Z0.0000
M3S245
G4 P0.5; Tool Off

G0 Z0; move to z-safe height
G0 X1198.0000 Y834.3000
M3S0
G4 P0.5; Tool On
G1 F300 Z0.0000
G1 F15000 X2.0000 Y834.3000 Z0.0000
M3S245
G4 P0.5; Tool Off

G0 Z0; move to z-safe height
G0 X2.0000 Y838.3000
M3S0
G4 P0.5; Tool On
G1 F300 Z0.0000
G1 F15000 X1198.0000 Y838.3000 Z0.0000
M3S245
G4 P0.5; Tool Off

G0 Z0; move to z-safe height
G0 X1198.0000 Y842.3000
M3S0
G4 P0.5; Tool On
G1 F300 Z0.0000
G1 F15000 X2.0000 Y842.3000 Z0.0000
M3S245
G4 P0.5; Tool Off

G0 Z0; move to z-safe height
G0 X2.0000 Y846.3000
M3S0
G4 P0.5; Tool On
G1 F300 Z0.0000
G1 F15000 X1198.0000 Y846.3000 Z0.0000
M3S245
G4 P0.5; Tool Off

G0 Z0; move to z-safe height
G0 X1198.0000 Y850.3000
M3S0
G4 P0.5; Tool On
G1 F300 Z0.0000
G1 F15000 X2.0000 Y850.3000 Z0.0000
M3S245
G4 P0.5; Tool Off

G0 Z0; move to z-safe height
G0 X2.0000 Y854.3000
M3S0
G4 P0.5; Tool On
G1 F300 Z0.0000
G1 F15000 X1198.0000 Y854.3000 Z0.0000
M3S245
G4 P0.5; Tool Off

G0 Z0; move to z-safe height
G0 X1198.0000 Y858.3000
M3S0
G4 P0.5; Tool On
G1 F300 Z0.0000
G1 F15000 X2.0000 Y858.3000 Z0.0000
M3S245
G4 P0.5; Tool Off

G0 Z0; move to z-safe height
G0 X2.0000 Y862.3000
M3S0
G4 P0.5; Tool On
G1 F300 Z0.0000
G1 F15000 X1198.0000 Y862.3000 Z0.0000
M3S245
G4 P0.5; Tool Off

G0 Z0; move to z-safe height
G0 X1198.0000 Y866.3000
M3S0
G4 P0.5; Tool On
G1 F300 Z0.0000
G1 F15000 X2.0000 Y866.3000 Z0.0000
M3S245
G4 P0.5; Tool Off

G0 Z0; move to z-safe height
G0 X2.0000 Y870.3000
M3S0
G4 P0.5; Tool On
G1 F300 Z0.0000
G1 F15000 X1198.0000 Y870.3000 Z0.0000
M3S245
G4 P0.5; Tool Off

G0 Z0; move to z-safe height
G0 X1198.0000 Y874.3000
M3S0
G4 P0.5; Tool On
G1 F300 Z0.0000
G1 F15000 X2.0000 Y874.3000 Z0.0000
M3S245
G4 P0.5; Tool Off

G0 Z0; move to z-safe height
G0 X2.0000 Y878.3000
M3S0
G4 P0.5; Tool On
G1 F300 Z0.0000
G1 F15000 X1198.0000 Y878.3000 Z0.0000
M3S245
G4 P0.5; Tool Off

G0 Z0; move to z-safe height
G0 X1198.0000 Y882.3000
M3S0
G4 P0.5; Tool On
G1 F300 Z0.0000
G1 F15000 X2.0000 Y882.3000 Z0.0000
M3S245
G4 P0.5; Tool Off

G0 Z0; move to z-safe height
G0 X2.0000 Y886.3000
M3S0
G4 P0.5; Tool On
G1 F300 Z0.0000
G1 F15000 X1198.0000 Y886.3000 Z0.0000
M3S245
G4 P0.5; Tool Off

G0 Z0; move to z-safe height
G0 X1198.0000 Y890.3000
M3S0
G4 P0.5; Tool On
G1 F300 Z0.0000
G1 F15000 X2.0000 Y890.3000 Z0.0000
M3S245
G4 P0.5; Tool Off

G0 Z0; move to z-safe height
G0 X2.0000 Y894.3000
M3S0
G4 P0.5; Tool On
G1 F300 Z0.0000
G1 F15000 X1198.0000 Y894.3000 Z0.0000
M3S245
G4 P0.5; Tool Off

G0 Z0; move to z-safe height
G0 X1198.0000 Y898.3000
M3S0
G4 P0.5; Tool On
G1 F300 Z0.0000
G1 F15000 X2.0000 Y898.3000 Z0.0000
M3S245
G4 P0.5; Tool Off

G0 Z0; move to z-safe height
G0 X2.0000 Y902.3000
M3S0
G4 P0.5; Tool On
G1 F300 Z0.0000
G1 F15000 X1198.0000 Y902.3000 Z0.0000
M3S245
G4 P0.5; Tool Off

G0 Z0; move to z-safe height
G0 X1198.0000 Y906.3000
M3S0
G4 P0.5; Tool On
G1 F300 Z0.0000
G1 F15000 X2.0000 Y906.3000 Z0.0000
M3S245
G4 P0.5; Tool Off

G0 Z0; move to z-safe height
G0 X2.0000 Y910.3000
M3S0
G4 P0.5; Tool On
G1 F300 Z0.0000
G1 F15000 X1198.0000 Y910.3000 Z0.0000
M3S245
G4 P0.5; Tool Off

G0 Z0; move to z-safe height
G0 X1198.0000 Y914.3000
M3S0
G4 P0.5; Tool On
G1 F300 Z0.0000
G1 F15000 X2.0000 Y914.3000 Z0.0000
M3S245
G4 P0.5; Tool Off

G0 Z0; move to z-safe height
G0 X2.0000 Y918.3000
M3S0
G4 P0.5; Tool On
G1 F300 Z0.0000
G1 F15000 X1198.0000 Y918.3000 Z0.0000
M3S245
G4 P0.5; Tool Off

G0 Z0; move to z-safe height
G0 X1198.0000 Y922.3000
M3S0
G4 P0.5; Tool On
G1 F300 Z0.0000
G1 F15000 X2.0000 Y922.3000 Z0.0000
M3S245
G4 P0.5; Tool Off

G0 Z0; move to z-safe height
G0 X2.0000 Y926.3000
M3S0
G4 P0.5; Tool On
G1 F300 Z0.0000
G1 F15000 X1198.0000 Y926.3000 Z0.0000
M3S245
G4 P0.5; Tool Off

G0 Z0; move to z-safe height
G0 X1198.0000 Y930.3000
M3S0
G4 P0.5; Tool On
G1 F300 Z0.0000
G1 F15000 X2.0000 Y930.3000 Z0.0000
M3S245
G4 P0.5; Tool Off

G0 Z0; move to z-safe height
G0 X2.0000 Y934.3000
M3S0
G4 P0.5; Tool On
G1 F300 Z0.0000
G1 F15000 X1198.0000 Y934.3000 Z0.0000
M3S245
G4 P0.5; Tool Off

G0 Z0; move to z-safe height
G0 X1198.0000 Y938.3000
M3S0
G4 P0.5; Tool On
G1 F300 Z0.0000
G1 F15000 X2.0000 Y938.3000 Z0.0000
M3S245
G4 P0.5; Tool Off

G0 Z0; move to z-safe height
G0 X2.0000 Y942.3000
M3S0
G4 P0.5; Tool On
G1 F300 Z0.0000
G1 F15000 X1198.0000 Y942.3000 Z0.0000
M3S245
G4 P0.5; Tool Off

G0 Z0; move to z-safe height
G0 X1198.0000 Y946.3000
M3S0
G4 P0.5; Tool On
G1 F300 Z0.0000
G1 F15000 X2.0000 Y946.3000 Z0.0000
M3S245
G4 P0.5; Tool Off

G0 Z0; move to z-safe height
G0 X2.0000 Y950.3000
M3S0
G4 P0.5; Tool On
G1 F300 Z0.0000
G1 F15000 X1198.0000 Y950.3000 Z0.0000
M3S245
G4 P0.5; Tool Off

G0 Z0; move to z-safe height
G0 X1198.0000 Y954.3000
M3S0
G4 P0.5; Tool On
G1 F300 Z0.0000
G1 F15000 X2.0000 Y954.3000 Z0.0000
M3S245
G4 P0.5; Tool Off

G0 Z0; move to z-safe height
G0 X2.0000 Y958.3000
M3S0
G4 P0.5; Tool On
G1 F300 Z0.0000
G1 F15000 X1198.0000 Y958.3000 Z0.0000
M3S245
G4 P0.5; Tool Off

G0 Z0; move to z-safe height
G0 X1198.0000 Y962.3000
M3S0
G4 P0.5; Tool On
G1 F300 Z0.0000
G1 F15000 X2.0000 Y962.3000 Z0.0000
M3S245
G4 P0.5; Tool Off

G0 Z0; move to z-safe height
G0 X2.0000 Y966.3000
M3S0
G4 P0.5; Tool On
G1 F300 Z0.0000
G1 F15000 X1198.0000 Y966.3000 Z0.0000
M3S245
G4 P0.5; Tool Off

G0 Z0; move to z-safe height
G0 X1198.0000 Y970.3000
M3S0
G4 P0.5; Tool On
G1 F300 Z0.0000
G1 F15000 X2.0000 Y970.3000 Z0.0000
M3S245
G4 P0.5; Tool Off

G0 Z0; move to z-safe height
G0 X2.0000 Y974.3000
M3S0
G4 P0.5; Tool On
G1 F300 Z0.0000
G1 F15000 X1198.0000 Y974.3000 Z0.0000
M3S245
G4 P0.5; Tool Off

G0 Z0; move to z-safe height
G0 X1198.0000 Y978.3000
M3S0
G4 P0.5; Tool On
G1 F300 Z0.0000
G1 F15000 X2.0000 Y978.3000 Z0.0000
M3S245
G4 P0.5; Tool Off

G0 Z0; move to z-safe height
G0 X2.0000 Y982.3000
M3S0
G4 P0.5; Tool On
G1 F300 Z0.0000
G1 F15000 X1198.0000 Y982.3000 Z0.0000
M3S245
G4 P0.5; Tool Off

G0 Z0; move to z-safe height
G0 X1198.0000 Y986.3000
M3S0
G4 P0.5; Tool On
G1 F300 Z0.0000
G1 F15000 X2.0000 Y986.3000 Z0.0000
M3S245
G4 P0.5; Tool Off

G0 Z0; move to z-safe height
G0 X2.0000 Y990.3000
M3S0
G4 P0.5; Tool On
G1 F300 Z0.0000
G1 F15000 X1198.0000 Y990.3000 Z0.0000
M3S245
G4 P0.5; Tool Off

G0 Z0; move to z-safe height
G0 X1198.0000 Y994.3000
M3S0
G4 P0.5; Tool On
G1 F300 Z0.0000
G1 F15000 X2.0000 Y994.3000 Z0.0000
M3S245
G4 P0.5; Tool Off

G0 Z0; move to z-safe height
G0 X2.0000 Y998.3000
M3S0
G4 P0.5; Tool On
G1 F300 Z0.0000
G1 F15000 X1198.0000 Y998.3000 Z0.0000
M3S245
G4 P0.5; Tool Off

G0 Z0; move to z-safe height
G0 X1198.0000 Y1002.3000
M3S0
G4 P0.5; Tool On
G1 F300 Z0.0000
G1 F15000 X2.0000 Y1002.3000 Z0.0000
M3S245
G4 P0.5; Tool Off

G0 Z0; move to z-safe height
G0 X2.0000 Y1006.3000
M3S0
G4 P0.5; Tool On
G1 F300 Z0.0000
G1 F15000 X1198.0000 Y1006.3000 Z0.0000
M3S245
G4 P0.5; Tool Off

G0 Z0; move to z-safe height
G0 X1198.0000 Y1010.3000
M3S0
G4 P0.5; Tool On
G1 F300 Z0.0000
G1 F15000 X2.0000 Y1010.3000 Z0.0000
M3S245
G4 P0.5; Tool Off

G0 Z0; move to z-safe height
G0 X2.0000 Y1014.3000
M3S0
G4 P0.5; Tool On
G1 F300 Z0.0000
G1 F15000 X1198.0000 Y1014.3000 Z0.0000
M3S245
G4 P0.5; Tool Off

G0 Z0; move to z-safe height
G0 X1198.0000 Y1018.3000
M3S0
G4 P0.5; Tool On
G1 F300 Z0.0000
G1 F15000 X2.0000 Y1018.3000 Z0.0000
M3S245
G4 P0.5; Tool Off

G0 Z0; move to z-safe height
G0 X2.0000 Y1022.3000
M3S0
G4 P0.5; Tool On
G1 F300 Z0.0000
G1 F15000 X1198.0000 Y1022.3000 Z0.0000
M3S245
G4 P0.5; Tool Off

G0 Z0; move to z-safe height
G0 X1198.0000 Y1026.3000
M3S0
G4 P0.5; Tool On
G1 F300 Z0.0000
G1 F15000 X2.0000 Y1026.3000 Z0.0000
M3S245
G4 P0.5; Tool Off

G0 Z0; move to z-safe height
G0 X2.0000 Y1030.3000
M3S0
G4 P0.5; Tool On
G1 F300 Z0.0000
G1 F15000 X1198.0000 Y1030.3000 Z0.0000
M3S245
G4 P0.5; Tool Off

G0 Z0; move to z-safe height
G0 X1198.0000 Y1034.3000
M3S0
G4 P0.5; Tool On
G1 F300 Z0.0000
G1 F15000 X2.0000 Y1034.3000 Z0.0000
M3S245
G4 P0.5; Tool Off

G0 Z0; move to z-safe height
G0 X2.0000 Y1038.3000
M3S0
G4 P0.5; Tool On
G1 F300 Z0.0000
G1 F15000 X1198.0000 Y1038.3000 Z0.0000
M3S245
G4 P0.5; Tool Off

G0 Z0; move to z-safe height
G0 X1198.0000 Y1042.3000
M3S0
G4 P0.5; Tool On
G1 F300 Z0.0000
G1 F15000 X2.0000 Y1042.3000 Z0.0000
M3S245
G4 P0.5; Tool Off

G0 Z0; move to z-safe height
G0 X2.0000 Y1046.3000
M3S0
G4 P0.5; Tool On
G1 F300 Z0.0000
G1 F15000 X1198.0000 Y1046.3000 Z0.0000
M3S245
G4 P0.5; Tool Off

G0 Z0; move to z-safe height
G0 X1198.0000 Y1050.3000
M3S0
G4 P0.5; Tool On
G1 F300 Z0.0000
G1 F15000 X2.0000 Y1050.3000 Z0.0000
M3S245
G4 P0.5; Tool Off

G0 Z0; move to z-safe height
G0 X2.0000 Y1054.3000
M3S0
G4 P0.5; Tool On
G1 F300 Z0.0000
G1 F15000 X1198.0000 Y1054.3000 Z0.0000
M3S245
G4 P0.5; Tool Off

G0 Z0; move to z-safe height
G0 X1198.0000 Y1058.3000
M3S0
G4 P0.5; Tool On
G1 F300 Z0.0000
G1 F15000 X2.0000 Y1058.3000 Z0.0000
M3S245
G4 P0.5; Tool Off

G0 Z0; move to z-safe height
G0 X2.0000 Y1062.3000
M3S0
G4 P0.5; Tool On
G1 F300 Z0.0000
G1 F15000 X1198.0000 Y1062.3000 Z0.0000
M3S245
G4 P0.5; Tool Off

G0 Z0; move to z-safe height
G0 X1198.0000 Y1066.3000
M3S0
G4 P0.5; Tool On
G1 F300 Z0.0000
G1 F15000 X2.0000 Y1066.3000 Z0.0000
M3S245
G4 P0.5; Tool Off

G0 Z0; move to z-safe height
G0 X2.0000 Y1070.3000
M3S0
G4 P0.5; Tool On
G1 F300 Z0.0000
G1 F15000 X1198.0000 Y1070.3000 Z0.0000
M3S245
G4 P0.5; Tool Off

G0 Z0; move to z-safe height
G0 X1198.0000 Y1074.3000
M3S0
G4 P0.5; Tool On
G1 F300 Z0.0000
G1 F15000 X2.0000 Y1074.3000 Z0.0000
M3S245
G4 P0.5; Tool Off

G0 Z0; move to z-safe height
G0 X2.0000 Y1078.3000
M3S0
G4 P0.5; Tool On
G1 F300 Z0.0000
G1 F15000 X1198.0000 Y1078.3000 Z0.0000
M3S245
G4 P0.5; Tool Off

G0 Z0; move to z-safe height
G0 X1198.0000 Y1082.3000
M3S0
G4 P0.5; Tool On
G1 F300 Z0.0000
G1 F15000 X2.0000 Y1082.3000 Z0.0000
M3S245
G4 P0.5; Tool Off

G0 Z0; move to z-safe height
G0 X2.0000 Y1086.3000
M3S0
G4 P0.5; Tool On
G1 F300 Z0.0000
G1 F15000 X1198.0000 Y1086.3000 Z0.0000
M3S245
G4 P0.5; Tool Off

G0 Z0; move to z-safe height
G0 X1198.0000 Y1090.3000
M3S0
G4 P0.5; Tool On
G1 F300 Z0.0000
G1 F15000 X2.0000 Y1090.3000 Z0.0000
M3S245
G4 P0.5; Tool Off

G0 Z0; move to z-safe height
G0 X2.0000 Y1094.3000
M3S0
G4 P0.5; Tool On
G1 F300 Z0.0000
G1 F15000 X1198.0000 Y1094.3000 Z0.0000
M3S245
G4 P0.5; Tool Off

G0 Z0; move to z-safe height
G0 X1198.0000 Y1098.3000
M3S0
G4 P0.5; Tool On
G1 F300 Z0.0000
G1 F15000 X2.0000 Y1098.3000 Z0.0000
M3S245
G4 P0.5; Tool Off

G0 Z0; move to z-safe height
G0 X2.0000 Y1102.3000
M3S0
G4 P0.5; Tool On
G1 F300 Z0.0000
G1 F15000 X1198.0000 Y1102.3000 Z0.0000
M3S245
G4 P0.5; Tool Off

G0 Z0; move to z-safe height
G0 X1198.0000 Y1106.3000
M3S0
G4 P0.5; Tool On
G1 F300 Z0.0000
G1 F15000 X2.0000 Y1106.3000 Z0.0000
M3S245
G4 P0.5; Tool Off

G0 Z0; move to z-safe height
G0 X2.0000 Y1110.3000
M3S0
G4 P0.5; Tool On
G1 F300 Z0.0000
G1 F15000 X1198.0000 Y1110.3000 Z0.0000
M3S245
G4 P0.5; Tool Off

G0 Z0; move to z-safe height
G0 X1198.0000 Y1114.3000
M3S0
G4 P0.5; Tool On
G1 F300 Z0.0000
G1 F15000 X2.0000 Y1114.3000 Z0.0000
M3S245
G4 P0.5; Tool Off

G0 Z0; move to z-safe height
G0 X2.0000 Y1118.3000
M3S0
G4 P0.5; Tool On
G1 F300 Z0.0000
G1 F15000 X1198.0000 Y1118.3000 Z0.0000
M3S245
G4 P0.5; Tool Off

G0 Z0; move to z-safe height
G0 X1198.0000 Y1122.3000
M3S0
G4 P0.5; Tool On
G1 F300 Z0.0000
G1 F15000 X2.0000 Y1122.3000 Z0.0000
M3S245
G4 P0.5; Tool Off

G0 Z0; move to z-safe height
G0 X2.0000 Y1126.3000
M3S0
G4 P0.5; Tool On
G1 F300 Z0.0000
G1 F15000 X1198.0000 Y1126.3000 Z0.0000
M3S245
G4 P0.5; Tool Off

G0 Z0; move to z-safe height
G0 X1198.0000 Y1130.3000
M3S0
G4 P0.5; Tool On
G1 F300 Z0.0000
G1 F15000 X2.0000 Y1130.3000 Z0.0000
M3S245
G4 P0.5; Tool Off

G0 Z0; move to z-safe height
G0 X2.0000 Y1134.3000
M3S0
G4 P0.5; Tool On
G1 F300 Z0.0000
G1 F15000 X1198.0000 Y1134.3000 Z0.0000
M3S245
G4 P0.5; Tool Off

G0 Z0; move to z-safe height
G0 X1198.0000 Y1138.3000
M3S0
G4 P0.5; Tool On
G1 F300 Z0.0000
G1 F15000 X2.0000 Y1138.3000 Z0.0000
M3S245
G4 P0.5; Tool Off

G0 Z0; move to z-safe height
G0 X2.0000 Y1142.3000
M3S0
G4 P0.5; Tool On
G1 F300 Z0.0000
G1 F15000 X1198.0000 Y1142.3000 Z0.0000
M3S245
G4 P0.5; Tool Off

G0 Z0; move to z-safe height
G0 X1198.0000 Y1146.3000
M3S0
G4 P0.5; Tool On
G1 F300 Z0.0000
G1 F15000 X2.0000 Y1146.3000 Z0.0000
M3S245
G4 P0.5; Tool Off

G0 Z0; move to z-safe height
G0 X2.0000 Y1150.3000
M3S0
G4 P0.5; Tool On
G1 F300 Z0.0000
G1 F15000 X1198.0000 Y1150.3000 Z0.0000
M3S245
G4 P0.5; Tool Off

G0 Z0; move to z-safe height
G0 X1198.0000 Y1154.3000
M3S0
G4 P0.5; Tool On
G1 F300 Z0.0000
G1 F15000 X2.0000 Y1154.3000 Z0.0000
M3S245
G4 P0.5; Tool Off

G0 Z0; move to z-safe height
G0 X2.0000 Y1158.3000
M3S0
G4 P0.5; Tool On
G1 F300 Z0.0000
G1 F15000 X1198.0000 Y1158.3000 Z0.0000
M3S245
G4 P0.5; Tool Off

G0 Z0; move to z-safe height
G0 X1198.0000 Y1162.3000
M3S0
G4 P0.5; Tool On
G1 F300 Z0.0000
G1 F15000 X2.0000 Y1162.3000 Z0.0000
M3S245
G4 P0.5; Tool Off

G0 Z0; move to z-safe height
G0 X2.0000 Y1166.3000
M3S0
G4 P0.5; Tool On
G1 F300 Z0.0000
G1 F15000 X1198.0000 Y1166.3000 Z0.0000
M3S245
G4 P0.5; Tool Off

G0 Z0; move to z-safe height
G0 X1198.0000 Y1170.3000
M3S0
G4 P0.5; Tool On
G1 F300 Z0.0000
G1 F15000 X2.0000 Y1170.3000 Z0.0000
M3S245
G4 P0.5; Tool Off

G0 Z0; move to z-safe height
G0 X2.0000 Y1174.3000
M3S0
G4 P0.5; Tool On
G1 F300 Z0.0000
G1 F15000 X1198.0000 Y1174.3000 Z0.0000
M3S245
G4 P0.5; Tool Off

G0 Z0; move to z-safe height
G0 X1198.0000 Y1178.3000
M3S0
G4 P0.5; Tool On
G1 F300 Z0.0000
G1 F15000 X2.0000 Y1178.3000 Z0.0000
M3S245
G4 P0.5; Tool Off

G0 Z0; move to z-safe height
G0 X2.0000 Y1182.3000
M3S0
G4 P0.5; Tool On
G1 F300 Z0.0000
G1 F15000 X1198.0000 Y1182.3000 Z0.0000
M3S245
G4 P0.5; Tool Off

G0 Z0; move to z-safe height
G0 X1198.0000 Y1186.3000
M3S0
G4 P0.5; Tool On
G1 F300 Z0.0000
G1 F15000 X2.0000 Y1186.3000 Z0.0000
M3S245
G4 P0.5; Tool Off

G0 Z0; move to z-safe height
G0 X2.0000 Y1190.3000
M3S0
G4 P0.5; Tool On
G1 F300 Z0.0000
G1 F15000 X1198.0000 Y1190.3000 Z0.0000
M3S245
G4 P0.5; Tool Off

G0 Z0; move to z-safe height
G0 X1198.0000 Y1194.3000
M3S0
G4 P0.5; Tool On
G1 F300 Z0.0000
G1 F15000 X2.0000 Y1194.3000 Z0.0000
M3S245
G4 P0.5; Tool Off
; retracting back to z-safe
G0 Z0

; Plotter Mode Complete
