; GCODE Generated by cam.openbuilds.com on 2023-12-16 
G21 ; mm-mode
G54; Work Coordinates
G21; mm-mode
G90; Absolute Positioning
; Plotter Mode Active

; Operation 0: Pen Plotter: (lines fill)
; Pen Diameter: 2

G0 Z0; move to z-safe height
G0 F1000 X10.0000 Y13.9700
M3S0
G4 P0.5; Tool On
G1 F300 Z0.0000
G1 F15000 X840.0000 Y13.9700 Z0.0000
M3S245
G4 P0.5; Tool Off

G0 Z0; move to z-safe height
G0 X840.0000 Y33.9700
M3S0
G4 P0.5; Tool On
G1 F300 Z0.0000
G1 F15000 X10.0000 Y33.9700 Z0.0000
M3S245
G4 P0.5; Tool Off

G0 Z0; move to z-safe height
G0 X10.0000 Y53.9700
M3S0
G4 P0.5; Tool On
G1 F300 Z0.0000
G1 F15000 X840.0000 Y53.9700 Z0.0000
M3S245
G4 P0.5; Tool Off

G0 Z0; move to z-safe height
G0 X840.0000 Y73.9700
M3S0
G4 P0.5; Tool On
G1 F300 Z0.0000
G1 F15000 X10.0000 Y73.9700 Z0.0000
M3S245
G4 P0.5; Tool Off

G0 Z0; move to z-safe height
G0 X10.0000 Y93.9700
M3S0
G4 P0.5; Tool On
G1 F300 Z0.0000
G1 F15000 X840.0000 Y93.9700 Z0.0000
M3S245
G4 P0.5; Tool Off

G0 Z0; move to z-safe height
G0 X840.0000 Y113.9700
M3S0
G4 P0.5; Tool On
G1 F300 Z0.0000
G1 F15000 X10.0000 Y113.9700 Z0.0000
M3S245
G4 P0.5; Tool Off

G0 Z0; move to z-safe height
G0 X10.0000 Y133.9700
M3S0
G4 P0.5; Tool On
G1 F300 Z0.0000
G1 F15000 X840.0000 Y133.9700 Z0.0000
M3S245
G4 P0.5; Tool Off

G0 Z0; move to z-safe height
G0 X840.0000 Y153.9700
M3S0
G4 P0.5; Tool On
G1 F300 Z0.0000
G1 F15000 X10.0000 Y153.9700 Z0.0000
M3S245
G4 P0.5; Tool Off

G0 Z0; move to z-safe height
G0 X10.0000 Y173.9700
M3S0
G4 P0.5; Tool On
G1 F300 Z0.0000
G1 F15000 X840.0000 Y173.9700 Z0.0000
M3S245
G4 P0.5; Tool Off

G0 Z0; move to z-safe height
G0 X840.0000 Y193.9700
M3S0
G4 P0.5; Tool On
G1 F300 Z0.0000
G1 F15000 X10.0000 Y193.9700 Z0.0000
M3S245
G4 P0.5; Tool Off

G0 Z0; move to z-safe height
G0 X10.0000 Y213.9700
M3S0
G4 P0.5; Tool On
G1 F300 Z0.0000
G1 F15000 X840.0000 Y213.9700 Z0.0000
M3S245
G4 P0.5; Tool Off

G0 Z0; move to z-safe height
G0 X840.0000 Y233.9700
M3S0
G4 P0.5; Tool On
G1 F300 Z0.0000
G1 F15000 X10.0000 Y233.9700 Z0.0000
M3S245
G4 P0.5; Tool Off

G0 Z0; move to z-safe height
G0 X10.0000 Y253.9700
M3S0
G4 P0.5; Tool On
G1 F300 Z0.0000
G1 F15000 X840.0000 Y253.9700 Z0.0000
M3S245
G4 P0.5; Tool Off

G0 Z0; move to z-safe height
G0 X840.0000 Y273.9700
M3S0
G4 P0.5; Tool On
G1 F300 Z0.0000
G1 F15000 X10.0000 Y273.9700 Z0.0000
M3S245
G4 P0.5; Tool Off

G0 Z0; move to z-safe height
G0 X10.0000 Y293.9700
M3S0
G4 P0.5; Tool On
G1 F300 Z0.0000
G1 F15000 X840.0000 Y293.9700 Z0.0000
M3S245
G4 P0.5; Tool Off

G0 Z0; move to z-safe height
G0 X840.0000 Y313.9700
M3S0
G4 P0.5; Tool On
G1 F300 Z0.0000
G1 F15000 X10.0000 Y313.9700 Z0.0000
M3S245
G4 P0.5; Tool Off

G0 Z0; move to z-safe height
G0 X10.0000 Y333.9700
M3S0
G4 P0.5; Tool On
G1 F300 Z0.0000
G1 F15000 X840.0000 Y333.9700 Z0.0000
M3S245
G4 P0.5; Tool Off

G0 Z0; move to z-safe height
G0 X840.0000 Y353.9700
M3S0
G4 P0.5; Tool On
G1 F300 Z0.0000
G1 F15000 X10.0000 Y353.9700 Z0.0000
M3S245
G4 P0.5; Tool Off

G0 Z0; move to z-safe height
G0 X10.0000 Y373.9700
M3S0
G4 P0.5; Tool On
G1 F300 Z0.0000
G1 F15000 X840.0000 Y373.9700 Z0.0000
M3S245
G4 P0.5; Tool Off

G0 Z0; move to z-safe height
G0 X840.0000 Y393.9700
M3S0
G4 P0.5; Tool On
G1 F300 Z0.0000
G1 F15000 X10.0000 Y393.9700 Z0.0000
M3S245
G4 P0.5; Tool Off

G0 Z0; move to z-safe height
G0 X10.0000 Y413.9700
M3S0
G4 P0.5; Tool On
G1 F300 Z0.0000
G1 F15000 X840.0000 Y413.9700 Z0.0000
M3S245
G4 P0.5; Tool Off

G0 Z0; move to z-safe height
G0 X840.0000 Y433.9700
M3S0
G4 P0.5; Tool On
G1 F300 Z0.0000
G1 F15000 X10.0000 Y433.9700 Z0.0000
M3S245
G4 P0.5; Tool Off

G0 Z0; move to z-safe height
G0 X10.0000 Y453.9700
M3S0
G4 P0.5; Tool On
G1 F300 Z0.0000
G1 F15000 X840.0000 Y453.9700 Z0.0000
M3S245
G4 P0.5; Tool Off

G0 Z0; move to z-safe height
G0 X840.0000 Y473.9700
M3S0
G4 P0.5; Tool On
G1 F300 Z0.0000
G1 F15000 X10.0000 Y473.9700 Z0.0000
M3S245
G4 P0.5; Tool Off

G0 Z0; move to z-safe height
G0 X10.0000 Y493.9700
M3S0
G4 P0.5; Tool On
G1 F300 Z0.0000
G1 F15000 X840.0000 Y493.9700 Z0.0000
M3S245
G4 P0.5; Tool Off

G0 Z0; move to z-safe height
G0 X840.0000 Y513.9700
M3S0
G4 P0.5; Tool On
G1 F300 Z0.0000
G1 F15000 X10.0000 Y513.9700 Z0.0000
M3S245
G4 P0.5; Tool Off

G0 Z0; move to z-safe height
G0 X10.0000 Y533.9700
M3S0
G4 P0.5; Tool On
G1 F300 Z0.0000
G1 F15000 X840.0000 Y533.9700 Z0.0000
M3S245
G4 P0.5; Tool Off

G0 Z0; move to z-safe height
G0 X840.0000 Y553.9700
M3S0
G4 P0.5; Tool On
G1 F300 Z0.0000
G1 F15000 X10.0000 Y553.9700 Z0.0000
M3S245
G4 P0.5; Tool Off

G0 Z0; move to z-safe height
G0 X10.0000 Y573.9700
M3S0
G4 P0.5; Tool On
G1 F300 Z0.0000
G1 F15000 X840.0000 Y573.9700 Z0.0000
M3S245
G4 P0.5; Tool Off

G0 Z0; move to z-safe height
G0 X840.0000 Y593.9700
M3S0
G4 P0.5; Tool On
G1 F300 Z0.0000
G1 F15000 X10.0000 Y593.9700 Z0.0000
M3S245
G4 P0.5; Tool Off

G0 Z0; move to z-safe height
G0 X10.0000 Y613.9700
M3S0
G4 P0.5; Tool On
G1 F300 Z0.0000
G1 F15000 X840.0000 Y613.9700 Z0.0000
M3S245
G4 P0.5; Tool Off

G0 Z0; move to z-safe height
G0 X840.0000 Y633.9700
M3S0
G4 P0.5; Tool On
G1 F300 Z0.0000
G1 F15000 X10.0000 Y633.9700 Z0.0000
M3S245
G4 P0.5; Tool Off

G0 Z0; move to z-safe height
G0 X10.0000 Y653.9700
M3S0
G4 P0.5; Tool On
G1 F300 Z0.0000
G1 F15000 X840.0000 Y653.9700 Z0.0000
M3S245
G4 P0.5; Tool Off

G0 Z0; move to z-safe height
G0 X840.0000 Y673.9700
M3S0
G4 P0.5; Tool On
G1 F300 Z0.0000
G1 F15000 X10.0000 Y673.9700 Z0.0000
M3S245
G4 P0.5; Tool Off

G0 Z0; move to z-safe height
G0 X10.0000 Y693.9700
M3S0
G4 P0.5; Tool On
G1 F300 Z0.0000
G1 F15000 X840.0000 Y693.9700 Z0.0000
M3S245
G4 P0.5; Tool Off

G0 Z0; move to z-safe height
G0 X840.0000 Y713.9700
M3S0
G4 P0.5; Tool On
G1 F300 Z0.0000
G1 F15000 X10.0000 Y713.9700 Z0.0000
M3S245
G4 P0.5; Tool Off

G0 Z0; move to z-safe height
G0 X10.0000 Y733.9700
M3S0
G4 P0.5; Tool On
G1 F300 Z0.0000
G1 F15000 X840.0000 Y733.9700 Z0.0000
M3S245
G4 P0.5; Tool Off

G0 Z0; move to z-safe height
G0 X840.0000 Y753.9700
M3S0
G4 P0.5; Tool On
G1 F300 Z0.0000
G1 F15000 X10.0000 Y753.9700 Z0.0000
M3S245
G4 P0.5; Tool Off

G0 Z0; move to z-safe height
G0 X10.0000 Y773.9700
M3S0
G4 P0.5; Tool On
G1 F300 Z0.0000
G1 F15000 X840.0000 Y773.9700 Z0.0000
M3S245
G4 P0.5; Tool Off

G0 Z0; move to z-safe height
G0 X840.0000 Y793.9700
M3S0
G4 P0.5; Tool On
G1 F300 Z0.0000
G1 F15000 X10.0000 Y793.9700 Z0.0000
M3S245
G4 P0.5; Tool Off

G0 Z0; move to z-safe height
G0 X10.0000 Y813.9700
M3S0
G4 P0.5; Tool On
G1 F300 Z0.0000
G1 F15000 X840.0000 Y813.9700 Z0.0000
M3S245
G4 P0.5; Tool Off

G0 Z0; move to z-safe height
G0 X840.0000 Y833.9700
M3S0
G4 P0.5; Tool On
G1 F300 Z0.0000
G1 F15000 X10.0000 Y833.9700 Z0.0000
M3S245
G4 P0.5; Tool Off

G0 Z0; move to z-safe height
G0 X10.0000 Y853.9700
M3S0
G4 P0.5; Tool On
G1 F300 Z0.0000
G1 F15000 X840.0000 Y853.9700 Z0.0000
M3S245
G4 P0.5; Tool Off

G0 Z0; move to z-safe height
G0 X840.0000 Y873.9700
M3S0
G4 P0.5; Tool On
G1 F300 Z0.0000
G1 F15000 X10.0000 Y873.9700 Z0.0000
M3S245
G4 P0.5; Tool Off

G0 Z0; move to z-safe height
G0 X10.0000 Y893.9700
M3S0
G4 P0.5; Tool On
G1 F300 Z0.0000
G1 F15000 X840.0000 Y893.9700 Z0.0000
M3S245
G4 P0.5; Tool Off

G0 Z0; move to z-safe height
G0 X840.0000 Y913.9700
M3S0
G4 P0.5; Tool On
G1 F300 Z0.0000
G1 F15000 X10.0000 Y913.9700 Z0.0000
M3S245
G4 P0.5; Tool Off

G0 Z0; move to z-safe height
G0 X10.0000 Y933.9700
M3S0
G4 P0.5; Tool On
G1 F300 Z0.0000
G1 F15000 X840.0000 Y933.9700 Z0.0000
M3S245
G4 P0.5; Tool Off

G0 Z0; move to z-safe height
G0 X840.0000 Y953.9700
M3S0
G4 P0.5; Tool On
G1 F300 Z0.0000
G1 F15000 X10.0000 Y953.9700 Z0.0000
M3S245
G4 P0.5; Tool Off

G0 Z0; move to z-safe height
G0 X10.0000 Y973.9700
M3S0
G4 P0.5; Tool On
G1 F300 Z0.0000
G1 F15000 X840.0000 Y973.9700 Z0.0000
M3S245
G4 P0.5; Tool Off

G0 Z0; move to z-safe height
G0 X840.0000 Y993.9700
M3S0
G4 P0.5; Tool On
G1 F300 Z0.0000
G1 F15000 X10.0000 Y993.9700 Z0.0000
M3S245
G4 P0.5; Tool Off

G0 Z0; move to z-safe height
G0 X10.0000 Y1013.9700
M3S0
G4 P0.5; Tool On
G1 F300 Z0.0000
G1 F15000 X840.0000 Y1013.9700 Z0.0000
M3S245
G4 P0.5; Tool Off

G0 Z0; move to z-safe height
G0 X840.0000 Y1033.9700
M3S0
G4 P0.5; Tool On
G1 F300 Z0.0000
G1 F15000 X10.0000 Y1033.9700 Z0.0000
M3S245
G4 P0.5; Tool Off

G0 Z0; move to z-safe height
G0 X10.0000 Y1053.9700
M3S0
G4 P0.5; Tool On
G1 F300 Z0.0000
G1 F15000 X840.0000 Y1053.9700 Z0.0000
M3S245
G4 P0.5; Tool Off

G0 Z0; move to z-safe height
G0 X840.0000 Y1073.9700
M3S0
G4 P0.5; Tool On
G1 F300 Z0.0000
G1 F15000 X10.0000 Y1073.9700 Z0.0000
M3S245
G4 P0.5; Tool Off

G0 Z0; move to z-safe height
G0 X10.0000 Y1093.9700
M3S0
G4 P0.5; Tool On
G1 F300 Z0.0000
G1 F15000 X840.0000 Y1093.9700 Z0.0000
M3S245
G4 P0.5; Tool Off

G0 Z0; move to z-safe height
G0 X840.0000 Y1113.9700
M3S0
G4 P0.5; Tool On
G1 F300 Z0.0000
G1 F15000 X10.0000 Y1113.9700 Z0.0000
M3S245
G4 P0.5; Tool Off

G0 Z0; move to z-safe height
G0 X10.0000 Y1133.9700
M3S0
G4 P0.5; Tool On
G1 F300 Z0.0000
G1 F15000 X840.0000 Y1133.9700 Z0.0000
M3S245
G4 P0.5; Tool Off
; retracting back to z-safe
G0 Z0

; Plotter Mode Complete
