; GCODE Generated by cam.openbuilds.com on 2023-12-16 
G21 ; mm-mode
G54; Work Coordinates
G21; mm-mode
G90; Absolute Positioning
; Plotter Mode Active

; Operation 0: Pen Plotter: (lines fill)
; Pen Diameter: 2

G0 Z0; move to z-safe height
G0 F1000 X846.0000 Y9.5800
M3S0
G4 P0.5; Tool On
G1 F300 Z0.0000
G1 F15000 X4.0000 Y9.5800 Z0.0000
M3S245
G4 P0.5; Tool Off

G0 Z0; move to z-safe height
G0 X4.0000 Y17.5800
M3S0
G4 P0.5; Tool On
G1 F300 Z0.0000
G1 F15000 X846.0000 Y17.5800 Z0.0000
M3S245
G4 P0.5; Tool Off

G0 Z0; move to z-safe height
G0 X846.0000 Y25.5800
M3S0
G4 P0.5; Tool On
G1 F300 Z0.0000
G1 F15000 X4.0000 Y25.5800 Z0.0000
M3S245
G4 P0.5; Tool Off

G0 Z0; move to z-safe height
G0 X4.0000 Y33.5800
M3S0
G4 P0.5; Tool On
G1 F300 Z0.0000
G1 F15000 X846.0000 Y33.5800 Z0.0000
M3S245
G4 P0.5; Tool Off

G0 Z0; move to z-safe height
G0 X846.0000 Y41.5800
M3S0
G4 P0.5; Tool On
G1 F300 Z0.0000
G1 F15000 X4.0000 Y41.5800 Z0.0000
M3S245
G4 P0.5; Tool Off

G0 Z0; move to z-safe height
G0 X4.0000 Y49.5800
M3S0
G4 P0.5; Tool On
G1 F300 Z0.0000
G1 F15000 X846.0000 Y49.5800 Z0.0000
M3S245
G4 P0.5; Tool Off

G0 Z0; move to z-safe height
G0 X846.0000 Y57.5800
M3S0
G4 P0.5; Tool On
G1 F300 Z0.0000
G1 F15000 X4.0000 Y57.5800 Z0.0000
M3S245
G4 P0.5; Tool Off

G0 Z0; move to z-safe height
G0 X4.0000 Y65.5800
M3S0
G4 P0.5; Tool On
G1 F300 Z0.0000
G1 F15000 X846.0000 Y65.5800 Z0.0000
M3S245
G4 P0.5; Tool Off

G0 Z0; move to z-safe height
G0 X846.0000 Y73.5800
M3S0
G4 P0.5; Tool On
G1 F300 Z0.0000
G1 F15000 X4.0000 Y73.5800 Z0.0000
M3S245
G4 P0.5; Tool Off

G0 Z0; move to z-safe height
G0 X4.0000 Y81.5800
M3S0
G4 P0.5; Tool On
G1 F300 Z0.0000
G1 F15000 X846.0000 Y81.5800 Z0.0000
M3S245
G4 P0.5; Tool Off

G0 Z0; move to z-safe height
G0 X846.0000 Y89.5800
M3S0
G4 P0.5; Tool On
G1 F300 Z0.0000
G1 F15000 X4.0000 Y89.5800 Z0.0000
M3S245
G4 P0.5; Tool Off

G0 Z0; move to z-safe height
G0 X4.0000 Y97.5800
M3S0
G4 P0.5; Tool On
G1 F300 Z0.0000
G1 F15000 X846.0000 Y97.5800 Z0.0000
M3S245
G4 P0.5; Tool Off

G0 Z0; move to z-safe height
G0 X846.0000 Y105.5800
M3S0
G4 P0.5; Tool On
G1 F300 Z0.0000
G1 F15000 X4.0000 Y105.5800 Z0.0000
M3S245
G4 P0.5; Tool Off

G0 Z0; move to z-safe height
G0 X4.0000 Y113.5800
M3S0
G4 P0.5; Tool On
G1 F300 Z0.0000
G1 F15000 X846.0000 Y113.5800 Z0.0000
M3S245
G4 P0.5; Tool Off

G0 Z0; move to z-safe height
G0 X846.0000 Y121.5800
M3S0
G4 P0.5; Tool On
G1 F300 Z0.0000
G1 F15000 X4.0000 Y121.5800 Z0.0000
M3S245
G4 P0.5; Tool Off

G0 Z0; move to z-safe height
G0 X4.0000 Y129.5800
M3S0
G4 P0.5; Tool On
G1 F300 Z0.0000
G1 F15000 X846.0000 Y129.5800 Z0.0000
M3S245
G4 P0.5; Tool Off

G0 Z0; move to z-safe height
G0 X846.0000 Y137.5800
M3S0
G4 P0.5; Tool On
G1 F300 Z0.0000
G1 F15000 X4.0000 Y137.5800 Z0.0000
M3S245
G4 P0.5; Tool Off

G0 Z0; move to z-safe height
G0 X4.0000 Y145.5800
M3S0
G4 P0.5; Tool On
G1 F300 Z0.0000
G1 F15000 X846.0000 Y145.5800 Z0.0000
M3S245
G4 P0.5; Tool Off

G0 Z0; move to z-safe height
G0 X846.0000 Y153.5800
M3S0
G4 P0.5; Tool On
G1 F300 Z0.0000
G1 F15000 X4.0000 Y153.5800 Z0.0000
M3S245
G4 P0.5; Tool Off

G0 Z0; move to z-safe height
G0 X4.0000 Y161.5800
M3S0
G4 P0.5; Tool On
G1 F300 Z0.0000
G1 F15000 X846.0000 Y161.5800 Z0.0000
M3S245
G4 P0.5; Tool Off

G0 Z0; move to z-safe height
G0 X846.0000 Y169.5800
M3S0
G4 P0.5; Tool On
G1 F300 Z0.0000
G1 F15000 X4.0000 Y169.5800 Z0.0000
M3S245
G4 P0.5; Tool Off

G0 Z0; move to z-safe height
G0 X4.0000 Y177.5800
M3S0
G4 P0.5; Tool On
G1 F300 Z0.0000
G1 F15000 X846.0000 Y177.5800 Z0.0000
M3S245
G4 P0.5; Tool Off

G0 Z0; move to z-safe height
G0 X846.0000 Y185.5800
M3S0
G4 P0.5; Tool On
G1 F300 Z0.0000
G1 F15000 X4.0000 Y185.5800 Z0.0000
M3S245
G4 P0.5; Tool Off

G0 Z0; move to z-safe height
G0 X4.0000 Y193.5800
M3S0
G4 P0.5; Tool On
G1 F300 Z0.0000
G1 F15000 X846.0000 Y193.5800 Z0.0000
M3S245
G4 P0.5; Tool Off

G0 Z0; move to z-safe height
G0 X846.0000 Y201.5800
M3S0
G4 P0.5; Tool On
G1 F300 Z0.0000
G1 F15000 X4.0000 Y201.5800 Z0.0000
M3S245
G4 P0.5; Tool Off

G0 Z0; move to z-safe height
G0 X4.0000 Y209.5800
M3S0
G4 P0.5; Tool On
G1 F300 Z0.0000
G1 F15000 X846.0000 Y209.5800 Z0.0000
M3S245
G4 P0.5; Tool Off

G0 Z0; move to z-safe height
G0 X846.0000 Y217.5800
M3S0
G4 P0.5; Tool On
G1 F300 Z0.0000
G1 F15000 X4.0000 Y217.5800 Z0.0000
M3S245
G4 P0.5; Tool Off

G0 Z0; move to z-safe height
G0 X4.0000 Y225.5800
M3S0
G4 P0.5; Tool On
G1 F300 Z0.0000
G1 F15000 X846.0000 Y225.5800 Z0.0000
M3S245
G4 P0.5; Tool Off

G0 Z0; move to z-safe height
G0 X846.0000 Y233.5800
M3S0
G4 P0.5; Tool On
G1 F300 Z0.0000
G1 F15000 X4.0000 Y233.5800 Z0.0000
M3S245
G4 P0.5; Tool Off

G0 Z0; move to z-safe height
G0 X4.0000 Y241.5800
M3S0
G4 P0.5; Tool On
G1 F300 Z0.0000
G1 F15000 X846.0000 Y241.5800 Z0.0000
M3S245
G4 P0.5; Tool Off

G0 Z0; move to z-safe height
G0 X846.0000 Y249.5800
M3S0
G4 P0.5; Tool On
G1 F300 Z0.0000
G1 F15000 X4.0000 Y249.5800 Z0.0000
M3S245
G4 P0.5; Tool Off

G0 Z0; move to z-safe height
G0 X4.0000 Y257.5800
M3S0
G4 P0.5; Tool On
G1 F300 Z0.0000
G1 F15000 X846.0000 Y257.5800 Z0.0000
M3S245
G4 P0.5; Tool Off

G0 Z0; move to z-safe height
G0 X846.0000 Y265.5800
M3S0
G4 P0.5; Tool On
G1 F300 Z0.0000
G1 F15000 X4.0000 Y265.5800 Z0.0000
M3S245
G4 P0.5; Tool Off

G0 Z0; move to z-safe height
G0 X4.0000 Y273.5800
M3S0
G4 P0.5; Tool On
G1 F300 Z0.0000
G1 F15000 X846.0000 Y273.5800 Z0.0000
M3S245
G4 P0.5; Tool Off

G0 Z0; move to z-safe height
G0 X846.0000 Y281.5800
M3S0
G4 P0.5; Tool On
G1 F300 Z0.0000
G1 F15000 X4.0000 Y281.5800 Z0.0000
M3S245
G4 P0.5; Tool Off

G0 Z0; move to z-safe height
G0 X4.0000 Y289.5800
M3S0
G4 P0.5; Tool On
G1 F300 Z0.0000
G1 F15000 X846.0000 Y289.5800 Z0.0000
M3S245
G4 P0.5; Tool Off

G0 Z0; move to z-safe height
G0 X846.0000 Y297.5800
M3S0
G4 P0.5; Tool On
G1 F300 Z0.0000
G1 F15000 X4.0000 Y297.5800 Z0.0000
M3S245
G4 P0.5; Tool Off

G0 Z0; move to z-safe height
G0 X4.0000 Y305.5800
M3S0
G4 P0.5; Tool On
G1 F300 Z0.0000
G1 F15000 X846.0000 Y305.5800 Z0.0000
M3S245
G4 P0.5; Tool Off

G0 Z0; move to z-safe height
G0 X846.0000 Y313.5800
M3S0
G4 P0.5; Tool On
G1 F300 Z0.0000
G1 F15000 X4.0000 Y313.5800 Z0.0000
M3S245
G4 P0.5; Tool Off

G0 Z0; move to z-safe height
G0 X4.0000 Y321.5800
M3S0
G4 P0.5; Tool On
G1 F300 Z0.0000
G1 F15000 X846.0000 Y321.5800 Z0.0000
M3S245
G4 P0.5; Tool Off

G0 Z0; move to z-safe height
G0 X846.0000 Y329.5800
M3S0
G4 P0.5; Tool On
G1 F300 Z0.0000
G1 F15000 X4.0000 Y329.5800 Z0.0000
M3S245
G4 P0.5; Tool Off

G0 Z0; move to z-safe height
G0 X4.0000 Y337.5800
M3S0
G4 P0.5; Tool On
G1 F300 Z0.0000
G1 F15000 X846.0000 Y337.5800 Z0.0000
M3S245
G4 P0.5; Tool Off

G0 Z0; move to z-safe height
G0 X846.0000 Y345.5800
M3S0
G4 P0.5; Tool On
G1 F300 Z0.0000
G1 F15000 X4.0000 Y345.5800 Z0.0000
M3S245
G4 P0.5; Tool Off

G0 Z0; move to z-safe height
G0 X4.0000 Y353.5800
M3S0
G4 P0.5; Tool On
G1 F300 Z0.0000
G1 F15000 X846.0000 Y353.5800 Z0.0000
M3S245
G4 P0.5; Tool Off

G0 Z0; move to z-safe height
G0 X846.0000 Y361.5800
M3S0
G4 P0.5; Tool On
G1 F300 Z0.0000
G1 F15000 X4.0000 Y361.5800 Z0.0000
M3S245
G4 P0.5; Tool Off

G0 Z0; move to z-safe height
G0 X4.0000 Y369.5800
M3S0
G4 P0.5; Tool On
G1 F300 Z0.0000
G1 F15000 X846.0000 Y369.5800 Z0.0000
M3S245
G4 P0.5; Tool Off

G0 Z0; move to z-safe height
G0 X846.0000 Y377.5800
M3S0
G4 P0.5; Tool On
G1 F300 Z0.0000
G1 F15000 X4.0000 Y377.5800 Z0.0000
M3S245
G4 P0.5; Tool Off

G0 Z0; move to z-safe height
G0 X4.0000 Y385.5800
M3S0
G4 P0.5; Tool On
G1 F300 Z0.0000
G1 F15000 X846.0000 Y385.5800 Z0.0000
M3S245
G4 P0.5; Tool Off

G0 Z0; move to z-safe height
G0 X846.0000 Y393.5800
M3S0
G4 P0.5; Tool On
G1 F300 Z0.0000
G1 F15000 X4.0000 Y393.5800 Z0.0000
M3S245
G4 P0.5; Tool Off

G0 Z0; move to z-safe height
G0 X4.0000 Y401.5800
M3S0
G4 P0.5; Tool On
G1 F300 Z0.0000
G1 F15000 X846.0000 Y401.5800 Z0.0000
M3S245
G4 P0.5; Tool Off

G0 Z0; move to z-safe height
G0 X846.0000 Y409.5800
M3S0
G4 P0.5; Tool On
G1 F300 Z0.0000
G1 F15000 X4.0000 Y409.5800 Z0.0000
M3S245
G4 P0.5; Tool Off

G0 Z0; move to z-safe height
G0 X4.0000 Y417.5800
M3S0
G4 P0.5; Tool On
G1 F300 Z0.0000
G1 F15000 X846.0000 Y417.5800 Z0.0000
M3S245
G4 P0.5; Tool Off

G0 Z0; move to z-safe height
G0 X846.0000 Y425.5800
M3S0
G4 P0.5; Tool On
G1 F300 Z0.0000
G1 F15000 X4.0000 Y425.5800 Z0.0000
M3S245
G4 P0.5; Tool Off

G0 Z0; move to z-safe height
G0 X4.0000 Y433.5800
M3S0
G4 P0.5; Tool On
G1 F300 Z0.0000
G1 F15000 X846.0000 Y433.5800 Z0.0000
M3S245
G4 P0.5; Tool Off

G0 Z0; move to z-safe height
G0 X846.0000 Y441.5800
M3S0
G4 P0.5; Tool On
G1 F300 Z0.0000
G1 F15000 X4.0000 Y441.5800 Z0.0000
M3S245
G4 P0.5; Tool Off

G0 Z0; move to z-safe height
G0 X4.0000 Y449.5800
M3S0
G4 P0.5; Tool On
G1 F300 Z0.0000
G1 F15000 X846.0000 Y449.5800 Z0.0000
M3S245
G4 P0.5; Tool Off

G0 Z0; move to z-safe height
G0 X846.0000 Y457.5800
M3S0
G4 P0.5; Tool On
G1 F300 Z0.0000
G1 F15000 X4.0000 Y457.5800 Z0.0000
M3S245
G4 P0.5; Tool Off

G0 Z0; move to z-safe height
G0 X4.0000 Y465.5800
M3S0
G4 P0.5; Tool On
G1 F300 Z0.0000
G1 F15000 X846.0000 Y465.5800 Z0.0000
M3S245
G4 P0.5; Tool Off

G0 Z0; move to z-safe height
G0 X846.0000 Y473.5800
M3S0
G4 P0.5; Tool On
G1 F300 Z0.0000
G1 F15000 X4.0000 Y473.5800 Z0.0000
M3S245
G4 P0.5; Tool Off

G0 Z0; move to z-safe height
G0 X4.0000 Y481.5800
M3S0
G4 P0.5; Tool On
G1 F300 Z0.0000
G1 F15000 X846.0000 Y481.5800 Z0.0000
M3S245
G4 P0.5; Tool Off

G0 Z0; move to z-safe height
G0 X846.0000 Y489.5800
M3S0
G4 P0.5; Tool On
G1 F300 Z0.0000
G1 F15000 X4.0000 Y489.5800 Z0.0000
M3S245
G4 P0.5; Tool Off

G0 Z0; move to z-safe height
G0 X4.0000 Y497.5800
M3S0
G4 P0.5; Tool On
G1 F300 Z0.0000
G1 F15000 X846.0000 Y497.5800 Z0.0000
M3S245
G4 P0.5; Tool Off

G0 Z0; move to z-safe height
G0 X846.0000 Y505.5800
M3S0
G4 P0.5; Tool On
G1 F300 Z0.0000
G1 F15000 X4.0000 Y505.5800 Z0.0000
M3S245
G4 P0.5; Tool Off

G0 Z0; move to z-safe height
G0 X4.0000 Y513.5800
M3S0
G4 P0.5; Tool On
G1 F300 Z0.0000
G1 F15000 X846.0000 Y513.5800 Z0.0000
M3S245
G4 P0.5; Tool Off

G0 Z0; move to z-safe height
G0 X846.0000 Y521.5800
M3S0
G4 P0.5; Tool On
G1 F300 Z0.0000
G1 F15000 X4.0000 Y521.5800 Z0.0000
M3S245
G4 P0.5; Tool Off

G0 Z0; move to z-safe height
G0 X4.0000 Y529.5800
M3S0
G4 P0.5; Tool On
G1 F300 Z0.0000
G1 F15000 X846.0000 Y529.5800 Z0.0000
M3S245
G4 P0.5; Tool Off

G0 Z0; move to z-safe height
G0 X846.0000 Y537.5800
M3S0
G4 P0.5; Tool On
G1 F300 Z0.0000
G1 F15000 X4.0000 Y537.5800 Z0.0000
M3S245
G4 P0.5; Tool Off

G0 Z0; move to z-safe height
G0 X4.0000 Y545.5800
M3S0
G4 P0.5; Tool On
G1 F300 Z0.0000
G1 F15000 X846.0000 Y545.5800 Z0.0000
M3S245
G4 P0.5; Tool Off

G0 Z0; move to z-safe height
G0 X846.0000 Y553.5800
M3S0
G4 P0.5; Tool On
G1 F300 Z0.0000
G1 F15000 X4.0000 Y553.5800 Z0.0000
M3S245
G4 P0.5; Tool Off

G0 Z0; move to z-safe height
G0 X4.0000 Y561.5800
M3S0
G4 P0.5; Tool On
G1 F300 Z0.0000
G1 F15000 X846.0000 Y561.5800 Z0.0000
M3S245
G4 P0.5; Tool Off

G0 Z0; move to z-safe height
G0 X846.0000 Y569.5800
M3S0
G4 P0.5; Tool On
G1 F300 Z0.0000
G1 F15000 X4.0000 Y569.5800 Z0.0000
M3S245
G4 P0.5; Tool Off

G0 Z0; move to z-safe height
G0 X4.0000 Y577.5800
M3S0
G4 P0.5; Tool On
G1 F300 Z0.0000
G1 F15000 X846.0000 Y577.5800 Z0.0000
M3S245
G4 P0.5; Tool Off

G0 Z0; move to z-safe height
G0 X846.0000 Y585.5800
M3S0
G4 P0.5; Tool On
G1 F300 Z0.0000
G1 F15000 X4.0000 Y585.5800 Z0.0000
M3S245
G4 P0.5; Tool Off

G0 Z0; move to z-safe height
G0 X4.0000 Y593.5800
M3S0
G4 P0.5; Tool On
G1 F300 Z0.0000
G1 F15000 X846.0000 Y593.5800 Z0.0000
M3S245
G4 P0.5; Tool Off

G0 Z0; move to z-safe height
G0 X846.0000 Y601.5800
M3S0
G4 P0.5; Tool On
G1 F300 Z0.0000
G1 F15000 X4.0000 Y601.5800 Z0.0000
M3S245
G4 P0.5; Tool Off

G0 Z0; move to z-safe height
G0 X4.0000 Y609.5800
M3S0
G4 P0.5; Tool On
G1 F300 Z0.0000
G1 F15000 X846.0000 Y609.5800 Z0.0000
M3S245
G4 P0.5; Tool Off

G0 Z0; move to z-safe height
G0 X846.0000 Y617.5800
M3S0
G4 P0.5; Tool On
G1 F300 Z0.0000
G1 F15000 X4.0000 Y617.5800 Z0.0000
M3S245
G4 P0.5; Tool Off

G0 Z0; move to z-safe height
G0 X4.0000 Y625.5800
M3S0
G4 P0.5; Tool On
G1 F300 Z0.0000
G1 F15000 X846.0000 Y625.5800 Z0.0000
M3S245
G4 P0.5; Tool Off

G0 Z0; move to z-safe height
G0 X846.0000 Y633.5800
M3S0
G4 P0.5; Tool On
G1 F300 Z0.0000
G1 F15000 X4.0000 Y633.5800 Z0.0000
M3S245
G4 P0.5; Tool Off

G0 Z0; move to z-safe height
G0 X4.0000 Y641.5800
M3S0
G4 P0.5; Tool On
G1 F300 Z0.0000
G1 F15000 X846.0000 Y641.5800 Z0.0000
M3S245
G4 P0.5; Tool Off

G0 Z0; move to z-safe height
G0 X846.0000 Y649.5800
M3S0
G4 P0.5; Tool On
G1 F300 Z0.0000
G1 F15000 X4.0000 Y649.5800 Z0.0000
M3S245
G4 P0.5; Tool Off

G0 Z0; move to z-safe height
G0 X4.0000 Y657.5800
M3S0
G4 P0.5; Tool On
G1 F300 Z0.0000
G1 F15000 X846.0000 Y657.5800 Z0.0000
M3S245
G4 P0.5; Tool Off

G0 Z0; move to z-safe height
G0 X846.0000 Y665.5800
M3S0
G4 P0.5; Tool On
G1 F300 Z0.0000
G1 F15000 X4.0000 Y665.5800 Z0.0000
M3S245
G4 P0.5; Tool Off

G0 Z0; move to z-safe height
G0 X4.0000 Y673.5800
M3S0
G4 P0.5; Tool On
G1 F300 Z0.0000
G1 F15000 X846.0000 Y673.5800 Z0.0000
M3S245
G4 P0.5; Tool Off

G0 Z0; move to z-safe height
G0 X846.0000 Y681.5800
M3S0
G4 P0.5; Tool On
G1 F300 Z0.0000
G1 F15000 X4.0000 Y681.5800 Z0.0000
M3S245
G4 P0.5; Tool Off

G0 Z0; move to z-safe height
G0 X4.0000 Y689.5800
M3S0
G4 P0.5; Tool On
G1 F300 Z0.0000
G1 F15000 X846.0000 Y689.5800 Z0.0000
M3S245
G4 P0.5; Tool Off

G0 Z0; move to z-safe height
G0 X846.0000 Y697.5800
M3S0
G4 P0.5; Tool On
G1 F300 Z0.0000
G1 F15000 X4.0000 Y697.5800 Z0.0000
M3S245
G4 P0.5; Tool Off

G0 Z0; move to z-safe height
G0 X4.0000 Y705.5800
M3S0
G4 P0.5; Tool On
G1 F300 Z0.0000
G1 F15000 X846.0000 Y705.5800 Z0.0000
M3S245
G4 P0.5; Tool Off

G0 Z0; move to z-safe height
G0 X846.0000 Y713.5800
M3S0
G4 P0.5; Tool On
G1 F300 Z0.0000
G1 F15000 X4.0000 Y713.5800 Z0.0000
M3S245
G4 P0.5; Tool Off

G0 Z0; move to z-safe height
G0 X4.0000 Y721.5800
M3S0
G4 P0.5; Tool On
G1 F300 Z0.0000
G1 F15000 X846.0000 Y721.5800 Z0.0000
M3S245
G4 P0.5; Tool Off

G0 Z0; move to z-safe height
G0 X846.0000 Y729.5800
M3S0
G4 P0.5; Tool On
G1 F300 Z0.0000
G1 F15000 X4.0000 Y729.5800 Z0.0000
M3S245
G4 P0.5; Tool Off

G0 Z0; move to z-safe height
G0 X4.0000 Y737.5800
M3S0
G4 P0.5; Tool On
G1 F300 Z0.0000
G1 F15000 X846.0000 Y737.5800 Z0.0000
M3S245
G4 P0.5; Tool Off

G0 Z0; move to z-safe height
G0 X846.0000 Y745.5800
M3S0
G4 P0.5; Tool On
G1 F300 Z0.0000
G1 F15000 X4.0000 Y745.5800 Z0.0000
M3S245
G4 P0.5; Tool Off

G0 Z0; move to z-safe height
G0 X4.0000 Y753.5800
M3S0
G4 P0.5; Tool On
G1 F300 Z0.0000
G1 F15000 X846.0000 Y753.5800 Z0.0000
M3S245
G4 P0.5; Tool Off

G0 Z0; move to z-safe height
G0 X846.0000 Y761.5800
M3S0
G4 P0.5; Tool On
G1 F300 Z0.0000
G1 F15000 X4.0000 Y761.5800 Z0.0000
M3S245
G4 P0.5; Tool Off

G0 Z0; move to z-safe height
G0 X4.0000 Y769.5800
M3S0
G4 P0.5; Tool On
G1 F300 Z0.0000
G1 F15000 X846.0000 Y769.5800 Z0.0000
M3S245
G4 P0.5; Tool Off

G0 Z0; move to z-safe height
G0 X846.0000 Y777.5800
M3S0
G4 P0.5; Tool On
G1 F300 Z0.0000
G1 F15000 X4.0000 Y777.5800 Z0.0000
M3S245
G4 P0.5; Tool Off

G0 Z0; move to z-safe height
G0 X4.0000 Y785.5800
M3S0
G4 P0.5; Tool On
G1 F300 Z0.0000
G1 F15000 X846.0000 Y785.5800 Z0.0000
M3S245
G4 P0.5; Tool Off

G0 Z0; move to z-safe height
G0 X846.0000 Y793.5800
M3S0
G4 P0.5; Tool On
G1 F300 Z0.0000
G1 F15000 X4.0000 Y793.5800 Z0.0000
M3S245
G4 P0.5; Tool Off

G0 Z0; move to z-safe height
G0 X4.0000 Y801.5800
M3S0
G4 P0.5; Tool On
G1 F300 Z0.0000
G1 F15000 X846.0000 Y801.5800 Z0.0000
M3S245
G4 P0.5; Tool Off

G0 Z0; move to z-safe height
G0 X846.0000 Y809.5800
M3S0
G4 P0.5; Tool On
G1 F300 Z0.0000
G1 F15000 X4.0000 Y809.5800 Z0.0000
M3S245
G4 P0.5; Tool Off

G0 Z0; move to z-safe height
G0 X4.0000 Y817.5800
M3S0
G4 P0.5; Tool On
G1 F300 Z0.0000
G1 F15000 X846.0000 Y817.5800 Z0.0000
M3S245
G4 P0.5; Tool Off

G0 Z0; move to z-safe height
G0 X846.0000 Y825.5800
M3S0
G4 P0.5; Tool On
G1 F300 Z0.0000
G1 F15000 X4.0000 Y825.5800 Z0.0000
M3S245
G4 P0.5; Tool Off

G0 Z0; move to z-safe height
G0 X4.0000 Y833.5800
M3S0
G4 P0.5; Tool On
G1 F300 Z0.0000
G1 F15000 X846.0000 Y833.5800 Z0.0000
M3S245
G4 P0.5; Tool Off

G0 Z0; move to z-safe height
G0 X846.0000 Y841.5800
M3S0
G4 P0.5; Tool On
G1 F300 Z0.0000
G1 F15000 X4.0000 Y841.5800 Z0.0000
M3S245
G4 P0.5; Tool Off

G0 Z0; move to z-safe height
G0 X4.0000 Y849.5800
M3S0
G4 P0.5; Tool On
G1 F300 Z0.0000
G1 F15000 X846.0000 Y849.5800 Z0.0000
M3S245
G4 P0.5; Tool Off

G0 Z0; move to z-safe height
G0 X846.0000 Y857.5800
M3S0
G4 P0.5; Tool On
G1 F300 Z0.0000
G1 F15000 X4.0000 Y857.5800 Z0.0000
M3S245
G4 P0.5; Tool Off

G0 Z0; move to z-safe height
G0 X4.0000 Y865.5800
M3S0
G4 P0.5; Tool On
G1 F300 Z0.0000
G1 F15000 X846.0000 Y865.5800 Z0.0000
M3S245
G4 P0.5; Tool Off

G0 Z0; move to z-safe height
G0 X846.0000 Y873.5800
M3S0
G4 P0.5; Tool On
G1 F300 Z0.0000
G1 F15000 X4.0000 Y873.5800 Z0.0000
M3S245
G4 P0.5; Tool Off

G0 Z0; move to z-safe height
G0 X4.0000 Y881.5800
M3S0
G4 P0.5; Tool On
G1 F300 Z0.0000
G1 F15000 X846.0000 Y881.5800 Z0.0000
M3S245
G4 P0.5; Tool Off

G0 Z0; move to z-safe height
G0 X846.0000 Y889.5800
M3S0
G4 P0.5; Tool On
G1 F300 Z0.0000
G1 F15000 X4.0000 Y889.5800 Z0.0000
M3S245
G4 P0.5; Tool Off

G0 Z0; move to z-safe height
G0 X4.0000 Y897.5800
M3S0
G4 P0.5; Tool On
G1 F300 Z0.0000
G1 F15000 X846.0000 Y897.5800 Z0.0000
M3S245
G4 P0.5; Tool Off

G0 Z0; move to z-safe height
G0 X846.0000 Y905.5800
M3S0
G4 P0.5; Tool On
G1 F300 Z0.0000
G1 F15000 X4.0000 Y905.5800 Z0.0000
M3S245
G4 P0.5; Tool Off

G0 Z0; move to z-safe height
G0 X4.0000 Y913.5800
M3S0
G4 P0.5; Tool On
G1 F300 Z0.0000
G1 F15000 X846.0000 Y913.5800 Z0.0000
M3S245
G4 P0.5; Tool Off

G0 Z0; move to z-safe height
G0 X846.0000 Y921.5800
M3S0
G4 P0.5; Tool On
G1 F300 Z0.0000
G1 F15000 X4.0000 Y921.5800 Z0.0000
M3S245
G4 P0.5; Tool Off

G0 Z0; move to z-safe height
G0 X4.0000 Y929.5800
M3S0
G4 P0.5; Tool On
G1 F300 Z0.0000
G1 F15000 X846.0000 Y929.5800 Z0.0000
M3S245
G4 P0.5; Tool Off

G0 Z0; move to z-safe height
G0 X846.0000 Y937.5800
M3S0
G4 P0.5; Tool On
G1 F300 Z0.0000
G1 F15000 X4.0000 Y937.5800 Z0.0000
M3S245
G4 P0.5; Tool Off

G0 Z0; move to z-safe height
G0 X4.0000 Y945.5800
M3S0
G4 P0.5; Tool On
G1 F300 Z0.0000
G1 F15000 X846.0000 Y945.5800 Z0.0000
M3S245
G4 P0.5; Tool Off

G0 Z0; move to z-safe height
G0 X846.0000 Y953.5800
M3S0
G4 P0.5; Tool On
G1 F300 Z0.0000
G1 F15000 X4.0000 Y953.5800 Z0.0000
M3S245
G4 P0.5; Tool Off

G0 Z0; move to z-safe height
G0 X4.0000 Y961.5800
M3S0
G4 P0.5; Tool On
G1 F300 Z0.0000
G1 F15000 X846.0000 Y961.5800 Z0.0000
M3S245
G4 P0.5; Tool Off

G0 Z0; move to z-safe height
G0 X846.0000 Y969.5800
M3S0
G4 P0.5; Tool On
G1 F300 Z0.0000
G1 F15000 X4.0000 Y969.5800 Z0.0000
M3S245
G4 P0.5; Tool Off

G0 Z0; move to z-safe height
G0 X4.0000 Y977.5800
M3S0
G4 P0.5; Tool On
G1 F300 Z0.0000
G1 F15000 X846.0000 Y977.5800 Z0.0000
M3S245
G4 P0.5; Tool Off

G0 Z0; move to z-safe height
G0 X846.0000 Y985.5800
M3S0
G4 P0.5; Tool On
G1 F300 Z0.0000
G1 F15000 X4.0000 Y985.5800 Z0.0000
M3S245
G4 P0.5; Tool Off

G0 Z0; move to z-safe height
G0 X4.0000 Y993.5800
M3S0
G4 P0.5; Tool On
G1 F300 Z0.0000
G1 F15000 X846.0000 Y993.5800 Z0.0000
M3S245
G4 P0.5; Tool Off

G0 Z0; move to z-safe height
G0 X846.0000 Y1001.5800
M3S0
G4 P0.5; Tool On
G1 F300 Z0.0000
G1 F15000 X4.0000 Y1001.5800 Z0.0000
M3S245
G4 P0.5; Tool Off

G0 Z0; move to z-safe height
G0 X4.0000 Y1009.5800
M3S0
G4 P0.5; Tool On
G1 F300 Z0.0000
G1 F15000 X846.0000 Y1009.5800 Z0.0000
M3S245
G4 P0.5; Tool Off

G0 Z0; move to z-safe height
G0 X846.0000 Y1017.5800
M3S0
G4 P0.5; Tool On
G1 F300 Z0.0000
G1 F15000 X4.0000 Y1017.5800 Z0.0000
M3S245
G4 P0.5; Tool Off

G0 Z0; move to z-safe height
G0 X4.0000 Y1025.5800
M3S0
G4 P0.5; Tool On
G1 F300 Z0.0000
G1 F15000 X846.0000 Y1025.5800 Z0.0000
M3S245
G4 P0.5; Tool Off

G0 Z0; move to z-safe height
G0 X846.0000 Y1033.5800
M3S0
G4 P0.5; Tool On
G1 F300 Z0.0000
G1 F15000 X4.0000 Y1033.5800 Z0.0000
M3S245
G4 P0.5; Tool Off

G0 Z0; move to z-safe height
G0 X4.0000 Y1041.5800
M3S0
G4 P0.5; Tool On
G1 F300 Z0.0000
G1 F15000 X846.0000 Y1041.5800 Z0.0000
M3S245
G4 P0.5; Tool Off

G0 Z0; move to z-safe height
G0 X846.0000 Y1049.5800
M3S0
G4 P0.5; Tool On
G1 F300 Z0.0000
G1 F15000 X4.0000 Y1049.5800 Z0.0000
M3S245
G4 P0.5; Tool Off

G0 Z0; move to z-safe height
G0 X4.0000 Y1057.5800
M3S0
G4 P0.5; Tool On
G1 F300 Z0.0000
G1 F15000 X846.0000 Y1057.5800 Z0.0000
M3S245
G4 P0.5; Tool Off

G0 Z0; move to z-safe height
G0 X846.0000 Y1065.5800
M3S0
G4 P0.5; Tool On
G1 F300 Z0.0000
G1 F15000 X4.0000 Y1065.5800 Z0.0000
M3S245
G4 P0.5; Tool Off

G0 Z0; move to z-safe height
G0 X4.0000 Y1073.5800
M3S0
G4 P0.5; Tool On
G1 F300 Z0.0000
G1 F15000 X846.0000 Y1073.5800 Z0.0000
M3S245
G4 P0.5; Tool Off

G0 Z0; move to z-safe height
G0 X846.0000 Y1081.5800
M3S0
G4 P0.5; Tool On
G1 F300 Z0.0000
G1 F15000 X4.0000 Y1081.5800 Z0.0000
M3S245
G4 P0.5; Tool Off

G0 Z0; move to z-safe height
G0 X4.0000 Y1089.5800
M3S0
G4 P0.5; Tool On
G1 F300 Z0.0000
G1 F15000 X846.0000 Y1089.5800 Z0.0000
M3S245
G4 P0.5; Tool Off

G0 Z0; move to z-safe height
G0 X846.0000 Y1097.5800
M3S0
G4 P0.5; Tool On
G1 F300 Z0.0000
G1 F15000 X4.0000 Y1097.5800 Z0.0000
M3S245
G4 P0.5; Tool Off

G0 Z0; move to z-safe height
G0 X4.0000 Y1105.5800
M3S0
G4 P0.5; Tool On
G1 F300 Z0.0000
G1 F15000 X846.0000 Y1105.5800 Z0.0000
M3S245
G4 P0.5; Tool Off

G0 Z0; move to z-safe height
G0 X846.0000 Y1113.5800
M3S0
G4 P0.5; Tool On
G1 F300 Z0.0000
G1 F15000 X4.0000 Y1113.5800 Z0.0000
M3S245
G4 P0.5; Tool Off

G0 Z0; move to z-safe height
G0 X4.0000 Y1121.5800
M3S0
G4 P0.5; Tool On
G1 F300 Z0.0000
G1 F15000 X846.0000 Y1121.5800 Z0.0000
M3S245
G4 P0.5; Tool Off

G0 Z0; move to z-safe height
G0 X846.0000 Y1129.5800
M3S0
G4 P0.5; Tool On
G1 F300 Z0.0000
G1 F15000 X4.0000 Y1129.5800 Z0.0000
M3S245
G4 P0.5; Tool Off

G0 Z0; move to z-safe height
G0 X4.0000 Y1137.5800
M3S0
G4 P0.5; Tool On
G1 F300 Z0.0000
G1 F15000 X846.0000 Y1137.5800 Z0.0000
M3S245
G4 P0.5; Tool Off

G0 Z0; move to z-safe height
G0 X846.0000 Y1145.5800
M3S0
G4 P0.5; Tool On
G1 F300 Z0.0000
G1 F15000 X4.0000 Y1145.5800 Z0.0000
M3S245
G4 P0.5; Tool Off
; retracting back to z-safe
G0 Z0

; Plotter Mode Complete
