; GCODE Generated by cam.openbuilds.com on 2023-04-16 
G21 ; mm-mode
G54; Work Coordinates
G21; mm-mode
G90; Absolute Positioning
; Plotter Mode Active

; Operation 0: Pen Plotter: (lines fill)
; Pen Diameter: 2

G0 Z0; move to z-safe height
G0 F1000 X4.0000 Y5.6000
M3S0
G4 P0.5; Tool On
G1 F300 Z0.0000
G1 F15000 X906.0000 Y5.6000 Z0.0000
M3S245
G4 P0.5; Tool Off

G0 Z0; move to z-safe height
G0 X906.0000 Y13.6000
M3S0
G4 P0.5; Tool On
G1 F300 Z0.0000
G1 F15000 X4.0000 Y13.6000 Z0.0000
M3S245
G4 P0.5; Tool Off

G0 Z0; move to z-safe height
G0 X4.0000 Y21.6000
M3S0
G4 P0.5; Tool On
G1 F300 Z0.0000
G1 F15000 X906.0000 Y21.6000 Z0.0000
M3S245
G4 P0.5; Tool Off

G0 Z0; move to z-safe height
G0 X906.0000 Y29.6000
M3S0
G4 P0.5; Tool On
G1 F300 Z0.0000
G1 F15000 X4.0000 Y29.6000 Z0.0000
M3S245
G4 P0.5; Tool Off

G0 Z0; move to z-safe height
G0 X4.0000 Y37.6000
M3S0
G4 P0.5; Tool On
G1 F300 Z0.0000
G1 F15000 X906.0000 Y37.6000 Z0.0000
M3S245
G4 P0.5; Tool Off

G0 Z0; move to z-safe height
G0 X906.0000 Y45.6000
M3S0
G4 P0.5; Tool On
G1 F300 Z0.0000
G1 F15000 X4.0000 Y45.6000 Z0.0000
M3S245
G4 P0.5; Tool Off

G0 Z0; move to z-safe height
G0 X4.0000 Y53.6000
M3S0
G4 P0.5; Tool On
G1 F300 Z0.0000
G1 F15000 X906.0000 Y53.6000 Z0.0000
M3S245
G4 P0.5; Tool Off

G0 Z0; move to z-safe height
G0 X906.0000 Y61.6000
M3S0
G4 P0.5; Tool On
G1 F300 Z0.0000
G1 F15000 X4.0000 Y61.6000 Z0.0000
M3S245
G4 P0.5; Tool Off

G0 Z0; move to z-safe height
G0 X4.0000 Y69.6000
M3S0
G4 P0.5; Tool On
G1 F300 Z0.0000
G1 F15000 X906.0000 Y69.6000 Z0.0000
M3S245
G4 P0.5; Tool Off

G0 Z0; move to z-safe height
G0 X906.0000 Y77.6000
M3S0
G4 P0.5; Tool On
G1 F300 Z0.0000
G1 F15000 X4.0000 Y77.6000 Z0.0000
M3S245
G4 P0.5; Tool Off

G0 Z0; move to z-safe height
G0 X4.0000 Y85.6000
M3S0
G4 P0.5; Tool On
G1 F300 Z0.0000
G1 F15000 X906.0000 Y85.6000 Z0.0000
M3S245
G4 P0.5; Tool Off

G0 Z0; move to z-safe height
G0 X906.0000 Y93.6000
M3S0
G4 P0.5; Tool On
G1 F300 Z0.0000
G1 F15000 X4.0000 Y93.6000 Z0.0000
M3S245
G4 P0.5; Tool Off

G0 Z0; move to z-safe height
G0 X4.0000 Y101.6000
M3S0
G4 P0.5; Tool On
G1 F300 Z0.0000
G1 F15000 X906.0000 Y101.6000 Z0.0000
M3S245
G4 P0.5; Tool Off

G0 Z0; move to z-safe height
G0 X906.0000 Y109.6000
M3S0
G4 P0.5; Tool On
G1 F300 Z0.0000
G1 F15000 X4.0000 Y109.6000 Z0.0000
M3S245
G4 P0.5; Tool Off

G0 Z0; move to z-safe height
G0 X4.0000 Y117.6000
M3S0
G4 P0.5; Tool On
G1 F300 Z0.0000
G1 F15000 X906.0000 Y117.6000 Z0.0000
M3S245
G4 P0.5; Tool Off

G0 Z0; move to z-safe height
G0 X906.0000 Y125.6000
M3S0
G4 P0.5; Tool On
G1 F300 Z0.0000
G1 F15000 X4.0000 Y125.6000 Z0.0000
M3S245
G4 P0.5; Tool Off

G0 Z0; move to z-safe height
G0 X4.0000 Y133.6000
M3S0
G4 P0.5; Tool On
G1 F300 Z0.0000
G1 F15000 X906.0000 Y133.6000 Z0.0000
M3S245
G4 P0.5; Tool Off

G0 Z0; move to z-safe height
G0 X906.0000 Y141.6000
M3S0
G4 P0.5; Tool On
G1 F300 Z0.0000
G1 F15000 X4.0000 Y141.6000 Z0.0000
M3S245
G4 P0.5; Tool Off

G0 Z0; move to z-safe height
G0 X4.0000 Y149.6000
M3S0
G4 P0.5; Tool On
G1 F300 Z0.0000
G1 F15000 X906.0000 Y149.6000 Z0.0000
M3S245
G4 P0.5; Tool Off

G0 Z0; move to z-safe height
G0 X906.0000 Y157.6000
M3S0
G4 P0.5; Tool On
G1 F300 Z0.0000
G1 F15000 X4.0000 Y157.6000 Z0.0000
M3S245
G4 P0.5; Tool Off

G0 Z0; move to z-safe height
G0 X4.0000 Y165.6000
M3S0
G4 P0.5; Tool On
G1 F300 Z0.0000
G1 F15000 X906.0000 Y165.6000 Z0.0000
M3S245
G4 P0.5; Tool Off

G0 Z0; move to z-safe height
G0 X906.0000 Y173.6000
M3S0
G4 P0.5; Tool On
G1 F300 Z0.0000
G1 F15000 X4.0000 Y173.6000 Z0.0000
M3S245
G4 P0.5; Tool Off

G0 Z0; move to z-safe height
G0 X4.0000 Y181.6000
M3S0
G4 P0.5; Tool On
G1 F300 Z0.0000
G1 F15000 X906.0000 Y181.6000 Z0.0000
M3S245
G4 P0.5; Tool Off

G0 Z0; move to z-safe height
G0 X906.0000 Y189.6000
M3S0
G4 P0.5; Tool On
G1 F300 Z0.0000
G1 F15000 X4.0000 Y189.6000 Z0.0000
M3S245
G4 P0.5; Tool Off

G0 Z0; move to z-safe height
G0 X4.0000 Y197.6000
M3S0
G4 P0.5; Tool On
G1 F300 Z0.0000
G1 F15000 X906.0000 Y197.6000 Z0.0000
M3S245
G4 P0.5; Tool Off

G0 Z0; move to z-safe height
G0 X906.0000 Y205.6000
M3S0
G4 P0.5; Tool On
G1 F300 Z0.0000
G1 F15000 X4.0000 Y205.6000 Z0.0000
M3S245
G4 P0.5; Tool Off

G0 Z0; move to z-safe height
G0 X4.0000 Y213.6000
M3S0
G4 P0.5; Tool On
G1 F300 Z0.0000
G1 F15000 X906.0000 Y213.6000 Z0.0000
M3S245
G4 P0.5; Tool Off

G0 Z0; move to z-safe height
G0 X906.0000 Y221.6000
M3S0
G4 P0.5; Tool On
G1 F300 Z0.0000
G1 F15000 X4.0000 Y221.6000 Z0.0000
M3S245
G4 P0.5; Tool Off

G0 Z0; move to z-safe height
G0 X4.0000 Y229.6000
M3S0
G4 P0.5; Tool On
G1 F300 Z0.0000
G1 F15000 X906.0000 Y229.6000 Z0.0000
M3S245
G4 P0.5; Tool Off

G0 Z0; move to z-safe height
G0 X906.0000 Y237.6000
M3S0
G4 P0.5; Tool On
G1 F300 Z0.0000
G1 F15000 X4.0000 Y237.6000 Z0.0000
M3S245
G4 P0.5; Tool Off

G0 Z0; move to z-safe height
G0 X4.0000 Y245.6000
M3S0
G4 P0.5; Tool On
G1 F300 Z0.0000
G1 F15000 X906.0000 Y245.6000 Z0.0000
M3S245
G4 P0.5; Tool Off

G0 Z0; move to z-safe height
G0 X906.0000 Y253.6000
M3S0
G4 P0.5; Tool On
G1 F300 Z0.0000
G1 F15000 X4.0000 Y253.6000 Z0.0000
M3S245
G4 P0.5; Tool Off

G0 Z0; move to z-safe height
G0 X4.0000 Y261.6000
M3S0
G4 P0.5; Tool On
G1 F300 Z0.0000
G1 F15000 X906.0000 Y261.6000 Z0.0000
M3S245
G4 P0.5; Tool Off

G0 Z0; move to z-safe height
G0 X906.0000 Y269.6000
M3S0
G4 P0.5; Tool On
G1 F300 Z0.0000
G1 F15000 X4.0000 Y269.6000 Z0.0000
M3S245
G4 P0.5; Tool Off

G0 Z0; move to z-safe height
G0 X4.0000 Y277.6000
M3S0
G4 P0.5; Tool On
G1 F300 Z0.0000
G1 F15000 X906.0000 Y277.6000 Z0.0000
M3S245
G4 P0.5; Tool Off

G0 Z0; move to z-safe height
G0 X906.0000 Y285.6000
M3S0
G4 P0.5; Tool On
G1 F300 Z0.0000
G1 F15000 X4.0000 Y285.6000 Z0.0000
M3S245
G4 P0.5; Tool Off

G0 Z0; move to z-safe height
G0 X4.0000 Y293.6000
M3S0
G4 P0.5; Tool On
G1 F300 Z0.0000
G1 F15000 X906.0000 Y293.6000 Z0.0000
M3S245
G4 P0.5; Tool Off

G0 Z0; move to z-safe height
G0 X906.0000 Y301.6000
M3S0
G4 P0.5; Tool On
G1 F300 Z0.0000
G1 F15000 X4.0000 Y301.6000 Z0.0000
M3S245
G4 P0.5; Tool Off

G0 Z0; move to z-safe height
G0 X4.0000 Y309.6000
M3S0
G4 P0.5; Tool On
G1 F300 Z0.0000
G1 F15000 X906.0000 Y309.6000 Z0.0000
M3S245
G4 P0.5; Tool Off

G0 Z0; move to z-safe height
G0 X906.0000 Y317.6000
M3S0
G4 P0.5; Tool On
G1 F300 Z0.0000
G1 F15000 X4.0000 Y317.6000 Z0.0000
M3S245
G4 P0.5; Tool Off

G0 Z0; move to z-safe height
G0 X4.0000 Y325.6000
M3S0
G4 P0.5; Tool On
G1 F300 Z0.0000
G1 F15000 X906.0000 Y325.6000 Z0.0000
M3S245
G4 P0.5; Tool Off

G0 Z0; move to z-safe height
G0 X906.0000 Y333.6000
M3S0
G4 P0.5; Tool On
G1 F300 Z0.0000
G1 F15000 X4.0000 Y333.6000 Z0.0000
M3S245
G4 P0.5; Tool Off

G0 Z0; move to z-safe height
G0 X4.0000 Y341.6000
M3S0
G4 P0.5; Tool On
G1 F300 Z0.0000
G1 F15000 X906.0000 Y341.6000 Z0.0000
M3S245
G4 P0.5; Tool Off

G0 Z0; move to z-safe height
G0 X906.0000 Y349.6000
M3S0
G4 P0.5; Tool On
G1 F300 Z0.0000
G1 F15000 X4.0000 Y349.6000 Z0.0000
M3S245
G4 P0.5; Tool Off

G0 Z0; move to z-safe height
G0 X4.0000 Y357.6000
M3S0
G4 P0.5; Tool On
G1 F300 Z0.0000
G1 F15000 X906.0000 Y357.6000 Z0.0000
M3S245
G4 P0.5; Tool Off

G0 Z0; move to z-safe height
G0 X906.0000 Y365.6000
M3S0
G4 P0.5; Tool On
G1 F300 Z0.0000
G1 F15000 X4.0000 Y365.6000 Z0.0000
M3S245
G4 P0.5; Tool Off

G0 Z0; move to z-safe height
G0 X4.0000 Y373.6000
M3S0
G4 P0.5; Tool On
G1 F300 Z0.0000
G1 F15000 X906.0000 Y373.6000 Z0.0000
M3S245
G4 P0.5; Tool Off

G0 Z0; move to z-safe height
G0 X906.0000 Y381.6000
M3S0
G4 P0.5; Tool On
G1 F300 Z0.0000
G1 F15000 X4.0000 Y381.6000 Z0.0000
M3S245
G4 P0.5; Tool Off

G0 Z0; move to z-safe height
G0 X4.0000 Y389.6000
M3S0
G4 P0.5; Tool On
G1 F300 Z0.0000
G1 F15000 X906.0000 Y389.6000 Z0.0000
M3S245
G4 P0.5; Tool Off

G0 Z0; move to z-safe height
G0 X906.0000 Y397.6000
M3S0
G4 P0.5; Tool On
G1 F300 Z0.0000
G1 F15000 X4.0000 Y397.6000 Z0.0000
M3S245
G4 P0.5; Tool Off

G0 Z0; move to z-safe height
G0 X4.0000 Y405.6000
M3S0
G4 P0.5; Tool On
G1 F300 Z0.0000
G1 F15000 X906.0000 Y405.6000 Z0.0000
M3S245
G4 P0.5; Tool Off

G0 Z0; move to z-safe height
G0 X906.0000 Y413.6000
M3S0
G4 P0.5; Tool On
G1 F300 Z0.0000
G1 F15000 X4.0000 Y413.6000 Z0.0000
M3S245
G4 P0.5; Tool Off

G0 Z0; move to z-safe height
G0 X4.0000 Y421.6000
M3S0
G4 P0.5; Tool On
G1 F300 Z0.0000
G1 F15000 X906.0000 Y421.6000 Z0.0000
M3S245
G4 P0.5; Tool Off

G0 Z0; move to z-safe height
G0 X906.0000 Y429.6000
M3S0
G4 P0.5; Tool On
G1 F300 Z0.0000
G1 F15000 X4.0000 Y429.6000 Z0.0000
M3S245
G4 P0.5; Tool Off

G0 Z0; move to z-safe height
G0 X4.0000 Y437.6000
M3S0
G4 P0.5; Tool On
G1 F300 Z0.0000
G1 F15000 X906.0000 Y437.6000 Z0.0000
M3S245
G4 P0.5; Tool Off

G0 Z0; move to z-safe height
G0 X906.0000 Y445.6000
M3S0
G4 P0.5; Tool On
G1 F300 Z0.0000
G1 F15000 X4.0000 Y445.6000 Z0.0000
M3S245
G4 P0.5; Tool Off

G0 Z0; move to z-safe height
G0 X4.0000 Y453.6000
M3S0
G4 P0.5; Tool On
G1 F300 Z0.0000
G1 F15000 X906.0000 Y453.6000 Z0.0000
M3S245
G4 P0.5; Tool Off

G0 Z0; move to z-safe height
G0 X906.0000 Y461.6000
M3S0
G4 P0.5; Tool On
G1 F300 Z0.0000
G1 F15000 X4.0000 Y461.6000 Z0.0000
M3S245
G4 P0.5; Tool Off

G0 Z0; move to z-safe height
G0 X4.0000 Y469.6000
M3S0
G4 P0.5; Tool On
G1 F300 Z0.0000
G1 F15000 X906.0000 Y469.6000 Z0.0000
M3S245
G4 P0.5; Tool Off

G0 Z0; move to z-safe height
G0 X906.0000 Y477.6000
M3S0
G4 P0.5; Tool On
G1 F300 Z0.0000
G1 F15000 X4.0000 Y477.6000 Z0.0000
M3S245
G4 P0.5; Tool Off

G0 Z0; move to z-safe height
G0 X4.0000 Y485.6000
M3S0
G4 P0.5; Tool On
G1 F300 Z0.0000
G1 F15000 X906.0000 Y485.6000 Z0.0000
M3S245
G4 P0.5; Tool Off

G0 Z0; move to z-safe height
G0 X906.0000 Y493.6000
M3S0
G4 P0.5; Tool On
G1 F300 Z0.0000
G1 F15000 X4.0000 Y493.6000 Z0.0000
M3S245
G4 P0.5; Tool Off

G0 Z0; move to z-safe height
G0 X4.0000 Y501.6000
M3S0
G4 P0.5; Tool On
G1 F300 Z0.0000
G1 F15000 X906.0000 Y501.6000 Z0.0000
M3S245
G4 P0.5; Tool Off

G0 Z0; move to z-safe height
G0 X906.0000 Y509.6000
M3S0
G4 P0.5; Tool On
G1 F300 Z0.0000
G1 F15000 X4.0000 Y509.6000 Z0.0000
M3S245
G4 P0.5; Tool Off

G0 Z0; move to z-safe height
G0 X4.0000 Y517.6000
M3S0
G4 P0.5; Tool On
G1 F300 Z0.0000
G1 F15000 X906.0000 Y517.6000 Z0.0000
M3S245
G4 P0.5; Tool Off

G0 Z0; move to z-safe height
G0 X906.0000 Y525.6000
M3S0
G4 P0.5; Tool On
G1 F300 Z0.0000
G1 F15000 X4.0000 Y525.6000 Z0.0000
M3S245
G4 P0.5; Tool Off

G0 Z0; move to z-safe height
G0 X4.0000 Y533.6000
M3S0
G4 P0.5; Tool On
G1 F300 Z0.0000
G1 F15000 X906.0000 Y533.6000 Z0.0000
M3S245
G4 P0.5; Tool Off

G0 Z0; move to z-safe height
G0 X906.0000 Y541.6000
M3S0
G4 P0.5; Tool On
G1 F300 Z0.0000
G1 F15000 X4.0000 Y541.6000 Z0.0000
M3S245
G4 P0.5; Tool Off

G0 Z0; move to z-safe height
G0 X4.0000 Y549.6000
M3S0
G4 P0.5; Tool On
G1 F300 Z0.0000
G1 F15000 X906.0000 Y549.6000 Z0.0000
M3S245
G4 P0.5; Tool Off

G0 Z0; move to z-safe height
G0 X906.0000 Y557.6000
M3S0
G4 P0.5; Tool On
G1 F300 Z0.0000
G1 F15000 X4.0000 Y557.6000 Z0.0000
M3S245
G4 P0.5; Tool Off

G0 Z0; move to z-safe height
G0 X4.0000 Y565.6000
M3S0
G4 P0.5; Tool On
G1 F300 Z0.0000
G1 F15000 X906.0000 Y565.6000 Z0.0000
M3S245
G4 P0.5; Tool Off

G0 Z0; move to z-safe height
G0 X906.0000 Y573.6000
M3S0
G4 P0.5; Tool On
G1 F300 Z0.0000
G1 F15000 X4.0000 Y573.6000 Z0.0000
M3S245
G4 P0.5; Tool Off

G0 Z0; move to z-safe height
G0 X4.0000 Y581.6000
M3S0
G4 P0.5; Tool On
G1 F300 Z0.0000
G1 F15000 X906.0000 Y581.6000 Z0.0000
M3S245
G4 P0.5; Tool Off

G0 Z0; move to z-safe height
G0 X906.0000 Y589.6000
M3S0
G4 P0.5; Tool On
G1 F300 Z0.0000
G1 F15000 X4.0000 Y589.6000 Z0.0000
M3S245
G4 P0.5; Tool Off

G0 Z0; move to z-safe height
G0 X4.0000 Y597.6000
M3S0
G4 P0.5; Tool On
G1 F300 Z0.0000
G1 F15000 X906.0000 Y597.6000 Z0.0000
M3S245
G4 P0.5; Tool Off

G0 Z0; move to z-safe height
G0 X906.0000 Y605.6000
M3S0
G4 P0.5; Tool On
G1 F300 Z0.0000
G1 F15000 X4.0000 Y605.6000 Z0.0000
M3S245
G4 P0.5; Tool Off

G0 Z0; move to z-safe height
G0 X4.0000 Y613.6000
M3S0
G4 P0.5; Tool On
G1 F300 Z0.0000
G1 F15000 X906.0000 Y613.6000 Z0.0000
M3S245
G4 P0.5; Tool Off

G0 Z0; move to z-safe height
G0 X906.0000 Y621.6000
M3S0
G4 P0.5; Tool On
G1 F300 Z0.0000
G1 F15000 X4.0000 Y621.6000 Z0.0000
M3S245
G4 P0.5; Tool Off

G0 Z0; move to z-safe height
G0 X4.0000 Y629.6000
M3S0
G4 P0.5; Tool On
G1 F300 Z0.0000
G1 F15000 X906.0000 Y629.6000 Z0.0000
M3S245
G4 P0.5; Tool Off

G0 Z0; move to z-safe height
G0 X906.0000 Y637.6000
M3S0
G4 P0.5; Tool On
G1 F300 Z0.0000
G1 F15000 X4.0000 Y637.6000 Z0.0000
M3S245
G4 P0.5; Tool Off

G0 Z0; move to z-safe height
G0 X4.0000 Y645.6000
M3S0
G4 P0.5; Tool On
G1 F300 Z0.0000
G1 F15000 X906.0000 Y645.6000 Z0.0000
M3S245
G4 P0.5; Tool Off

G0 Z0; move to z-safe height
G0 X906.0000 Y653.6000
M3S0
G4 P0.5; Tool On
G1 F300 Z0.0000
G1 F15000 X4.0000 Y653.6000 Z0.0000
M3S245
G4 P0.5; Tool Off

G0 Z0; move to z-safe height
G0 X4.0000 Y661.6000
M3S0
G4 P0.5; Tool On
G1 F300 Z0.0000
G1 F15000 X906.0000 Y661.6000 Z0.0000
M3S245
G4 P0.5; Tool Off

G0 Z0; move to z-safe height
G0 X906.0000 Y669.6000
M3S0
G4 P0.5; Tool On
G1 F300 Z0.0000
G1 F15000 X4.0000 Y669.6000 Z0.0000
M3S245
G4 P0.5; Tool Off

G0 Z0; move to z-safe height
G0 X4.0000 Y677.6000
M3S0
G4 P0.5; Tool On
G1 F300 Z0.0000
G1 F15000 X906.0000 Y677.6000 Z0.0000
M3S245
G4 P0.5; Tool Off

G0 Z0; move to z-safe height
G0 X906.0000 Y685.6000
M3S0
G4 P0.5; Tool On
G1 F300 Z0.0000
G1 F15000 X4.0000 Y685.6000 Z0.0000
M3S245
G4 P0.5; Tool Off

G0 Z0; move to z-safe height
G0 X4.0000 Y693.6000
M3S0
G4 P0.5; Tool On
G1 F300 Z0.0000
G1 F15000 X906.0000 Y693.6000 Z0.0000
M3S245
G4 P0.5; Tool Off

G0 Z0; move to z-safe height
G0 X906.0000 Y701.6000
M3S0
G4 P0.5; Tool On
G1 F300 Z0.0000
G1 F15000 X4.0000 Y701.6000 Z0.0000
M3S245
G4 P0.5; Tool Off

G0 Z0; move to z-safe height
G0 X4.0000 Y709.6000
M3S0
G4 P0.5; Tool On
G1 F300 Z0.0000
G1 F15000 X906.0000 Y709.6000 Z0.0000
M3S245
G4 P0.5; Tool Off

G0 Z0; move to z-safe height
G0 X906.0000 Y717.6000
M3S0
G4 P0.5; Tool On
G1 F300 Z0.0000
G1 F15000 X4.0000 Y717.6000 Z0.0000
M3S245
G4 P0.5; Tool Off

G0 Z0; move to z-safe height
G0 X4.0000 Y725.6000
M3S0
G4 P0.5; Tool On
G1 F300 Z0.0000
G1 F15000 X906.0000 Y725.6000 Z0.0000
M3S245
G4 P0.5; Tool Off

G0 Z0; move to z-safe height
G0 X906.0000 Y733.6000
M3S0
G4 P0.5; Tool On
G1 F300 Z0.0000
G1 F15000 X4.0000 Y733.6000 Z0.0000
M3S245
G4 P0.5; Tool Off

G0 Z0; move to z-safe height
G0 X4.0000 Y741.6000
M3S0
G4 P0.5; Tool On
G1 F300 Z0.0000
G1 F15000 X906.0000 Y741.6000 Z0.0000
M3S245
G4 P0.5; Tool Off

G0 Z0; move to z-safe height
G0 X906.0000 Y749.6000
M3S0
G4 P0.5; Tool On
G1 F300 Z0.0000
G1 F15000 X4.0000 Y749.6000 Z0.0000
M3S245
G4 P0.5; Tool Off

G0 Z0; move to z-safe height
G0 X4.0000 Y757.6000
M3S0
G4 P0.5; Tool On
G1 F300 Z0.0000
G1 F15000 X906.0000 Y757.6000 Z0.0000
M3S245
G4 P0.5; Tool Off

G0 Z0; move to z-safe height
G0 X906.0000 Y765.6000
M3S0
G4 P0.5; Tool On
G1 F300 Z0.0000
G1 F15000 X4.0000 Y765.6000 Z0.0000
M3S245
G4 P0.5; Tool Off

G0 Z0; move to z-safe height
G0 X4.0000 Y773.6000
M3S0
G4 P0.5; Tool On
G1 F300 Z0.0000
G1 F15000 X906.0000 Y773.6000 Z0.0000
M3S245
G4 P0.5; Tool Off

G0 Z0; move to z-safe height
G0 X906.0000 Y781.6000
M3S0
G4 P0.5; Tool On
G1 F300 Z0.0000
G1 F15000 X4.0000 Y781.6000 Z0.0000
M3S245
G4 P0.5; Tool Off

G0 Z0; move to z-safe height
G0 X4.0000 Y789.6000
M3S0
G4 P0.5; Tool On
G1 F300 Z0.0000
G1 F15000 X906.0000 Y789.6000 Z0.0000
M3S245
G4 P0.5; Tool Off

G0 Z0; move to z-safe height
G0 X906.0000 Y797.6000
M3S0
G4 P0.5; Tool On
G1 F300 Z0.0000
G1 F15000 X4.0000 Y797.6000 Z0.0000
M3S245
G4 P0.5; Tool Off

G0 Z0; move to z-safe height
G0 X4.0000 Y805.6000
M3S0
G4 P0.5; Tool On
G1 F300 Z0.0000
G1 F15000 X906.0000 Y805.6000 Z0.0000
M3S245
G4 P0.5; Tool Off

G0 Z0; move to z-safe height
G0 X906.0000 Y813.6000
M3S0
G4 P0.5; Tool On
G1 F300 Z0.0000
G1 F15000 X4.0000 Y813.6000 Z0.0000
M3S245
G4 P0.5; Tool Off

G0 Z0; move to z-safe height
G0 X4.0000 Y821.6000
M3S0
G4 P0.5; Tool On
G1 F300 Z0.0000
G1 F15000 X906.0000 Y821.6000 Z0.0000
M3S245
G4 P0.5; Tool Off

G0 Z0; move to z-safe height
G0 X906.0000 Y829.6000
M3S0
G4 P0.5; Tool On
G1 F300 Z0.0000
G1 F15000 X4.0000 Y829.6000 Z0.0000
M3S245
G4 P0.5; Tool Off

G0 Z0; move to z-safe height
G0 X4.0000 Y837.6000
M3S0
G4 P0.5; Tool On
G1 F300 Z0.0000
G1 F15000 X906.0000 Y837.6000 Z0.0000
M3S245
G4 P0.5; Tool Off

G0 Z0; move to z-safe height
G0 X906.0000 Y845.6000
M3S0
G4 P0.5; Tool On
G1 F300 Z0.0000
G1 F15000 X4.0000 Y845.6000 Z0.0000
M3S245
G4 P0.5; Tool Off

G0 Z0; move to z-safe height
G0 X4.0000 Y853.6000
M3S0
G4 P0.5; Tool On
G1 F300 Z0.0000
G1 F15000 X906.0000 Y853.6000 Z0.0000
M3S245
G4 P0.5; Tool Off

G0 Z0; move to z-safe height
G0 X906.0000 Y861.6000
M3S0
G4 P0.5; Tool On
G1 F300 Z0.0000
G1 F15000 X4.0000 Y861.6000 Z0.0000
M3S245
G4 P0.5; Tool Off

G0 Z0; move to z-safe height
G0 X4.0000 Y869.6000
M3S0
G4 P0.5; Tool On
G1 F300 Z0.0000
G1 F15000 X906.0000 Y869.6000 Z0.0000
M3S245
G4 P0.5; Tool Off

G0 Z0; move to z-safe height
G0 X906.0000 Y877.6000
M3S0
G4 P0.5; Tool On
G1 F300 Z0.0000
G1 F15000 X4.0000 Y877.6000 Z0.0000
M3S245
G4 P0.5; Tool Off

G0 Z0; move to z-safe height
G0 X4.0000 Y885.6000
M3S0
G4 P0.5; Tool On
G1 F300 Z0.0000
G1 F15000 X906.0000 Y885.6000 Z0.0000
M3S245
G4 P0.5; Tool Off

G0 Z0; move to z-safe height
G0 X906.0000 Y893.6000
M3S0
G4 P0.5; Tool On
G1 F300 Z0.0000
G1 F15000 X4.0000 Y893.6000 Z0.0000
M3S245
G4 P0.5; Tool Off

G0 Z0; move to z-safe height
G0 X4.0000 Y901.6000
M3S0
G4 P0.5; Tool On
G1 F300 Z0.0000
G1 F15000 X906.0000 Y901.6000 Z0.0000
M3S245
G4 P0.5; Tool Off

G0 Z0; move to z-safe height
G0 X906.0000 Y909.6000
M3S0
G4 P0.5; Tool On
G1 F300 Z0.0000
G1 F15000 X4.0000 Y909.6000 Z0.0000
M3S245
G4 P0.5; Tool Off

G0 Z0; move to z-safe height
G0 X4.0000 Y917.6000
M3S0
G4 P0.5; Tool On
G1 F300 Z0.0000
G1 F15000 X906.0000 Y917.6000 Z0.0000
M3S245
G4 P0.5; Tool Off

G0 Z0; move to z-safe height
G0 X906.0000 Y925.6000
M3S0
G4 P0.5; Tool On
G1 F300 Z0.0000
G1 F15000 X4.0000 Y925.6000 Z0.0000
M3S245
G4 P0.5; Tool Off

G0 Z0; move to z-safe height
G0 X4.0000 Y933.6000
M3S0
G4 P0.5; Tool On
G1 F300 Z0.0000
G1 F15000 X906.0000 Y933.6000 Z0.0000
M3S245
G4 P0.5; Tool Off

G0 Z0; move to z-safe height
G0 X906.0000 Y941.6000
M3S0
G4 P0.5; Tool On
G1 F300 Z0.0000
G1 F15000 X4.0000 Y941.6000 Z0.0000
M3S245
G4 P0.5; Tool Off

G0 Z0; move to z-safe height
G0 X4.0000 Y949.6000
M3S0
G4 P0.5; Tool On
G1 F300 Z0.0000
G1 F15000 X906.0000 Y949.6000 Z0.0000
M3S245
G4 P0.5; Tool Off

G0 Z0; move to z-safe height
G0 X906.0000 Y957.6000
M3S0
G4 P0.5; Tool On
G1 F300 Z0.0000
G1 F15000 X4.0000 Y957.6000 Z0.0000
M3S245
G4 P0.5; Tool Off

G0 Z0; move to z-safe height
G0 X4.0000 Y965.6000
M3S0
G4 P0.5; Tool On
G1 F300 Z0.0000
G1 F15000 X906.0000 Y965.6000 Z0.0000
M3S245
G4 P0.5; Tool Off

G0 Z0; move to z-safe height
G0 X906.0000 Y973.6000
M3S0
G4 P0.5; Tool On
G1 F300 Z0.0000
G1 F15000 X4.0000 Y973.6000 Z0.0000
M3S245
G4 P0.5; Tool Off

G0 Z0; move to z-safe height
G0 X4.0000 Y981.6000
M3S0
G4 P0.5; Tool On
G1 F300 Z0.0000
G1 F15000 X906.0000 Y981.6000 Z0.0000
M3S245
G4 P0.5; Tool Off

G0 Z0; move to z-safe height
G0 X906.0000 Y989.6000
M3S0
G4 P0.5; Tool On
G1 F300 Z0.0000
G1 F15000 X4.0000 Y989.6000 Z0.0000
M3S245
G4 P0.5; Tool Off

G0 Z0; move to z-safe height
G0 X4.0000 Y997.6000
M3S0
G4 P0.5; Tool On
G1 F300 Z0.0000
G1 F15000 X906.0000 Y997.6000 Z0.0000
M3S245
G4 P0.5; Tool Off

G0 Z0; move to z-safe height
G0 X906.0000 Y1005.6000
M3S0
G4 P0.5; Tool On
G1 F300 Z0.0000
G1 F15000 X4.0000 Y1005.6000 Z0.0000
M3S245
G4 P0.5; Tool Off

G0 Z0; move to z-safe height
G0 X4.0000 Y1013.6000
M3S0
G4 P0.5; Tool On
G1 F300 Z0.0000
G1 F15000 X906.0000 Y1013.6000 Z0.0000
M3S245
G4 P0.5; Tool Off

G0 Z0; move to z-safe height
G0 X906.0000 Y1021.6000
M3S0
G4 P0.5; Tool On
G1 F300 Z0.0000
G1 F15000 X4.0000 Y1021.6000 Z0.0000
M3S245
G4 P0.5; Tool Off

G0 Z0; move to z-safe height
G0 X4.0000 Y1029.6000
M3S0
G4 P0.5; Tool On
G1 F300 Z0.0000
G1 F15000 X906.0000 Y1029.6000 Z0.0000
M3S245
G4 P0.5; Tool Off

G0 Z0; move to z-safe height
G0 X906.0000 Y1037.6000
M3S0
G4 P0.5; Tool On
G1 F300 Z0.0000
G1 F15000 X4.0000 Y1037.6000 Z0.0000
M3S245
G4 P0.5; Tool Off

G0 Z0; move to z-safe height
G0 X4.0000 Y1045.6000
M3S0
G4 P0.5; Tool On
G1 F300 Z0.0000
G1 F15000 X906.0000 Y1045.6000 Z0.0000
M3S245
G4 P0.5; Tool Off

G0 Z0; move to z-safe height
G0 X906.0000 Y1053.6000
M3S0
G4 P0.5; Tool On
G1 F300 Z0.0000
G1 F15000 X4.0000 Y1053.6000 Z0.0000
M3S245
G4 P0.5; Tool Off

G0 Z0; move to z-safe height
G0 X4.0000 Y1061.6000
M3S0
G4 P0.5; Tool On
G1 F300 Z0.0000
G1 F15000 X906.0000 Y1061.6000 Z0.0000
M3S245
G4 P0.5; Tool Off

G0 Z0; move to z-safe height
G0 X906.0000 Y1069.6000
M3S0
G4 P0.5; Tool On
G1 F300 Z0.0000
G1 F15000 X4.0000 Y1069.6000 Z0.0000
M3S245
G4 P0.5; Tool Off

G0 Z0; move to z-safe height
G0 X4.0000 Y1077.6000
M3S0
G4 P0.5; Tool On
G1 F300 Z0.0000
G1 F15000 X906.0000 Y1077.6000 Z0.0000
M3S245
G4 P0.5; Tool Off

G0 Z0; move to z-safe height
G0 X906.0000 Y1085.6000
M3S0
G4 P0.5; Tool On
G1 F300 Z0.0000
G1 F15000 X4.0000 Y1085.6000 Z0.0000
M3S245
G4 P0.5; Tool Off

G0 Z0; move to z-safe height
G0 X4.0000 Y1093.6000
M3S0
G4 P0.5; Tool On
G1 F300 Z0.0000
G1 F15000 X906.0000 Y1093.6000 Z0.0000
M3S245
G4 P0.5; Tool Off

G0 Z0; move to z-safe height
G0 X906.0000 Y1101.6000
M3S0
G4 P0.5; Tool On
G1 F300 Z0.0000
G1 F15000 X4.0000 Y1101.6000 Z0.0000
M3S245
G4 P0.5; Tool Off

G0 Z0; move to z-safe height
G0 X4.0000 Y1109.6000
M3S0
G4 P0.5; Tool On
G1 F300 Z0.0000
G1 F15000 X906.0000 Y1109.6000 Z0.0000
M3S245
G4 P0.5; Tool Off

G0 Z0; move to z-safe height
G0 X906.0000 Y1117.6000
M3S0
G4 P0.5; Tool On
G1 F300 Z0.0000
G1 F15000 X4.0000 Y1117.6000 Z0.0000
M3S245
G4 P0.5; Tool Off

G0 Z0; move to z-safe height
G0 X4.0000 Y1125.6000
M3S0
G4 P0.5; Tool On
G1 F300 Z0.0000
G1 F15000 X906.0000 Y1125.6000 Z0.0000
M3S245
G4 P0.5; Tool Off

G0 Z0; move to z-safe height
G0 X906.0000 Y1133.6000
M3S0
G4 P0.5; Tool On
G1 F300 Z0.0000
G1 F15000 X4.0000 Y1133.6000 Z0.0000
M3S245
G4 P0.5; Tool Off

G0 Z0; move to z-safe height
G0 X4.0000 Y1141.6000
M3S0
G4 P0.5; Tool On
G1 F300 Z0.0000
G1 F15000 X906.0000 Y1141.6000 Z0.0000
M3S245
G4 P0.5; Tool Off

G0 Z0; move to z-safe height
G0 X906.0000 Y1149.6000
M3S0
G4 P0.5; Tool On
G1 F300 Z0.0000
G1 F15000 X4.0000 Y1149.6000 Z0.0000
M3S245
G4 P0.5; Tool Off

G0 Z0; move to z-safe height
G0 X4.0000 Y1157.6000
M3S0
G4 P0.5; Tool On
G1 F300 Z0.0000
G1 F15000 X906.0000 Y1157.6000 Z0.0000
M3S245
G4 P0.5; Tool Off

G0 Z0; move to z-safe height
G0 X906.0000 Y1165.6000
M3S0
G4 P0.5; Tool On
G1 F300 Z0.0000
G1 F15000 X4.0000 Y1165.6000 Z0.0000
M3S245
G4 P0.5; Tool Off

G0 Z0; move to z-safe height
G0 X4.0000 Y1173.6000
M3S0
G4 P0.5; Tool On
G1 F300 Z0.0000
G1 F15000 X906.0000 Y1173.6000 Z0.0000
M3S245
G4 P0.5; Tool Off

G0 Z0; move to z-safe height
G0 X906.0000 Y1181.6000
M3S0
G4 P0.5; Tool On
G1 F300 Z0.0000
G1 F15000 X4.0000 Y1181.6000 Z0.0000
M3S245
G4 P0.5; Tool Off

G0 Z0; move to z-safe height
G0 X4.0000 Y1189.6000
M3S0
G4 P0.5; Tool On
G1 F300 Z0.0000
G1 F15000 X906.0000 Y1189.6000 Z0.0000
M3S245
G4 P0.5; Tool Off

G0 Z0; move to z-safe height
G0 X906.0000 Y1197.6000
M3S0
G4 P0.5; Tool On
G1 F300 Z0.0000
G1 F15000 X4.0000 Y1197.6000 Z0.0000
M3S245
G4 P0.5; Tool Off

G0 Z0; move to z-safe height
G0 X4.0000 Y1205.6000
M3S0
G4 P0.5; Tool On
G1 F300 Z0.0000
G1 F15000 X906.0000 Y1205.6000 Z0.0000
M3S245
G4 P0.5; Tool Off
; retracting back to z-safe
G0 Z0

; Plotter Mode Complete
