; GCODE Generated by cam.openbuilds.com on 2023-12-16 
G21 ; mm-mode
G54; Work Coordinates
G21; mm-mode
G90; Absolute Positioning
; Plotter Mode Active

; Operation 0: Pen Plotter: (lines fill)
; Pen Diameter: 2

G0 Z0; move to z-safe height
G0 F1000 X8.0000 Y15.1700
M3S0
G4 P0.5; Tool On
G1 F300 Z0.0000
G1 F15000 X842.0000 Y15.1700 Z0.0000
M3S245
G4 P0.5; Tool Off

G0 Z0; move to z-safe height
G0 X842.0000 Y31.1700
M3S0
G4 P0.5; Tool On
G1 F300 Z0.0000
G1 F15000 X8.0000 Y31.1700 Z0.0000
M3S245
G4 P0.5; Tool Off

G0 Z0; move to z-safe height
G0 X8.0000 Y47.1700
M3S0
G4 P0.5; Tool On
G1 F300 Z0.0000
G1 F15000 X842.0000 Y47.1700 Z0.0000
M3S245
G4 P0.5; Tool Off

G0 Z0; move to z-safe height
G0 X842.0000 Y63.1700
M3S0
G4 P0.5; Tool On
G1 F300 Z0.0000
G1 F15000 X8.0000 Y63.1700 Z0.0000
M3S245
G4 P0.5; Tool Off

G0 Z0; move to z-safe height
G0 X8.0000 Y79.1700
M3S0
G4 P0.5; Tool On
G1 F300 Z0.0000
G1 F15000 X842.0000 Y79.1700 Z0.0000
M3S245
G4 P0.5; Tool Off

G0 Z0; move to z-safe height
G0 X842.0000 Y95.1700
M3S0
G4 P0.5; Tool On
G1 F300 Z0.0000
G1 F15000 X8.0000 Y95.1700 Z0.0000
M3S245
G4 P0.5; Tool Off

G0 Z0; move to z-safe height
G0 X8.0000 Y111.1700
M3S0
G4 P0.5; Tool On
G1 F300 Z0.0000
G1 F15000 X842.0000 Y111.1700 Z0.0000
M3S245
G4 P0.5; Tool Off

G0 Z0; move to z-safe height
G0 X842.0000 Y127.1700
M3S0
G4 P0.5; Tool On
G1 F300 Z0.0000
G1 F15000 X8.0000 Y127.1700 Z0.0000
M3S245
G4 P0.5; Tool Off

G0 Z0; move to z-safe height
G0 X8.0000 Y143.1700
M3S0
G4 P0.5; Tool On
G1 F300 Z0.0000
G1 F15000 X842.0000 Y143.1700 Z0.0000
M3S245
G4 P0.5; Tool Off

G0 Z0; move to z-safe height
G0 X842.0000 Y159.1700
M3S0
G4 P0.5; Tool On
G1 F300 Z0.0000
G1 F15000 X8.0000 Y159.1700 Z0.0000
M3S245
G4 P0.5; Tool Off

G0 Z0; move to z-safe height
G0 X8.0000 Y175.1700
M3S0
G4 P0.5; Tool On
G1 F300 Z0.0000
G1 F15000 X842.0000 Y175.1700 Z0.0000
M3S245
G4 P0.5; Tool Off

G0 Z0; move to z-safe height
G0 X842.0000 Y191.1700
M3S0
G4 P0.5; Tool On
G1 F300 Z0.0000
G1 F15000 X8.0000 Y191.1700 Z0.0000
M3S245
G4 P0.5; Tool Off

G0 Z0; move to z-safe height
G0 X8.0000 Y207.1700
M3S0
G4 P0.5; Tool On
G1 F300 Z0.0000
G1 F15000 X842.0000 Y207.1700 Z0.0000
M3S245
G4 P0.5; Tool Off

G0 Z0; move to z-safe height
G0 X842.0000 Y223.1700
M3S0
G4 P0.5; Tool On
G1 F300 Z0.0000
G1 F15000 X8.0000 Y223.1700 Z0.0000
M3S245
G4 P0.5; Tool Off

G0 Z0; move to z-safe height
G0 X8.0000 Y239.1700
M3S0
G4 P0.5; Tool On
G1 F300 Z0.0000
G1 F15000 X842.0000 Y239.1700 Z0.0000
M3S245
G4 P0.5; Tool Off

G0 Z0; move to z-safe height
G0 X842.0000 Y255.1700
M3S0
G4 P0.5; Tool On
G1 F300 Z0.0000
G1 F15000 X8.0000 Y255.1700 Z0.0000
M3S245
G4 P0.5; Tool Off

G0 Z0; move to z-safe height
G0 X8.0000 Y271.1700
M3S0
G4 P0.5; Tool On
G1 F300 Z0.0000
G1 F15000 X842.0000 Y271.1700 Z0.0000
M3S245
G4 P0.5; Tool Off

G0 Z0; move to z-safe height
G0 X842.0000 Y287.1700
M3S0
G4 P0.5; Tool On
G1 F300 Z0.0000
G1 F15000 X8.0000 Y287.1700 Z0.0000
M3S245
G4 P0.5; Tool Off

G0 Z0; move to z-safe height
G0 X8.0000 Y303.1700
M3S0
G4 P0.5; Tool On
G1 F300 Z0.0000
G1 F15000 X842.0000 Y303.1700 Z0.0000
M3S245
G4 P0.5; Tool Off

G0 Z0; move to z-safe height
G0 X842.0000 Y319.1700
M3S0
G4 P0.5; Tool On
G1 F300 Z0.0000
G1 F15000 X8.0000 Y319.1700 Z0.0000
M3S245
G4 P0.5; Tool Off

G0 Z0; move to z-safe height
G0 X8.0000 Y335.1700
M3S0
G4 P0.5; Tool On
G1 F300 Z0.0000
G1 F15000 X842.0000 Y335.1700 Z0.0000
M3S245
G4 P0.5; Tool Off

G0 Z0; move to z-safe height
G0 X842.0000 Y351.1700
M3S0
G4 P0.5; Tool On
G1 F300 Z0.0000
G1 F15000 X8.0000 Y351.1700 Z0.0000
M3S245
G4 P0.5; Tool Off

G0 Z0; move to z-safe height
G0 X8.0000 Y367.1700
M3S0
G4 P0.5; Tool On
G1 F300 Z0.0000
G1 F15000 X842.0000 Y367.1700 Z0.0000
M3S245
G4 P0.5; Tool Off

G0 Z0; move to z-safe height
G0 X842.0000 Y383.1700
M3S0
G4 P0.5; Tool On
G1 F300 Z0.0000
G1 F15000 X8.0000 Y383.1700 Z0.0000
M3S245
G4 P0.5; Tool Off

G0 Z0; move to z-safe height
G0 X8.0000 Y399.1700
M3S0
G4 P0.5; Tool On
G1 F300 Z0.0000
G1 F15000 X842.0000 Y399.1700 Z0.0000
M3S245
G4 P0.5; Tool Off

G0 Z0; move to z-safe height
G0 X842.0000 Y415.1700
M3S0
G4 P0.5; Tool On
G1 F300 Z0.0000
G1 F15000 X8.0000 Y415.1700 Z0.0000
M3S245
G4 P0.5; Tool Off

G0 Z0; move to z-safe height
G0 X8.0000 Y431.1700
M3S0
G4 P0.5; Tool On
G1 F300 Z0.0000
G1 F15000 X842.0000 Y431.1700 Z0.0000
M3S245
G4 P0.5; Tool Off

G0 Z0; move to z-safe height
G0 X842.0000 Y447.1700
M3S0
G4 P0.5; Tool On
G1 F300 Z0.0000
G1 F15000 X8.0000 Y447.1700 Z0.0000
M3S245
G4 P0.5; Tool Off

G0 Z0; move to z-safe height
G0 X8.0000 Y463.1700
M3S0
G4 P0.5; Tool On
G1 F300 Z0.0000
G1 F15000 X842.0000 Y463.1700 Z0.0000
M3S245
G4 P0.5; Tool Off

G0 Z0; move to z-safe height
G0 X842.0000 Y479.1700
M3S0
G4 P0.5; Tool On
G1 F300 Z0.0000
G1 F15000 X8.0000 Y479.1700 Z0.0000
M3S245
G4 P0.5; Tool Off

G0 Z0; move to z-safe height
G0 X8.0000 Y495.1700
M3S0
G4 P0.5; Tool On
G1 F300 Z0.0000
G1 F15000 X842.0000 Y495.1700 Z0.0000
M3S245
G4 P0.5; Tool Off

G0 Z0; move to z-safe height
G0 X842.0000 Y511.1700
M3S0
G4 P0.5; Tool On
G1 F300 Z0.0000
G1 F15000 X8.0000 Y511.1700 Z0.0000
M3S245
G4 P0.5; Tool Off

G0 Z0; move to z-safe height
G0 X8.0000 Y527.1700
M3S0
G4 P0.5; Tool On
G1 F300 Z0.0000
G1 F15000 X842.0000 Y527.1700 Z0.0000
M3S245
G4 P0.5; Tool Off

G0 Z0; move to z-safe height
G0 X842.0000 Y543.1700
M3S0
G4 P0.5; Tool On
G1 F300 Z0.0000
G1 F15000 X8.0000 Y543.1700 Z0.0000
M3S245
G4 P0.5; Tool Off

G0 Z0; move to z-safe height
G0 X8.0000 Y559.1700
M3S0
G4 P0.5; Tool On
G1 F300 Z0.0000
G1 F15000 X842.0000 Y559.1700 Z0.0000
M3S245
G4 P0.5; Tool Off

G0 Z0; move to z-safe height
G0 X842.0000 Y575.1700
M3S0
G4 P0.5; Tool On
G1 F300 Z0.0000
G1 F15000 X8.0000 Y575.1700 Z0.0000
M3S245
G4 P0.5; Tool Off

G0 Z0; move to z-safe height
G0 X8.0000 Y591.1700
M3S0
G4 P0.5; Tool On
G1 F300 Z0.0000
G1 F15000 X842.0000 Y591.1700 Z0.0000
M3S245
G4 P0.5; Tool Off

G0 Z0; move to z-safe height
G0 X842.0000 Y607.1700
M3S0
G4 P0.5; Tool On
G1 F300 Z0.0000
G1 F15000 X8.0000 Y607.1700 Z0.0000
M3S245
G4 P0.5; Tool Off

G0 Z0; move to z-safe height
G0 X8.0000 Y623.1700
M3S0
G4 P0.5; Tool On
G1 F300 Z0.0000
G1 F15000 X842.0000 Y623.1700 Z0.0000
M3S245
G4 P0.5; Tool Off

G0 Z0; move to z-safe height
G0 X842.0000 Y639.1700
M3S0
G4 P0.5; Tool On
G1 F300 Z0.0000
G1 F15000 X8.0000 Y639.1700 Z0.0000
M3S245
G4 P0.5; Tool Off

G0 Z0; move to z-safe height
G0 X8.0000 Y655.1700
M3S0
G4 P0.5; Tool On
G1 F300 Z0.0000
G1 F15000 X842.0000 Y655.1700 Z0.0000
M3S245
G4 P0.5; Tool Off

G0 Z0; move to z-safe height
G0 X842.0000 Y671.1700
M3S0
G4 P0.5; Tool On
G1 F300 Z0.0000
G1 F15000 X8.0000 Y671.1700 Z0.0000
M3S245
G4 P0.5; Tool Off

G0 Z0; move to z-safe height
G0 X8.0000 Y687.1700
M3S0
G4 P0.5; Tool On
G1 F300 Z0.0000
G1 F15000 X842.0000 Y687.1700 Z0.0000
M3S245
G4 P0.5; Tool Off

G0 Z0; move to z-safe height
G0 X842.0000 Y703.1700
M3S0
G4 P0.5; Tool On
G1 F300 Z0.0000
G1 F15000 X8.0000 Y703.1700 Z0.0000
M3S245
G4 P0.5; Tool Off

G0 Z0; move to z-safe height
G0 X8.0000 Y719.1700
M3S0
G4 P0.5; Tool On
G1 F300 Z0.0000
G1 F15000 X842.0000 Y719.1700 Z0.0000
M3S245
G4 P0.5; Tool Off

G0 Z0; move to z-safe height
G0 X842.0000 Y735.1700
M3S0
G4 P0.5; Tool On
G1 F300 Z0.0000
G1 F15000 X8.0000 Y735.1700 Z0.0000
M3S245
G4 P0.5; Tool Off

G0 Z0; move to z-safe height
G0 X8.0000 Y751.1700
M3S0
G4 P0.5; Tool On
G1 F300 Z0.0000
G1 F15000 X842.0000 Y751.1700 Z0.0000
M3S245
G4 P0.5; Tool Off

G0 Z0; move to z-safe height
G0 X842.0000 Y767.1700
M3S0
G4 P0.5; Tool On
G1 F300 Z0.0000
G1 F15000 X8.0000 Y767.1700 Z0.0000
M3S245
G4 P0.5; Tool Off

G0 Z0; move to z-safe height
G0 X8.0000 Y783.1700
M3S0
G4 P0.5; Tool On
G1 F300 Z0.0000
G1 F15000 X842.0000 Y783.1700 Z0.0000
M3S245
G4 P0.5; Tool Off

G0 Z0; move to z-safe height
G0 X842.0000 Y799.1700
M3S0
G4 P0.5; Tool On
G1 F300 Z0.0000
G1 F15000 X8.0000 Y799.1700 Z0.0000
M3S245
G4 P0.5; Tool Off

G0 Z0; move to z-safe height
G0 X8.0000 Y815.1700
M3S0
G4 P0.5; Tool On
G1 F300 Z0.0000
G1 F15000 X842.0000 Y815.1700 Z0.0000
M3S245
G4 P0.5; Tool Off

G0 Z0; move to z-safe height
G0 X842.0000 Y831.1700
M3S0
G4 P0.5; Tool On
G1 F300 Z0.0000
G1 F15000 X8.0000 Y831.1700 Z0.0000
M3S245
G4 P0.5; Tool Off

G0 Z0; move to z-safe height
G0 X8.0000 Y847.1700
M3S0
G4 P0.5; Tool On
G1 F300 Z0.0000
G1 F15000 X842.0000 Y847.1700 Z0.0000
M3S245
G4 P0.5; Tool Off

G0 Z0; move to z-safe height
G0 X842.0000 Y863.1700
M3S0
G4 P0.5; Tool On
G1 F300 Z0.0000
G1 F15000 X8.0000 Y863.1700 Z0.0000
M3S245
G4 P0.5; Tool Off

G0 Z0; move to z-safe height
G0 X8.0000 Y879.1700
M3S0
G4 P0.5; Tool On
G1 F300 Z0.0000
G1 F15000 X842.0000 Y879.1700 Z0.0000
M3S245
G4 P0.5; Tool Off

G0 Z0; move to z-safe height
G0 X842.0000 Y895.1700
M3S0
G4 P0.5; Tool On
G1 F300 Z0.0000
G1 F15000 X8.0000 Y895.1700 Z0.0000
M3S245
G4 P0.5; Tool Off

G0 Z0; move to z-safe height
G0 X8.0000 Y911.1700
M3S0
G4 P0.5; Tool On
G1 F300 Z0.0000
G1 F15000 X842.0000 Y911.1700 Z0.0000
M3S245
G4 P0.5; Tool Off

G0 Z0; move to z-safe height
G0 X842.0000 Y927.1700
M3S0
G4 P0.5; Tool On
G1 F300 Z0.0000
G1 F15000 X8.0000 Y927.1700 Z0.0000
M3S245
G4 P0.5; Tool Off

G0 Z0; move to z-safe height
G0 X8.0000 Y943.1700
M3S0
G4 P0.5; Tool On
G1 F300 Z0.0000
G1 F15000 X842.0000 Y943.1700 Z0.0000
M3S245
G4 P0.5; Tool Off

G0 Z0; move to z-safe height
G0 X842.0000 Y959.1700
M3S0
G4 P0.5; Tool On
G1 F300 Z0.0000
G1 F15000 X8.0000 Y959.1700 Z0.0000
M3S245
G4 P0.5; Tool Off

G0 Z0; move to z-safe height
G0 X8.0000 Y975.1700
M3S0
G4 P0.5; Tool On
G1 F300 Z0.0000
G1 F15000 X842.0000 Y975.1700 Z0.0000
M3S245
G4 P0.5; Tool Off

G0 Z0; move to z-safe height
G0 X842.0000 Y991.1700
M3S0
G4 P0.5; Tool On
G1 F300 Z0.0000
G1 F15000 X8.0000 Y991.1700 Z0.0000
M3S245
G4 P0.5; Tool Off

G0 Z0; move to z-safe height
G0 X8.0000 Y1007.1700
M3S0
G4 P0.5; Tool On
G1 F300 Z0.0000
G1 F15000 X842.0000 Y1007.1700 Z0.0000
M3S245
G4 P0.5; Tool Off

G0 Z0; move to z-safe height
G0 X842.0000 Y1023.1700
M3S0
G4 P0.5; Tool On
G1 F300 Z0.0000
G1 F15000 X8.0000 Y1023.1700 Z0.0000
M3S245
G4 P0.5; Tool Off

G0 Z0; move to z-safe height
G0 X8.0000 Y1039.1700
M3S0
G4 P0.5; Tool On
G1 F300 Z0.0000
G1 F15000 X842.0000 Y1039.1700 Z0.0000
M3S245
G4 P0.5; Tool Off

G0 Z0; move to z-safe height
G0 X842.0000 Y1055.1700
M3S0
G4 P0.5; Tool On
G1 F300 Z0.0000
G1 F15000 X8.0000 Y1055.1700 Z0.0000
M3S245
G4 P0.5; Tool Off

G0 Z0; move to z-safe height
G0 X8.0000 Y1071.1700
M3S0
G4 P0.5; Tool On
G1 F300 Z0.0000
G1 F15000 X842.0000 Y1071.1700 Z0.0000
M3S245
G4 P0.5; Tool Off

G0 Z0; move to z-safe height
G0 X842.0000 Y1087.1700
M3S0
G4 P0.5; Tool On
G1 F300 Z0.0000
G1 F15000 X8.0000 Y1087.1700 Z0.0000
M3S245
G4 P0.5; Tool Off

G0 Z0; move to z-safe height
G0 X8.0000 Y1103.1700
M3S0
G4 P0.5; Tool On
G1 F300 Z0.0000
G1 F15000 X842.0000 Y1103.1700 Z0.0000
M3S245
G4 P0.5; Tool Off

G0 Z0; move to z-safe height
G0 X842.0000 Y1119.1700
M3S0
G4 P0.5; Tool On
G1 F300 Z0.0000
G1 F15000 X8.0000 Y1119.1700 Z0.0000
M3S245
G4 P0.5; Tool Off

G0 Z0; move to z-safe height
G0 X8.0000 Y1135.1700
M3S0
G4 P0.5; Tool On
G1 F300 Z0.0000
G1 F15000 X842.0000 Y1135.1700 Z0.0000
M3S245
G4 P0.5; Tool Off
; retracting back to z-safe
G0 Z0

; Plotter Mode Complete
