; GCODE Generated by cam.openbuilds.com on 2023-12-16 
G21 ; mm-mode
G54; Work Coordinates
G21; mm-mode
G90; Absolute Positioning
; Plotter Mode Active

; Operation 0: Pen Plotter: (lines fill)
; Pen Diameter: 2

G0 Z0; move to z-safe height
G0 F1000 X849.0000 Y1.3800
M3S0
G4 P0.5; Tool On
G1 F300 Z0.0000
G1 F15000 X1.0000 Y1.3800 Z0.0000
M3S245
G4 P0.5; Tool Off

G0 Z0; move to z-safe height
G0 X1.0000 Y3.3800
M3S0
G4 P0.5; Tool On
G1 F300 Z0.0000
G1 F15000 X849.0000 Y3.3800 Z0.0000
M3S245
G4 P0.5; Tool Off

G0 Z0; move to z-safe height
G0 X849.0000 Y5.3800
M3S0
G4 P0.5; Tool On
G1 F300 Z0.0000
G1 F15000 X1.0000 Y5.3800 Z0.0000
M3S245
G4 P0.5; Tool Off

G0 Z0; move to z-safe height
G0 X1.0000 Y7.3800
M3S0
G4 P0.5; Tool On
G1 F300 Z0.0000
G1 F15000 X849.0000 Y7.3800 Z0.0000
M3S245
G4 P0.5; Tool Off

G0 Z0; move to z-safe height
G0 X849.0000 Y9.3800
M3S0
G4 P0.5; Tool On
G1 F300 Z0.0000
G1 F15000 X1.0000 Y9.3800 Z0.0000
M3S245
G4 P0.5; Tool Off

G0 Z0; move to z-safe height
G0 X1.0000 Y11.3800
M3S0
G4 P0.5; Tool On
G1 F300 Z0.0000
G1 F15000 X849.0000 Y11.3800 Z0.0000
M3S245
G4 P0.5; Tool Off

G0 Z0; move to z-safe height
G0 X849.0000 Y13.3800
M3S0
G4 P0.5; Tool On
G1 F300 Z0.0000
G1 F15000 X1.0000 Y13.3800 Z0.0000
M3S245
G4 P0.5; Tool Off

G0 Z0; move to z-safe height
G0 X1.0000 Y15.3800
M3S0
G4 P0.5; Tool On
G1 F300 Z0.0000
G1 F15000 X849.0000 Y15.3800 Z0.0000
M3S245
G4 P0.5; Tool Off

G0 Z0; move to z-safe height
G0 X849.0000 Y17.3800
M3S0
G4 P0.5; Tool On
G1 F300 Z0.0000
G1 F15000 X1.0000 Y17.3800 Z0.0000
M3S245
G4 P0.5; Tool Off

G0 Z0; move to z-safe height
G0 X1.0000 Y19.3800
M3S0
G4 P0.5; Tool On
G1 F300 Z0.0000
G1 F15000 X849.0000 Y19.3800 Z0.0000
M3S245
G4 P0.5; Tool Off

G0 Z0; move to z-safe height
G0 X849.0000 Y21.3800
M3S0
G4 P0.5; Tool On
G1 F300 Z0.0000
G1 F15000 X1.0000 Y21.3800 Z0.0000
M3S245
G4 P0.5; Tool Off

G0 Z0; move to z-safe height
G0 X1.0000 Y23.3800
M3S0
G4 P0.5; Tool On
G1 F300 Z0.0000
G1 F15000 X849.0000 Y23.3800 Z0.0000
M3S245
G4 P0.5; Tool Off

G0 Z0; move to z-safe height
G0 X849.0000 Y25.3800
M3S0
G4 P0.5; Tool On
G1 F300 Z0.0000
G1 F15000 X1.0000 Y25.3800 Z0.0000
M3S245
G4 P0.5; Tool Off

G0 Z0; move to z-safe height
G0 X1.0000 Y27.3800
M3S0
G4 P0.5; Tool On
G1 F300 Z0.0000
G1 F15000 X849.0000 Y27.3800 Z0.0000
M3S245
G4 P0.5; Tool Off

G0 Z0; move to z-safe height
G0 X849.0000 Y29.3800
M3S0
G4 P0.5; Tool On
G1 F300 Z0.0000
G1 F15000 X1.0000 Y29.3800 Z0.0000
M3S245
G4 P0.5; Tool Off

G0 Z0; move to z-safe height
G0 X1.0000 Y31.3800
M3S0
G4 P0.5; Tool On
G1 F300 Z0.0000
G1 F15000 X849.0000 Y31.3800 Z0.0000
M3S245
G4 P0.5; Tool Off

G0 Z0; move to z-safe height
G0 X849.0000 Y33.3800
M3S0
G4 P0.5; Tool On
G1 F300 Z0.0000
G1 F15000 X1.0000 Y33.3800 Z0.0000
M3S245
G4 P0.5; Tool Off

G0 Z0; move to z-safe height
G0 X1.0000 Y35.3800
M3S0
G4 P0.5; Tool On
G1 F300 Z0.0000
G1 F15000 X849.0000 Y35.3800 Z0.0000
M3S245
G4 P0.5; Tool Off

G0 Z0; move to z-safe height
G0 X849.0000 Y37.3800
M3S0
G4 P0.5; Tool On
G1 F300 Z0.0000
G1 F15000 X1.0000 Y37.3800 Z0.0000
M3S245
G4 P0.5; Tool Off

G0 Z0; move to z-safe height
G0 X1.0000 Y39.3800
M3S0
G4 P0.5; Tool On
G1 F300 Z0.0000
G1 F15000 X849.0000 Y39.3800 Z0.0000
M3S245
G4 P0.5; Tool Off

G0 Z0; move to z-safe height
G0 X849.0000 Y41.3800
M3S0
G4 P0.5; Tool On
G1 F300 Z0.0000
G1 F15000 X1.0000 Y41.3800 Z0.0000
M3S245
G4 P0.5; Tool Off

G0 Z0; move to z-safe height
G0 X1.0000 Y43.3800
M3S0
G4 P0.5; Tool On
G1 F300 Z0.0000
G1 F15000 X849.0000 Y43.3800 Z0.0000
M3S245
G4 P0.5; Tool Off

G0 Z0; move to z-safe height
G0 X849.0000 Y45.3800
M3S0
G4 P0.5; Tool On
G1 F300 Z0.0000
G1 F15000 X1.0000 Y45.3800 Z0.0000
M3S245
G4 P0.5; Tool Off

G0 Z0; move to z-safe height
G0 X1.0000 Y47.3800
M3S0
G4 P0.5; Tool On
G1 F300 Z0.0000
G1 F15000 X849.0000 Y47.3800 Z0.0000
M3S245
G4 P0.5; Tool Off

G0 Z0; move to z-safe height
G0 X849.0000 Y49.3800
M3S0
G4 P0.5; Tool On
G1 F300 Z0.0000
G1 F15000 X1.0000 Y49.3800 Z0.0000
M3S245
G4 P0.5; Tool Off

G0 Z0; move to z-safe height
G0 X1.0000 Y51.3800
M3S0
G4 P0.5; Tool On
G1 F300 Z0.0000
G1 F15000 X849.0000 Y51.3800 Z0.0000
M3S245
G4 P0.5; Tool Off

G0 Z0; move to z-safe height
G0 X849.0000 Y53.3800
M3S0
G4 P0.5; Tool On
G1 F300 Z0.0000
G1 F15000 X1.0000 Y53.3800 Z0.0000
M3S245
G4 P0.5; Tool Off

G0 Z0; move to z-safe height
G0 X1.0000 Y55.3800
M3S0
G4 P0.5; Tool On
G1 F300 Z0.0000
G1 F15000 X849.0000 Y55.3800 Z0.0000
M3S245
G4 P0.5; Tool Off

G0 Z0; move to z-safe height
G0 X849.0000 Y57.3800
M3S0
G4 P0.5; Tool On
G1 F300 Z0.0000
G1 F15000 X1.0000 Y57.3800 Z0.0000
M3S245
G4 P0.5; Tool Off

G0 Z0; move to z-safe height
G0 X1.0000 Y59.3800
M3S0
G4 P0.5; Tool On
G1 F300 Z0.0000
G1 F15000 X849.0000 Y59.3800 Z0.0000
M3S245
G4 P0.5; Tool Off

G0 Z0; move to z-safe height
G0 X849.0000 Y61.3800
M3S0
G4 P0.5; Tool On
G1 F300 Z0.0000
G1 F15000 X1.0000 Y61.3800 Z0.0000
M3S245
G4 P0.5; Tool Off

G0 Z0; move to z-safe height
G0 X1.0000 Y63.3800
M3S0
G4 P0.5; Tool On
G1 F300 Z0.0000
G1 F15000 X849.0000 Y63.3800 Z0.0000
M3S245
G4 P0.5; Tool Off

G0 Z0; move to z-safe height
G0 X849.0000 Y65.3800
M3S0
G4 P0.5; Tool On
G1 F300 Z0.0000
G1 F15000 X1.0000 Y65.3800 Z0.0000
M3S245
G4 P0.5; Tool Off

G0 Z0; move to z-safe height
G0 X1.0000 Y67.3800
M3S0
G4 P0.5; Tool On
G1 F300 Z0.0000
G1 F15000 X849.0000 Y67.3800 Z0.0000
M3S245
G4 P0.5; Tool Off

G0 Z0; move to z-safe height
G0 X849.0000 Y69.3800
M3S0
G4 P0.5; Tool On
G1 F300 Z0.0000
G1 F15000 X1.0000 Y69.3800 Z0.0000
M3S245
G4 P0.5; Tool Off

G0 Z0; move to z-safe height
G0 X1.0000 Y71.3800
M3S0
G4 P0.5; Tool On
G1 F300 Z0.0000
G1 F15000 X849.0000 Y71.3800 Z0.0000
M3S245
G4 P0.5; Tool Off

G0 Z0; move to z-safe height
G0 X849.0000 Y73.3800
M3S0
G4 P0.5; Tool On
G1 F300 Z0.0000
G1 F15000 X1.0000 Y73.3800 Z0.0000
M3S245
G4 P0.5; Tool Off

G0 Z0; move to z-safe height
G0 X1.0000 Y75.3800
M3S0
G4 P0.5; Tool On
G1 F300 Z0.0000
G1 F15000 X849.0000 Y75.3800 Z0.0000
M3S245
G4 P0.5; Tool Off

G0 Z0; move to z-safe height
G0 X849.0000 Y77.3800
M3S0
G4 P0.5; Tool On
G1 F300 Z0.0000
G1 F15000 X1.0000 Y77.3800 Z0.0000
M3S245
G4 P0.5; Tool Off

G0 Z0; move to z-safe height
G0 X1.0000 Y79.3800
M3S0
G4 P0.5; Tool On
G1 F300 Z0.0000
G1 F15000 X849.0000 Y79.3800 Z0.0000
M3S245
G4 P0.5; Tool Off

G0 Z0; move to z-safe height
G0 X849.0000 Y81.3800
M3S0
G4 P0.5; Tool On
G1 F300 Z0.0000
G1 F15000 X1.0000 Y81.3800 Z0.0000
M3S245
G4 P0.5; Tool Off

G0 Z0; move to z-safe height
G0 X1.0000 Y83.3800
M3S0
G4 P0.5; Tool On
G1 F300 Z0.0000
G1 F15000 X849.0000 Y83.3800 Z0.0000
M3S245
G4 P0.5; Tool Off

G0 Z0; move to z-safe height
G0 X849.0000 Y85.3800
M3S0
G4 P0.5; Tool On
G1 F300 Z0.0000
G1 F15000 X1.0000 Y85.3800 Z0.0000
M3S245
G4 P0.5; Tool Off

G0 Z0; move to z-safe height
G0 X1.0000 Y87.3800
M3S0
G4 P0.5; Tool On
G1 F300 Z0.0000
G1 F15000 X849.0000 Y87.3800 Z0.0000
M3S245
G4 P0.5; Tool Off

G0 Z0; move to z-safe height
G0 X849.0000 Y89.3800
M3S0
G4 P0.5; Tool On
G1 F300 Z0.0000
G1 F15000 X1.0000 Y89.3800 Z0.0000
M3S245
G4 P0.5; Tool Off

G0 Z0; move to z-safe height
G0 X1.0000 Y91.3800
M3S0
G4 P0.5; Tool On
G1 F300 Z0.0000
G1 F15000 X849.0000 Y91.3800 Z0.0000
M3S245
G4 P0.5; Tool Off

G0 Z0; move to z-safe height
G0 X849.0000 Y93.3800
M3S0
G4 P0.5; Tool On
G1 F300 Z0.0000
G1 F15000 X1.0000 Y93.3800 Z0.0000
M3S245
G4 P0.5; Tool Off

G0 Z0; move to z-safe height
G0 X1.0000 Y95.3800
M3S0
G4 P0.5; Tool On
G1 F300 Z0.0000
G1 F15000 X849.0000 Y95.3800 Z0.0000
M3S245
G4 P0.5; Tool Off

G0 Z0; move to z-safe height
G0 X849.0000 Y97.3800
M3S0
G4 P0.5; Tool On
G1 F300 Z0.0000
G1 F15000 X1.0000 Y97.3800 Z0.0000
M3S245
G4 P0.5; Tool Off

G0 Z0; move to z-safe height
G0 X1.0000 Y99.3800
M3S0
G4 P0.5; Tool On
G1 F300 Z0.0000
G1 F15000 X849.0000 Y99.3800 Z0.0000
M3S245
G4 P0.5; Tool Off

G0 Z0; move to z-safe height
G0 X849.0000 Y101.3800
M3S0
G4 P0.5; Tool On
G1 F300 Z0.0000
G1 F15000 X1.0000 Y101.3800 Z0.0000
M3S245
G4 P0.5; Tool Off

G0 Z0; move to z-safe height
G0 X1.0000 Y103.3800
M3S0
G4 P0.5; Tool On
G1 F300 Z0.0000
G1 F15000 X849.0000 Y103.3800 Z0.0000
M3S245
G4 P0.5; Tool Off

G0 Z0; move to z-safe height
G0 X849.0000 Y105.3800
M3S0
G4 P0.5; Tool On
G1 F300 Z0.0000
G1 F15000 X1.0000 Y105.3800 Z0.0000
M3S245
G4 P0.5; Tool Off

G0 Z0; move to z-safe height
G0 X1.0000 Y107.3800
M3S0
G4 P0.5; Tool On
G1 F300 Z0.0000
G1 F15000 X849.0000 Y107.3800 Z0.0000
M3S245
G4 P0.5; Tool Off

G0 Z0; move to z-safe height
G0 X849.0000 Y109.3800
M3S0
G4 P0.5; Tool On
G1 F300 Z0.0000
G1 F15000 X1.0000 Y109.3800 Z0.0000
M3S245
G4 P0.5; Tool Off

G0 Z0; move to z-safe height
G0 X1.0000 Y111.3800
M3S0
G4 P0.5; Tool On
G1 F300 Z0.0000
G1 F15000 X849.0000 Y111.3800 Z0.0000
M3S245
G4 P0.5; Tool Off

G0 Z0; move to z-safe height
G0 X849.0000 Y113.3800
M3S0
G4 P0.5; Tool On
G1 F300 Z0.0000
G1 F15000 X1.0000 Y113.3800 Z0.0000
M3S245
G4 P0.5; Tool Off

G0 Z0; move to z-safe height
G0 X1.0000 Y115.3800
M3S0
G4 P0.5; Tool On
G1 F300 Z0.0000
G1 F15000 X849.0000 Y115.3800 Z0.0000
M3S245
G4 P0.5; Tool Off

G0 Z0; move to z-safe height
G0 X849.0000 Y117.3800
M3S0
G4 P0.5; Tool On
G1 F300 Z0.0000
G1 F15000 X1.0000 Y117.3800 Z0.0000
M3S245
G4 P0.5; Tool Off

G0 Z0; move to z-safe height
G0 X1.0000 Y119.3800
M3S0
G4 P0.5; Tool On
G1 F300 Z0.0000
G1 F15000 X849.0000 Y119.3800 Z0.0000
M3S245
G4 P0.5; Tool Off

G0 Z0; move to z-safe height
G0 X849.0000 Y121.3800
M3S0
G4 P0.5; Tool On
G1 F300 Z0.0000
G1 F15000 X1.0000 Y121.3800 Z0.0000
M3S245
G4 P0.5; Tool Off

G0 Z0; move to z-safe height
G0 X1.0000 Y123.3800
M3S0
G4 P0.5; Tool On
G1 F300 Z0.0000
G1 F15000 X849.0000 Y123.3800 Z0.0000
M3S245
G4 P0.5; Tool Off

G0 Z0; move to z-safe height
G0 X849.0000 Y125.3800
M3S0
G4 P0.5; Tool On
G1 F300 Z0.0000
G1 F15000 X1.0000 Y125.3800 Z0.0000
M3S245
G4 P0.5; Tool Off

G0 Z0; move to z-safe height
G0 X1.0000 Y127.3800
M3S0
G4 P0.5; Tool On
G1 F300 Z0.0000
G1 F15000 X849.0000 Y127.3800 Z0.0000
M3S245
G4 P0.5; Tool Off

G0 Z0; move to z-safe height
G0 X849.0000 Y129.3800
M3S0
G4 P0.5; Tool On
G1 F300 Z0.0000
G1 F15000 X1.0000 Y129.3800 Z0.0000
M3S245
G4 P0.5; Tool Off

G0 Z0; move to z-safe height
G0 X1.0000 Y131.3800
M3S0
G4 P0.5; Tool On
G1 F300 Z0.0000
G1 F15000 X849.0000 Y131.3800 Z0.0000
M3S245
G4 P0.5; Tool Off

G0 Z0; move to z-safe height
G0 X849.0000 Y133.3800
M3S0
G4 P0.5; Tool On
G1 F300 Z0.0000
G1 F15000 X1.0000 Y133.3800 Z0.0000
M3S245
G4 P0.5; Tool Off

G0 Z0; move to z-safe height
G0 X1.0000 Y135.3800
M3S0
G4 P0.5; Tool On
G1 F300 Z0.0000
G1 F15000 X849.0000 Y135.3800 Z0.0000
M3S245
G4 P0.5; Tool Off

G0 Z0; move to z-safe height
G0 X849.0000 Y137.3800
M3S0
G4 P0.5; Tool On
G1 F300 Z0.0000
G1 F15000 X1.0000 Y137.3800 Z0.0000
M3S245
G4 P0.5; Tool Off

G0 Z0; move to z-safe height
G0 X1.0000 Y139.3800
M3S0
G4 P0.5; Tool On
G1 F300 Z0.0000
G1 F15000 X849.0000 Y139.3800 Z0.0000
M3S245
G4 P0.5; Tool Off

G0 Z0; move to z-safe height
G0 X849.0000 Y141.3800
M3S0
G4 P0.5; Tool On
G1 F300 Z0.0000
G1 F15000 X1.0000 Y141.3800 Z0.0000
M3S245
G4 P0.5; Tool Off

G0 Z0; move to z-safe height
G0 X1.0000 Y143.3800
M3S0
G4 P0.5; Tool On
G1 F300 Z0.0000
G1 F15000 X849.0000 Y143.3800 Z0.0000
M3S245
G4 P0.5; Tool Off

G0 Z0; move to z-safe height
G0 X849.0000 Y145.3800
M3S0
G4 P0.5; Tool On
G1 F300 Z0.0000
G1 F15000 X1.0000 Y145.3800 Z0.0000
M3S245
G4 P0.5; Tool Off

G0 Z0; move to z-safe height
G0 X1.0000 Y147.3800
M3S0
G4 P0.5; Tool On
G1 F300 Z0.0000
G1 F15000 X849.0000 Y147.3800 Z0.0000
M3S245
G4 P0.5; Tool Off

G0 Z0; move to z-safe height
G0 X849.0000 Y149.3800
M3S0
G4 P0.5; Tool On
G1 F300 Z0.0000
G1 F15000 X1.0000 Y149.3800 Z0.0000
M3S245
G4 P0.5; Tool Off

G0 Z0; move to z-safe height
G0 X1.0000 Y151.3800
M3S0
G4 P0.5; Tool On
G1 F300 Z0.0000
G1 F15000 X849.0000 Y151.3800 Z0.0000
M3S245
G4 P0.5; Tool Off

G0 Z0; move to z-safe height
G0 X849.0000 Y153.3800
M3S0
G4 P0.5; Tool On
G1 F300 Z0.0000
G1 F15000 X1.0000 Y153.3800 Z0.0000
M3S245
G4 P0.5; Tool Off

G0 Z0; move to z-safe height
G0 X1.0000 Y155.3800
M3S0
G4 P0.5; Tool On
G1 F300 Z0.0000
G1 F15000 X849.0000 Y155.3800 Z0.0000
M3S245
G4 P0.5; Tool Off

G0 Z0; move to z-safe height
G0 X849.0000 Y157.3800
M3S0
G4 P0.5; Tool On
G1 F300 Z0.0000
G1 F15000 X1.0000 Y157.3800 Z0.0000
M3S245
G4 P0.5; Tool Off

G0 Z0; move to z-safe height
G0 X1.0000 Y159.3800
M3S0
G4 P0.5; Tool On
G1 F300 Z0.0000
G1 F15000 X849.0000 Y159.3800 Z0.0000
M3S245
G4 P0.5; Tool Off

G0 Z0; move to z-safe height
G0 X849.0000 Y161.3800
M3S0
G4 P0.5; Tool On
G1 F300 Z0.0000
G1 F15000 X1.0000 Y161.3800 Z0.0000
M3S245
G4 P0.5; Tool Off

G0 Z0; move to z-safe height
G0 X1.0000 Y163.3800
M3S0
G4 P0.5; Tool On
G1 F300 Z0.0000
G1 F15000 X849.0000 Y163.3800 Z0.0000
M3S245
G4 P0.5; Tool Off

G0 Z0; move to z-safe height
G0 X849.0000 Y165.3800
M3S0
G4 P0.5; Tool On
G1 F300 Z0.0000
G1 F15000 X1.0000 Y165.3800 Z0.0000
M3S245
G4 P0.5; Tool Off

G0 Z0; move to z-safe height
G0 X1.0000 Y167.3800
M3S0
G4 P0.5; Tool On
G1 F300 Z0.0000
G1 F15000 X849.0000 Y167.3800 Z0.0000
M3S245
G4 P0.5; Tool Off

G0 Z0; move to z-safe height
G0 X849.0000 Y169.3800
M3S0
G4 P0.5; Tool On
G1 F300 Z0.0000
G1 F15000 X1.0000 Y169.3800 Z0.0000
M3S245
G4 P0.5; Tool Off

G0 Z0; move to z-safe height
G0 X1.0000 Y171.3800
M3S0
G4 P0.5; Tool On
G1 F300 Z0.0000
G1 F15000 X849.0000 Y171.3800 Z0.0000
M3S245
G4 P0.5; Tool Off

G0 Z0; move to z-safe height
G0 X849.0000 Y173.3800
M3S0
G4 P0.5; Tool On
G1 F300 Z0.0000
G1 F15000 X1.0000 Y173.3800 Z0.0000
M3S245
G4 P0.5; Tool Off

G0 Z0; move to z-safe height
G0 X1.0000 Y175.3800
M3S0
G4 P0.5; Tool On
G1 F300 Z0.0000
G1 F15000 X849.0000 Y175.3800 Z0.0000
M3S245
G4 P0.5; Tool Off

G0 Z0; move to z-safe height
G0 X849.0000 Y177.3800
M3S0
G4 P0.5; Tool On
G1 F300 Z0.0000
G1 F15000 X1.0000 Y177.3800 Z0.0000
M3S245
G4 P0.5; Tool Off

G0 Z0; move to z-safe height
G0 X1.0000 Y179.3800
M3S0
G4 P0.5; Tool On
G1 F300 Z0.0000
G1 F15000 X849.0000 Y179.3800 Z0.0000
M3S245
G4 P0.5; Tool Off

G0 Z0; move to z-safe height
G0 X849.0000 Y181.3800
M3S0
G4 P0.5; Tool On
G1 F300 Z0.0000
G1 F15000 X1.0000 Y181.3800 Z0.0000
M3S245
G4 P0.5; Tool Off

G0 Z0; move to z-safe height
G0 X1.0000 Y183.3800
M3S0
G4 P0.5; Tool On
G1 F300 Z0.0000
G1 F15000 X849.0000 Y183.3800 Z0.0000
M3S245
G4 P0.5; Tool Off

G0 Z0; move to z-safe height
G0 X849.0000 Y185.3800
M3S0
G4 P0.5; Tool On
G1 F300 Z0.0000
G1 F15000 X1.0000 Y185.3800 Z0.0000
M3S245
G4 P0.5; Tool Off

G0 Z0; move to z-safe height
G0 X1.0000 Y187.3800
M3S0
G4 P0.5; Tool On
G1 F300 Z0.0000
G1 F15000 X849.0000 Y187.3800 Z0.0000
M3S245
G4 P0.5; Tool Off

G0 Z0; move to z-safe height
G0 X849.0000 Y189.3800
M3S0
G4 P0.5; Tool On
G1 F300 Z0.0000
G1 F15000 X1.0000 Y189.3800 Z0.0000
M3S245
G4 P0.5; Tool Off

G0 Z0; move to z-safe height
G0 X1.0000 Y191.3800
M3S0
G4 P0.5; Tool On
G1 F300 Z0.0000
G1 F15000 X849.0000 Y191.3800 Z0.0000
M3S245
G4 P0.5; Tool Off

G0 Z0; move to z-safe height
G0 X849.0000 Y193.3800
M3S0
G4 P0.5; Tool On
G1 F300 Z0.0000
G1 F15000 X1.0000 Y193.3800 Z0.0000
M3S245
G4 P0.5; Tool Off

G0 Z0; move to z-safe height
G0 X1.0000 Y195.3800
M3S0
G4 P0.5; Tool On
G1 F300 Z0.0000
G1 F15000 X849.0000 Y195.3800 Z0.0000
M3S245
G4 P0.5; Tool Off

G0 Z0; move to z-safe height
G0 X849.0000 Y197.3800
M3S0
G4 P0.5; Tool On
G1 F300 Z0.0000
G1 F15000 X1.0000 Y197.3800 Z0.0000
M3S245
G4 P0.5; Tool Off

G0 Z0; move to z-safe height
G0 X1.0000 Y199.3800
M3S0
G4 P0.5; Tool On
G1 F300 Z0.0000
G1 F15000 X849.0000 Y199.3800 Z0.0000
M3S245
G4 P0.5; Tool Off

G0 Z0; move to z-safe height
G0 X849.0000 Y201.3800
M3S0
G4 P0.5; Tool On
G1 F300 Z0.0000
G1 F15000 X1.0000 Y201.3800 Z0.0000
M3S245
G4 P0.5; Tool Off

G0 Z0; move to z-safe height
G0 X1.0000 Y203.3800
M3S0
G4 P0.5; Tool On
G1 F300 Z0.0000
G1 F15000 X849.0000 Y203.3800 Z0.0000
M3S245
G4 P0.5; Tool Off

G0 Z0; move to z-safe height
G0 X849.0000 Y205.3800
M3S0
G4 P0.5; Tool On
G1 F300 Z0.0000
G1 F15000 X1.0000 Y205.3800 Z0.0000
M3S245
G4 P0.5; Tool Off

G0 Z0; move to z-safe height
G0 X1.0000 Y207.3800
M3S0
G4 P0.5; Tool On
G1 F300 Z0.0000
G1 F15000 X849.0000 Y207.3800 Z0.0000
M3S245
G4 P0.5; Tool Off

G0 Z0; move to z-safe height
G0 X849.0000 Y209.3800
M3S0
G4 P0.5; Tool On
G1 F300 Z0.0000
G1 F15000 X1.0000 Y209.3800 Z0.0000
M3S245
G4 P0.5; Tool Off

G0 Z0; move to z-safe height
G0 X1.0000 Y211.3800
M3S0
G4 P0.5; Tool On
G1 F300 Z0.0000
G1 F15000 X849.0000 Y211.3800 Z0.0000
M3S245
G4 P0.5; Tool Off

G0 Z0; move to z-safe height
G0 X849.0000 Y213.3800
M3S0
G4 P0.5; Tool On
G1 F300 Z0.0000
G1 F15000 X1.0000 Y213.3800 Z0.0000
M3S245
G4 P0.5; Tool Off

G0 Z0; move to z-safe height
G0 X1.0000 Y215.3800
M3S0
G4 P0.5; Tool On
G1 F300 Z0.0000
G1 F15000 X849.0000 Y215.3800 Z0.0000
M3S245
G4 P0.5; Tool Off

G0 Z0; move to z-safe height
G0 X849.0000 Y217.3800
M3S0
G4 P0.5; Tool On
G1 F300 Z0.0000
G1 F15000 X1.0000 Y217.3800 Z0.0000
M3S245
G4 P0.5; Tool Off

G0 Z0; move to z-safe height
G0 X1.0000 Y219.3800
M3S0
G4 P0.5; Tool On
G1 F300 Z0.0000
G1 F15000 X849.0000 Y219.3800 Z0.0000
M3S245
G4 P0.5; Tool Off

G0 Z0; move to z-safe height
G0 X849.0000 Y221.3800
M3S0
G4 P0.5; Tool On
G1 F300 Z0.0000
G1 F15000 X1.0000 Y221.3800 Z0.0000
M3S245
G4 P0.5; Tool Off

G0 Z0; move to z-safe height
G0 X1.0000 Y223.3800
M3S0
G4 P0.5; Tool On
G1 F300 Z0.0000
G1 F15000 X849.0000 Y223.3800 Z0.0000
M3S245
G4 P0.5; Tool Off

G0 Z0; move to z-safe height
G0 X849.0000 Y225.3800
M3S0
G4 P0.5; Tool On
G1 F300 Z0.0000
G1 F15000 X1.0000 Y225.3800 Z0.0000
M3S245
G4 P0.5; Tool Off

G0 Z0; move to z-safe height
G0 X1.0000 Y227.3800
M3S0
G4 P0.5; Tool On
G1 F300 Z0.0000
G1 F15000 X849.0000 Y227.3800 Z0.0000
M3S245
G4 P0.5; Tool Off

G0 Z0; move to z-safe height
G0 X849.0000 Y229.3800
M3S0
G4 P0.5; Tool On
G1 F300 Z0.0000
G1 F15000 X1.0000 Y229.3800 Z0.0000
M3S245
G4 P0.5; Tool Off

G0 Z0; move to z-safe height
G0 X1.0000 Y231.3800
M3S0
G4 P0.5; Tool On
G1 F300 Z0.0000
G1 F15000 X849.0000 Y231.3800 Z0.0000
M3S245
G4 P0.5; Tool Off

G0 Z0; move to z-safe height
G0 X849.0000 Y233.3800
M3S0
G4 P0.5; Tool On
G1 F300 Z0.0000
G1 F15000 X1.0000 Y233.3800 Z0.0000
M3S245
G4 P0.5; Tool Off

G0 Z0; move to z-safe height
G0 X1.0000 Y235.3800
M3S0
G4 P0.5; Tool On
G1 F300 Z0.0000
G1 F15000 X849.0000 Y235.3800 Z0.0000
M3S245
G4 P0.5; Tool Off

G0 Z0; move to z-safe height
G0 X849.0000 Y237.3800
M3S0
G4 P0.5; Tool On
G1 F300 Z0.0000
G1 F15000 X1.0000 Y237.3800 Z0.0000
M3S245
G4 P0.5; Tool Off

G0 Z0; move to z-safe height
G0 X1.0000 Y239.3800
M3S0
G4 P0.5; Tool On
G1 F300 Z0.0000
G1 F15000 X849.0000 Y239.3800 Z0.0000
M3S245
G4 P0.5; Tool Off

G0 Z0; move to z-safe height
G0 X849.0000 Y241.3800
M3S0
G4 P0.5; Tool On
G1 F300 Z0.0000
G1 F15000 X1.0000 Y241.3800 Z0.0000
M3S245
G4 P0.5; Tool Off

G0 Z0; move to z-safe height
G0 X1.0000 Y243.3800
M3S0
G4 P0.5; Tool On
G1 F300 Z0.0000
G1 F15000 X849.0000 Y243.3800 Z0.0000
M3S245
G4 P0.5; Tool Off

G0 Z0; move to z-safe height
G0 X849.0000 Y245.3800
M3S0
G4 P0.5; Tool On
G1 F300 Z0.0000
G1 F15000 X1.0000 Y245.3800 Z0.0000
M3S245
G4 P0.5; Tool Off

G0 Z0; move to z-safe height
G0 X1.0000 Y247.3800
M3S0
G4 P0.5; Tool On
G1 F300 Z0.0000
G1 F15000 X849.0000 Y247.3800 Z0.0000
M3S245
G4 P0.5; Tool Off

G0 Z0; move to z-safe height
G0 X849.0000 Y249.3800
M3S0
G4 P0.5; Tool On
G1 F300 Z0.0000
G1 F15000 X1.0000 Y249.3800 Z0.0000
M3S245
G4 P0.5; Tool Off

G0 Z0; move to z-safe height
G0 X1.0000 Y251.3800
M3S0
G4 P0.5; Tool On
G1 F300 Z0.0000
G1 F15000 X849.0000 Y251.3800 Z0.0000
M3S245
G4 P0.5; Tool Off

G0 Z0; move to z-safe height
G0 X849.0000 Y253.3800
M3S0
G4 P0.5; Tool On
G1 F300 Z0.0000
G1 F15000 X1.0000 Y253.3800 Z0.0000
M3S245
G4 P0.5; Tool Off

G0 Z0; move to z-safe height
G0 X1.0000 Y255.3800
M3S0
G4 P0.5; Tool On
G1 F300 Z0.0000
G1 F15000 X849.0000 Y255.3800 Z0.0000
M3S245
G4 P0.5; Tool Off

G0 Z0; move to z-safe height
G0 X849.0000 Y257.3800
M3S0
G4 P0.5; Tool On
G1 F300 Z0.0000
G1 F15000 X1.0000 Y257.3800 Z0.0000
M3S245
G4 P0.5; Tool Off

G0 Z0; move to z-safe height
G0 X1.0000 Y259.3800
M3S0
G4 P0.5; Tool On
G1 F300 Z0.0000
G1 F15000 X849.0000 Y259.3800 Z0.0000
M3S245
G4 P0.5; Tool Off

G0 Z0; move to z-safe height
G0 X849.0000 Y261.3800
M3S0
G4 P0.5; Tool On
G1 F300 Z0.0000
G1 F15000 X1.0000 Y261.3800 Z0.0000
M3S245
G4 P0.5; Tool Off

G0 Z0; move to z-safe height
G0 X1.0000 Y263.3800
M3S0
G4 P0.5; Tool On
G1 F300 Z0.0000
G1 F15000 X849.0000 Y263.3800 Z0.0000
M3S245
G4 P0.5; Tool Off

G0 Z0; move to z-safe height
G0 X849.0000 Y265.3800
M3S0
G4 P0.5; Tool On
G1 F300 Z0.0000
G1 F15000 X1.0000 Y265.3800 Z0.0000
M3S245
G4 P0.5; Tool Off

G0 Z0; move to z-safe height
G0 X1.0000 Y267.3800
M3S0
G4 P0.5; Tool On
G1 F300 Z0.0000
G1 F15000 X849.0000 Y267.3800 Z0.0000
M3S245
G4 P0.5; Tool Off

G0 Z0; move to z-safe height
G0 X849.0000 Y269.3800
M3S0
G4 P0.5; Tool On
G1 F300 Z0.0000
G1 F15000 X1.0000 Y269.3800 Z0.0000
M3S245
G4 P0.5; Tool Off

G0 Z0; move to z-safe height
G0 X1.0000 Y271.3800
M3S0
G4 P0.5; Tool On
G1 F300 Z0.0000
G1 F15000 X849.0000 Y271.3800 Z0.0000
M3S245
G4 P0.5; Tool Off

G0 Z0; move to z-safe height
G0 X849.0000 Y273.3800
M3S0
G4 P0.5; Tool On
G1 F300 Z0.0000
G1 F15000 X1.0000 Y273.3800 Z0.0000
M3S245
G4 P0.5; Tool Off

G0 Z0; move to z-safe height
G0 X1.0000 Y275.3800
M3S0
G4 P0.5; Tool On
G1 F300 Z0.0000
G1 F15000 X849.0000 Y275.3800 Z0.0000
M3S245
G4 P0.5; Tool Off

G0 Z0; move to z-safe height
G0 X849.0000 Y277.3800
M3S0
G4 P0.5; Tool On
G1 F300 Z0.0000
G1 F15000 X1.0000 Y277.3800 Z0.0000
M3S245
G4 P0.5; Tool Off

G0 Z0; move to z-safe height
G0 X1.0000 Y279.3800
M3S0
G4 P0.5; Tool On
G1 F300 Z0.0000
G1 F15000 X849.0000 Y279.3800 Z0.0000
M3S245
G4 P0.5; Tool Off

G0 Z0; move to z-safe height
G0 X849.0000 Y281.3800
M3S0
G4 P0.5; Tool On
G1 F300 Z0.0000
G1 F15000 X1.0000 Y281.3800 Z0.0000
M3S245
G4 P0.5; Tool Off

G0 Z0; move to z-safe height
G0 X1.0000 Y283.3800
M3S0
G4 P0.5; Tool On
G1 F300 Z0.0000
G1 F15000 X849.0000 Y283.3800 Z0.0000
M3S245
G4 P0.5; Tool Off

G0 Z0; move to z-safe height
G0 X849.0000 Y285.3800
M3S0
G4 P0.5; Tool On
G1 F300 Z0.0000
G1 F15000 X1.0000 Y285.3800 Z0.0000
M3S245
G4 P0.5; Tool Off

G0 Z0; move to z-safe height
G0 X1.0000 Y287.3800
M3S0
G4 P0.5; Tool On
G1 F300 Z0.0000
G1 F15000 X849.0000 Y287.3800 Z0.0000
M3S245
G4 P0.5; Tool Off

G0 Z0; move to z-safe height
G0 X849.0000 Y289.3800
M3S0
G4 P0.5; Tool On
G1 F300 Z0.0000
G1 F15000 X1.0000 Y289.3800 Z0.0000
M3S245
G4 P0.5; Tool Off

G0 Z0; move to z-safe height
G0 X1.0000 Y291.3800
M3S0
G4 P0.5; Tool On
G1 F300 Z0.0000
G1 F15000 X849.0000 Y291.3800 Z0.0000
M3S245
G4 P0.5; Tool Off

G0 Z0; move to z-safe height
G0 X849.0000 Y293.3800
M3S0
G4 P0.5; Tool On
G1 F300 Z0.0000
G1 F15000 X1.0000 Y293.3800 Z0.0000
M3S245
G4 P0.5; Tool Off

G0 Z0; move to z-safe height
G0 X1.0000 Y295.3800
M3S0
G4 P0.5; Tool On
G1 F300 Z0.0000
G1 F15000 X849.0000 Y295.3800 Z0.0000
M3S245
G4 P0.5; Tool Off

G0 Z0; move to z-safe height
G0 X849.0000 Y297.3800
M3S0
G4 P0.5; Tool On
G1 F300 Z0.0000
G1 F15000 X1.0000 Y297.3800 Z0.0000
M3S245
G4 P0.5; Tool Off

G0 Z0; move to z-safe height
G0 X1.0000 Y299.3800
M3S0
G4 P0.5; Tool On
G1 F300 Z0.0000
G1 F15000 X849.0000 Y299.3800 Z0.0000
M3S245
G4 P0.5; Tool Off

G0 Z0; move to z-safe height
G0 X849.0000 Y301.3800
M3S0
G4 P0.5; Tool On
G1 F300 Z0.0000
G1 F15000 X1.0000 Y301.3800 Z0.0000
M3S245
G4 P0.5; Tool Off

G0 Z0; move to z-safe height
G0 X1.0000 Y303.3800
M3S0
G4 P0.5; Tool On
G1 F300 Z0.0000
G1 F15000 X849.0000 Y303.3800 Z0.0000
M3S245
G4 P0.5; Tool Off

G0 Z0; move to z-safe height
G0 X849.0000 Y305.3800
M3S0
G4 P0.5; Tool On
G1 F300 Z0.0000
G1 F15000 X1.0000 Y305.3800 Z0.0000
M3S245
G4 P0.5; Tool Off

G0 Z0; move to z-safe height
G0 X1.0000 Y307.3800
M3S0
G4 P0.5; Tool On
G1 F300 Z0.0000
G1 F15000 X849.0000 Y307.3800 Z0.0000
M3S245
G4 P0.5; Tool Off

G0 Z0; move to z-safe height
G0 X849.0000 Y309.3800
M3S0
G4 P0.5; Tool On
G1 F300 Z0.0000
G1 F15000 X1.0000 Y309.3800 Z0.0000
M3S245
G4 P0.5; Tool Off

G0 Z0; move to z-safe height
G0 X1.0000 Y311.3800
M3S0
G4 P0.5; Tool On
G1 F300 Z0.0000
G1 F15000 X849.0000 Y311.3800 Z0.0000
M3S245
G4 P0.5; Tool Off

G0 Z0; move to z-safe height
G0 X849.0000 Y313.3800
M3S0
G4 P0.5; Tool On
G1 F300 Z0.0000
G1 F15000 X1.0000 Y313.3800 Z0.0000
M3S245
G4 P0.5; Tool Off

G0 Z0; move to z-safe height
G0 X1.0000 Y315.3800
M3S0
G4 P0.5; Tool On
G1 F300 Z0.0000
G1 F15000 X849.0000 Y315.3800 Z0.0000
M3S245
G4 P0.5; Tool Off

G0 Z0; move to z-safe height
G0 X849.0000 Y317.3800
M3S0
G4 P0.5; Tool On
G1 F300 Z0.0000
G1 F15000 X1.0000 Y317.3800 Z0.0000
M3S245
G4 P0.5; Tool Off

G0 Z0; move to z-safe height
G0 X1.0000 Y319.3800
M3S0
G4 P0.5; Tool On
G1 F300 Z0.0000
G1 F15000 X849.0000 Y319.3800 Z0.0000
M3S245
G4 P0.5; Tool Off

G0 Z0; move to z-safe height
G0 X849.0000 Y321.3800
M3S0
G4 P0.5; Tool On
G1 F300 Z0.0000
G1 F15000 X1.0000 Y321.3800 Z0.0000
M3S245
G4 P0.5; Tool Off

G0 Z0; move to z-safe height
G0 X1.0000 Y323.3800
M3S0
G4 P0.5; Tool On
G1 F300 Z0.0000
G1 F15000 X849.0000 Y323.3800 Z0.0000
M3S245
G4 P0.5; Tool Off

G0 Z0; move to z-safe height
G0 X849.0000 Y325.3800
M3S0
G4 P0.5; Tool On
G1 F300 Z0.0000
G1 F15000 X1.0000 Y325.3800 Z0.0000
M3S245
G4 P0.5; Tool Off

G0 Z0; move to z-safe height
G0 X1.0000 Y327.3800
M3S0
G4 P0.5; Tool On
G1 F300 Z0.0000
G1 F15000 X849.0000 Y327.3800 Z0.0000
M3S245
G4 P0.5; Tool Off

G0 Z0; move to z-safe height
G0 X849.0000 Y329.3800
M3S0
G4 P0.5; Tool On
G1 F300 Z0.0000
G1 F15000 X1.0000 Y329.3800 Z0.0000
M3S245
G4 P0.5; Tool Off

G0 Z0; move to z-safe height
G0 X1.0000 Y331.3800
M3S0
G4 P0.5; Tool On
G1 F300 Z0.0000
G1 F15000 X849.0000 Y331.3800 Z0.0000
M3S245
G4 P0.5; Tool Off

G0 Z0; move to z-safe height
G0 X849.0000 Y333.3800
M3S0
G4 P0.5; Tool On
G1 F300 Z0.0000
G1 F15000 X1.0000 Y333.3800 Z0.0000
M3S245
G4 P0.5; Tool Off

G0 Z0; move to z-safe height
G0 X1.0000 Y335.3800
M3S0
G4 P0.5; Tool On
G1 F300 Z0.0000
G1 F15000 X849.0000 Y335.3800 Z0.0000
M3S245
G4 P0.5; Tool Off

G0 Z0; move to z-safe height
G0 X849.0000 Y337.3800
M3S0
G4 P0.5; Tool On
G1 F300 Z0.0000
G1 F15000 X1.0000 Y337.3800 Z0.0000
M3S245
G4 P0.5; Tool Off

G0 Z0; move to z-safe height
G0 X1.0000 Y339.3800
M3S0
G4 P0.5; Tool On
G1 F300 Z0.0000
G1 F15000 X849.0000 Y339.3800 Z0.0000
M3S245
G4 P0.5; Tool Off

G0 Z0; move to z-safe height
G0 X849.0000 Y341.3800
M3S0
G4 P0.5; Tool On
G1 F300 Z0.0000
G1 F15000 X1.0000 Y341.3800 Z0.0000
M3S245
G4 P0.5; Tool Off

G0 Z0; move to z-safe height
G0 X1.0000 Y343.3800
M3S0
G4 P0.5; Tool On
G1 F300 Z0.0000
G1 F15000 X849.0000 Y343.3800 Z0.0000
M3S245
G4 P0.5; Tool Off

G0 Z0; move to z-safe height
G0 X849.0000 Y345.3800
M3S0
G4 P0.5; Tool On
G1 F300 Z0.0000
G1 F15000 X1.0000 Y345.3800 Z0.0000
M3S245
G4 P0.5; Tool Off

G0 Z0; move to z-safe height
G0 X1.0000 Y347.3800
M3S0
G4 P0.5; Tool On
G1 F300 Z0.0000
G1 F15000 X849.0000 Y347.3800 Z0.0000
M3S245
G4 P0.5; Tool Off

G0 Z0; move to z-safe height
G0 X849.0000 Y349.3800
M3S0
G4 P0.5; Tool On
G1 F300 Z0.0000
G1 F15000 X1.0000 Y349.3800 Z0.0000
M3S245
G4 P0.5; Tool Off

G0 Z0; move to z-safe height
G0 X1.0000 Y351.3800
M3S0
G4 P0.5; Tool On
G1 F300 Z0.0000
G1 F15000 X849.0000 Y351.3800 Z0.0000
M3S245
G4 P0.5; Tool Off

G0 Z0; move to z-safe height
G0 X849.0000 Y353.3800
M3S0
G4 P0.5; Tool On
G1 F300 Z0.0000
G1 F15000 X1.0000 Y353.3800 Z0.0000
M3S245
G4 P0.5; Tool Off

G0 Z0; move to z-safe height
G0 X1.0000 Y355.3800
M3S0
G4 P0.5; Tool On
G1 F300 Z0.0000
G1 F15000 X849.0000 Y355.3800 Z0.0000
M3S245
G4 P0.5; Tool Off

G0 Z0; move to z-safe height
G0 X849.0000 Y357.3800
M3S0
G4 P0.5; Tool On
G1 F300 Z0.0000
G1 F15000 X1.0000 Y357.3800 Z0.0000
M3S245
G4 P0.5; Tool Off

G0 Z0; move to z-safe height
G0 X1.0000 Y359.3800
M3S0
G4 P0.5; Tool On
G1 F300 Z0.0000
G1 F15000 X849.0000 Y359.3800 Z0.0000
M3S245
G4 P0.5; Tool Off

G0 Z0; move to z-safe height
G0 X849.0000 Y361.3800
M3S0
G4 P0.5; Tool On
G1 F300 Z0.0000
G1 F15000 X1.0000 Y361.3800 Z0.0000
M3S245
G4 P0.5; Tool Off

G0 Z0; move to z-safe height
G0 X1.0000 Y363.3800
M3S0
G4 P0.5; Tool On
G1 F300 Z0.0000
G1 F15000 X849.0000 Y363.3800 Z0.0000
M3S245
G4 P0.5; Tool Off

G0 Z0; move to z-safe height
G0 X849.0000 Y365.3800
M3S0
G4 P0.5; Tool On
G1 F300 Z0.0000
G1 F15000 X1.0000 Y365.3800 Z0.0000
M3S245
G4 P0.5; Tool Off

G0 Z0; move to z-safe height
G0 X1.0000 Y367.3800
M3S0
G4 P0.5; Tool On
G1 F300 Z0.0000
G1 F15000 X849.0000 Y367.3800 Z0.0000
M3S245
G4 P0.5; Tool Off

G0 Z0; move to z-safe height
G0 X849.0000 Y369.3800
M3S0
G4 P0.5; Tool On
G1 F300 Z0.0000
G1 F15000 X1.0000 Y369.3800 Z0.0000
M3S245
G4 P0.5; Tool Off

G0 Z0; move to z-safe height
G0 X1.0000 Y371.3800
M3S0
G4 P0.5; Tool On
G1 F300 Z0.0000
G1 F15000 X849.0000 Y371.3800 Z0.0000
M3S245
G4 P0.5; Tool Off

G0 Z0; move to z-safe height
G0 X849.0000 Y373.3800
M3S0
G4 P0.5; Tool On
G1 F300 Z0.0000
G1 F15000 X1.0000 Y373.3800 Z0.0000
M3S245
G4 P0.5; Tool Off

G0 Z0; move to z-safe height
G0 X1.0000 Y375.3800
M3S0
G4 P0.5; Tool On
G1 F300 Z0.0000
G1 F15000 X849.0000 Y375.3800 Z0.0000
M3S245
G4 P0.5; Tool Off

G0 Z0; move to z-safe height
G0 X849.0000 Y377.3800
M3S0
G4 P0.5; Tool On
G1 F300 Z0.0000
G1 F15000 X1.0000 Y377.3800 Z0.0000
M3S245
G4 P0.5; Tool Off

G0 Z0; move to z-safe height
G0 X1.0000 Y379.3800
M3S0
G4 P0.5; Tool On
G1 F300 Z0.0000
G1 F15000 X849.0000 Y379.3800 Z0.0000
M3S245
G4 P0.5; Tool Off

G0 Z0; move to z-safe height
G0 X849.0000 Y381.3800
M3S0
G4 P0.5; Tool On
G1 F300 Z0.0000
G1 F15000 X1.0000 Y381.3800 Z0.0000
M3S245
G4 P0.5; Tool Off

G0 Z0; move to z-safe height
G0 X1.0000 Y383.3800
M3S0
G4 P0.5; Tool On
G1 F300 Z0.0000
G1 F15000 X849.0000 Y383.3800 Z0.0000
M3S245
G4 P0.5; Tool Off

G0 Z0; move to z-safe height
G0 X849.0000 Y385.3800
M3S0
G4 P0.5; Tool On
G1 F300 Z0.0000
G1 F15000 X1.0000 Y385.3800 Z0.0000
M3S245
G4 P0.5; Tool Off

G0 Z0; move to z-safe height
G0 X1.0000 Y387.3800
M3S0
G4 P0.5; Tool On
G1 F300 Z0.0000
G1 F15000 X849.0000 Y387.3800 Z0.0000
M3S245
G4 P0.5; Tool Off

G0 Z0; move to z-safe height
G0 X849.0000 Y389.3800
M3S0
G4 P0.5; Tool On
G1 F300 Z0.0000
G1 F15000 X1.0000 Y389.3800 Z0.0000
M3S245
G4 P0.5; Tool Off

G0 Z0; move to z-safe height
G0 X1.0000 Y391.3800
M3S0
G4 P0.5; Tool On
G1 F300 Z0.0000
G1 F15000 X849.0000 Y391.3800 Z0.0000
M3S245
G4 P0.5; Tool Off

G0 Z0; move to z-safe height
G0 X849.0000 Y393.3800
M3S0
G4 P0.5; Tool On
G1 F300 Z0.0000
G1 F15000 X1.0000 Y393.3800 Z0.0000
M3S245
G4 P0.5; Tool Off

G0 Z0; move to z-safe height
G0 X1.0000 Y395.3800
M3S0
G4 P0.5; Tool On
G1 F300 Z0.0000
G1 F15000 X849.0000 Y395.3800 Z0.0000
M3S245
G4 P0.5; Tool Off

G0 Z0; move to z-safe height
G0 X849.0000 Y397.3800
M3S0
G4 P0.5; Tool On
G1 F300 Z0.0000
G1 F15000 X1.0000 Y397.3800 Z0.0000
M3S245
G4 P0.5; Tool Off

G0 Z0; move to z-safe height
G0 X1.0000 Y399.3800
M3S0
G4 P0.5; Tool On
G1 F300 Z0.0000
G1 F15000 X849.0000 Y399.3800 Z0.0000
M3S245
G4 P0.5; Tool Off

G0 Z0; move to z-safe height
G0 X849.0000 Y401.3800
M3S0
G4 P0.5; Tool On
G1 F300 Z0.0000
G1 F15000 X1.0000 Y401.3800 Z0.0000
M3S245
G4 P0.5; Tool Off

G0 Z0; move to z-safe height
G0 X1.0000 Y403.3800
M3S0
G4 P0.5; Tool On
G1 F300 Z0.0000
G1 F15000 X849.0000 Y403.3800 Z0.0000
M3S245
G4 P0.5; Tool Off

G0 Z0; move to z-safe height
G0 X849.0000 Y405.3800
M3S0
G4 P0.5; Tool On
G1 F300 Z0.0000
G1 F15000 X1.0000 Y405.3800 Z0.0000
M3S245
G4 P0.5; Tool Off

G0 Z0; move to z-safe height
G0 X1.0000 Y407.3800
M3S0
G4 P0.5; Tool On
G1 F300 Z0.0000
G1 F15000 X849.0000 Y407.3800 Z0.0000
M3S245
G4 P0.5; Tool Off

G0 Z0; move to z-safe height
G0 X849.0000 Y409.3800
M3S0
G4 P0.5; Tool On
G1 F300 Z0.0000
G1 F15000 X1.0000 Y409.3800 Z0.0000
M3S245
G4 P0.5; Tool Off

G0 Z0; move to z-safe height
G0 X1.0000 Y411.3800
M3S0
G4 P0.5; Tool On
G1 F300 Z0.0000
G1 F15000 X849.0000 Y411.3800 Z0.0000
M3S245
G4 P0.5; Tool Off

G0 Z0; move to z-safe height
G0 X849.0000 Y413.3800
M3S0
G4 P0.5; Tool On
G1 F300 Z0.0000
G1 F15000 X1.0000 Y413.3800 Z0.0000
M3S245
G4 P0.5; Tool Off

G0 Z0; move to z-safe height
G0 X1.0000 Y415.3800
M3S0
G4 P0.5; Tool On
G1 F300 Z0.0000
G1 F15000 X849.0000 Y415.3800 Z0.0000
M3S245
G4 P0.5; Tool Off

G0 Z0; move to z-safe height
G0 X849.0000 Y417.3800
M3S0
G4 P0.5; Tool On
G1 F300 Z0.0000
G1 F15000 X1.0000 Y417.3800 Z0.0000
M3S245
G4 P0.5; Tool Off

G0 Z0; move to z-safe height
G0 X1.0000 Y419.3800
M3S0
G4 P0.5; Tool On
G1 F300 Z0.0000
G1 F15000 X849.0000 Y419.3800 Z0.0000
M3S245
G4 P0.5; Tool Off

G0 Z0; move to z-safe height
G0 X849.0000 Y421.3800
M3S0
G4 P0.5; Tool On
G1 F300 Z0.0000
G1 F15000 X1.0000 Y421.3800 Z0.0000
M3S245
G4 P0.5; Tool Off

G0 Z0; move to z-safe height
G0 X1.0000 Y423.3800
M3S0
G4 P0.5; Tool On
G1 F300 Z0.0000
G1 F15000 X849.0000 Y423.3800 Z0.0000
M3S245
G4 P0.5; Tool Off

G0 Z0; move to z-safe height
G0 X849.0000 Y425.3800
M3S0
G4 P0.5; Tool On
G1 F300 Z0.0000
G1 F15000 X1.0000 Y425.3800 Z0.0000
M3S245
G4 P0.5; Tool Off

G0 Z0; move to z-safe height
G0 X1.0000 Y427.3800
M3S0
G4 P0.5; Tool On
G1 F300 Z0.0000
G1 F15000 X849.0000 Y427.3800 Z0.0000
M3S245
G4 P0.5; Tool Off

G0 Z0; move to z-safe height
G0 X849.0000 Y429.3800
M3S0
G4 P0.5; Tool On
G1 F300 Z0.0000
G1 F15000 X1.0000 Y429.3800 Z0.0000
M3S245
G4 P0.5; Tool Off

G0 Z0; move to z-safe height
G0 X1.0000 Y431.3800
M3S0
G4 P0.5; Tool On
G1 F300 Z0.0000
G1 F15000 X849.0000 Y431.3800 Z0.0000
M3S245
G4 P0.5; Tool Off

G0 Z0; move to z-safe height
G0 X849.0000 Y433.3800
M3S0
G4 P0.5; Tool On
G1 F300 Z0.0000
G1 F15000 X1.0000 Y433.3800 Z0.0000
M3S245
G4 P0.5; Tool Off

G0 Z0; move to z-safe height
G0 X1.0000 Y435.3800
M3S0
G4 P0.5; Tool On
G1 F300 Z0.0000
G1 F15000 X849.0000 Y435.3800 Z0.0000
M3S245
G4 P0.5; Tool Off

G0 Z0; move to z-safe height
G0 X849.0000 Y437.3800
M3S0
G4 P0.5; Tool On
G1 F300 Z0.0000
G1 F15000 X1.0000 Y437.3800 Z0.0000
M3S245
G4 P0.5; Tool Off

G0 Z0; move to z-safe height
G0 X1.0000 Y439.3800
M3S0
G4 P0.5; Tool On
G1 F300 Z0.0000
G1 F15000 X849.0000 Y439.3800 Z0.0000
M3S245
G4 P0.5; Tool Off

G0 Z0; move to z-safe height
G0 X849.0000 Y441.3800
M3S0
G4 P0.5; Tool On
G1 F300 Z0.0000
G1 F15000 X1.0000 Y441.3800 Z0.0000
M3S245
G4 P0.5; Tool Off

G0 Z0; move to z-safe height
G0 X1.0000 Y443.3800
M3S0
G4 P0.5; Tool On
G1 F300 Z0.0000
G1 F15000 X849.0000 Y443.3800 Z0.0000
M3S245
G4 P0.5; Tool Off

G0 Z0; move to z-safe height
G0 X849.0000 Y445.3800
M3S0
G4 P0.5; Tool On
G1 F300 Z0.0000
G1 F15000 X1.0000 Y445.3800 Z0.0000
M3S245
G4 P0.5; Tool Off

G0 Z0; move to z-safe height
G0 X1.0000 Y447.3800
M3S0
G4 P0.5; Tool On
G1 F300 Z0.0000
G1 F15000 X849.0000 Y447.3800 Z0.0000
M3S245
G4 P0.5; Tool Off

G0 Z0; move to z-safe height
G0 X849.0000 Y449.3800
M3S0
G4 P0.5; Tool On
G1 F300 Z0.0000
G1 F15000 X1.0000 Y449.3800 Z0.0000
M3S245
G4 P0.5; Tool Off

G0 Z0; move to z-safe height
G0 X1.0000 Y451.3800
M3S0
G4 P0.5; Tool On
G1 F300 Z0.0000
G1 F15000 X849.0000 Y451.3800 Z0.0000
M3S245
G4 P0.5; Tool Off

G0 Z0; move to z-safe height
G0 X849.0000 Y453.3800
M3S0
G4 P0.5; Tool On
G1 F300 Z0.0000
G1 F15000 X1.0000 Y453.3800 Z0.0000
M3S245
G4 P0.5; Tool Off

G0 Z0; move to z-safe height
G0 X1.0000 Y455.3800
M3S0
G4 P0.5; Tool On
G1 F300 Z0.0000
G1 F15000 X849.0000 Y455.3800 Z0.0000
M3S245
G4 P0.5; Tool Off

G0 Z0; move to z-safe height
G0 X849.0000 Y457.3800
M3S0
G4 P0.5; Tool On
G1 F300 Z0.0000
G1 F15000 X1.0000 Y457.3800 Z0.0000
M3S245
G4 P0.5; Tool Off

G0 Z0; move to z-safe height
G0 X1.0000 Y459.3800
M3S0
G4 P0.5; Tool On
G1 F300 Z0.0000
G1 F15000 X849.0000 Y459.3800 Z0.0000
M3S245
G4 P0.5; Tool Off

G0 Z0; move to z-safe height
G0 X849.0000 Y461.3800
M3S0
G4 P0.5; Tool On
G1 F300 Z0.0000
G1 F15000 X1.0000 Y461.3800 Z0.0000
M3S245
G4 P0.5; Tool Off

G0 Z0; move to z-safe height
G0 X1.0000 Y463.3800
M3S0
G4 P0.5; Tool On
G1 F300 Z0.0000
G1 F15000 X849.0000 Y463.3800 Z0.0000
M3S245
G4 P0.5; Tool Off

G0 Z0; move to z-safe height
G0 X849.0000 Y465.3800
M3S0
G4 P0.5; Tool On
G1 F300 Z0.0000
G1 F15000 X1.0000 Y465.3800 Z0.0000
M3S245
G4 P0.5; Tool Off

G0 Z0; move to z-safe height
G0 X1.0000 Y467.3800
M3S0
G4 P0.5; Tool On
G1 F300 Z0.0000
G1 F15000 X849.0000 Y467.3800 Z0.0000
M3S245
G4 P0.5; Tool Off

G0 Z0; move to z-safe height
G0 X849.0000 Y469.3800
M3S0
G4 P0.5; Tool On
G1 F300 Z0.0000
G1 F15000 X1.0000 Y469.3800 Z0.0000
M3S245
G4 P0.5; Tool Off

G0 Z0; move to z-safe height
G0 X1.0000 Y471.3800
M3S0
G4 P0.5; Tool On
G1 F300 Z0.0000
G1 F15000 X849.0000 Y471.3800 Z0.0000
M3S245
G4 P0.5; Tool Off

G0 Z0; move to z-safe height
G0 X849.0000 Y473.3800
M3S0
G4 P0.5; Tool On
G1 F300 Z0.0000
G1 F15000 X1.0000 Y473.3800 Z0.0000
M3S245
G4 P0.5; Tool Off

G0 Z0; move to z-safe height
G0 X1.0000 Y475.3800
M3S0
G4 P0.5; Tool On
G1 F300 Z0.0000
G1 F15000 X849.0000 Y475.3800 Z0.0000
M3S245
G4 P0.5; Tool Off

G0 Z0; move to z-safe height
G0 X849.0000 Y477.3800
M3S0
G4 P0.5; Tool On
G1 F300 Z0.0000
G1 F15000 X1.0000 Y477.3800 Z0.0000
M3S245
G4 P0.5; Tool Off

G0 Z0; move to z-safe height
G0 X1.0000 Y479.3800
M3S0
G4 P0.5; Tool On
G1 F300 Z0.0000
G1 F15000 X849.0000 Y479.3800 Z0.0000
M3S245
G4 P0.5; Tool Off

G0 Z0; move to z-safe height
G0 X849.0000 Y481.3800
M3S0
G4 P0.5; Tool On
G1 F300 Z0.0000
G1 F15000 X1.0000 Y481.3800 Z0.0000
M3S245
G4 P0.5; Tool Off

G0 Z0; move to z-safe height
G0 X1.0000 Y483.3800
M3S0
G4 P0.5; Tool On
G1 F300 Z0.0000
G1 F15000 X849.0000 Y483.3800 Z0.0000
M3S245
G4 P0.5; Tool Off

G0 Z0; move to z-safe height
G0 X849.0000 Y485.3800
M3S0
G4 P0.5; Tool On
G1 F300 Z0.0000
G1 F15000 X1.0000 Y485.3800 Z0.0000
M3S245
G4 P0.5; Tool Off

G0 Z0; move to z-safe height
G0 X1.0000 Y487.3800
M3S0
G4 P0.5; Tool On
G1 F300 Z0.0000
G1 F15000 X849.0000 Y487.3800 Z0.0000
M3S245
G4 P0.5; Tool Off

G0 Z0; move to z-safe height
G0 X849.0000 Y489.3800
M3S0
G4 P0.5; Tool On
G1 F300 Z0.0000
G1 F15000 X1.0000 Y489.3800 Z0.0000
M3S245
G4 P0.5; Tool Off

G0 Z0; move to z-safe height
G0 X1.0000 Y491.3800
M3S0
G4 P0.5; Tool On
G1 F300 Z0.0000
G1 F15000 X849.0000 Y491.3800 Z0.0000
M3S245
G4 P0.5; Tool Off

G0 Z0; move to z-safe height
G0 X849.0000 Y493.3800
M3S0
G4 P0.5; Tool On
G1 F300 Z0.0000
G1 F15000 X1.0000 Y493.3800 Z0.0000
M3S245
G4 P0.5; Tool Off

G0 Z0; move to z-safe height
G0 X1.0000 Y495.3800
M3S0
G4 P0.5; Tool On
G1 F300 Z0.0000
G1 F15000 X849.0000 Y495.3800 Z0.0000
M3S245
G4 P0.5; Tool Off

G0 Z0; move to z-safe height
G0 X849.0000 Y497.3800
M3S0
G4 P0.5; Tool On
G1 F300 Z0.0000
G1 F15000 X1.0000 Y497.3800 Z0.0000
M3S245
G4 P0.5; Tool Off

G0 Z0; move to z-safe height
G0 X1.0000 Y499.3800
M3S0
G4 P0.5; Tool On
G1 F300 Z0.0000
G1 F15000 X849.0000 Y499.3800 Z0.0000
M3S245
G4 P0.5; Tool Off

G0 Z0; move to z-safe height
G0 X849.0000 Y501.3800
M3S0
G4 P0.5; Tool On
G1 F300 Z0.0000
G1 F15000 X1.0000 Y501.3800 Z0.0000
M3S245
G4 P0.5; Tool Off

G0 Z0; move to z-safe height
G0 X1.0000 Y503.3800
M3S0
G4 P0.5; Tool On
G1 F300 Z0.0000
G1 F15000 X849.0000 Y503.3800 Z0.0000
M3S245
G4 P0.5; Tool Off

G0 Z0; move to z-safe height
G0 X849.0000 Y505.3800
M3S0
G4 P0.5; Tool On
G1 F300 Z0.0000
G1 F15000 X1.0000 Y505.3800 Z0.0000
M3S245
G4 P0.5; Tool Off

G0 Z0; move to z-safe height
G0 X1.0000 Y507.3800
M3S0
G4 P0.5; Tool On
G1 F300 Z0.0000
G1 F15000 X849.0000 Y507.3800 Z0.0000
M3S245
G4 P0.5; Tool Off

G0 Z0; move to z-safe height
G0 X849.0000 Y509.3800
M3S0
G4 P0.5; Tool On
G1 F300 Z0.0000
G1 F15000 X1.0000 Y509.3800 Z0.0000
M3S245
G4 P0.5; Tool Off

G0 Z0; move to z-safe height
G0 X1.0000 Y511.3800
M3S0
G4 P0.5; Tool On
G1 F300 Z0.0000
G1 F15000 X849.0000 Y511.3800 Z0.0000
M3S245
G4 P0.5; Tool Off

G0 Z0; move to z-safe height
G0 X849.0000 Y513.3800
M3S0
G4 P0.5; Tool On
G1 F300 Z0.0000
G1 F15000 X1.0000 Y513.3800 Z0.0000
M3S245
G4 P0.5; Tool Off

G0 Z0; move to z-safe height
G0 X1.0000 Y515.3800
M3S0
G4 P0.5; Tool On
G1 F300 Z0.0000
G1 F15000 X849.0000 Y515.3800 Z0.0000
M3S245
G4 P0.5; Tool Off

G0 Z0; move to z-safe height
G0 X849.0000 Y517.3800
M3S0
G4 P0.5; Tool On
G1 F300 Z0.0000
G1 F15000 X1.0000 Y517.3800 Z0.0000
M3S245
G4 P0.5; Tool Off

G0 Z0; move to z-safe height
G0 X1.0000 Y519.3800
M3S0
G4 P0.5; Tool On
G1 F300 Z0.0000
G1 F15000 X849.0000 Y519.3800 Z0.0000
M3S245
G4 P0.5; Tool Off

G0 Z0; move to z-safe height
G0 X849.0000 Y521.3800
M3S0
G4 P0.5; Tool On
G1 F300 Z0.0000
G1 F15000 X1.0000 Y521.3800 Z0.0000
M3S245
G4 P0.5; Tool Off

G0 Z0; move to z-safe height
G0 X1.0000 Y523.3800
M3S0
G4 P0.5; Tool On
G1 F300 Z0.0000
G1 F15000 X849.0000 Y523.3800 Z0.0000
M3S245
G4 P0.5; Tool Off

G0 Z0; move to z-safe height
G0 X849.0000 Y525.3800
M3S0
G4 P0.5; Tool On
G1 F300 Z0.0000
G1 F15000 X1.0000 Y525.3800 Z0.0000
M3S245
G4 P0.5; Tool Off

G0 Z0; move to z-safe height
G0 X1.0000 Y527.3800
M3S0
G4 P0.5; Tool On
G1 F300 Z0.0000
G1 F15000 X849.0000 Y527.3800 Z0.0000
M3S245
G4 P0.5; Tool Off

G0 Z0; move to z-safe height
G0 X849.0000 Y529.3800
M3S0
G4 P0.5; Tool On
G1 F300 Z0.0000
G1 F15000 X1.0000 Y529.3800 Z0.0000
M3S245
G4 P0.5; Tool Off

G0 Z0; move to z-safe height
G0 X1.0000 Y531.3800
M3S0
G4 P0.5; Tool On
G1 F300 Z0.0000
G1 F15000 X849.0000 Y531.3800 Z0.0000
M3S245
G4 P0.5; Tool Off

G0 Z0; move to z-safe height
G0 X849.0000 Y533.3800
M3S0
G4 P0.5; Tool On
G1 F300 Z0.0000
G1 F15000 X1.0000 Y533.3800 Z0.0000
M3S245
G4 P0.5; Tool Off

G0 Z0; move to z-safe height
G0 X1.0000 Y535.3800
M3S0
G4 P0.5; Tool On
G1 F300 Z0.0000
G1 F15000 X849.0000 Y535.3800 Z0.0000
M3S245
G4 P0.5; Tool Off

G0 Z0; move to z-safe height
G0 X849.0000 Y537.3800
M3S0
G4 P0.5; Tool On
G1 F300 Z0.0000
G1 F15000 X1.0000 Y537.3800 Z0.0000
M3S245
G4 P0.5; Tool Off

G0 Z0; move to z-safe height
G0 X1.0000 Y539.3800
M3S0
G4 P0.5; Tool On
G1 F300 Z0.0000
G1 F15000 X849.0000 Y539.3800 Z0.0000
M3S245
G4 P0.5; Tool Off

G0 Z0; move to z-safe height
G0 X849.0000 Y541.3800
M3S0
G4 P0.5; Tool On
G1 F300 Z0.0000
G1 F15000 X1.0000 Y541.3800 Z0.0000
M3S245
G4 P0.5; Tool Off

G0 Z0; move to z-safe height
G0 X1.0000 Y543.3800
M3S0
G4 P0.5; Tool On
G1 F300 Z0.0000
G1 F15000 X849.0000 Y543.3800 Z0.0000
M3S245
G4 P0.5; Tool Off

G0 Z0; move to z-safe height
G0 X849.0000 Y545.3800
M3S0
G4 P0.5; Tool On
G1 F300 Z0.0000
G1 F15000 X1.0000 Y545.3800 Z0.0000
M3S245
G4 P0.5; Tool Off

G0 Z0; move to z-safe height
G0 X1.0000 Y547.3800
M3S0
G4 P0.5; Tool On
G1 F300 Z0.0000
G1 F15000 X849.0000 Y547.3800 Z0.0000
M3S245
G4 P0.5; Tool Off

G0 Z0; move to z-safe height
G0 X849.0000 Y549.3800
M3S0
G4 P0.5; Tool On
G1 F300 Z0.0000
G1 F15000 X1.0000 Y549.3800 Z0.0000
M3S245
G4 P0.5; Tool Off

G0 Z0; move to z-safe height
G0 X1.0000 Y551.3800
M3S0
G4 P0.5; Tool On
G1 F300 Z0.0000
G1 F15000 X849.0000 Y551.3800 Z0.0000
M3S245
G4 P0.5; Tool Off

G0 Z0; move to z-safe height
G0 X849.0000 Y553.3800
M3S0
G4 P0.5; Tool On
G1 F300 Z0.0000
G1 F15000 X1.0000 Y553.3800 Z0.0000
M3S245
G4 P0.5; Tool Off

G0 Z0; move to z-safe height
G0 X1.0000 Y555.3800
M3S0
G4 P0.5; Tool On
G1 F300 Z0.0000
G1 F15000 X849.0000 Y555.3800 Z0.0000
M3S245
G4 P0.5; Tool Off

G0 Z0; move to z-safe height
G0 X849.0000 Y557.3800
M3S0
G4 P0.5; Tool On
G1 F300 Z0.0000
G1 F15000 X1.0000 Y557.3800 Z0.0000
M3S245
G4 P0.5; Tool Off

G0 Z0; move to z-safe height
G0 X1.0000 Y559.3800
M3S0
G4 P0.5; Tool On
G1 F300 Z0.0000
G1 F15000 X849.0000 Y559.3800 Z0.0000
M3S245
G4 P0.5; Tool Off

G0 Z0; move to z-safe height
G0 X849.0000 Y561.3800
M3S0
G4 P0.5; Tool On
G1 F300 Z0.0000
G1 F15000 X1.0000 Y561.3800 Z0.0000
M3S245
G4 P0.5; Tool Off

G0 Z0; move to z-safe height
G0 X1.0000 Y563.3800
M3S0
G4 P0.5; Tool On
G1 F300 Z0.0000
G1 F15000 X849.0000 Y563.3800 Z0.0000
M3S245
G4 P0.5; Tool Off

G0 Z0; move to z-safe height
G0 X849.0000 Y565.3800
M3S0
G4 P0.5; Tool On
G1 F300 Z0.0000
G1 F15000 X1.0000 Y565.3800 Z0.0000
M3S245
G4 P0.5; Tool Off

G0 Z0; move to z-safe height
G0 X1.0000 Y567.3800
M3S0
G4 P0.5; Tool On
G1 F300 Z0.0000
G1 F15000 X849.0000 Y567.3800 Z0.0000
M3S245
G4 P0.5; Tool Off

G0 Z0; move to z-safe height
G0 X849.0000 Y569.3800
M3S0
G4 P0.5; Tool On
G1 F300 Z0.0000
G1 F15000 X1.0000 Y569.3800 Z0.0000
M3S245
G4 P0.5; Tool Off

G0 Z0; move to z-safe height
G0 X1.0000 Y571.3800
M3S0
G4 P0.5; Tool On
G1 F300 Z0.0000
G1 F15000 X849.0000 Y571.3800 Z0.0000
M3S245
G4 P0.5; Tool Off

G0 Z0; move to z-safe height
G0 X849.0000 Y573.3800
M3S0
G4 P0.5; Tool On
G1 F300 Z0.0000
G1 F15000 X1.0000 Y573.3800 Z0.0000
M3S245
G4 P0.5; Tool Off

G0 Z0; move to z-safe height
G0 X1.0000 Y575.3800
M3S0
G4 P0.5; Tool On
G1 F300 Z0.0000
G1 F15000 X849.0000 Y575.3800 Z0.0000
M3S245
G4 P0.5; Tool Off

G0 Z0; move to z-safe height
G0 X849.0000 Y577.3800
M3S0
G4 P0.5; Tool On
G1 F300 Z0.0000
G1 F15000 X1.0000 Y577.3800 Z0.0000
M3S245
G4 P0.5; Tool Off

G0 Z0; move to z-safe height
G0 X1.0000 Y579.3800
M3S0
G4 P0.5; Tool On
G1 F300 Z0.0000
G1 F15000 X849.0000 Y579.3800 Z0.0000
M3S245
G4 P0.5; Tool Off

G0 Z0; move to z-safe height
G0 X849.0000 Y581.3800
M3S0
G4 P0.5; Tool On
G1 F300 Z0.0000
G1 F15000 X1.0000 Y581.3800 Z0.0000
M3S245
G4 P0.5; Tool Off

G0 Z0; move to z-safe height
G0 X1.0000 Y583.3800
M3S0
G4 P0.5; Tool On
G1 F300 Z0.0000
G1 F15000 X849.0000 Y583.3800 Z0.0000
M3S245
G4 P0.5; Tool Off

G0 Z0; move to z-safe height
G0 X849.0000 Y585.3800
M3S0
G4 P0.5; Tool On
G1 F300 Z0.0000
G1 F15000 X1.0000 Y585.3800 Z0.0000
M3S245
G4 P0.5; Tool Off

G0 Z0; move to z-safe height
G0 X1.0000 Y587.3800
M3S0
G4 P0.5; Tool On
G1 F300 Z0.0000
G1 F15000 X849.0000 Y587.3800 Z0.0000
M3S245
G4 P0.5; Tool Off

G0 Z0; move to z-safe height
G0 X849.0000 Y589.3800
M3S0
G4 P0.5; Tool On
G1 F300 Z0.0000
G1 F15000 X1.0000 Y589.3800 Z0.0000
M3S245
G4 P0.5; Tool Off

G0 Z0; move to z-safe height
G0 X1.0000 Y591.3800
M3S0
G4 P0.5; Tool On
G1 F300 Z0.0000
G1 F15000 X849.0000 Y591.3800 Z0.0000
M3S245
G4 P0.5; Tool Off

G0 Z0; move to z-safe height
G0 X849.0000 Y593.3800
M3S0
G4 P0.5; Tool On
G1 F300 Z0.0000
G1 F15000 X1.0000 Y593.3800 Z0.0000
M3S245
G4 P0.5; Tool Off

G0 Z0; move to z-safe height
G0 X1.0000 Y595.3800
M3S0
G4 P0.5; Tool On
G1 F300 Z0.0000
G1 F15000 X849.0000 Y595.3800 Z0.0000
M3S245
G4 P0.5; Tool Off

G0 Z0; move to z-safe height
G0 X849.0000 Y597.3800
M3S0
G4 P0.5; Tool On
G1 F300 Z0.0000
G1 F15000 X1.0000 Y597.3800 Z0.0000
M3S245
G4 P0.5; Tool Off

G0 Z0; move to z-safe height
G0 X1.0000 Y599.3800
M3S0
G4 P0.5; Tool On
G1 F300 Z0.0000
G1 F15000 X849.0000 Y599.3800 Z0.0000
M3S245
G4 P0.5; Tool Off

G0 Z0; move to z-safe height
G0 X849.0000 Y601.3800
M3S0
G4 P0.5; Tool On
G1 F300 Z0.0000
G1 F15000 X1.0000 Y601.3800 Z0.0000
M3S245
G4 P0.5; Tool Off

G0 Z0; move to z-safe height
G0 X1.0000 Y603.3800
M3S0
G4 P0.5; Tool On
G1 F300 Z0.0000
G1 F15000 X849.0000 Y603.3800 Z0.0000
M3S245
G4 P0.5; Tool Off

G0 Z0; move to z-safe height
G0 X849.0000 Y605.3800
M3S0
G4 P0.5; Tool On
G1 F300 Z0.0000
G1 F15000 X1.0000 Y605.3800 Z0.0000
M3S245
G4 P0.5; Tool Off

G0 Z0; move to z-safe height
G0 X1.0000 Y607.3800
M3S0
G4 P0.5; Tool On
G1 F300 Z0.0000
G1 F15000 X849.0000 Y607.3800 Z0.0000
M3S245
G4 P0.5; Tool Off

G0 Z0; move to z-safe height
G0 X849.0000 Y609.3800
M3S0
G4 P0.5; Tool On
G1 F300 Z0.0000
G1 F15000 X1.0000 Y609.3800 Z0.0000
M3S245
G4 P0.5; Tool Off

G0 Z0; move to z-safe height
G0 X1.0000 Y611.3800
M3S0
G4 P0.5; Tool On
G1 F300 Z0.0000
G1 F15000 X849.0000 Y611.3800 Z0.0000
M3S245
G4 P0.5; Tool Off

G0 Z0; move to z-safe height
G0 X849.0000 Y613.3800
M3S0
G4 P0.5; Tool On
G1 F300 Z0.0000
G1 F15000 X1.0000 Y613.3800 Z0.0000
M3S245
G4 P0.5; Tool Off

G0 Z0; move to z-safe height
G0 X1.0000 Y615.3800
M3S0
G4 P0.5; Tool On
G1 F300 Z0.0000
G1 F15000 X849.0000 Y615.3800 Z0.0000
M3S245
G4 P0.5; Tool Off

G0 Z0; move to z-safe height
G0 X849.0000 Y617.3800
M3S0
G4 P0.5; Tool On
G1 F300 Z0.0000
G1 F15000 X1.0000 Y617.3800 Z0.0000
M3S245
G4 P0.5; Tool Off

G0 Z0; move to z-safe height
G0 X1.0000 Y619.3800
M3S0
G4 P0.5; Tool On
G1 F300 Z0.0000
G1 F15000 X849.0000 Y619.3800 Z0.0000
M3S245
G4 P0.5; Tool Off

G0 Z0; move to z-safe height
G0 X849.0000 Y621.3800
M3S0
G4 P0.5; Tool On
G1 F300 Z0.0000
G1 F15000 X1.0000 Y621.3800 Z0.0000
M3S245
G4 P0.5; Tool Off

G0 Z0; move to z-safe height
G0 X1.0000 Y623.3800
M3S0
G4 P0.5; Tool On
G1 F300 Z0.0000
G1 F15000 X849.0000 Y623.3800 Z0.0000
M3S245
G4 P0.5; Tool Off

G0 Z0; move to z-safe height
G0 X849.0000 Y625.3800
M3S0
G4 P0.5; Tool On
G1 F300 Z0.0000
G1 F15000 X1.0000 Y625.3800 Z0.0000
M3S245
G4 P0.5; Tool Off

G0 Z0; move to z-safe height
G0 X1.0000 Y627.3800
M3S0
G4 P0.5; Tool On
G1 F300 Z0.0000
G1 F15000 X849.0000 Y627.3800 Z0.0000
M3S245
G4 P0.5; Tool Off

G0 Z0; move to z-safe height
G0 X849.0000 Y629.3800
M3S0
G4 P0.5; Tool On
G1 F300 Z0.0000
G1 F15000 X1.0000 Y629.3800 Z0.0000
M3S245
G4 P0.5; Tool Off

G0 Z0; move to z-safe height
G0 X1.0000 Y631.3800
M3S0
G4 P0.5; Tool On
G1 F300 Z0.0000
G1 F15000 X849.0000 Y631.3800 Z0.0000
M3S245
G4 P0.5; Tool Off

G0 Z0; move to z-safe height
G0 X849.0000 Y633.3800
M3S0
G4 P0.5; Tool On
G1 F300 Z0.0000
G1 F15000 X1.0000 Y633.3800 Z0.0000
M3S245
G4 P0.5; Tool Off

G0 Z0; move to z-safe height
G0 X1.0000 Y635.3800
M3S0
G4 P0.5; Tool On
G1 F300 Z0.0000
G1 F15000 X849.0000 Y635.3800 Z0.0000
M3S245
G4 P0.5; Tool Off

G0 Z0; move to z-safe height
G0 X849.0000 Y637.3800
M3S0
G4 P0.5; Tool On
G1 F300 Z0.0000
G1 F15000 X1.0000 Y637.3800 Z0.0000
M3S245
G4 P0.5; Tool Off

G0 Z0; move to z-safe height
G0 X1.0000 Y639.3800
M3S0
G4 P0.5; Tool On
G1 F300 Z0.0000
G1 F15000 X849.0000 Y639.3800 Z0.0000
M3S245
G4 P0.5; Tool Off

G0 Z0; move to z-safe height
G0 X849.0000 Y641.3800
M3S0
G4 P0.5; Tool On
G1 F300 Z0.0000
G1 F15000 X1.0000 Y641.3800 Z0.0000
M3S245
G4 P0.5; Tool Off

G0 Z0; move to z-safe height
G0 X1.0000 Y643.3800
M3S0
G4 P0.5; Tool On
G1 F300 Z0.0000
G1 F15000 X849.0000 Y643.3800 Z0.0000
M3S245
G4 P0.5; Tool Off

G0 Z0; move to z-safe height
G0 X849.0000 Y645.3800
M3S0
G4 P0.5; Tool On
G1 F300 Z0.0000
G1 F15000 X1.0000 Y645.3800 Z0.0000
M3S245
G4 P0.5; Tool Off

G0 Z0; move to z-safe height
G0 X1.0000 Y647.3800
M3S0
G4 P0.5; Tool On
G1 F300 Z0.0000
G1 F15000 X849.0000 Y647.3800 Z0.0000
M3S245
G4 P0.5; Tool Off

G0 Z0; move to z-safe height
G0 X849.0000 Y649.3800
M3S0
G4 P0.5; Tool On
G1 F300 Z0.0000
G1 F15000 X1.0000 Y649.3800 Z0.0000
M3S245
G4 P0.5; Tool Off

G0 Z0; move to z-safe height
G0 X1.0000 Y651.3800
M3S0
G4 P0.5; Tool On
G1 F300 Z0.0000
G1 F15000 X849.0000 Y651.3800 Z0.0000
M3S245
G4 P0.5; Tool Off

G0 Z0; move to z-safe height
G0 X849.0000 Y653.3800
M3S0
G4 P0.5; Tool On
G1 F300 Z0.0000
G1 F15000 X1.0000 Y653.3800 Z0.0000
M3S245
G4 P0.5; Tool Off

G0 Z0; move to z-safe height
G0 X1.0000 Y655.3800
M3S0
G4 P0.5; Tool On
G1 F300 Z0.0000
G1 F15000 X849.0000 Y655.3800 Z0.0000
M3S245
G4 P0.5; Tool Off

G0 Z0; move to z-safe height
G0 X849.0000 Y657.3800
M3S0
G4 P0.5; Tool On
G1 F300 Z0.0000
G1 F15000 X1.0000 Y657.3800 Z0.0000
M3S245
G4 P0.5; Tool Off

G0 Z0; move to z-safe height
G0 X1.0000 Y659.3800
M3S0
G4 P0.5; Tool On
G1 F300 Z0.0000
G1 F15000 X849.0000 Y659.3800 Z0.0000
M3S245
G4 P0.5; Tool Off

G0 Z0; move to z-safe height
G0 X849.0000 Y661.3800
M3S0
G4 P0.5; Tool On
G1 F300 Z0.0000
G1 F15000 X1.0000 Y661.3800 Z0.0000
M3S245
G4 P0.5; Tool Off

G0 Z0; move to z-safe height
G0 X1.0000 Y663.3800
M3S0
G4 P0.5; Tool On
G1 F300 Z0.0000
G1 F15000 X849.0000 Y663.3800 Z0.0000
M3S245
G4 P0.5; Tool Off

G0 Z0; move to z-safe height
G0 X849.0000 Y665.3800
M3S0
G4 P0.5; Tool On
G1 F300 Z0.0000
G1 F15000 X1.0000 Y665.3800 Z0.0000
M3S245
G4 P0.5; Tool Off

G0 Z0; move to z-safe height
G0 X1.0000 Y667.3800
M3S0
G4 P0.5; Tool On
G1 F300 Z0.0000
G1 F15000 X849.0000 Y667.3800 Z0.0000
M3S245
G4 P0.5; Tool Off

G0 Z0; move to z-safe height
G0 X849.0000 Y669.3800
M3S0
G4 P0.5; Tool On
G1 F300 Z0.0000
G1 F15000 X1.0000 Y669.3800 Z0.0000
M3S245
G4 P0.5; Tool Off

G0 Z0; move to z-safe height
G0 X1.0000 Y671.3800
M3S0
G4 P0.5; Tool On
G1 F300 Z0.0000
G1 F15000 X849.0000 Y671.3800 Z0.0000
M3S245
G4 P0.5; Tool Off

G0 Z0; move to z-safe height
G0 X849.0000 Y673.3800
M3S0
G4 P0.5; Tool On
G1 F300 Z0.0000
G1 F15000 X1.0000 Y673.3800 Z0.0000
M3S245
G4 P0.5; Tool Off

G0 Z0; move to z-safe height
G0 X1.0000 Y675.3800
M3S0
G4 P0.5; Tool On
G1 F300 Z0.0000
G1 F15000 X849.0000 Y675.3800 Z0.0000
M3S245
G4 P0.5; Tool Off

G0 Z0; move to z-safe height
G0 X849.0000 Y677.3800
M3S0
G4 P0.5; Tool On
G1 F300 Z0.0000
G1 F15000 X1.0000 Y677.3800 Z0.0000
M3S245
G4 P0.5; Tool Off

G0 Z0; move to z-safe height
G0 X1.0000 Y679.3800
M3S0
G4 P0.5; Tool On
G1 F300 Z0.0000
G1 F15000 X849.0000 Y679.3800 Z0.0000
M3S245
G4 P0.5; Tool Off

G0 Z0; move to z-safe height
G0 X849.0000 Y681.3800
M3S0
G4 P0.5; Tool On
G1 F300 Z0.0000
G1 F15000 X1.0000 Y681.3800 Z0.0000
M3S245
G4 P0.5; Tool Off

G0 Z0; move to z-safe height
G0 X1.0000 Y683.3800
M3S0
G4 P0.5; Tool On
G1 F300 Z0.0000
G1 F15000 X849.0000 Y683.3800 Z0.0000
M3S245
G4 P0.5; Tool Off

G0 Z0; move to z-safe height
G0 X849.0000 Y685.3800
M3S0
G4 P0.5; Tool On
G1 F300 Z0.0000
G1 F15000 X1.0000 Y685.3800 Z0.0000
M3S245
G4 P0.5; Tool Off

G0 Z0; move to z-safe height
G0 X1.0000 Y687.3800
M3S0
G4 P0.5; Tool On
G1 F300 Z0.0000
G1 F15000 X849.0000 Y687.3800 Z0.0000
M3S245
G4 P0.5; Tool Off

G0 Z0; move to z-safe height
G0 X849.0000 Y689.3800
M3S0
G4 P0.5; Tool On
G1 F300 Z0.0000
G1 F15000 X1.0000 Y689.3800 Z0.0000
M3S245
G4 P0.5; Tool Off

G0 Z0; move to z-safe height
G0 X1.0000 Y691.3800
M3S0
G4 P0.5; Tool On
G1 F300 Z0.0000
G1 F15000 X849.0000 Y691.3800 Z0.0000
M3S245
G4 P0.5; Tool Off

G0 Z0; move to z-safe height
G0 X849.0000 Y693.3800
M3S0
G4 P0.5; Tool On
G1 F300 Z0.0000
G1 F15000 X1.0000 Y693.3800 Z0.0000
M3S245
G4 P0.5; Tool Off

G0 Z0; move to z-safe height
G0 X1.0000 Y695.3800
M3S0
G4 P0.5; Tool On
G1 F300 Z0.0000
G1 F15000 X849.0000 Y695.3800 Z0.0000
M3S245
G4 P0.5; Tool Off

G0 Z0; move to z-safe height
G0 X849.0000 Y697.3800
M3S0
G4 P0.5; Tool On
G1 F300 Z0.0000
G1 F15000 X1.0000 Y697.3800 Z0.0000
M3S245
G4 P0.5; Tool Off

G0 Z0; move to z-safe height
G0 X1.0000 Y699.3800
M3S0
G4 P0.5; Tool On
G1 F300 Z0.0000
G1 F15000 X849.0000 Y699.3800 Z0.0000
M3S245
G4 P0.5; Tool Off

G0 Z0; move to z-safe height
G0 X849.0000 Y701.3800
M3S0
G4 P0.5; Tool On
G1 F300 Z0.0000
G1 F15000 X1.0000 Y701.3800 Z0.0000
M3S245
G4 P0.5; Tool Off

G0 Z0; move to z-safe height
G0 X1.0000 Y703.3800
M3S0
G4 P0.5; Tool On
G1 F300 Z0.0000
G1 F15000 X849.0000 Y703.3800 Z0.0000
M3S245
G4 P0.5; Tool Off

G0 Z0; move to z-safe height
G0 X849.0000 Y705.3800
M3S0
G4 P0.5; Tool On
G1 F300 Z0.0000
G1 F15000 X1.0000 Y705.3800 Z0.0000
M3S245
G4 P0.5; Tool Off

G0 Z0; move to z-safe height
G0 X1.0000 Y707.3800
M3S0
G4 P0.5; Tool On
G1 F300 Z0.0000
G1 F15000 X849.0000 Y707.3800 Z0.0000
M3S245
G4 P0.5; Tool Off

G0 Z0; move to z-safe height
G0 X849.0000 Y709.3800
M3S0
G4 P0.5; Tool On
G1 F300 Z0.0000
G1 F15000 X1.0000 Y709.3800 Z0.0000
M3S245
G4 P0.5; Tool Off

G0 Z0; move to z-safe height
G0 X1.0000 Y711.3800
M3S0
G4 P0.5; Tool On
G1 F300 Z0.0000
G1 F15000 X849.0000 Y711.3800 Z0.0000
M3S245
G4 P0.5; Tool Off

G0 Z0; move to z-safe height
G0 X849.0000 Y713.3800
M3S0
G4 P0.5; Tool On
G1 F300 Z0.0000
G1 F15000 X1.0000 Y713.3800 Z0.0000
M3S245
G4 P0.5; Tool Off

G0 Z0; move to z-safe height
G0 X1.0000 Y715.3800
M3S0
G4 P0.5; Tool On
G1 F300 Z0.0000
G1 F15000 X849.0000 Y715.3800 Z0.0000
M3S245
G4 P0.5; Tool Off

G0 Z0; move to z-safe height
G0 X849.0000 Y717.3800
M3S0
G4 P0.5; Tool On
G1 F300 Z0.0000
G1 F15000 X1.0000 Y717.3800 Z0.0000
M3S245
G4 P0.5; Tool Off

G0 Z0; move to z-safe height
G0 X1.0000 Y719.3800
M3S0
G4 P0.5; Tool On
G1 F300 Z0.0000
G1 F15000 X849.0000 Y719.3800 Z0.0000
M3S245
G4 P0.5; Tool Off

G0 Z0; move to z-safe height
G0 X849.0000 Y721.3800
M3S0
G4 P0.5; Tool On
G1 F300 Z0.0000
G1 F15000 X1.0000 Y721.3800 Z0.0000
M3S245
G4 P0.5; Tool Off

G0 Z0; move to z-safe height
G0 X1.0000 Y723.3800
M3S0
G4 P0.5; Tool On
G1 F300 Z0.0000
G1 F15000 X849.0000 Y723.3800 Z0.0000
M3S245
G4 P0.5; Tool Off

G0 Z0; move to z-safe height
G0 X849.0000 Y725.3800
M3S0
G4 P0.5; Tool On
G1 F300 Z0.0000
G1 F15000 X1.0000 Y725.3800 Z0.0000
M3S245
G4 P0.5; Tool Off

G0 Z0; move to z-safe height
G0 X1.0000 Y727.3800
M3S0
G4 P0.5; Tool On
G1 F300 Z0.0000
G1 F15000 X849.0000 Y727.3800 Z0.0000
M3S245
G4 P0.5; Tool Off

G0 Z0; move to z-safe height
G0 X849.0000 Y729.3800
M3S0
G4 P0.5; Tool On
G1 F300 Z0.0000
G1 F15000 X1.0000 Y729.3800 Z0.0000
M3S245
G4 P0.5; Tool Off

G0 Z0; move to z-safe height
G0 X1.0000 Y731.3800
M3S0
G4 P0.5; Tool On
G1 F300 Z0.0000
G1 F15000 X849.0000 Y731.3800 Z0.0000
M3S245
G4 P0.5; Tool Off

G0 Z0; move to z-safe height
G0 X849.0000 Y733.3800
M3S0
G4 P0.5; Tool On
G1 F300 Z0.0000
G1 F15000 X1.0000 Y733.3800 Z0.0000
M3S245
G4 P0.5; Tool Off

G0 Z0; move to z-safe height
G0 X1.0000 Y735.3800
M3S0
G4 P0.5; Tool On
G1 F300 Z0.0000
G1 F15000 X849.0000 Y735.3800 Z0.0000
M3S245
G4 P0.5; Tool Off

G0 Z0; move to z-safe height
G0 X849.0000 Y737.3800
M3S0
G4 P0.5; Tool On
G1 F300 Z0.0000
G1 F15000 X1.0000 Y737.3800 Z0.0000
M3S245
G4 P0.5; Tool Off

G0 Z0; move to z-safe height
G0 X1.0000 Y739.3800
M3S0
G4 P0.5; Tool On
G1 F300 Z0.0000
G1 F15000 X849.0000 Y739.3800 Z0.0000
M3S245
G4 P0.5; Tool Off

G0 Z0; move to z-safe height
G0 X849.0000 Y741.3800
M3S0
G4 P0.5; Tool On
G1 F300 Z0.0000
G1 F15000 X1.0000 Y741.3800 Z0.0000
M3S245
G4 P0.5; Tool Off

G0 Z0; move to z-safe height
G0 X1.0000 Y743.3800
M3S0
G4 P0.5; Tool On
G1 F300 Z0.0000
G1 F15000 X849.0000 Y743.3800 Z0.0000
M3S245
G4 P0.5; Tool Off

G0 Z0; move to z-safe height
G0 X849.0000 Y745.3800
M3S0
G4 P0.5; Tool On
G1 F300 Z0.0000
G1 F15000 X1.0000 Y745.3800 Z0.0000
M3S245
G4 P0.5; Tool Off

G0 Z0; move to z-safe height
G0 X1.0000 Y747.3800
M3S0
G4 P0.5; Tool On
G1 F300 Z0.0000
G1 F15000 X849.0000 Y747.3800 Z0.0000
M3S245
G4 P0.5; Tool Off

G0 Z0; move to z-safe height
G0 X849.0000 Y749.3800
M3S0
G4 P0.5; Tool On
G1 F300 Z0.0000
G1 F15000 X1.0000 Y749.3800 Z0.0000
M3S245
G4 P0.5; Tool Off

G0 Z0; move to z-safe height
G0 X1.0000 Y751.3800
M3S0
G4 P0.5; Tool On
G1 F300 Z0.0000
G1 F15000 X849.0000 Y751.3800 Z0.0000
M3S245
G4 P0.5; Tool Off

G0 Z0; move to z-safe height
G0 X849.0000 Y753.3800
M3S0
G4 P0.5; Tool On
G1 F300 Z0.0000
G1 F15000 X1.0000 Y753.3800 Z0.0000
M3S245
G4 P0.5; Tool Off

G0 Z0; move to z-safe height
G0 X1.0000 Y755.3800
M3S0
G4 P0.5; Tool On
G1 F300 Z0.0000
G1 F15000 X849.0000 Y755.3800 Z0.0000
M3S245
G4 P0.5; Tool Off

G0 Z0; move to z-safe height
G0 X849.0000 Y757.3800
M3S0
G4 P0.5; Tool On
G1 F300 Z0.0000
G1 F15000 X1.0000 Y757.3800 Z0.0000
M3S245
G4 P0.5; Tool Off

G0 Z0; move to z-safe height
G0 X1.0000 Y759.3800
M3S0
G4 P0.5; Tool On
G1 F300 Z0.0000
G1 F15000 X849.0000 Y759.3800 Z0.0000
M3S245
G4 P0.5; Tool Off

G0 Z0; move to z-safe height
G0 X849.0000 Y761.3800
M3S0
G4 P0.5; Tool On
G1 F300 Z0.0000
G1 F15000 X1.0000 Y761.3800 Z0.0000
M3S245
G4 P0.5; Tool Off

G0 Z0; move to z-safe height
G0 X1.0000 Y763.3800
M3S0
G4 P0.5; Tool On
G1 F300 Z0.0000
G1 F15000 X849.0000 Y763.3800 Z0.0000
M3S245
G4 P0.5; Tool Off

G0 Z0; move to z-safe height
G0 X849.0000 Y765.3800
M3S0
G4 P0.5; Tool On
G1 F300 Z0.0000
G1 F15000 X1.0000 Y765.3800 Z0.0000
M3S245
G4 P0.5; Tool Off

G0 Z0; move to z-safe height
G0 X1.0000 Y767.3800
M3S0
G4 P0.5; Tool On
G1 F300 Z0.0000
G1 F15000 X849.0000 Y767.3800 Z0.0000
M3S245
G4 P0.5; Tool Off

G0 Z0; move to z-safe height
G0 X849.0000 Y769.3800
M3S0
G4 P0.5; Tool On
G1 F300 Z0.0000
G1 F15000 X1.0000 Y769.3800 Z0.0000
M3S245
G4 P0.5; Tool Off

G0 Z0; move to z-safe height
G0 X1.0000 Y771.3800
M3S0
G4 P0.5; Tool On
G1 F300 Z0.0000
G1 F15000 X849.0000 Y771.3800 Z0.0000
M3S245
G4 P0.5; Tool Off

G0 Z0; move to z-safe height
G0 X849.0000 Y773.3800
M3S0
G4 P0.5; Tool On
G1 F300 Z0.0000
G1 F15000 X1.0000 Y773.3800 Z0.0000
M3S245
G4 P0.5; Tool Off

G0 Z0; move to z-safe height
G0 X1.0000 Y775.3800
M3S0
G4 P0.5; Tool On
G1 F300 Z0.0000
G1 F15000 X849.0000 Y775.3800 Z0.0000
M3S245
G4 P0.5; Tool Off

G0 Z0; move to z-safe height
G0 X849.0000 Y777.3800
M3S0
G4 P0.5; Tool On
G1 F300 Z0.0000
G1 F15000 X1.0000 Y777.3800 Z0.0000
M3S245
G4 P0.5; Tool Off

G0 Z0; move to z-safe height
G0 X1.0000 Y779.3800
M3S0
G4 P0.5; Tool On
G1 F300 Z0.0000
G1 F15000 X849.0000 Y779.3800 Z0.0000
M3S245
G4 P0.5; Tool Off

G0 Z0; move to z-safe height
G0 X849.0000 Y781.3800
M3S0
G4 P0.5; Tool On
G1 F300 Z0.0000
G1 F15000 X1.0000 Y781.3800 Z0.0000
M3S245
G4 P0.5; Tool Off

G0 Z0; move to z-safe height
G0 X1.0000 Y783.3800
M3S0
G4 P0.5; Tool On
G1 F300 Z0.0000
G1 F15000 X849.0000 Y783.3800 Z0.0000
M3S245
G4 P0.5; Tool Off

G0 Z0; move to z-safe height
G0 X849.0000 Y785.3800
M3S0
G4 P0.5; Tool On
G1 F300 Z0.0000
G1 F15000 X1.0000 Y785.3800 Z0.0000
M3S245
G4 P0.5; Tool Off

G0 Z0; move to z-safe height
G0 X1.0000 Y787.3800
M3S0
G4 P0.5; Tool On
G1 F300 Z0.0000
G1 F15000 X849.0000 Y787.3800 Z0.0000
M3S245
G4 P0.5; Tool Off

G0 Z0; move to z-safe height
G0 X849.0000 Y789.3800
M3S0
G4 P0.5; Tool On
G1 F300 Z0.0000
G1 F15000 X1.0000 Y789.3800 Z0.0000
M3S245
G4 P0.5; Tool Off

G0 Z0; move to z-safe height
G0 X1.0000 Y791.3800
M3S0
G4 P0.5; Tool On
G1 F300 Z0.0000
G1 F15000 X849.0000 Y791.3800 Z0.0000
M3S245
G4 P0.5; Tool Off

G0 Z0; move to z-safe height
G0 X849.0000 Y793.3800
M3S0
G4 P0.5; Tool On
G1 F300 Z0.0000
G1 F15000 X1.0000 Y793.3800 Z0.0000
M3S245
G4 P0.5; Tool Off

G0 Z0; move to z-safe height
G0 X1.0000 Y795.3800
M3S0
G4 P0.5; Tool On
G1 F300 Z0.0000
G1 F15000 X849.0000 Y795.3800 Z0.0000
M3S245
G4 P0.5; Tool Off

G0 Z0; move to z-safe height
G0 X849.0000 Y797.3800
M3S0
G4 P0.5; Tool On
G1 F300 Z0.0000
G1 F15000 X1.0000 Y797.3800 Z0.0000
M3S245
G4 P0.5; Tool Off

G0 Z0; move to z-safe height
G0 X1.0000 Y799.3800
M3S0
G4 P0.5; Tool On
G1 F300 Z0.0000
G1 F15000 X849.0000 Y799.3800 Z0.0000
M3S245
G4 P0.5; Tool Off

G0 Z0; move to z-safe height
G0 X849.0000 Y801.3800
M3S0
G4 P0.5; Tool On
G1 F300 Z0.0000
G1 F15000 X1.0000 Y801.3800 Z0.0000
M3S245
G4 P0.5; Tool Off

G0 Z0; move to z-safe height
G0 X1.0000 Y803.3800
M3S0
G4 P0.5; Tool On
G1 F300 Z0.0000
G1 F15000 X849.0000 Y803.3800 Z0.0000
M3S245
G4 P0.5; Tool Off

G0 Z0; move to z-safe height
G0 X849.0000 Y805.3800
M3S0
G4 P0.5; Tool On
G1 F300 Z0.0000
G1 F15000 X1.0000 Y805.3800 Z0.0000
M3S245
G4 P0.5; Tool Off

G0 Z0; move to z-safe height
G0 X1.0000 Y807.3800
M3S0
G4 P0.5; Tool On
G1 F300 Z0.0000
G1 F15000 X849.0000 Y807.3800 Z0.0000
M3S245
G4 P0.5; Tool Off

G0 Z0; move to z-safe height
G0 X849.0000 Y809.3800
M3S0
G4 P0.5; Tool On
G1 F300 Z0.0000
G1 F15000 X1.0000 Y809.3800 Z0.0000
M3S245
G4 P0.5; Tool Off

G0 Z0; move to z-safe height
G0 X1.0000 Y811.3800
M3S0
G4 P0.5; Tool On
G1 F300 Z0.0000
G1 F15000 X849.0000 Y811.3800 Z0.0000
M3S245
G4 P0.5; Tool Off

G0 Z0; move to z-safe height
G0 X849.0000 Y813.3800
M3S0
G4 P0.5; Tool On
G1 F300 Z0.0000
G1 F15000 X1.0000 Y813.3800 Z0.0000
M3S245
G4 P0.5; Tool Off

G0 Z0; move to z-safe height
G0 X1.0000 Y815.3800
M3S0
G4 P0.5; Tool On
G1 F300 Z0.0000
G1 F15000 X849.0000 Y815.3800 Z0.0000
M3S245
G4 P0.5; Tool Off

G0 Z0; move to z-safe height
G0 X849.0000 Y817.3800
M3S0
G4 P0.5; Tool On
G1 F300 Z0.0000
G1 F15000 X1.0000 Y817.3800 Z0.0000
M3S245
G4 P0.5; Tool Off

G0 Z0; move to z-safe height
G0 X1.0000 Y819.3800
M3S0
G4 P0.5; Tool On
G1 F300 Z0.0000
G1 F15000 X849.0000 Y819.3800 Z0.0000
M3S245
G4 P0.5; Tool Off

G0 Z0; move to z-safe height
G0 X849.0000 Y821.3800
M3S0
G4 P0.5; Tool On
G1 F300 Z0.0000
G1 F15000 X1.0000 Y821.3800 Z0.0000
M3S245
G4 P0.5; Tool Off

G0 Z0; move to z-safe height
G0 X1.0000 Y823.3800
M3S0
G4 P0.5; Tool On
G1 F300 Z0.0000
G1 F15000 X849.0000 Y823.3800 Z0.0000
M3S245
G4 P0.5; Tool Off

G0 Z0; move to z-safe height
G0 X849.0000 Y825.3800
M3S0
G4 P0.5; Tool On
G1 F300 Z0.0000
G1 F15000 X1.0000 Y825.3800 Z0.0000
M3S245
G4 P0.5; Tool Off

G0 Z0; move to z-safe height
G0 X1.0000 Y827.3800
M3S0
G4 P0.5; Tool On
G1 F300 Z0.0000
G1 F15000 X849.0000 Y827.3800 Z0.0000
M3S245
G4 P0.5; Tool Off

G0 Z0; move to z-safe height
G0 X849.0000 Y829.3800
M3S0
G4 P0.5; Tool On
G1 F300 Z0.0000
G1 F15000 X1.0000 Y829.3800 Z0.0000
M3S245
G4 P0.5; Tool Off

G0 Z0; move to z-safe height
G0 X1.0000 Y831.3800
M3S0
G4 P0.5; Tool On
G1 F300 Z0.0000
G1 F15000 X849.0000 Y831.3800 Z0.0000
M3S245
G4 P0.5; Tool Off

G0 Z0; move to z-safe height
G0 X849.0000 Y833.3800
M3S0
G4 P0.5; Tool On
G1 F300 Z0.0000
G1 F15000 X1.0000 Y833.3800 Z0.0000
M3S245
G4 P0.5; Tool Off

G0 Z0; move to z-safe height
G0 X1.0000 Y835.3800
M3S0
G4 P0.5; Tool On
G1 F300 Z0.0000
G1 F15000 X849.0000 Y835.3800 Z0.0000
M3S245
G4 P0.5; Tool Off

G0 Z0; move to z-safe height
G0 X849.0000 Y837.3800
M3S0
G4 P0.5; Tool On
G1 F300 Z0.0000
G1 F15000 X1.0000 Y837.3800 Z0.0000
M3S245
G4 P0.5; Tool Off

G0 Z0; move to z-safe height
G0 X1.0000 Y839.3800
M3S0
G4 P0.5; Tool On
G1 F300 Z0.0000
G1 F15000 X849.0000 Y839.3800 Z0.0000
M3S245
G4 P0.5; Tool Off

G0 Z0; move to z-safe height
G0 X849.0000 Y841.3800
M3S0
G4 P0.5; Tool On
G1 F300 Z0.0000
G1 F15000 X1.0000 Y841.3800 Z0.0000
M3S245
G4 P0.5; Tool Off

G0 Z0; move to z-safe height
G0 X1.0000 Y843.3800
M3S0
G4 P0.5; Tool On
G1 F300 Z0.0000
G1 F15000 X849.0000 Y843.3800 Z0.0000
M3S245
G4 P0.5; Tool Off

G0 Z0; move to z-safe height
G0 X849.0000 Y845.3800
M3S0
G4 P0.5; Tool On
G1 F300 Z0.0000
G1 F15000 X1.0000 Y845.3800 Z0.0000
M3S245
G4 P0.5; Tool Off

G0 Z0; move to z-safe height
G0 X1.0000 Y847.3800
M3S0
G4 P0.5; Tool On
G1 F300 Z0.0000
G1 F15000 X849.0000 Y847.3800 Z0.0000
M3S245
G4 P0.5; Tool Off

G0 Z0; move to z-safe height
G0 X849.0000 Y849.3800
M3S0
G4 P0.5; Tool On
G1 F300 Z0.0000
G1 F15000 X1.0000 Y849.3800 Z0.0000
M3S245
G4 P0.5; Tool Off

G0 Z0; move to z-safe height
G0 X1.0000 Y851.3800
M3S0
G4 P0.5; Tool On
G1 F300 Z0.0000
G1 F15000 X849.0000 Y851.3800 Z0.0000
M3S245
G4 P0.5; Tool Off

G0 Z0; move to z-safe height
G0 X849.0000 Y853.3800
M3S0
G4 P0.5; Tool On
G1 F300 Z0.0000
G1 F15000 X1.0000 Y853.3800 Z0.0000
M3S245
G4 P0.5; Tool Off

G0 Z0; move to z-safe height
G0 X1.0000 Y855.3800
M3S0
G4 P0.5; Tool On
G1 F300 Z0.0000
G1 F15000 X849.0000 Y855.3800 Z0.0000
M3S245
G4 P0.5; Tool Off

G0 Z0; move to z-safe height
G0 X849.0000 Y857.3800
M3S0
G4 P0.5; Tool On
G1 F300 Z0.0000
G1 F15000 X1.0000 Y857.3800 Z0.0000
M3S245
G4 P0.5; Tool Off

G0 Z0; move to z-safe height
G0 X1.0000 Y859.3800
M3S0
G4 P0.5; Tool On
G1 F300 Z0.0000
G1 F15000 X849.0000 Y859.3800 Z0.0000
M3S245
G4 P0.5; Tool Off

G0 Z0; move to z-safe height
G0 X849.0000 Y861.3800
M3S0
G4 P0.5; Tool On
G1 F300 Z0.0000
G1 F15000 X1.0000 Y861.3800 Z0.0000
M3S245
G4 P0.5; Tool Off

G0 Z0; move to z-safe height
G0 X1.0000 Y863.3800
M3S0
G4 P0.5; Tool On
G1 F300 Z0.0000
G1 F15000 X849.0000 Y863.3800 Z0.0000
M3S245
G4 P0.5; Tool Off

G0 Z0; move to z-safe height
G0 X849.0000 Y865.3800
M3S0
G4 P0.5; Tool On
G1 F300 Z0.0000
G1 F15000 X1.0000 Y865.3800 Z0.0000
M3S245
G4 P0.5; Tool Off

G0 Z0; move to z-safe height
G0 X1.0000 Y867.3800
M3S0
G4 P0.5; Tool On
G1 F300 Z0.0000
G1 F15000 X849.0000 Y867.3800 Z0.0000
M3S245
G4 P0.5; Tool Off

G0 Z0; move to z-safe height
G0 X849.0000 Y869.3800
M3S0
G4 P0.5; Tool On
G1 F300 Z0.0000
G1 F15000 X1.0000 Y869.3800 Z0.0000
M3S245
G4 P0.5; Tool Off

G0 Z0; move to z-safe height
G0 X1.0000 Y871.3800
M3S0
G4 P0.5; Tool On
G1 F300 Z0.0000
G1 F15000 X849.0000 Y871.3800 Z0.0000
M3S245
G4 P0.5; Tool Off

G0 Z0; move to z-safe height
G0 X849.0000 Y873.3800
M3S0
G4 P0.5; Tool On
G1 F300 Z0.0000
G1 F15000 X1.0000 Y873.3800 Z0.0000
M3S245
G4 P0.5; Tool Off

G0 Z0; move to z-safe height
G0 X1.0000 Y875.3800
M3S0
G4 P0.5; Tool On
G1 F300 Z0.0000
G1 F15000 X849.0000 Y875.3800 Z0.0000
M3S245
G4 P0.5; Tool Off

G0 Z0; move to z-safe height
G0 X849.0000 Y877.3800
M3S0
G4 P0.5; Tool On
G1 F300 Z0.0000
G1 F15000 X1.0000 Y877.3800 Z0.0000
M3S245
G4 P0.5; Tool Off

G0 Z0; move to z-safe height
G0 X1.0000 Y879.3800
M3S0
G4 P0.5; Tool On
G1 F300 Z0.0000
G1 F15000 X849.0000 Y879.3800 Z0.0000
M3S245
G4 P0.5; Tool Off

G0 Z0; move to z-safe height
G0 X849.0000 Y881.3800
M3S0
G4 P0.5; Tool On
G1 F300 Z0.0000
G1 F15000 X1.0000 Y881.3800 Z0.0000
M3S245
G4 P0.5; Tool Off

G0 Z0; move to z-safe height
G0 X1.0000 Y883.3800
M3S0
G4 P0.5; Tool On
G1 F300 Z0.0000
G1 F15000 X849.0000 Y883.3800 Z0.0000
M3S245
G4 P0.5; Tool Off

G0 Z0; move to z-safe height
G0 X849.0000 Y885.3800
M3S0
G4 P0.5; Tool On
G1 F300 Z0.0000
G1 F15000 X1.0000 Y885.3800 Z0.0000
M3S245
G4 P0.5; Tool Off

G0 Z0; move to z-safe height
G0 X1.0000 Y887.3800
M3S0
G4 P0.5; Tool On
G1 F300 Z0.0000
G1 F15000 X849.0000 Y887.3800 Z0.0000
M3S245
G4 P0.5; Tool Off

G0 Z0; move to z-safe height
G0 X849.0000 Y889.3800
M3S0
G4 P0.5; Tool On
G1 F300 Z0.0000
G1 F15000 X1.0000 Y889.3800 Z0.0000
M3S245
G4 P0.5; Tool Off

G0 Z0; move to z-safe height
G0 X1.0000 Y891.3800
M3S0
G4 P0.5; Tool On
G1 F300 Z0.0000
G1 F15000 X849.0000 Y891.3800 Z0.0000
M3S245
G4 P0.5; Tool Off

G0 Z0; move to z-safe height
G0 X849.0000 Y893.3800
M3S0
G4 P0.5; Tool On
G1 F300 Z0.0000
G1 F15000 X1.0000 Y893.3800 Z0.0000
M3S245
G4 P0.5; Tool Off

G0 Z0; move to z-safe height
G0 X1.0000 Y895.3800
M3S0
G4 P0.5; Tool On
G1 F300 Z0.0000
G1 F15000 X849.0000 Y895.3800 Z0.0000
M3S245
G4 P0.5; Tool Off

G0 Z0; move to z-safe height
G0 X849.0000 Y897.3800
M3S0
G4 P0.5; Tool On
G1 F300 Z0.0000
G1 F15000 X1.0000 Y897.3800 Z0.0000
M3S245
G4 P0.5; Tool Off

G0 Z0; move to z-safe height
G0 X1.0000 Y899.3800
M3S0
G4 P0.5; Tool On
G1 F300 Z0.0000
G1 F15000 X849.0000 Y899.3800 Z0.0000
M3S245
G4 P0.5; Tool Off

G0 Z0; move to z-safe height
G0 X849.0000 Y901.3800
M3S0
G4 P0.5; Tool On
G1 F300 Z0.0000
G1 F15000 X1.0000 Y901.3800 Z0.0000
M3S245
G4 P0.5; Tool Off

G0 Z0; move to z-safe height
G0 X1.0000 Y903.3800
M3S0
G4 P0.5; Tool On
G1 F300 Z0.0000
G1 F15000 X849.0000 Y903.3800 Z0.0000
M3S245
G4 P0.5; Tool Off

G0 Z0; move to z-safe height
G0 X849.0000 Y905.3800
M3S0
G4 P0.5; Tool On
G1 F300 Z0.0000
G1 F15000 X1.0000 Y905.3800 Z0.0000
M3S245
G4 P0.5; Tool Off

G0 Z0; move to z-safe height
G0 X1.0000 Y907.3800
M3S0
G4 P0.5; Tool On
G1 F300 Z0.0000
G1 F15000 X849.0000 Y907.3800 Z0.0000
M3S245
G4 P0.5; Tool Off

G0 Z0; move to z-safe height
G0 X849.0000 Y909.3800
M3S0
G4 P0.5; Tool On
G1 F300 Z0.0000
G1 F15000 X1.0000 Y909.3800 Z0.0000
M3S245
G4 P0.5; Tool Off

G0 Z0; move to z-safe height
G0 X1.0000 Y911.3800
M3S0
G4 P0.5; Tool On
G1 F300 Z0.0000
G1 F15000 X849.0000 Y911.3800 Z0.0000
M3S245
G4 P0.5; Tool Off

G0 Z0; move to z-safe height
G0 X849.0000 Y913.3800
M3S0
G4 P0.5; Tool On
G1 F300 Z0.0000
G1 F15000 X1.0000 Y913.3800 Z0.0000
M3S245
G4 P0.5; Tool Off

G0 Z0; move to z-safe height
G0 X1.0000 Y915.3800
M3S0
G4 P0.5; Tool On
G1 F300 Z0.0000
G1 F15000 X849.0000 Y915.3800 Z0.0000
M3S245
G4 P0.5; Tool Off

G0 Z0; move to z-safe height
G0 X849.0000 Y917.3800
M3S0
G4 P0.5; Tool On
G1 F300 Z0.0000
G1 F15000 X1.0000 Y917.3800 Z0.0000
M3S245
G4 P0.5; Tool Off

G0 Z0; move to z-safe height
G0 X1.0000 Y919.3800
M3S0
G4 P0.5; Tool On
G1 F300 Z0.0000
G1 F15000 X849.0000 Y919.3800 Z0.0000
M3S245
G4 P0.5; Tool Off

G0 Z0; move to z-safe height
G0 X849.0000 Y921.3800
M3S0
G4 P0.5; Tool On
G1 F300 Z0.0000
G1 F15000 X1.0000 Y921.3800 Z0.0000
M3S245
G4 P0.5; Tool Off

G0 Z0; move to z-safe height
G0 X1.0000 Y923.3800
M3S0
G4 P0.5; Tool On
G1 F300 Z0.0000
G1 F15000 X849.0000 Y923.3800 Z0.0000
M3S245
G4 P0.5; Tool Off

G0 Z0; move to z-safe height
G0 X849.0000 Y925.3800
M3S0
G4 P0.5; Tool On
G1 F300 Z0.0000
G1 F15000 X1.0000 Y925.3800 Z0.0000
M3S245
G4 P0.5; Tool Off

G0 Z0; move to z-safe height
G0 X1.0000 Y927.3800
M3S0
G4 P0.5; Tool On
G1 F300 Z0.0000
G1 F15000 X849.0000 Y927.3800 Z0.0000
M3S245
G4 P0.5; Tool Off

G0 Z0; move to z-safe height
G0 X849.0000 Y929.3800
M3S0
G4 P0.5; Tool On
G1 F300 Z0.0000
G1 F15000 X1.0000 Y929.3800 Z0.0000
M3S245
G4 P0.5; Tool Off

G0 Z0; move to z-safe height
G0 X1.0000 Y931.3800
M3S0
G4 P0.5; Tool On
G1 F300 Z0.0000
G1 F15000 X849.0000 Y931.3800 Z0.0000
M3S245
G4 P0.5; Tool Off

G0 Z0; move to z-safe height
G0 X849.0000 Y933.3800
M3S0
G4 P0.5; Tool On
G1 F300 Z0.0000
G1 F15000 X1.0000 Y933.3800 Z0.0000
M3S245
G4 P0.5; Tool Off

G0 Z0; move to z-safe height
G0 X1.0000 Y935.3800
M3S0
G4 P0.5; Tool On
G1 F300 Z0.0000
G1 F15000 X849.0000 Y935.3800 Z0.0000
M3S245
G4 P0.5; Tool Off

G0 Z0; move to z-safe height
G0 X849.0000 Y937.3800
M3S0
G4 P0.5; Tool On
G1 F300 Z0.0000
G1 F15000 X1.0000 Y937.3800 Z0.0000
M3S245
G4 P0.5; Tool Off

G0 Z0; move to z-safe height
G0 X1.0000 Y939.3800
M3S0
G4 P0.5; Tool On
G1 F300 Z0.0000
G1 F15000 X849.0000 Y939.3800 Z0.0000
M3S245
G4 P0.5; Tool Off

G0 Z0; move to z-safe height
G0 X849.0000 Y941.3800
M3S0
G4 P0.5; Tool On
G1 F300 Z0.0000
G1 F15000 X1.0000 Y941.3800 Z0.0000
M3S245
G4 P0.5; Tool Off

G0 Z0; move to z-safe height
G0 X1.0000 Y943.3800
M3S0
G4 P0.5; Tool On
G1 F300 Z0.0000
G1 F15000 X849.0000 Y943.3800 Z0.0000
M3S245
G4 P0.5; Tool Off

G0 Z0; move to z-safe height
G0 X849.0000 Y945.3800
M3S0
G4 P0.5; Tool On
G1 F300 Z0.0000
G1 F15000 X1.0000 Y945.3800 Z0.0000
M3S245
G4 P0.5; Tool Off

G0 Z0; move to z-safe height
G0 X1.0000 Y947.3800
M3S0
G4 P0.5; Tool On
G1 F300 Z0.0000
G1 F15000 X849.0000 Y947.3800 Z0.0000
M3S245
G4 P0.5; Tool Off

G0 Z0; move to z-safe height
G0 X849.0000 Y949.3800
M3S0
G4 P0.5; Tool On
G1 F300 Z0.0000
G1 F15000 X1.0000 Y949.3800 Z0.0000
M3S245
G4 P0.5; Tool Off

G0 Z0; move to z-safe height
G0 X1.0000 Y951.3800
M3S0
G4 P0.5; Tool On
G1 F300 Z0.0000
G1 F15000 X849.0000 Y951.3800 Z0.0000
M3S245
G4 P0.5; Tool Off

G0 Z0; move to z-safe height
G0 X849.0000 Y953.3800
M3S0
G4 P0.5; Tool On
G1 F300 Z0.0000
G1 F15000 X1.0000 Y953.3800 Z0.0000
M3S245
G4 P0.5; Tool Off

G0 Z0; move to z-safe height
G0 X1.0000 Y955.3800
M3S0
G4 P0.5; Tool On
G1 F300 Z0.0000
G1 F15000 X849.0000 Y955.3800 Z0.0000
M3S245
G4 P0.5; Tool Off

G0 Z0; move to z-safe height
G0 X849.0000 Y957.3800
M3S0
G4 P0.5; Tool On
G1 F300 Z0.0000
G1 F15000 X1.0000 Y957.3800 Z0.0000
M3S245
G4 P0.5; Tool Off

G0 Z0; move to z-safe height
G0 X1.0000 Y959.3800
M3S0
G4 P0.5; Tool On
G1 F300 Z0.0000
G1 F15000 X849.0000 Y959.3800 Z0.0000
M3S245
G4 P0.5; Tool Off

G0 Z0; move to z-safe height
G0 X849.0000 Y961.3800
M3S0
G4 P0.5; Tool On
G1 F300 Z0.0000
G1 F15000 X1.0000 Y961.3800 Z0.0000
M3S245
G4 P0.5; Tool Off

G0 Z0; move to z-safe height
G0 X1.0000 Y963.3800
M3S0
G4 P0.5; Tool On
G1 F300 Z0.0000
G1 F15000 X849.0000 Y963.3800 Z0.0000
M3S245
G4 P0.5; Tool Off

G0 Z0; move to z-safe height
G0 X849.0000 Y965.3800
M3S0
G4 P0.5; Tool On
G1 F300 Z0.0000
G1 F15000 X1.0000 Y965.3800 Z0.0000
M3S245
G4 P0.5; Tool Off

G0 Z0; move to z-safe height
G0 X1.0000 Y967.3800
M3S0
G4 P0.5; Tool On
G1 F300 Z0.0000
G1 F15000 X849.0000 Y967.3800 Z0.0000
M3S245
G4 P0.5; Tool Off

G0 Z0; move to z-safe height
G0 X849.0000 Y969.3800
M3S0
G4 P0.5; Tool On
G1 F300 Z0.0000
G1 F15000 X1.0000 Y969.3800 Z0.0000
M3S245
G4 P0.5; Tool Off

G0 Z0; move to z-safe height
G0 X1.0000 Y971.3800
M3S0
G4 P0.5; Tool On
G1 F300 Z0.0000
G1 F15000 X849.0000 Y971.3800 Z0.0000
M3S245
G4 P0.5; Tool Off

G0 Z0; move to z-safe height
G0 X849.0000 Y973.3800
M3S0
G4 P0.5; Tool On
G1 F300 Z0.0000
G1 F15000 X1.0000 Y973.3800 Z0.0000
M3S245
G4 P0.5; Tool Off

G0 Z0; move to z-safe height
G0 X1.0000 Y975.3800
M3S0
G4 P0.5; Tool On
G1 F300 Z0.0000
G1 F15000 X849.0000 Y975.3800 Z0.0000
M3S245
G4 P0.5; Tool Off

G0 Z0; move to z-safe height
G0 X849.0000 Y977.3800
M3S0
G4 P0.5; Tool On
G1 F300 Z0.0000
G1 F15000 X1.0000 Y977.3800 Z0.0000
M3S245
G4 P0.5; Tool Off

G0 Z0; move to z-safe height
G0 X1.0000 Y979.3800
M3S0
G4 P0.5; Tool On
G1 F300 Z0.0000
G1 F15000 X849.0000 Y979.3800 Z0.0000
M3S245
G4 P0.5; Tool Off

G0 Z0; move to z-safe height
G0 X849.0000 Y981.3800
M3S0
G4 P0.5; Tool On
G1 F300 Z0.0000
G1 F15000 X1.0000 Y981.3800 Z0.0000
M3S245
G4 P0.5; Tool Off

G0 Z0; move to z-safe height
G0 X1.0000 Y983.3800
M3S0
G4 P0.5; Tool On
G1 F300 Z0.0000
G1 F15000 X849.0000 Y983.3800 Z0.0000
M3S245
G4 P0.5; Tool Off

G0 Z0; move to z-safe height
G0 X849.0000 Y985.3800
M3S0
G4 P0.5; Tool On
G1 F300 Z0.0000
G1 F15000 X1.0000 Y985.3800 Z0.0000
M3S245
G4 P0.5; Tool Off

G0 Z0; move to z-safe height
G0 X1.0000 Y987.3800
M3S0
G4 P0.5; Tool On
G1 F300 Z0.0000
G1 F15000 X849.0000 Y987.3800 Z0.0000
M3S245
G4 P0.5; Tool Off

G0 Z0; move to z-safe height
G0 X849.0000 Y989.3800
M3S0
G4 P0.5; Tool On
G1 F300 Z0.0000
G1 F15000 X1.0000 Y989.3800 Z0.0000
M3S245
G4 P0.5; Tool Off

G0 Z0; move to z-safe height
G0 X1.0000 Y991.3800
M3S0
G4 P0.5; Tool On
G1 F300 Z0.0000
G1 F15000 X849.0000 Y991.3800 Z0.0000
M3S245
G4 P0.5; Tool Off

G0 Z0; move to z-safe height
G0 X849.0000 Y993.3800
M3S0
G4 P0.5; Tool On
G1 F300 Z0.0000
G1 F15000 X1.0000 Y993.3800 Z0.0000
M3S245
G4 P0.5; Tool Off

G0 Z0; move to z-safe height
G0 X1.0000 Y995.3800
M3S0
G4 P0.5; Tool On
G1 F300 Z0.0000
G1 F15000 X849.0000 Y995.3800 Z0.0000
M3S245
G4 P0.5; Tool Off

G0 Z0; move to z-safe height
G0 X849.0000 Y997.3800
M3S0
G4 P0.5; Tool On
G1 F300 Z0.0000
G1 F15000 X1.0000 Y997.3800 Z0.0000
M3S245
G4 P0.5; Tool Off

G0 Z0; move to z-safe height
G0 X1.0000 Y999.3800
M3S0
G4 P0.5; Tool On
G1 F300 Z0.0000
G1 F15000 X849.0000 Y999.3800 Z0.0000
M3S245
G4 P0.5; Tool Off

G0 Z0; move to z-safe height
G0 X849.0000 Y1001.3800
M3S0
G4 P0.5; Tool On
G1 F300 Z0.0000
G1 F15000 X1.0000 Y1001.3800 Z0.0000
M3S245
G4 P0.5; Tool Off

G0 Z0; move to z-safe height
G0 X1.0000 Y1003.3800
M3S0
G4 P0.5; Tool On
G1 F300 Z0.0000
G1 F15000 X849.0000 Y1003.3800 Z0.0000
M3S245
G4 P0.5; Tool Off

G0 Z0; move to z-safe height
G0 X849.0000 Y1005.3800
M3S0
G4 P0.5; Tool On
G1 F300 Z0.0000
G1 F15000 X1.0000 Y1005.3800 Z0.0000
M3S245
G4 P0.5; Tool Off

G0 Z0; move to z-safe height
G0 X1.0000 Y1007.3800
M3S0
G4 P0.5; Tool On
G1 F300 Z0.0000
G1 F15000 X849.0000 Y1007.3800 Z0.0000
M3S245
G4 P0.5; Tool Off

G0 Z0; move to z-safe height
G0 X849.0000 Y1009.3800
M3S0
G4 P0.5; Tool On
G1 F300 Z0.0000
G1 F15000 X1.0000 Y1009.3800 Z0.0000
M3S245
G4 P0.5; Tool Off

G0 Z0; move to z-safe height
G0 X1.0000 Y1011.3800
M3S0
G4 P0.5; Tool On
G1 F300 Z0.0000
G1 F15000 X849.0000 Y1011.3800 Z0.0000
M3S245
G4 P0.5; Tool Off

G0 Z0; move to z-safe height
G0 X849.0000 Y1013.3800
M3S0
G4 P0.5; Tool On
G1 F300 Z0.0000
G1 F15000 X1.0000 Y1013.3800 Z0.0000
M3S245
G4 P0.5; Tool Off

G0 Z0; move to z-safe height
G0 X1.0000 Y1015.3800
M3S0
G4 P0.5; Tool On
G1 F300 Z0.0000
G1 F15000 X849.0000 Y1015.3800 Z0.0000
M3S245
G4 P0.5; Tool Off

G0 Z0; move to z-safe height
G0 X849.0000 Y1017.3800
M3S0
G4 P0.5; Tool On
G1 F300 Z0.0000
G1 F15000 X1.0000 Y1017.3800 Z0.0000
M3S245
G4 P0.5; Tool Off

G0 Z0; move to z-safe height
G0 X1.0000 Y1019.3800
M3S0
G4 P0.5; Tool On
G1 F300 Z0.0000
G1 F15000 X849.0000 Y1019.3800 Z0.0000
M3S245
G4 P0.5; Tool Off

G0 Z0; move to z-safe height
G0 X849.0000 Y1021.3800
M3S0
G4 P0.5; Tool On
G1 F300 Z0.0000
G1 F15000 X1.0000 Y1021.3800 Z0.0000
M3S245
G4 P0.5; Tool Off

G0 Z0; move to z-safe height
G0 X1.0000 Y1023.3800
M3S0
G4 P0.5; Tool On
G1 F300 Z0.0000
G1 F15000 X849.0000 Y1023.3800 Z0.0000
M3S245
G4 P0.5; Tool Off

G0 Z0; move to z-safe height
G0 X849.0000 Y1025.3800
M3S0
G4 P0.5; Tool On
G1 F300 Z0.0000
G1 F15000 X1.0000 Y1025.3800 Z0.0000
M3S245
G4 P0.5; Tool Off

G0 Z0; move to z-safe height
G0 X1.0000 Y1027.3800
M3S0
G4 P0.5; Tool On
G1 F300 Z0.0000
G1 F15000 X849.0000 Y1027.3800 Z0.0000
M3S245
G4 P0.5; Tool Off

G0 Z0; move to z-safe height
G0 X849.0000 Y1029.3800
M3S0
G4 P0.5; Tool On
G1 F300 Z0.0000
G1 F15000 X1.0000 Y1029.3800 Z0.0000
M3S245
G4 P0.5; Tool Off

G0 Z0; move to z-safe height
G0 X1.0000 Y1031.3800
M3S0
G4 P0.5; Tool On
G1 F300 Z0.0000
G1 F15000 X849.0000 Y1031.3800 Z0.0000
M3S245
G4 P0.5; Tool Off

G0 Z0; move to z-safe height
G0 X849.0000 Y1033.3800
M3S0
G4 P0.5; Tool On
G1 F300 Z0.0000
G1 F15000 X1.0000 Y1033.3800 Z0.0000
M3S245
G4 P0.5; Tool Off

G0 Z0; move to z-safe height
G0 X1.0000 Y1035.3800
M3S0
G4 P0.5; Tool On
G1 F300 Z0.0000
G1 F15000 X849.0000 Y1035.3800 Z0.0000
M3S245
G4 P0.5; Tool Off

G0 Z0; move to z-safe height
G0 X849.0000 Y1037.3800
M3S0
G4 P0.5; Tool On
G1 F300 Z0.0000
G1 F15000 X1.0000 Y1037.3800 Z0.0000
M3S245
G4 P0.5; Tool Off

G0 Z0; move to z-safe height
G0 X1.0000 Y1039.3800
M3S0
G4 P0.5; Tool On
G1 F300 Z0.0000
G1 F15000 X849.0000 Y1039.3800 Z0.0000
M3S245
G4 P0.5; Tool Off

G0 Z0; move to z-safe height
G0 X849.0000 Y1041.3800
M3S0
G4 P0.5; Tool On
G1 F300 Z0.0000
G1 F15000 X1.0000 Y1041.3800 Z0.0000
M3S245
G4 P0.5; Tool Off

G0 Z0; move to z-safe height
G0 X1.0000 Y1043.3800
M3S0
G4 P0.5; Tool On
G1 F300 Z0.0000
G1 F15000 X849.0000 Y1043.3800 Z0.0000
M3S245
G4 P0.5; Tool Off

G0 Z0; move to z-safe height
G0 X849.0000 Y1045.3800
M3S0
G4 P0.5; Tool On
G1 F300 Z0.0000
G1 F15000 X1.0000 Y1045.3800 Z0.0000
M3S245
G4 P0.5; Tool Off

G0 Z0; move to z-safe height
G0 X1.0000 Y1047.3800
M3S0
G4 P0.5; Tool On
G1 F300 Z0.0000
G1 F15000 X849.0000 Y1047.3800 Z0.0000
M3S245
G4 P0.5; Tool Off

G0 Z0; move to z-safe height
G0 X849.0000 Y1049.3800
M3S0
G4 P0.5; Tool On
G1 F300 Z0.0000
G1 F15000 X1.0000 Y1049.3800 Z0.0000
M3S245
G4 P0.5; Tool Off

G0 Z0; move to z-safe height
G0 X1.0000 Y1051.3800
M3S0
G4 P0.5; Tool On
G1 F300 Z0.0000
G1 F15000 X849.0000 Y1051.3800 Z0.0000
M3S245
G4 P0.5; Tool Off

G0 Z0; move to z-safe height
G0 X849.0000 Y1053.3800
M3S0
G4 P0.5; Tool On
G1 F300 Z0.0000
G1 F15000 X1.0000 Y1053.3800 Z0.0000
M3S245
G4 P0.5; Tool Off

G0 Z0; move to z-safe height
G0 X1.0000 Y1055.3800
M3S0
G4 P0.5; Tool On
G1 F300 Z0.0000
G1 F15000 X849.0000 Y1055.3800 Z0.0000
M3S245
G4 P0.5; Tool Off

G0 Z0; move to z-safe height
G0 X849.0000 Y1057.3800
M3S0
G4 P0.5; Tool On
G1 F300 Z0.0000
G1 F15000 X1.0000 Y1057.3800 Z0.0000
M3S245
G4 P0.5; Tool Off

G0 Z0; move to z-safe height
G0 X1.0000 Y1059.3800
M3S0
G4 P0.5; Tool On
G1 F300 Z0.0000
G1 F15000 X849.0000 Y1059.3800 Z0.0000
M3S245
G4 P0.5; Tool Off

G0 Z0; move to z-safe height
G0 X849.0000 Y1061.3800
M3S0
G4 P0.5; Tool On
G1 F300 Z0.0000
G1 F15000 X1.0000 Y1061.3800 Z0.0000
M3S245
G4 P0.5; Tool Off

G0 Z0; move to z-safe height
G0 X1.0000 Y1063.3800
M3S0
G4 P0.5; Tool On
G1 F300 Z0.0000
G1 F15000 X849.0000 Y1063.3800 Z0.0000
M3S245
G4 P0.5; Tool Off

G0 Z0; move to z-safe height
G0 X849.0000 Y1065.3800
M3S0
G4 P0.5; Tool On
G1 F300 Z0.0000
G1 F15000 X1.0000 Y1065.3800 Z0.0000
M3S245
G4 P0.5; Tool Off

G0 Z0; move to z-safe height
G0 X1.0000 Y1067.3800
M3S0
G4 P0.5; Tool On
G1 F300 Z0.0000
G1 F15000 X849.0000 Y1067.3800 Z0.0000
M3S245
G4 P0.5; Tool Off

G0 Z0; move to z-safe height
G0 X849.0000 Y1069.3800
M3S0
G4 P0.5; Tool On
G1 F300 Z0.0000
G1 F15000 X1.0000 Y1069.3800 Z0.0000
M3S245
G4 P0.5; Tool Off

G0 Z0; move to z-safe height
G0 X1.0000 Y1071.3800
M3S0
G4 P0.5; Tool On
G1 F300 Z0.0000
G1 F15000 X849.0000 Y1071.3800 Z0.0000
M3S245
G4 P0.5; Tool Off

G0 Z0; move to z-safe height
G0 X849.0000 Y1073.3800
M3S0
G4 P0.5; Tool On
G1 F300 Z0.0000
G1 F15000 X1.0000 Y1073.3800 Z0.0000
M3S245
G4 P0.5; Tool Off

G0 Z0; move to z-safe height
G0 X1.0000 Y1075.3800
M3S0
G4 P0.5; Tool On
G1 F300 Z0.0000
G1 F15000 X849.0000 Y1075.3800 Z0.0000
M3S245
G4 P0.5; Tool Off

G0 Z0; move to z-safe height
G0 X849.0000 Y1077.3800
M3S0
G4 P0.5; Tool On
G1 F300 Z0.0000
G1 F15000 X1.0000 Y1077.3800 Z0.0000
M3S245
G4 P0.5; Tool Off

G0 Z0; move to z-safe height
G0 X1.0000 Y1079.3800
M3S0
G4 P0.5; Tool On
G1 F300 Z0.0000
G1 F15000 X849.0000 Y1079.3800 Z0.0000
M3S245
G4 P0.5; Tool Off

G0 Z0; move to z-safe height
G0 X849.0000 Y1081.3800
M3S0
G4 P0.5; Tool On
G1 F300 Z0.0000
G1 F15000 X1.0000 Y1081.3800 Z0.0000
M3S245
G4 P0.5; Tool Off

G0 Z0; move to z-safe height
G0 X1.0000 Y1083.3800
M3S0
G4 P0.5; Tool On
G1 F300 Z0.0000
G1 F15000 X849.0000 Y1083.3800 Z0.0000
M3S245
G4 P0.5; Tool Off

G0 Z0; move to z-safe height
G0 X849.0000 Y1085.3800
M3S0
G4 P0.5; Tool On
G1 F300 Z0.0000
G1 F15000 X1.0000 Y1085.3800 Z0.0000
M3S245
G4 P0.5; Tool Off

G0 Z0; move to z-safe height
G0 X1.0000 Y1087.3800
M3S0
G4 P0.5; Tool On
G1 F300 Z0.0000
G1 F15000 X849.0000 Y1087.3800 Z0.0000
M3S245
G4 P0.5; Tool Off

G0 Z0; move to z-safe height
G0 X849.0000 Y1089.3800
M3S0
G4 P0.5; Tool On
G1 F300 Z0.0000
G1 F15000 X1.0000 Y1089.3800 Z0.0000
M3S245
G4 P0.5; Tool Off

G0 Z0; move to z-safe height
G0 X1.0000 Y1091.3800
M3S0
G4 P0.5; Tool On
G1 F300 Z0.0000
G1 F15000 X849.0000 Y1091.3800 Z0.0000
M3S245
G4 P0.5; Tool Off

G0 Z0; move to z-safe height
G0 X849.0000 Y1093.3800
M3S0
G4 P0.5; Tool On
G1 F300 Z0.0000
G1 F15000 X1.0000 Y1093.3800 Z0.0000
M3S245
G4 P0.5; Tool Off

G0 Z0; move to z-safe height
G0 X1.0000 Y1095.3800
M3S0
G4 P0.5; Tool On
G1 F300 Z0.0000
G1 F15000 X849.0000 Y1095.3800 Z0.0000
M3S245
G4 P0.5; Tool Off

G0 Z0; move to z-safe height
G0 X849.0000 Y1097.3800
M3S0
G4 P0.5; Tool On
G1 F300 Z0.0000
G1 F15000 X1.0000 Y1097.3800 Z0.0000
M3S245
G4 P0.5; Tool Off

G0 Z0; move to z-safe height
G0 X1.0000 Y1099.3800
M3S0
G4 P0.5; Tool On
G1 F300 Z0.0000
G1 F15000 X849.0000 Y1099.3800 Z0.0000
M3S245
G4 P0.5; Tool Off

G0 Z0; move to z-safe height
G0 X849.0000 Y1101.3800
M3S0
G4 P0.5; Tool On
G1 F300 Z0.0000
G1 F15000 X1.0000 Y1101.3800 Z0.0000
M3S245
G4 P0.5; Tool Off

G0 Z0; move to z-safe height
G0 X1.0000 Y1103.3800
M3S0
G4 P0.5; Tool On
G1 F300 Z0.0000
G1 F15000 X849.0000 Y1103.3800 Z0.0000
M3S245
G4 P0.5; Tool Off

G0 Z0; move to z-safe height
G0 X849.0000 Y1105.3800
M3S0
G4 P0.5; Tool On
G1 F300 Z0.0000
G1 F15000 X1.0000 Y1105.3800 Z0.0000
M3S245
G4 P0.5; Tool Off

G0 Z0; move to z-safe height
G0 X1.0000 Y1107.3800
M3S0
G4 P0.5; Tool On
G1 F300 Z0.0000
G1 F15000 X849.0000 Y1107.3800 Z0.0000
M3S245
G4 P0.5; Tool Off

G0 Z0; move to z-safe height
G0 X849.0000 Y1109.3800
M3S0
G4 P0.5; Tool On
G1 F300 Z0.0000
G1 F15000 X1.0000 Y1109.3800 Z0.0000
M3S245
G4 P0.5; Tool Off

G0 Z0; move to z-safe height
G0 X1.0000 Y1111.3800
M3S0
G4 P0.5; Tool On
G1 F300 Z0.0000
G1 F15000 X849.0000 Y1111.3800 Z0.0000
M3S245
G4 P0.5; Tool Off

G0 Z0; move to z-safe height
G0 X849.0000 Y1113.3800
M3S0
G4 P0.5; Tool On
G1 F300 Z0.0000
G1 F15000 X1.0000 Y1113.3800 Z0.0000
M3S245
G4 P0.5; Tool Off

G0 Z0; move to z-safe height
G0 X1.0000 Y1115.3800
M3S0
G4 P0.5; Tool On
G1 F300 Z0.0000
G1 F15000 X849.0000 Y1115.3800 Z0.0000
M3S245
G4 P0.5; Tool Off

G0 Z0; move to z-safe height
G0 X849.0000 Y1117.3800
M3S0
G4 P0.5; Tool On
G1 F300 Z0.0000
G1 F15000 X1.0000 Y1117.3800 Z0.0000
M3S245
G4 P0.5; Tool Off

G0 Z0; move to z-safe height
G0 X1.0000 Y1119.3800
M3S0
G4 P0.5; Tool On
G1 F300 Z0.0000
G1 F15000 X849.0000 Y1119.3800 Z0.0000
M3S245
G4 P0.5; Tool Off

G0 Z0; move to z-safe height
G0 X849.0000 Y1121.3800
M3S0
G4 P0.5; Tool On
G1 F300 Z0.0000
G1 F15000 X1.0000 Y1121.3800 Z0.0000
M3S245
G4 P0.5; Tool Off

G0 Z0; move to z-safe height
G0 X1.0000 Y1123.3800
M3S0
G4 P0.5; Tool On
G1 F300 Z0.0000
G1 F15000 X849.0000 Y1123.3800 Z0.0000
M3S245
G4 P0.5; Tool Off

G0 Z0; move to z-safe height
G0 X849.0000 Y1125.3800
M3S0
G4 P0.5; Tool On
G1 F300 Z0.0000
G1 F15000 X1.0000 Y1125.3800 Z0.0000
M3S245
G4 P0.5; Tool Off

G0 Z0; move to z-safe height
G0 X1.0000 Y1127.3800
M3S0
G4 P0.5; Tool On
G1 F300 Z0.0000
G1 F15000 X849.0000 Y1127.3800 Z0.0000
M3S245
G4 P0.5; Tool Off

G0 Z0; move to z-safe height
G0 X849.0000 Y1129.3800
M3S0
G4 P0.5; Tool On
G1 F300 Z0.0000
G1 F15000 X1.0000 Y1129.3800 Z0.0000
M3S245
G4 P0.5; Tool Off

G0 Z0; move to z-safe height
G0 X1.0000 Y1131.3800
M3S0
G4 P0.5; Tool On
G1 F300 Z0.0000
G1 F15000 X849.0000 Y1131.3800 Z0.0000
M3S245
G4 P0.5; Tool Off

G0 Z0; move to z-safe height
G0 X849.0000 Y1133.3800
M3S0
G4 P0.5; Tool On
G1 F300 Z0.0000
G1 F15000 X1.0000 Y1133.3800 Z0.0000
M3S245
G4 P0.5; Tool Off

G0 Z0; move to z-safe height
G0 X1.0000 Y1135.3800
M3S0
G4 P0.5; Tool On
G1 F300 Z0.0000
G1 F15000 X849.0000 Y1135.3800 Z0.0000
M3S245
G4 P0.5; Tool Off

G0 Z0; move to z-safe height
G0 X849.0000 Y1137.3800
M3S0
G4 P0.5; Tool On
G1 F300 Z0.0000
G1 F15000 X1.0000 Y1137.3800 Z0.0000
M3S245
G4 P0.5; Tool Off

G0 Z0; move to z-safe height
G0 X1.0000 Y1139.3800
M3S0
G4 P0.5; Tool On
G1 F300 Z0.0000
G1 F15000 X849.0000 Y1139.3800 Z0.0000
M3S245
G4 P0.5; Tool Off

G0 Z0; move to z-safe height
G0 X849.0000 Y1141.3800
M3S0
G4 P0.5; Tool On
G1 F300 Z0.0000
G1 F15000 X1.0000 Y1141.3800 Z0.0000
M3S245
G4 P0.5; Tool Off

G0 Z0; move to z-safe height
G0 X1.0000 Y1143.3800
M3S0
G4 P0.5; Tool On
G1 F300 Z0.0000
G1 F15000 X849.0000 Y1143.3800 Z0.0000
M3S245
G4 P0.5; Tool Off

G0 Z0; move to z-safe height
G0 X849.0000 Y1145.3800
M3S0
G4 P0.5; Tool On
G1 F300 Z0.0000
G1 F15000 X1.0000 Y1145.3800 Z0.0000
M3S245
G4 P0.5; Tool Off

G0 Z0; move to z-safe height
G0 X1.0000 Y1147.3800
M3S0
G4 P0.5; Tool On
G1 F300 Z0.0000
G1 F15000 X849.0000 Y1147.3800 Z0.0000
M3S245
G4 P0.5; Tool Off
; retracting back to z-safe
G0 Z0

; Plotter Mode Complete
