; GCODE Generated by cam.openbuilds.com on 2023-12-16 
G21 ; mm-mode
G54; Work Coordinates
G21; mm-mode
G90; Absolute Positioning
; Plotter Mode Active

; Operation 0: Pen Plotter: (lines fill)
; Pen Diameter: 2

G0 Z0; move to z-safe height
G0 F1000 X2.0000 Y2.7800
M3S0
G4 P0.5; Tool On
G1 F300 Z0.0000
G1 F15000 X848.0000 Y2.7800 Z0.0000
M3S245
G4 P0.5; Tool Off

G0 Z0; move to z-safe height
G0 X848.0000 Y6.7800
M3S0
G4 P0.5; Tool On
G1 F300 Z0.0000
G1 F15000 X2.0000 Y6.7800 Z0.0000
M3S245
G4 P0.5; Tool Off

G0 Z0; move to z-safe height
G0 X2.0000 Y10.7800
M3S0
G4 P0.5; Tool On
G1 F300 Z0.0000
G1 F15000 X848.0000 Y10.7800 Z0.0000
M3S245
G4 P0.5; Tool Off

G0 Z0; move to z-safe height
G0 X848.0000 Y14.7800
M3S0
G4 P0.5; Tool On
G1 F300 Z0.0000
G1 F15000 X2.0000 Y14.7800 Z0.0000
M3S245
G4 P0.5; Tool Off

G0 Z0; move to z-safe height
G0 X2.0000 Y18.7800
M3S0
G4 P0.5; Tool On
G1 F300 Z0.0000
G1 F15000 X848.0000 Y18.7800 Z0.0000
M3S245
G4 P0.5; Tool Off

G0 Z0; move to z-safe height
G0 X848.0000 Y22.7800
M3S0
G4 P0.5; Tool On
G1 F300 Z0.0000
G1 F15000 X2.0000 Y22.7800 Z0.0000
M3S245
G4 P0.5; Tool Off

G0 Z0; move to z-safe height
G0 X2.0000 Y26.7800
M3S0
G4 P0.5; Tool On
G1 F300 Z0.0000
G1 F15000 X848.0000 Y26.7800 Z0.0000
M3S245
G4 P0.5; Tool Off

G0 Z0; move to z-safe height
G0 X848.0000 Y30.7800
M3S0
G4 P0.5; Tool On
G1 F300 Z0.0000
G1 F15000 X2.0000 Y30.7800 Z0.0000
M3S245
G4 P0.5; Tool Off

G0 Z0; move to z-safe height
G0 X2.0000 Y34.7800
M3S0
G4 P0.5; Tool On
G1 F300 Z0.0000
G1 F15000 X848.0000 Y34.7800 Z0.0000
M3S245
G4 P0.5; Tool Off

G0 Z0; move to z-safe height
G0 X848.0000 Y38.7800
M3S0
G4 P0.5; Tool On
G1 F300 Z0.0000
G1 F15000 X2.0000 Y38.7800 Z0.0000
M3S245
G4 P0.5; Tool Off

G0 Z0; move to z-safe height
G0 X2.0000 Y42.7800
M3S0
G4 P0.5; Tool On
G1 F300 Z0.0000
G1 F15000 X848.0000 Y42.7800 Z0.0000
M3S245
G4 P0.5; Tool Off

G0 Z0; move to z-safe height
G0 X848.0000 Y46.7800
M3S0
G4 P0.5; Tool On
G1 F300 Z0.0000
G1 F15000 X2.0000 Y46.7800 Z0.0000
M3S245
G4 P0.5; Tool Off

G0 Z0; move to z-safe height
G0 X2.0000 Y50.7800
M3S0
G4 P0.5; Tool On
G1 F300 Z0.0000
G1 F15000 X848.0000 Y50.7800 Z0.0000
M3S245
G4 P0.5; Tool Off

G0 Z0; move to z-safe height
G0 X848.0000 Y54.7800
M3S0
G4 P0.5; Tool On
G1 F300 Z0.0000
G1 F15000 X2.0000 Y54.7800 Z0.0000
M3S245
G4 P0.5; Tool Off

G0 Z0; move to z-safe height
G0 X2.0000 Y58.7800
M3S0
G4 P0.5; Tool On
G1 F300 Z0.0000
G1 F15000 X848.0000 Y58.7800 Z0.0000
M3S245
G4 P0.5; Tool Off

G0 Z0; move to z-safe height
G0 X848.0000 Y62.7800
M3S0
G4 P0.5; Tool On
G1 F300 Z0.0000
G1 F15000 X2.0000 Y62.7800 Z0.0000
M3S245
G4 P0.5; Tool Off

G0 Z0; move to z-safe height
G0 X2.0000 Y66.7800
M3S0
G4 P0.5; Tool On
G1 F300 Z0.0000
G1 F15000 X848.0000 Y66.7800 Z0.0000
M3S245
G4 P0.5; Tool Off

G0 Z0; move to z-safe height
G0 X848.0000 Y70.7800
M3S0
G4 P0.5; Tool On
G1 F300 Z0.0000
G1 F15000 X2.0000 Y70.7800 Z0.0000
M3S245
G4 P0.5; Tool Off

G0 Z0; move to z-safe height
G0 X2.0000 Y74.7800
M3S0
G4 P0.5; Tool On
G1 F300 Z0.0000
G1 F15000 X848.0000 Y74.7800 Z0.0000
M3S245
G4 P0.5; Tool Off

G0 Z0; move to z-safe height
G0 X848.0000 Y78.7800
M3S0
G4 P0.5; Tool On
G1 F300 Z0.0000
G1 F15000 X2.0000 Y78.7800 Z0.0000
M3S245
G4 P0.5; Tool Off

G0 Z0; move to z-safe height
G0 X2.0000 Y82.7800
M3S0
G4 P0.5; Tool On
G1 F300 Z0.0000
G1 F15000 X848.0000 Y82.7800 Z0.0000
M3S245
G4 P0.5; Tool Off

G0 Z0; move to z-safe height
G0 X848.0000 Y86.7800
M3S0
G4 P0.5; Tool On
G1 F300 Z0.0000
G1 F15000 X2.0000 Y86.7800 Z0.0000
M3S245
G4 P0.5; Tool Off

G0 Z0; move to z-safe height
G0 X2.0000 Y90.7800
M3S0
G4 P0.5; Tool On
G1 F300 Z0.0000
G1 F15000 X848.0000 Y90.7800 Z0.0000
M3S245
G4 P0.5; Tool Off

G0 Z0; move to z-safe height
G0 X848.0000 Y94.7800
M3S0
G4 P0.5; Tool On
G1 F300 Z0.0000
G1 F15000 X2.0000 Y94.7800 Z0.0000
M3S245
G4 P0.5; Tool Off

G0 Z0; move to z-safe height
G0 X2.0000 Y98.7800
M3S0
G4 P0.5; Tool On
G1 F300 Z0.0000
G1 F15000 X848.0000 Y98.7800 Z0.0000
M3S245
G4 P0.5; Tool Off

G0 Z0; move to z-safe height
G0 X848.0000 Y102.7800
M3S0
G4 P0.5; Tool On
G1 F300 Z0.0000
G1 F15000 X2.0000 Y102.7800 Z0.0000
M3S245
G4 P0.5; Tool Off

G0 Z0; move to z-safe height
G0 X2.0000 Y106.7800
M3S0
G4 P0.5; Tool On
G1 F300 Z0.0000
G1 F15000 X848.0000 Y106.7800 Z0.0000
M3S245
G4 P0.5; Tool Off

G0 Z0; move to z-safe height
G0 X848.0000 Y110.7800
M3S0
G4 P0.5; Tool On
G1 F300 Z0.0000
G1 F15000 X2.0000 Y110.7800 Z0.0000
M3S245
G4 P0.5; Tool Off

G0 Z0; move to z-safe height
G0 X2.0000 Y114.7800
M3S0
G4 P0.5; Tool On
G1 F300 Z0.0000
G1 F15000 X848.0000 Y114.7800 Z0.0000
M3S245
G4 P0.5; Tool Off

G0 Z0; move to z-safe height
G0 X848.0000 Y118.7800
M3S0
G4 P0.5; Tool On
G1 F300 Z0.0000
G1 F15000 X2.0000 Y118.7800 Z0.0000
M3S245
G4 P0.5; Tool Off

G0 Z0; move to z-safe height
G0 X2.0000 Y122.7800
M3S0
G4 P0.5; Tool On
G1 F300 Z0.0000
G1 F15000 X848.0000 Y122.7800 Z0.0000
M3S245
G4 P0.5; Tool Off

G0 Z0; move to z-safe height
G0 X848.0000 Y126.7800
M3S0
G4 P0.5; Tool On
G1 F300 Z0.0000
G1 F15000 X2.0000 Y126.7800 Z0.0000
M3S245
G4 P0.5; Tool Off

G0 Z0; move to z-safe height
G0 X2.0000 Y130.7800
M3S0
G4 P0.5; Tool On
G1 F300 Z0.0000
G1 F15000 X848.0000 Y130.7800 Z0.0000
M3S245
G4 P0.5; Tool Off

G0 Z0; move to z-safe height
G0 X848.0000 Y134.7800
M3S0
G4 P0.5; Tool On
G1 F300 Z0.0000
G1 F15000 X2.0000 Y134.7800 Z0.0000
M3S245
G4 P0.5; Tool Off

G0 Z0; move to z-safe height
G0 X2.0000 Y138.7800
M3S0
G4 P0.5; Tool On
G1 F300 Z0.0000
G1 F15000 X848.0000 Y138.7800 Z0.0000
M3S245
G4 P0.5; Tool Off

G0 Z0; move to z-safe height
G0 X848.0000 Y142.7800
M3S0
G4 P0.5; Tool On
G1 F300 Z0.0000
G1 F15000 X2.0000 Y142.7800 Z0.0000
M3S245
G4 P0.5; Tool Off

G0 Z0; move to z-safe height
G0 X2.0000 Y146.7800
M3S0
G4 P0.5; Tool On
G1 F300 Z0.0000
G1 F15000 X848.0000 Y146.7800 Z0.0000
M3S245
G4 P0.5; Tool Off

G0 Z0; move to z-safe height
G0 X848.0000 Y150.7800
M3S0
G4 P0.5; Tool On
G1 F300 Z0.0000
G1 F15000 X2.0000 Y150.7800 Z0.0000
M3S245
G4 P0.5; Tool Off

G0 Z0; move to z-safe height
G0 X2.0000 Y154.7800
M3S0
G4 P0.5; Tool On
G1 F300 Z0.0000
G1 F15000 X848.0000 Y154.7800 Z0.0000
M3S245
G4 P0.5; Tool Off

G0 Z0; move to z-safe height
G0 X848.0000 Y158.7800
M3S0
G4 P0.5; Tool On
G1 F300 Z0.0000
G1 F15000 X2.0000 Y158.7800 Z0.0000
M3S245
G4 P0.5; Tool Off

G0 Z0; move to z-safe height
G0 X2.0000 Y162.7800
M3S0
G4 P0.5; Tool On
G1 F300 Z0.0000
G1 F15000 X848.0000 Y162.7800 Z0.0000
M3S245
G4 P0.5; Tool Off

G0 Z0; move to z-safe height
G0 X848.0000 Y166.7800
M3S0
G4 P0.5; Tool On
G1 F300 Z0.0000
G1 F15000 X2.0000 Y166.7800 Z0.0000
M3S245
G4 P0.5; Tool Off

G0 Z0; move to z-safe height
G0 X2.0000 Y170.7800
M3S0
G4 P0.5; Tool On
G1 F300 Z0.0000
G1 F15000 X848.0000 Y170.7800 Z0.0000
M3S245
G4 P0.5; Tool Off

G0 Z0; move to z-safe height
G0 X848.0000 Y174.7800
M3S0
G4 P0.5; Tool On
G1 F300 Z0.0000
G1 F15000 X2.0000 Y174.7800 Z0.0000
M3S245
G4 P0.5; Tool Off

G0 Z0; move to z-safe height
G0 X2.0000 Y178.7800
M3S0
G4 P0.5; Tool On
G1 F300 Z0.0000
G1 F15000 X848.0000 Y178.7800 Z0.0000
M3S245
G4 P0.5; Tool Off

G0 Z0; move to z-safe height
G0 X848.0000 Y182.7800
M3S0
G4 P0.5; Tool On
G1 F300 Z0.0000
G1 F15000 X2.0000 Y182.7800 Z0.0000
M3S245
G4 P0.5; Tool Off

G0 Z0; move to z-safe height
G0 X2.0000 Y186.7800
M3S0
G4 P0.5; Tool On
G1 F300 Z0.0000
G1 F15000 X848.0000 Y186.7800 Z0.0000
M3S245
G4 P0.5; Tool Off

G0 Z0; move to z-safe height
G0 X848.0000 Y190.7800
M3S0
G4 P0.5; Tool On
G1 F300 Z0.0000
G1 F15000 X2.0000 Y190.7800 Z0.0000
M3S245
G4 P0.5; Tool Off

G0 Z0; move to z-safe height
G0 X2.0000 Y194.7800
M3S0
G4 P0.5; Tool On
G1 F300 Z0.0000
G1 F15000 X848.0000 Y194.7800 Z0.0000
M3S245
G4 P0.5; Tool Off

G0 Z0; move to z-safe height
G0 X848.0000 Y198.7800
M3S0
G4 P0.5; Tool On
G1 F300 Z0.0000
G1 F15000 X2.0000 Y198.7800 Z0.0000
M3S245
G4 P0.5; Tool Off

G0 Z0; move to z-safe height
G0 X2.0000 Y202.7800
M3S0
G4 P0.5; Tool On
G1 F300 Z0.0000
G1 F15000 X848.0000 Y202.7800 Z0.0000
M3S245
G4 P0.5; Tool Off

G0 Z0; move to z-safe height
G0 X848.0000 Y206.7800
M3S0
G4 P0.5; Tool On
G1 F300 Z0.0000
G1 F15000 X2.0000 Y206.7800 Z0.0000
M3S245
G4 P0.5; Tool Off

G0 Z0; move to z-safe height
G0 X2.0000 Y210.7800
M3S0
G4 P0.5; Tool On
G1 F300 Z0.0000
G1 F15000 X848.0000 Y210.7800 Z0.0000
M3S245
G4 P0.5; Tool Off

G0 Z0; move to z-safe height
G0 X848.0000 Y214.7800
M3S0
G4 P0.5; Tool On
G1 F300 Z0.0000
G1 F15000 X2.0000 Y214.7800 Z0.0000
M3S245
G4 P0.5; Tool Off

G0 Z0; move to z-safe height
G0 X2.0000 Y218.7800
M3S0
G4 P0.5; Tool On
G1 F300 Z0.0000
G1 F15000 X848.0000 Y218.7800 Z0.0000
M3S245
G4 P0.5; Tool Off

G0 Z0; move to z-safe height
G0 X848.0000 Y222.7800
M3S0
G4 P0.5; Tool On
G1 F300 Z0.0000
G1 F15000 X2.0000 Y222.7800 Z0.0000
M3S245
G4 P0.5; Tool Off

G0 Z0; move to z-safe height
G0 X2.0000 Y226.7800
M3S0
G4 P0.5; Tool On
G1 F300 Z0.0000
G1 F15000 X848.0000 Y226.7800 Z0.0000
M3S245
G4 P0.5; Tool Off

G0 Z0; move to z-safe height
G0 X848.0000 Y230.7800
M3S0
G4 P0.5; Tool On
G1 F300 Z0.0000
G1 F15000 X2.0000 Y230.7800 Z0.0000
M3S245
G4 P0.5; Tool Off

G0 Z0; move to z-safe height
G0 X2.0000 Y234.7800
M3S0
G4 P0.5; Tool On
G1 F300 Z0.0000
G1 F15000 X848.0000 Y234.7800 Z0.0000
M3S245
G4 P0.5; Tool Off

G0 Z0; move to z-safe height
G0 X848.0000 Y238.7800
M3S0
G4 P0.5; Tool On
G1 F300 Z0.0000
G1 F15000 X2.0000 Y238.7800 Z0.0000
M3S245
G4 P0.5; Tool Off

G0 Z0; move to z-safe height
G0 X2.0000 Y242.7800
M3S0
G4 P0.5; Tool On
G1 F300 Z0.0000
G1 F15000 X848.0000 Y242.7800 Z0.0000
M3S245
G4 P0.5; Tool Off

G0 Z0; move to z-safe height
G0 X848.0000 Y246.7800
M3S0
G4 P0.5; Tool On
G1 F300 Z0.0000
G1 F15000 X2.0000 Y246.7800 Z0.0000
M3S245
G4 P0.5; Tool Off

G0 Z0; move to z-safe height
G0 X2.0000 Y250.7800
M3S0
G4 P0.5; Tool On
G1 F300 Z0.0000
G1 F15000 X848.0000 Y250.7800 Z0.0000
M3S245
G4 P0.5; Tool Off

G0 Z0; move to z-safe height
G0 X848.0000 Y254.7800
M3S0
G4 P0.5; Tool On
G1 F300 Z0.0000
G1 F15000 X2.0000 Y254.7800 Z0.0000
M3S245
G4 P0.5; Tool Off

G0 Z0; move to z-safe height
G0 X2.0000 Y258.7800
M3S0
G4 P0.5; Tool On
G1 F300 Z0.0000
G1 F15000 X848.0000 Y258.7800 Z0.0000
M3S245
G4 P0.5; Tool Off

G0 Z0; move to z-safe height
G0 X848.0000 Y262.7800
M3S0
G4 P0.5; Tool On
G1 F300 Z0.0000
G1 F15000 X2.0000 Y262.7800 Z0.0000
M3S245
G4 P0.5; Tool Off

G0 Z0; move to z-safe height
G0 X2.0000 Y266.7800
M3S0
G4 P0.5; Tool On
G1 F300 Z0.0000
G1 F15000 X848.0000 Y266.7800 Z0.0000
M3S245
G4 P0.5; Tool Off

G0 Z0; move to z-safe height
G0 X848.0000 Y270.7800
M3S0
G4 P0.5; Tool On
G1 F300 Z0.0000
G1 F15000 X2.0000 Y270.7800 Z0.0000
M3S245
G4 P0.5; Tool Off

G0 Z0; move to z-safe height
G0 X2.0000 Y274.7800
M3S0
G4 P0.5; Tool On
G1 F300 Z0.0000
G1 F15000 X848.0000 Y274.7800 Z0.0000
M3S245
G4 P0.5; Tool Off

G0 Z0; move to z-safe height
G0 X848.0000 Y278.7800
M3S0
G4 P0.5; Tool On
G1 F300 Z0.0000
G1 F15000 X2.0000 Y278.7800 Z0.0000
M3S245
G4 P0.5; Tool Off

G0 Z0; move to z-safe height
G0 X2.0000 Y282.7800
M3S0
G4 P0.5; Tool On
G1 F300 Z0.0000
G1 F15000 X848.0000 Y282.7800 Z0.0000
M3S245
G4 P0.5; Tool Off

G0 Z0; move to z-safe height
G0 X848.0000 Y286.7800
M3S0
G4 P0.5; Tool On
G1 F300 Z0.0000
G1 F15000 X2.0000 Y286.7800 Z0.0000
M3S245
G4 P0.5; Tool Off

G0 Z0; move to z-safe height
G0 X2.0000 Y290.7800
M3S0
G4 P0.5; Tool On
G1 F300 Z0.0000
G1 F15000 X848.0000 Y290.7800 Z0.0000
M3S245
G4 P0.5; Tool Off

G0 Z0; move to z-safe height
G0 X848.0000 Y294.7800
M3S0
G4 P0.5; Tool On
G1 F300 Z0.0000
G1 F15000 X2.0000 Y294.7800 Z0.0000
M3S245
G4 P0.5; Tool Off

G0 Z0; move to z-safe height
G0 X2.0000 Y298.7800
M3S0
G4 P0.5; Tool On
G1 F300 Z0.0000
G1 F15000 X848.0000 Y298.7800 Z0.0000
M3S245
G4 P0.5; Tool Off

G0 Z0; move to z-safe height
G0 X848.0000 Y302.7800
M3S0
G4 P0.5; Tool On
G1 F300 Z0.0000
G1 F15000 X2.0000 Y302.7800 Z0.0000
M3S245
G4 P0.5; Tool Off

G0 Z0; move to z-safe height
G0 X2.0000 Y306.7800
M3S0
G4 P0.5; Tool On
G1 F300 Z0.0000
G1 F15000 X848.0000 Y306.7800 Z0.0000
M3S245
G4 P0.5; Tool Off

G0 Z0; move to z-safe height
G0 X848.0000 Y310.7800
M3S0
G4 P0.5; Tool On
G1 F300 Z0.0000
G1 F15000 X2.0000 Y310.7800 Z0.0000
M3S245
G4 P0.5; Tool Off

G0 Z0; move to z-safe height
G0 X2.0000 Y314.7800
M3S0
G4 P0.5; Tool On
G1 F300 Z0.0000
G1 F15000 X848.0000 Y314.7800 Z0.0000
M3S245
G4 P0.5; Tool Off

G0 Z0; move to z-safe height
G0 X848.0000 Y318.7800
M3S0
G4 P0.5; Tool On
G1 F300 Z0.0000
G1 F15000 X2.0000 Y318.7800 Z0.0000
M3S245
G4 P0.5; Tool Off

G0 Z0; move to z-safe height
G0 X2.0000 Y322.7800
M3S0
G4 P0.5; Tool On
G1 F300 Z0.0000
G1 F15000 X848.0000 Y322.7800 Z0.0000
M3S245
G4 P0.5; Tool Off

G0 Z0; move to z-safe height
G0 X848.0000 Y326.7800
M3S0
G4 P0.5; Tool On
G1 F300 Z0.0000
G1 F15000 X2.0000 Y326.7800 Z0.0000
M3S245
G4 P0.5; Tool Off

G0 Z0; move to z-safe height
G0 X2.0000 Y330.7800
M3S0
G4 P0.5; Tool On
G1 F300 Z0.0000
G1 F15000 X848.0000 Y330.7800 Z0.0000
M3S245
G4 P0.5; Tool Off

G0 Z0; move to z-safe height
G0 X848.0000 Y334.7800
M3S0
G4 P0.5; Tool On
G1 F300 Z0.0000
G1 F15000 X2.0000 Y334.7800 Z0.0000
M3S245
G4 P0.5; Tool Off

G0 Z0; move to z-safe height
G0 X2.0000 Y338.7800
M3S0
G4 P0.5; Tool On
G1 F300 Z0.0000
G1 F15000 X848.0000 Y338.7800 Z0.0000
M3S245
G4 P0.5; Tool Off

G0 Z0; move to z-safe height
G0 X848.0000 Y342.7800
M3S0
G4 P0.5; Tool On
G1 F300 Z0.0000
G1 F15000 X2.0000 Y342.7800 Z0.0000
M3S245
G4 P0.5; Tool Off

G0 Z0; move to z-safe height
G0 X2.0000 Y346.7800
M3S0
G4 P0.5; Tool On
G1 F300 Z0.0000
G1 F15000 X848.0000 Y346.7800 Z0.0000
M3S245
G4 P0.5; Tool Off

G0 Z0; move to z-safe height
G0 X848.0000 Y350.7800
M3S0
G4 P0.5; Tool On
G1 F300 Z0.0000
G1 F15000 X2.0000 Y350.7800 Z0.0000
M3S245
G4 P0.5; Tool Off

G0 Z0; move to z-safe height
G0 X2.0000 Y354.7800
M3S0
G4 P0.5; Tool On
G1 F300 Z0.0000
G1 F15000 X848.0000 Y354.7800 Z0.0000
M3S245
G4 P0.5; Tool Off

G0 Z0; move to z-safe height
G0 X848.0000 Y358.7800
M3S0
G4 P0.5; Tool On
G1 F300 Z0.0000
G1 F15000 X2.0000 Y358.7800 Z0.0000
M3S245
G4 P0.5; Tool Off

G0 Z0; move to z-safe height
G0 X2.0000 Y362.7800
M3S0
G4 P0.5; Tool On
G1 F300 Z0.0000
G1 F15000 X848.0000 Y362.7800 Z0.0000
M3S245
G4 P0.5; Tool Off

G0 Z0; move to z-safe height
G0 X848.0000 Y366.7800
M3S0
G4 P0.5; Tool On
G1 F300 Z0.0000
G1 F15000 X2.0000 Y366.7800 Z0.0000
M3S245
G4 P0.5; Tool Off

G0 Z0; move to z-safe height
G0 X2.0000 Y370.7800
M3S0
G4 P0.5; Tool On
G1 F300 Z0.0000
G1 F15000 X848.0000 Y370.7800 Z0.0000
M3S245
G4 P0.5; Tool Off

G0 Z0; move to z-safe height
G0 X848.0000 Y374.7800
M3S0
G4 P0.5; Tool On
G1 F300 Z0.0000
G1 F15000 X2.0000 Y374.7800 Z0.0000
M3S245
G4 P0.5; Tool Off

G0 Z0; move to z-safe height
G0 X2.0000 Y378.7800
M3S0
G4 P0.5; Tool On
G1 F300 Z0.0000
G1 F15000 X848.0000 Y378.7800 Z0.0000
M3S245
G4 P0.5; Tool Off

G0 Z0; move to z-safe height
G0 X848.0000 Y382.7800
M3S0
G4 P0.5; Tool On
G1 F300 Z0.0000
G1 F15000 X2.0000 Y382.7800 Z0.0000
M3S245
G4 P0.5; Tool Off

G0 Z0; move to z-safe height
G0 X2.0000 Y386.7800
M3S0
G4 P0.5; Tool On
G1 F300 Z0.0000
G1 F15000 X848.0000 Y386.7800 Z0.0000
M3S245
G4 P0.5; Tool Off

G0 Z0; move to z-safe height
G0 X848.0000 Y390.7800
M3S0
G4 P0.5; Tool On
G1 F300 Z0.0000
G1 F15000 X2.0000 Y390.7800 Z0.0000
M3S245
G4 P0.5; Tool Off

G0 Z0; move to z-safe height
G0 X2.0000 Y394.7800
M3S0
G4 P0.5; Tool On
G1 F300 Z0.0000
G1 F15000 X848.0000 Y394.7800 Z0.0000
M3S245
G4 P0.5; Tool Off

G0 Z0; move to z-safe height
G0 X848.0000 Y398.7800
M3S0
G4 P0.5; Tool On
G1 F300 Z0.0000
G1 F15000 X2.0000 Y398.7800 Z0.0000
M3S245
G4 P0.5; Tool Off

G0 Z0; move to z-safe height
G0 X2.0000 Y402.7800
M3S0
G4 P0.5; Tool On
G1 F300 Z0.0000
G1 F15000 X848.0000 Y402.7800 Z0.0000
M3S245
G4 P0.5; Tool Off

G0 Z0; move to z-safe height
G0 X848.0000 Y406.7800
M3S0
G4 P0.5; Tool On
G1 F300 Z0.0000
G1 F15000 X2.0000 Y406.7800 Z0.0000
M3S245
G4 P0.5; Tool Off

G0 Z0; move to z-safe height
G0 X2.0000 Y410.7800
M3S0
G4 P0.5; Tool On
G1 F300 Z0.0000
G1 F15000 X848.0000 Y410.7800 Z0.0000
M3S245
G4 P0.5; Tool Off

G0 Z0; move to z-safe height
G0 X848.0000 Y414.7800
M3S0
G4 P0.5; Tool On
G1 F300 Z0.0000
G1 F15000 X2.0000 Y414.7800 Z0.0000
M3S245
G4 P0.5; Tool Off

G0 Z0; move to z-safe height
G0 X2.0000 Y418.7800
M3S0
G4 P0.5; Tool On
G1 F300 Z0.0000
G1 F15000 X848.0000 Y418.7800 Z0.0000
M3S245
G4 P0.5; Tool Off

G0 Z0; move to z-safe height
G0 X848.0000 Y422.7800
M3S0
G4 P0.5; Tool On
G1 F300 Z0.0000
G1 F15000 X2.0000 Y422.7800 Z0.0000
M3S245
G4 P0.5; Tool Off

G0 Z0; move to z-safe height
G0 X2.0000 Y426.7800
M3S0
G4 P0.5; Tool On
G1 F300 Z0.0000
G1 F15000 X848.0000 Y426.7800 Z0.0000
M3S245
G4 P0.5; Tool Off

G0 Z0; move to z-safe height
G0 X848.0000 Y430.7800
M3S0
G4 P0.5; Tool On
G1 F300 Z0.0000
G1 F15000 X2.0000 Y430.7800 Z0.0000
M3S245
G4 P0.5; Tool Off

G0 Z0; move to z-safe height
G0 X2.0000 Y434.7800
M3S0
G4 P0.5; Tool On
G1 F300 Z0.0000
G1 F15000 X848.0000 Y434.7800 Z0.0000
M3S245
G4 P0.5; Tool Off

G0 Z0; move to z-safe height
G0 X848.0000 Y438.7800
M3S0
G4 P0.5; Tool On
G1 F300 Z0.0000
G1 F15000 X2.0000 Y438.7800 Z0.0000
M3S245
G4 P0.5; Tool Off

G0 Z0; move to z-safe height
G0 X2.0000 Y442.7800
M3S0
G4 P0.5; Tool On
G1 F300 Z0.0000
G1 F15000 X848.0000 Y442.7800 Z0.0000
M3S245
G4 P0.5; Tool Off

G0 Z0; move to z-safe height
G0 X848.0000 Y446.7800
M3S0
G4 P0.5; Tool On
G1 F300 Z0.0000
G1 F15000 X2.0000 Y446.7800 Z0.0000
M3S245
G4 P0.5; Tool Off

G0 Z0; move to z-safe height
G0 X2.0000 Y450.7800
M3S0
G4 P0.5; Tool On
G1 F300 Z0.0000
G1 F15000 X848.0000 Y450.7800 Z0.0000
M3S245
G4 P0.5; Tool Off

G0 Z0; move to z-safe height
G0 X848.0000 Y454.7800
M3S0
G4 P0.5; Tool On
G1 F300 Z0.0000
G1 F15000 X2.0000 Y454.7800 Z0.0000
M3S245
G4 P0.5; Tool Off

G0 Z0; move to z-safe height
G0 X2.0000 Y458.7800
M3S0
G4 P0.5; Tool On
G1 F300 Z0.0000
G1 F15000 X848.0000 Y458.7800 Z0.0000
M3S245
G4 P0.5; Tool Off

G0 Z0; move to z-safe height
G0 X848.0000 Y462.7800
M3S0
G4 P0.5; Tool On
G1 F300 Z0.0000
G1 F15000 X2.0000 Y462.7800 Z0.0000
M3S245
G4 P0.5; Tool Off

G0 Z0; move to z-safe height
G0 X2.0000 Y466.7800
M3S0
G4 P0.5; Tool On
G1 F300 Z0.0000
G1 F15000 X848.0000 Y466.7800 Z0.0000
M3S245
G4 P0.5; Tool Off

G0 Z0; move to z-safe height
G0 X848.0000 Y470.7800
M3S0
G4 P0.5; Tool On
G1 F300 Z0.0000
G1 F15000 X2.0000 Y470.7800 Z0.0000
M3S245
G4 P0.5; Tool Off

G0 Z0; move to z-safe height
G0 X2.0000 Y474.7800
M3S0
G4 P0.5; Tool On
G1 F300 Z0.0000
G1 F15000 X848.0000 Y474.7800 Z0.0000
M3S245
G4 P0.5; Tool Off

G0 Z0; move to z-safe height
G0 X848.0000 Y478.7800
M3S0
G4 P0.5; Tool On
G1 F300 Z0.0000
G1 F15000 X2.0000 Y478.7800 Z0.0000
M3S245
G4 P0.5; Tool Off

G0 Z0; move to z-safe height
G0 X2.0000 Y482.7800
M3S0
G4 P0.5; Tool On
G1 F300 Z0.0000
G1 F15000 X848.0000 Y482.7800 Z0.0000
M3S245
G4 P0.5; Tool Off

G0 Z0; move to z-safe height
G0 X848.0000 Y486.7800
M3S0
G4 P0.5; Tool On
G1 F300 Z0.0000
G1 F15000 X2.0000 Y486.7800 Z0.0000
M3S245
G4 P0.5; Tool Off

G0 Z0; move to z-safe height
G0 X2.0000 Y490.7800
M3S0
G4 P0.5; Tool On
G1 F300 Z0.0000
G1 F15000 X848.0000 Y490.7800 Z0.0000
M3S245
G4 P0.5; Tool Off

G0 Z0; move to z-safe height
G0 X848.0000 Y494.7800
M3S0
G4 P0.5; Tool On
G1 F300 Z0.0000
G1 F15000 X2.0000 Y494.7800 Z0.0000
M3S245
G4 P0.5; Tool Off

G0 Z0; move to z-safe height
G0 X2.0000 Y498.7800
M3S0
G4 P0.5; Tool On
G1 F300 Z0.0000
G1 F15000 X848.0000 Y498.7800 Z0.0000
M3S245
G4 P0.5; Tool Off

G0 Z0; move to z-safe height
G0 X848.0000 Y502.7800
M3S0
G4 P0.5; Tool On
G1 F300 Z0.0000
G1 F15000 X2.0000 Y502.7800 Z0.0000
M3S245
G4 P0.5; Tool Off

G0 Z0; move to z-safe height
G0 X2.0000 Y506.7800
M3S0
G4 P0.5; Tool On
G1 F300 Z0.0000
G1 F15000 X848.0000 Y506.7800 Z0.0000
M3S245
G4 P0.5; Tool Off

G0 Z0; move to z-safe height
G0 X848.0000 Y510.7800
M3S0
G4 P0.5; Tool On
G1 F300 Z0.0000
G1 F15000 X2.0000 Y510.7800 Z0.0000
M3S245
G4 P0.5; Tool Off

G0 Z0; move to z-safe height
G0 X2.0000 Y514.7800
M3S0
G4 P0.5; Tool On
G1 F300 Z0.0000
G1 F15000 X848.0000 Y514.7800 Z0.0000
M3S245
G4 P0.5; Tool Off

G0 Z0; move to z-safe height
G0 X848.0000 Y518.7800
M3S0
G4 P0.5; Tool On
G1 F300 Z0.0000
G1 F15000 X2.0000 Y518.7800 Z0.0000
M3S245
G4 P0.5; Tool Off

G0 Z0; move to z-safe height
G0 X2.0000 Y522.7800
M3S0
G4 P0.5; Tool On
G1 F300 Z0.0000
G1 F15000 X848.0000 Y522.7800 Z0.0000
M3S245
G4 P0.5; Tool Off

G0 Z0; move to z-safe height
G0 X848.0000 Y526.7800
M3S0
G4 P0.5; Tool On
G1 F300 Z0.0000
G1 F15000 X2.0000 Y526.7800 Z0.0000
M3S245
G4 P0.5; Tool Off

G0 Z0; move to z-safe height
G0 X2.0000 Y530.7800
M3S0
G4 P0.5; Tool On
G1 F300 Z0.0000
G1 F15000 X848.0000 Y530.7800 Z0.0000
M3S245
G4 P0.5; Tool Off

G0 Z0; move to z-safe height
G0 X848.0000 Y534.7800
M3S0
G4 P0.5; Tool On
G1 F300 Z0.0000
G1 F15000 X2.0000 Y534.7800 Z0.0000
M3S245
G4 P0.5; Tool Off

G0 Z0; move to z-safe height
G0 X2.0000 Y538.7800
M3S0
G4 P0.5; Tool On
G1 F300 Z0.0000
G1 F15000 X848.0000 Y538.7800 Z0.0000
M3S245
G4 P0.5; Tool Off

G0 Z0; move to z-safe height
G0 X848.0000 Y542.7800
M3S0
G4 P0.5; Tool On
G1 F300 Z0.0000
G1 F15000 X2.0000 Y542.7800 Z0.0000
M3S245
G4 P0.5; Tool Off

G0 Z0; move to z-safe height
G0 X2.0000 Y546.7800
M3S0
G4 P0.5; Tool On
G1 F300 Z0.0000
G1 F15000 X848.0000 Y546.7800 Z0.0000
M3S245
G4 P0.5; Tool Off

G0 Z0; move to z-safe height
G0 X848.0000 Y550.7800
M3S0
G4 P0.5; Tool On
G1 F300 Z0.0000
G1 F15000 X2.0000 Y550.7800 Z0.0000
M3S245
G4 P0.5; Tool Off

G0 Z0; move to z-safe height
G0 X2.0000 Y554.7800
M3S0
G4 P0.5; Tool On
G1 F300 Z0.0000
G1 F15000 X848.0000 Y554.7800 Z0.0000
M3S245
G4 P0.5; Tool Off

G0 Z0; move to z-safe height
G0 X848.0000 Y558.7800
M3S0
G4 P0.5; Tool On
G1 F300 Z0.0000
G1 F15000 X2.0000 Y558.7800 Z0.0000
M3S245
G4 P0.5; Tool Off

G0 Z0; move to z-safe height
G0 X2.0000 Y562.7800
M3S0
G4 P0.5; Tool On
G1 F300 Z0.0000
G1 F15000 X848.0000 Y562.7800 Z0.0000
M3S245
G4 P0.5; Tool Off

G0 Z0; move to z-safe height
G0 X848.0000 Y566.7800
M3S0
G4 P0.5; Tool On
G1 F300 Z0.0000
G1 F15000 X2.0000 Y566.7800 Z0.0000
M3S245
G4 P0.5; Tool Off

G0 Z0; move to z-safe height
G0 X2.0000 Y570.7800
M3S0
G4 P0.5; Tool On
G1 F300 Z0.0000
G1 F15000 X848.0000 Y570.7800 Z0.0000
M3S245
G4 P0.5; Tool Off

G0 Z0; move to z-safe height
G0 X848.0000 Y574.7800
M3S0
G4 P0.5; Tool On
G1 F300 Z0.0000
G1 F15000 X2.0000 Y574.7800 Z0.0000
M3S245
G4 P0.5; Tool Off

G0 Z0; move to z-safe height
G0 X2.0000 Y578.7800
M3S0
G4 P0.5; Tool On
G1 F300 Z0.0000
G1 F15000 X848.0000 Y578.7800 Z0.0000
M3S245
G4 P0.5; Tool Off

G0 Z0; move to z-safe height
G0 X848.0000 Y582.7800
M3S0
G4 P0.5; Tool On
G1 F300 Z0.0000
G1 F15000 X2.0000 Y582.7800 Z0.0000
M3S245
G4 P0.5; Tool Off

G0 Z0; move to z-safe height
G0 X2.0000 Y586.7800
M3S0
G4 P0.5; Tool On
G1 F300 Z0.0000
G1 F15000 X848.0000 Y586.7800 Z0.0000
M3S245
G4 P0.5; Tool Off

G0 Z0; move to z-safe height
G0 X848.0000 Y590.7800
M3S0
G4 P0.5; Tool On
G1 F300 Z0.0000
G1 F15000 X2.0000 Y590.7800 Z0.0000
M3S245
G4 P0.5; Tool Off

G0 Z0; move to z-safe height
G0 X2.0000 Y594.7800
M3S0
G4 P0.5; Tool On
G1 F300 Z0.0000
G1 F15000 X848.0000 Y594.7800 Z0.0000
M3S245
G4 P0.5; Tool Off

G0 Z0; move to z-safe height
G0 X848.0000 Y598.7800
M3S0
G4 P0.5; Tool On
G1 F300 Z0.0000
G1 F15000 X2.0000 Y598.7800 Z0.0000
M3S245
G4 P0.5; Tool Off

G0 Z0; move to z-safe height
G0 X2.0000 Y602.7800
M3S0
G4 P0.5; Tool On
G1 F300 Z0.0000
G1 F15000 X848.0000 Y602.7800 Z0.0000
M3S245
G4 P0.5; Tool Off

G0 Z0; move to z-safe height
G0 X848.0000 Y606.7800
M3S0
G4 P0.5; Tool On
G1 F300 Z0.0000
G1 F15000 X2.0000 Y606.7800 Z0.0000
M3S245
G4 P0.5; Tool Off

G0 Z0; move to z-safe height
G0 X2.0000 Y610.7800
M3S0
G4 P0.5; Tool On
G1 F300 Z0.0000
G1 F15000 X848.0000 Y610.7800 Z0.0000
M3S245
G4 P0.5; Tool Off

G0 Z0; move to z-safe height
G0 X848.0000 Y614.7800
M3S0
G4 P0.5; Tool On
G1 F300 Z0.0000
G1 F15000 X2.0000 Y614.7800 Z0.0000
M3S245
G4 P0.5; Tool Off

G0 Z0; move to z-safe height
G0 X2.0000 Y618.7800
M3S0
G4 P0.5; Tool On
G1 F300 Z0.0000
G1 F15000 X848.0000 Y618.7800 Z0.0000
M3S245
G4 P0.5; Tool Off

G0 Z0; move to z-safe height
G0 X848.0000 Y622.7800
M3S0
G4 P0.5; Tool On
G1 F300 Z0.0000
G1 F15000 X2.0000 Y622.7800 Z0.0000
M3S245
G4 P0.5; Tool Off

G0 Z0; move to z-safe height
G0 X2.0000 Y626.7800
M3S0
G4 P0.5; Tool On
G1 F300 Z0.0000
G1 F15000 X848.0000 Y626.7800 Z0.0000
M3S245
G4 P0.5; Tool Off

G0 Z0; move to z-safe height
G0 X848.0000 Y630.7800
M3S0
G4 P0.5; Tool On
G1 F300 Z0.0000
G1 F15000 X2.0000 Y630.7800 Z0.0000
M3S245
G4 P0.5; Tool Off

G0 Z0; move to z-safe height
G0 X2.0000 Y634.7800
M3S0
G4 P0.5; Tool On
G1 F300 Z0.0000
G1 F15000 X848.0000 Y634.7800 Z0.0000
M3S245
G4 P0.5; Tool Off

G0 Z0; move to z-safe height
G0 X848.0000 Y638.7800
M3S0
G4 P0.5; Tool On
G1 F300 Z0.0000
G1 F15000 X2.0000 Y638.7800 Z0.0000
M3S245
G4 P0.5; Tool Off

G0 Z0; move to z-safe height
G0 X2.0000 Y642.7800
M3S0
G4 P0.5; Tool On
G1 F300 Z0.0000
G1 F15000 X848.0000 Y642.7800 Z0.0000
M3S245
G4 P0.5; Tool Off

G0 Z0; move to z-safe height
G0 X848.0000 Y646.7800
M3S0
G4 P0.5; Tool On
G1 F300 Z0.0000
G1 F15000 X2.0000 Y646.7800 Z0.0000
M3S245
G4 P0.5; Tool Off

G0 Z0; move to z-safe height
G0 X2.0000 Y650.7800
M3S0
G4 P0.5; Tool On
G1 F300 Z0.0000
G1 F15000 X848.0000 Y650.7800 Z0.0000
M3S245
G4 P0.5; Tool Off

G0 Z0; move to z-safe height
G0 X848.0000 Y654.7800
M3S0
G4 P0.5; Tool On
G1 F300 Z0.0000
G1 F15000 X2.0000 Y654.7800 Z0.0000
M3S245
G4 P0.5; Tool Off

G0 Z0; move to z-safe height
G0 X2.0000 Y658.7800
M3S0
G4 P0.5; Tool On
G1 F300 Z0.0000
G1 F15000 X848.0000 Y658.7800 Z0.0000
M3S245
G4 P0.5; Tool Off

G0 Z0; move to z-safe height
G0 X848.0000 Y662.7800
M3S0
G4 P0.5; Tool On
G1 F300 Z0.0000
G1 F15000 X2.0000 Y662.7800 Z0.0000
M3S245
G4 P0.5; Tool Off

G0 Z0; move to z-safe height
G0 X2.0000 Y666.7800
M3S0
G4 P0.5; Tool On
G1 F300 Z0.0000
G1 F15000 X848.0000 Y666.7800 Z0.0000
M3S245
G4 P0.5; Tool Off

G0 Z0; move to z-safe height
G0 X848.0000 Y670.7800
M3S0
G4 P0.5; Tool On
G1 F300 Z0.0000
G1 F15000 X2.0000 Y670.7800 Z0.0000
M3S245
G4 P0.5; Tool Off

G0 Z0; move to z-safe height
G0 X2.0000 Y674.7800
M3S0
G4 P0.5; Tool On
G1 F300 Z0.0000
G1 F15000 X848.0000 Y674.7800 Z0.0000
M3S245
G4 P0.5; Tool Off

G0 Z0; move to z-safe height
G0 X848.0000 Y678.7800
M3S0
G4 P0.5; Tool On
G1 F300 Z0.0000
G1 F15000 X2.0000 Y678.7800 Z0.0000
M3S245
G4 P0.5; Tool Off

G0 Z0; move to z-safe height
G0 X2.0000 Y682.7800
M3S0
G4 P0.5; Tool On
G1 F300 Z0.0000
G1 F15000 X848.0000 Y682.7800 Z0.0000
M3S245
G4 P0.5; Tool Off

G0 Z0; move to z-safe height
G0 X848.0000 Y686.7800
M3S0
G4 P0.5; Tool On
G1 F300 Z0.0000
G1 F15000 X2.0000 Y686.7800 Z0.0000
M3S245
G4 P0.5; Tool Off

G0 Z0; move to z-safe height
G0 X2.0000 Y690.7800
M3S0
G4 P0.5; Tool On
G1 F300 Z0.0000
G1 F15000 X848.0000 Y690.7800 Z0.0000
M3S245
G4 P0.5; Tool Off

G0 Z0; move to z-safe height
G0 X848.0000 Y694.7800
M3S0
G4 P0.5; Tool On
G1 F300 Z0.0000
G1 F15000 X2.0000 Y694.7800 Z0.0000
M3S245
G4 P0.5; Tool Off

G0 Z0; move to z-safe height
G0 X2.0000 Y698.7800
M3S0
G4 P0.5; Tool On
G1 F300 Z0.0000
G1 F15000 X848.0000 Y698.7800 Z0.0000
M3S245
G4 P0.5; Tool Off

G0 Z0; move to z-safe height
G0 X848.0000 Y702.7800
M3S0
G4 P0.5; Tool On
G1 F300 Z0.0000
G1 F15000 X2.0000 Y702.7800 Z0.0000
M3S245
G4 P0.5; Tool Off

G0 Z0; move to z-safe height
G0 X2.0000 Y706.7800
M3S0
G4 P0.5; Tool On
G1 F300 Z0.0000
G1 F15000 X848.0000 Y706.7800 Z0.0000
M3S245
G4 P0.5; Tool Off

G0 Z0; move to z-safe height
G0 X848.0000 Y710.7800
M3S0
G4 P0.5; Tool On
G1 F300 Z0.0000
G1 F15000 X2.0000 Y710.7800 Z0.0000
M3S245
G4 P0.5; Tool Off

G0 Z0; move to z-safe height
G0 X2.0000 Y714.7800
M3S0
G4 P0.5; Tool On
G1 F300 Z0.0000
G1 F15000 X848.0000 Y714.7800 Z0.0000
M3S245
G4 P0.5; Tool Off

G0 Z0; move to z-safe height
G0 X848.0000 Y718.7800
M3S0
G4 P0.5; Tool On
G1 F300 Z0.0000
G1 F15000 X2.0000 Y718.7800 Z0.0000
M3S245
G4 P0.5; Tool Off

G0 Z0; move to z-safe height
G0 X2.0000 Y722.7800
M3S0
G4 P0.5; Tool On
G1 F300 Z0.0000
G1 F15000 X848.0000 Y722.7800 Z0.0000
M3S245
G4 P0.5; Tool Off

G0 Z0; move to z-safe height
G0 X848.0000 Y726.7800
M3S0
G4 P0.5; Tool On
G1 F300 Z0.0000
G1 F15000 X2.0000 Y726.7800 Z0.0000
M3S245
G4 P0.5; Tool Off

G0 Z0; move to z-safe height
G0 X2.0000 Y730.7800
M3S0
G4 P0.5; Tool On
G1 F300 Z0.0000
G1 F15000 X848.0000 Y730.7800 Z0.0000
M3S245
G4 P0.5; Tool Off

G0 Z0; move to z-safe height
G0 X848.0000 Y734.7800
M3S0
G4 P0.5; Tool On
G1 F300 Z0.0000
G1 F15000 X2.0000 Y734.7800 Z0.0000
M3S245
G4 P0.5; Tool Off

G0 Z0; move to z-safe height
G0 X2.0000 Y738.7800
M3S0
G4 P0.5; Tool On
G1 F300 Z0.0000
G1 F15000 X848.0000 Y738.7800 Z0.0000
M3S245
G4 P0.5; Tool Off

G0 Z0; move to z-safe height
G0 X848.0000 Y742.7800
M3S0
G4 P0.5; Tool On
G1 F300 Z0.0000
G1 F15000 X2.0000 Y742.7800 Z0.0000
M3S245
G4 P0.5; Tool Off

G0 Z0; move to z-safe height
G0 X2.0000 Y746.7800
M3S0
G4 P0.5; Tool On
G1 F300 Z0.0000
G1 F15000 X848.0000 Y746.7800 Z0.0000
M3S245
G4 P0.5; Tool Off

G0 Z0; move to z-safe height
G0 X848.0000 Y750.7800
M3S0
G4 P0.5; Tool On
G1 F300 Z0.0000
G1 F15000 X2.0000 Y750.7800 Z0.0000
M3S245
G4 P0.5; Tool Off

G0 Z0; move to z-safe height
G0 X2.0000 Y754.7800
M3S0
G4 P0.5; Tool On
G1 F300 Z0.0000
G1 F15000 X848.0000 Y754.7800 Z0.0000
M3S245
G4 P0.5; Tool Off

G0 Z0; move to z-safe height
G0 X848.0000 Y758.7800
M3S0
G4 P0.5; Tool On
G1 F300 Z0.0000
G1 F15000 X2.0000 Y758.7800 Z0.0000
M3S245
G4 P0.5; Tool Off

G0 Z0; move to z-safe height
G0 X2.0000 Y762.7800
M3S0
G4 P0.5; Tool On
G1 F300 Z0.0000
G1 F15000 X848.0000 Y762.7800 Z0.0000
M3S245
G4 P0.5; Tool Off

G0 Z0; move to z-safe height
G0 X848.0000 Y766.7800
M3S0
G4 P0.5; Tool On
G1 F300 Z0.0000
G1 F15000 X2.0000 Y766.7800 Z0.0000
M3S245
G4 P0.5; Tool Off

G0 Z0; move to z-safe height
G0 X2.0000 Y770.7800
M3S0
G4 P0.5; Tool On
G1 F300 Z0.0000
G1 F15000 X848.0000 Y770.7800 Z0.0000
M3S245
G4 P0.5; Tool Off

G0 Z0; move to z-safe height
G0 X848.0000 Y774.7800
M3S0
G4 P0.5; Tool On
G1 F300 Z0.0000
G1 F15000 X2.0000 Y774.7800 Z0.0000
M3S245
G4 P0.5; Tool Off

G0 Z0; move to z-safe height
G0 X2.0000 Y778.7800
M3S0
G4 P0.5; Tool On
G1 F300 Z0.0000
G1 F15000 X848.0000 Y778.7800 Z0.0000
M3S245
G4 P0.5; Tool Off

G0 Z0; move to z-safe height
G0 X848.0000 Y782.7800
M3S0
G4 P0.5; Tool On
G1 F300 Z0.0000
G1 F15000 X2.0000 Y782.7800 Z0.0000
M3S245
G4 P0.5; Tool Off

G0 Z0; move to z-safe height
G0 X2.0000 Y786.7800
M3S0
G4 P0.5; Tool On
G1 F300 Z0.0000
G1 F15000 X848.0000 Y786.7800 Z0.0000
M3S245
G4 P0.5; Tool Off

G0 Z0; move to z-safe height
G0 X848.0000 Y790.7800
M3S0
G4 P0.5; Tool On
G1 F300 Z0.0000
G1 F15000 X2.0000 Y790.7800 Z0.0000
M3S245
G4 P0.5; Tool Off

G0 Z0; move to z-safe height
G0 X2.0000 Y794.7800
M3S0
G4 P0.5; Tool On
G1 F300 Z0.0000
G1 F15000 X848.0000 Y794.7800 Z0.0000
M3S245
G4 P0.5; Tool Off

G0 Z0; move to z-safe height
G0 X848.0000 Y798.7800
M3S0
G4 P0.5; Tool On
G1 F300 Z0.0000
G1 F15000 X2.0000 Y798.7800 Z0.0000
M3S245
G4 P0.5; Tool Off

G0 Z0; move to z-safe height
G0 X2.0000 Y802.7800
M3S0
G4 P0.5; Tool On
G1 F300 Z0.0000
G1 F15000 X848.0000 Y802.7800 Z0.0000
M3S245
G4 P0.5; Tool Off

G0 Z0; move to z-safe height
G0 X848.0000 Y806.7800
M3S0
G4 P0.5; Tool On
G1 F300 Z0.0000
G1 F15000 X2.0000 Y806.7800 Z0.0000
M3S245
G4 P0.5; Tool Off

G0 Z0; move to z-safe height
G0 X2.0000 Y810.7800
M3S0
G4 P0.5; Tool On
G1 F300 Z0.0000
G1 F15000 X848.0000 Y810.7800 Z0.0000
M3S245
G4 P0.5; Tool Off

G0 Z0; move to z-safe height
G0 X848.0000 Y814.7800
M3S0
G4 P0.5; Tool On
G1 F300 Z0.0000
G1 F15000 X2.0000 Y814.7800 Z0.0000
M3S245
G4 P0.5; Tool Off

G0 Z0; move to z-safe height
G0 X2.0000 Y818.7800
M3S0
G4 P0.5; Tool On
G1 F300 Z0.0000
G1 F15000 X848.0000 Y818.7800 Z0.0000
M3S245
G4 P0.5; Tool Off

G0 Z0; move to z-safe height
G0 X848.0000 Y822.7800
M3S0
G4 P0.5; Tool On
G1 F300 Z0.0000
G1 F15000 X2.0000 Y822.7800 Z0.0000
M3S245
G4 P0.5; Tool Off

G0 Z0; move to z-safe height
G0 X2.0000 Y826.7800
M3S0
G4 P0.5; Tool On
G1 F300 Z0.0000
G1 F15000 X848.0000 Y826.7800 Z0.0000
M3S245
G4 P0.5; Tool Off

G0 Z0; move to z-safe height
G0 X848.0000 Y830.7800
M3S0
G4 P0.5; Tool On
G1 F300 Z0.0000
G1 F15000 X2.0000 Y830.7800 Z0.0000
M3S245
G4 P0.5; Tool Off

G0 Z0; move to z-safe height
G0 X2.0000 Y834.7800
M3S0
G4 P0.5; Tool On
G1 F300 Z0.0000
G1 F15000 X848.0000 Y834.7800 Z0.0000
M3S245
G4 P0.5; Tool Off

G0 Z0; move to z-safe height
G0 X848.0000 Y838.7800
M3S0
G4 P0.5; Tool On
G1 F300 Z0.0000
G1 F15000 X2.0000 Y838.7800 Z0.0000
M3S245
G4 P0.5; Tool Off

G0 Z0; move to z-safe height
G0 X2.0000 Y842.7800
M3S0
G4 P0.5; Tool On
G1 F300 Z0.0000
G1 F15000 X848.0000 Y842.7800 Z0.0000
M3S245
G4 P0.5; Tool Off

G0 Z0; move to z-safe height
G0 X848.0000 Y846.7800
M3S0
G4 P0.5; Tool On
G1 F300 Z0.0000
G1 F15000 X2.0000 Y846.7800 Z0.0000
M3S245
G4 P0.5; Tool Off

G0 Z0; move to z-safe height
G0 X2.0000 Y850.7800
M3S0
G4 P0.5; Tool On
G1 F300 Z0.0000
G1 F15000 X848.0000 Y850.7800 Z0.0000
M3S245
G4 P0.5; Tool Off

G0 Z0; move to z-safe height
G0 X848.0000 Y854.7800
M3S0
G4 P0.5; Tool On
G1 F300 Z0.0000
G1 F15000 X2.0000 Y854.7800 Z0.0000
M3S245
G4 P0.5; Tool Off

G0 Z0; move to z-safe height
G0 X2.0000 Y858.7800
M3S0
G4 P0.5; Tool On
G1 F300 Z0.0000
G1 F15000 X848.0000 Y858.7800 Z0.0000
M3S245
G4 P0.5; Tool Off

G0 Z0; move to z-safe height
G0 X848.0000 Y862.7800
M3S0
G4 P0.5; Tool On
G1 F300 Z0.0000
G1 F15000 X2.0000 Y862.7800 Z0.0000
M3S245
G4 P0.5; Tool Off

G0 Z0; move to z-safe height
G0 X2.0000 Y866.7800
M3S0
G4 P0.5; Tool On
G1 F300 Z0.0000
G1 F15000 X848.0000 Y866.7800 Z0.0000
M3S245
G4 P0.5; Tool Off

G0 Z0; move to z-safe height
G0 X848.0000 Y870.7800
M3S0
G4 P0.5; Tool On
G1 F300 Z0.0000
G1 F15000 X2.0000 Y870.7800 Z0.0000
M3S245
G4 P0.5; Tool Off

G0 Z0; move to z-safe height
G0 X2.0000 Y874.7800
M3S0
G4 P0.5; Tool On
G1 F300 Z0.0000
G1 F15000 X848.0000 Y874.7800 Z0.0000
M3S245
G4 P0.5; Tool Off

G0 Z0; move to z-safe height
G0 X848.0000 Y878.7800
M3S0
G4 P0.5; Tool On
G1 F300 Z0.0000
G1 F15000 X2.0000 Y878.7800 Z0.0000
M3S245
G4 P0.5; Tool Off

G0 Z0; move to z-safe height
G0 X2.0000 Y882.7800
M3S0
G4 P0.5; Tool On
G1 F300 Z0.0000
G1 F15000 X848.0000 Y882.7800 Z0.0000
M3S245
G4 P0.5; Tool Off

G0 Z0; move to z-safe height
G0 X848.0000 Y886.7800
M3S0
G4 P0.5; Tool On
G1 F300 Z0.0000
G1 F15000 X2.0000 Y886.7800 Z0.0000
M3S245
G4 P0.5; Tool Off

G0 Z0; move to z-safe height
G0 X2.0000 Y890.7800
M3S0
G4 P0.5; Tool On
G1 F300 Z0.0000
G1 F15000 X848.0000 Y890.7800 Z0.0000
M3S245
G4 P0.5; Tool Off

G0 Z0; move to z-safe height
G0 X848.0000 Y894.7800
M3S0
G4 P0.5; Tool On
G1 F300 Z0.0000
G1 F15000 X2.0000 Y894.7800 Z0.0000
M3S245
G4 P0.5; Tool Off

G0 Z0; move to z-safe height
G0 X2.0000 Y898.7800
M3S0
G4 P0.5; Tool On
G1 F300 Z0.0000
G1 F15000 X848.0000 Y898.7800 Z0.0000
M3S245
G4 P0.5; Tool Off

G0 Z0; move to z-safe height
G0 X848.0000 Y902.7800
M3S0
G4 P0.5; Tool On
G1 F300 Z0.0000
G1 F15000 X2.0000 Y902.7800 Z0.0000
M3S245
G4 P0.5; Tool Off

G0 Z0; move to z-safe height
G0 X2.0000 Y906.7800
M3S0
G4 P0.5; Tool On
G1 F300 Z0.0000
G1 F15000 X848.0000 Y906.7800 Z0.0000
M3S245
G4 P0.5; Tool Off

G0 Z0; move to z-safe height
G0 X848.0000 Y910.7800
M3S0
G4 P0.5; Tool On
G1 F300 Z0.0000
G1 F15000 X2.0000 Y910.7800 Z0.0000
M3S245
G4 P0.5; Tool Off

G0 Z0; move to z-safe height
G0 X2.0000 Y914.7800
M3S0
G4 P0.5; Tool On
G1 F300 Z0.0000
G1 F15000 X848.0000 Y914.7800 Z0.0000
M3S245
G4 P0.5; Tool Off

G0 Z0; move to z-safe height
G0 X848.0000 Y918.7800
M3S0
G4 P0.5; Tool On
G1 F300 Z0.0000
G1 F15000 X2.0000 Y918.7800 Z0.0000
M3S245
G4 P0.5; Tool Off

G0 Z0; move to z-safe height
G0 X2.0000 Y922.7800
M3S0
G4 P0.5; Tool On
G1 F300 Z0.0000
G1 F15000 X848.0000 Y922.7800 Z0.0000
M3S245
G4 P0.5; Tool Off

G0 Z0; move to z-safe height
G0 X848.0000 Y926.7800
M3S0
G4 P0.5; Tool On
G1 F300 Z0.0000
G1 F15000 X2.0000 Y926.7800 Z0.0000
M3S245
G4 P0.5; Tool Off

G0 Z0; move to z-safe height
G0 X2.0000 Y930.7800
M3S0
G4 P0.5; Tool On
G1 F300 Z0.0000
G1 F15000 X848.0000 Y930.7800 Z0.0000
M3S245
G4 P0.5; Tool Off

G0 Z0; move to z-safe height
G0 X848.0000 Y934.7800
M3S0
G4 P0.5; Tool On
G1 F300 Z0.0000
G1 F15000 X2.0000 Y934.7800 Z0.0000
M3S245
G4 P0.5; Tool Off

G0 Z0; move to z-safe height
G0 X2.0000 Y938.7800
M3S0
G4 P0.5; Tool On
G1 F300 Z0.0000
G1 F15000 X848.0000 Y938.7800 Z0.0000
M3S245
G4 P0.5; Tool Off

G0 Z0; move to z-safe height
G0 X848.0000 Y942.7800
M3S0
G4 P0.5; Tool On
G1 F300 Z0.0000
G1 F15000 X2.0000 Y942.7800 Z0.0000
M3S245
G4 P0.5; Tool Off

G0 Z0; move to z-safe height
G0 X2.0000 Y946.7800
M3S0
G4 P0.5; Tool On
G1 F300 Z0.0000
G1 F15000 X848.0000 Y946.7800 Z0.0000
M3S245
G4 P0.5; Tool Off

G0 Z0; move to z-safe height
G0 X848.0000 Y950.7800
M3S0
G4 P0.5; Tool On
G1 F300 Z0.0000
G1 F15000 X2.0000 Y950.7800 Z0.0000
M3S245
G4 P0.5; Tool Off

G0 Z0; move to z-safe height
G0 X2.0000 Y954.7800
M3S0
G4 P0.5; Tool On
G1 F300 Z0.0000
G1 F15000 X848.0000 Y954.7800 Z0.0000
M3S245
G4 P0.5; Tool Off

G0 Z0; move to z-safe height
G0 X848.0000 Y958.7800
M3S0
G4 P0.5; Tool On
G1 F300 Z0.0000
G1 F15000 X2.0000 Y958.7800 Z0.0000
M3S245
G4 P0.5; Tool Off

G0 Z0; move to z-safe height
G0 X2.0000 Y962.7800
M3S0
G4 P0.5; Tool On
G1 F300 Z0.0000
G1 F15000 X848.0000 Y962.7800 Z0.0000
M3S245
G4 P0.5; Tool Off

G0 Z0; move to z-safe height
G0 X848.0000 Y966.7800
M3S0
G4 P0.5; Tool On
G1 F300 Z0.0000
G1 F15000 X2.0000 Y966.7800 Z0.0000
M3S245
G4 P0.5; Tool Off

G0 Z0; move to z-safe height
G0 X2.0000 Y970.7800
M3S0
G4 P0.5; Tool On
G1 F300 Z0.0000
G1 F15000 X848.0000 Y970.7800 Z0.0000
M3S245
G4 P0.5; Tool Off

G0 Z0; move to z-safe height
G0 X848.0000 Y974.7800
M3S0
G4 P0.5; Tool On
G1 F300 Z0.0000
G1 F15000 X2.0000 Y974.7800 Z0.0000
M3S245
G4 P0.5; Tool Off

G0 Z0; move to z-safe height
G0 X2.0000 Y978.7800
M3S0
G4 P0.5; Tool On
G1 F300 Z0.0000
G1 F15000 X848.0000 Y978.7800 Z0.0000
M3S245
G4 P0.5; Tool Off

G0 Z0; move to z-safe height
G0 X848.0000 Y982.7800
M3S0
G4 P0.5; Tool On
G1 F300 Z0.0000
G1 F15000 X2.0000 Y982.7800 Z0.0000
M3S245
G4 P0.5; Tool Off

G0 Z0; move to z-safe height
G0 X2.0000 Y986.7800
M3S0
G4 P0.5; Tool On
G1 F300 Z0.0000
G1 F15000 X848.0000 Y986.7800 Z0.0000
M3S245
G4 P0.5; Tool Off

G0 Z0; move to z-safe height
G0 X848.0000 Y990.7800
M3S0
G4 P0.5; Tool On
G1 F300 Z0.0000
G1 F15000 X2.0000 Y990.7800 Z0.0000
M3S245
G4 P0.5; Tool Off

G0 Z0; move to z-safe height
G0 X2.0000 Y994.7800
M3S0
G4 P0.5; Tool On
G1 F300 Z0.0000
G1 F15000 X848.0000 Y994.7800 Z0.0000
M3S245
G4 P0.5; Tool Off

G0 Z0; move to z-safe height
G0 X848.0000 Y998.7800
M3S0
G4 P0.5; Tool On
G1 F300 Z0.0000
G1 F15000 X2.0000 Y998.7800 Z0.0000
M3S245
G4 P0.5; Tool Off

G0 Z0; move to z-safe height
G0 X2.0000 Y1002.7800
M3S0
G4 P0.5; Tool On
G1 F300 Z0.0000
G1 F15000 X848.0000 Y1002.7800 Z0.0000
M3S245
G4 P0.5; Tool Off

G0 Z0; move to z-safe height
G0 X848.0000 Y1006.7800
M3S0
G4 P0.5; Tool On
G1 F300 Z0.0000
G1 F15000 X2.0000 Y1006.7800 Z0.0000
M3S245
G4 P0.5; Tool Off

G0 Z0; move to z-safe height
G0 X2.0000 Y1010.7800
M3S0
G4 P0.5; Tool On
G1 F300 Z0.0000
G1 F15000 X848.0000 Y1010.7800 Z0.0000
M3S245
G4 P0.5; Tool Off

G0 Z0; move to z-safe height
G0 X848.0000 Y1014.7800
M3S0
G4 P0.5; Tool On
G1 F300 Z0.0000
G1 F15000 X2.0000 Y1014.7800 Z0.0000
M3S245
G4 P0.5; Tool Off

G0 Z0; move to z-safe height
G0 X2.0000 Y1018.7800
M3S0
G4 P0.5; Tool On
G1 F300 Z0.0000
G1 F15000 X848.0000 Y1018.7800 Z0.0000
M3S245
G4 P0.5; Tool Off

G0 Z0; move to z-safe height
G0 X848.0000 Y1022.7800
M3S0
G4 P0.5; Tool On
G1 F300 Z0.0000
G1 F15000 X2.0000 Y1022.7800 Z0.0000
M3S245
G4 P0.5; Tool Off

G0 Z0; move to z-safe height
G0 X2.0000 Y1026.7800
M3S0
G4 P0.5; Tool On
G1 F300 Z0.0000
G1 F15000 X848.0000 Y1026.7800 Z0.0000
M3S245
G4 P0.5; Tool Off

G0 Z0; move to z-safe height
G0 X848.0000 Y1030.7800
M3S0
G4 P0.5; Tool On
G1 F300 Z0.0000
G1 F15000 X2.0000 Y1030.7800 Z0.0000
M3S245
G4 P0.5; Tool Off

G0 Z0; move to z-safe height
G0 X2.0000 Y1034.7800
M3S0
G4 P0.5; Tool On
G1 F300 Z0.0000
G1 F15000 X848.0000 Y1034.7800 Z0.0000
M3S245
G4 P0.5; Tool Off

G0 Z0; move to z-safe height
G0 X848.0000 Y1038.7800
M3S0
G4 P0.5; Tool On
G1 F300 Z0.0000
G1 F15000 X2.0000 Y1038.7800 Z0.0000
M3S245
G4 P0.5; Tool Off

G0 Z0; move to z-safe height
G0 X2.0000 Y1042.7800
M3S0
G4 P0.5; Tool On
G1 F300 Z0.0000
G1 F15000 X848.0000 Y1042.7800 Z0.0000
M3S245
G4 P0.5; Tool Off

G0 Z0; move to z-safe height
G0 X848.0000 Y1046.7800
M3S0
G4 P0.5; Tool On
G1 F300 Z0.0000
G1 F15000 X2.0000 Y1046.7800 Z0.0000
M3S245
G4 P0.5; Tool Off

G0 Z0; move to z-safe height
G0 X2.0000 Y1050.7800
M3S0
G4 P0.5; Tool On
G1 F300 Z0.0000
G1 F15000 X848.0000 Y1050.7800 Z0.0000
M3S245
G4 P0.5; Tool Off

G0 Z0; move to z-safe height
G0 X848.0000 Y1054.7800
M3S0
G4 P0.5; Tool On
G1 F300 Z0.0000
G1 F15000 X2.0000 Y1054.7800 Z0.0000
M3S245
G4 P0.5; Tool Off

G0 Z0; move to z-safe height
G0 X2.0000 Y1058.7800
M3S0
G4 P0.5; Tool On
G1 F300 Z0.0000
G1 F15000 X848.0000 Y1058.7800 Z0.0000
M3S245
G4 P0.5; Tool Off

G0 Z0; move to z-safe height
G0 X848.0000 Y1062.7800
M3S0
G4 P0.5; Tool On
G1 F300 Z0.0000
G1 F15000 X2.0000 Y1062.7800 Z0.0000
M3S245
G4 P0.5; Tool Off

G0 Z0; move to z-safe height
G0 X2.0000 Y1066.7800
M3S0
G4 P0.5; Tool On
G1 F300 Z0.0000
G1 F15000 X848.0000 Y1066.7800 Z0.0000
M3S245
G4 P0.5; Tool Off

G0 Z0; move to z-safe height
G0 X848.0000 Y1070.7800
M3S0
G4 P0.5; Tool On
G1 F300 Z0.0000
G1 F15000 X2.0000 Y1070.7800 Z0.0000
M3S245
G4 P0.5; Tool Off

G0 Z0; move to z-safe height
G0 X2.0000 Y1074.7800
M3S0
G4 P0.5; Tool On
G1 F300 Z0.0000
G1 F15000 X848.0000 Y1074.7800 Z0.0000
M3S245
G4 P0.5; Tool Off

G0 Z0; move to z-safe height
G0 X848.0000 Y1078.7800
M3S0
G4 P0.5; Tool On
G1 F300 Z0.0000
G1 F15000 X2.0000 Y1078.7800 Z0.0000
M3S245
G4 P0.5; Tool Off

G0 Z0; move to z-safe height
G0 X2.0000 Y1082.7800
M3S0
G4 P0.5; Tool On
G1 F300 Z0.0000
G1 F15000 X848.0000 Y1082.7800 Z0.0000
M3S245
G4 P0.5; Tool Off

G0 Z0; move to z-safe height
G0 X848.0000 Y1086.7800
M3S0
G4 P0.5; Tool On
G1 F300 Z0.0000
G1 F15000 X2.0000 Y1086.7800 Z0.0000
M3S245
G4 P0.5; Tool Off

G0 Z0; move to z-safe height
G0 X2.0000 Y1090.7800
M3S0
G4 P0.5; Tool On
G1 F300 Z0.0000
G1 F15000 X848.0000 Y1090.7800 Z0.0000
M3S245
G4 P0.5; Tool Off

G0 Z0; move to z-safe height
G0 X848.0000 Y1094.7800
M3S0
G4 P0.5; Tool On
G1 F300 Z0.0000
G1 F15000 X2.0000 Y1094.7800 Z0.0000
M3S245
G4 P0.5; Tool Off

G0 Z0; move to z-safe height
G0 X2.0000 Y1098.7800
M3S0
G4 P0.5; Tool On
G1 F300 Z0.0000
G1 F15000 X848.0000 Y1098.7800 Z0.0000
M3S245
G4 P0.5; Tool Off

G0 Z0; move to z-safe height
G0 X848.0000 Y1102.7800
M3S0
G4 P0.5; Tool On
G1 F300 Z0.0000
G1 F15000 X2.0000 Y1102.7800 Z0.0000
M3S245
G4 P0.5; Tool Off

G0 Z0; move to z-safe height
G0 X2.0000 Y1106.7800
M3S0
G4 P0.5; Tool On
G1 F300 Z0.0000
G1 F15000 X848.0000 Y1106.7800 Z0.0000
M3S245
G4 P0.5; Tool Off

G0 Z0; move to z-safe height
G0 X848.0000 Y1110.7800
M3S0
G4 P0.5; Tool On
G1 F300 Z0.0000
G1 F15000 X2.0000 Y1110.7800 Z0.0000
M3S245
G4 P0.5; Tool Off

G0 Z0; move to z-safe height
G0 X2.0000 Y1114.7800
M3S0
G4 P0.5; Tool On
G1 F300 Z0.0000
G1 F15000 X848.0000 Y1114.7800 Z0.0000
M3S245
G4 P0.5; Tool Off

G0 Z0; move to z-safe height
G0 X848.0000 Y1118.7800
M3S0
G4 P0.5; Tool On
G1 F300 Z0.0000
G1 F15000 X2.0000 Y1118.7800 Z0.0000
M3S245
G4 P0.5; Tool Off

G0 Z0; move to z-safe height
G0 X2.0000 Y1122.7800
M3S0
G4 P0.5; Tool On
G1 F300 Z0.0000
G1 F15000 X848.0000 Y1122.7800 Z0.0000
M3S245
G4 P0.5; Tool Off

G0 Z0; move to z-safe height
G0 X848.0000 Y1126.7800
M3S0
G4 P0.5; Tool On
G1 F300 Z0.0000
G1 F15000 X2.0000 Y1126.7800 Z0.0000
M3S245
G4 P0.5; Tool Off

G0 Z0; move to z-safe height
G0 X2.0000 Y1130.7800
M3S0
G4 P0.5; Tool On
G1 F300 Z0.0000
G1 F15000 X848.0000 Y1130.7800 Z0.0000
M3S245
G4 P0.5; Tool Off

G0 Z0; move to z-safe height
G0 X848.0000 Y1134.7800
M3S0
G4 P0.5; Tool On
G1 F300 Z0.0000
G1 F15000 X2.0000 Y1134.7800 Z0.0000
M3S245
G4 P0.5; Tool Off

G0 Z0; move to z-safe height
G0 X2.0000 Y1138.7800
M3S0
G4 P0.5; Tool On
G1 F300 Z0.0000
G1 F15000 X848.0000 Y1138.7800 Z0.0000
M3S245
G4 P0.5; Tool Off

G0 Z0; move to z-safe height
G0 X848.0000 Y1142.7800
M3S0
G4 P0.5; Tool On
G1 F300 Z0.0000
G1 F15000 X2.0000 Y1142.7800 Z0.0000
M3S245
G4 P0.5; Tool Off

G0 Z0; move to z-safe height
G0 X2.0000 Y1146.7800
M3S0
G4 P0.5; Tool On
G1 F300 Z0.0000
G1 F15000 X848.0000 Y1146.7800 Z0.0000
M3S245
G4 P0.5; Tool Off
; retracting back to z-safe
G0 Z0

; Plotter Mode Complete
