; GCODE Generated by cam.openbuilds.com on 2023-12-16 
G21 ; mm-mode
G54; Work Coordinates
G21; mm-mode
G90; Absolute Positioning
; Plotter Mode Active

; Operation 0: Pen Plotter: (lines fill)
; Pen Diameter: 2

G0 Z0; move to z-safe height
G0 F1000 X841.0000 Y16.5700
M3S0
G4 P0.5; Tool On
G1 F300 Z0.0000
G1 F15000 X9.0000 Y16.5700 Z0.0000
M3S245
G4 P0.5; Tool Off

G0 Z0; move to z-safe height
G0 X9.0000 Y34.5700
M3S0
G4 P0.5; Tool On
G1 F300 Z0.0000
G1 F15000 X841.0000 Y34.5700 Z0.0000
M3S245
G4 P0.5; Tool Off

G0 Z0; move to z-safe height
G0 X841.0000 Y52.5700
M3S0
G4 P0.5; Tool On
G1 F300 Z0.0000
G1 F15000 X9.0000 Y52.5700 Z0.0000
M3S245
G4 P0.5; Tool Off

G0 Z0; move to z-safe height
G0 X9.0000 Y70.5700
M3S0
G4 P0.5; Tool On
G1 F300 Z0.0000
G1 F15000 X841.0000 Y70.5700 Z0.0000
M3S245
G4 P0.5; Tool Off

G0 Z0; move to z-safe height
G0 X841.0000 Y88.5700
M3S0
G4 P0.5; Tool On
G1 F300 Z0.0000
G1 F15000 X9.0000 Y88.5700 Z0.0000
M3S245
G4 P0.5; Tool Off

G0 Z0; move to z-safe height
G0 X9.0000 Y106.5700
M3S0
G4 P0.5; Tool On
G1 F300 Z0.0000
G1 F15000 X841.0000 Y106.5700 Z0.0000
M3S245
G4 P0.5; Tool Off

G0 Z0; move to z-safe height
G0 X841.0000 Y124.5700
M3S0
G4 P0.5; Tool On
G1 F300 Z0.0000
G1 F15000 X9.0000 Y124.5700 Z0.0000
M3S245
G4 P0.5; Tool Off

G0 Z0; move to z-safe height
G0 X9.0000 Y142.5700
M3S0
G4 P0.5; Tool On
G1 F300 Z0.0000
G1 F15000 X841.0000 Y142.5700 Z0.0000
M3S245
G4 P0.5; Tool Off

G0 Z0; move to z-safe height
G0 X841.0000 Y160.5700
M3S0
G4 P0.5; Tool On
G1 F300 Z0.0000
G1 F15000 X9.0000 Y160.5700 Z0.0000
M3S245
G4 P0.5; Tool Off

G0 Z0; move to z-safe height
G0 X9.0000 Y178.5700
M3S0
G4 P0.5; Tool On
G1 F300 Z0.0000
G1 F15000 X841.0000 Y178.5700 Z0.0000
M3S245
G4 P0.5; Tool Off

G0 Z0; move to z-safe height
G0 X841.0000 Y196.5700
M3S0
G4 P0.5; Tool On
G1 F300 Z0.0000
G1 F15000 X9.0000 Y196.5700 Z0.0000
M3S245
G4 P0.5; Tool Off

G0 Z0; move to z-safe height
G0 X9.0000 Y214.5700
M3S0
G4 P0.5; Tool On
G1 F300 Z0.0000
G1 F15000 X841.0000 Y214.5700 Z0.0000
M3S245
G4 P0.5; Tool Off

G0 Z0; move to z-safe height
G0 X841.0000 Y232.5700
M3S0
G4 P0.5; Tool On
G1 F300 Z0.0000
G1 F15000 X9.0000 Y232.5700 Z0.0000
M3S245
G4 P0.5; Tool Off

G0 Z0; move to z-safe height
G0 X9.0000 Y250.5700
M3S0
G4 P0.5; Tool On
G1 F300 Z0.0000
G1 F15000 X841.0000 Y250.5700 Z0.0000
M3S245
G4 P0.5; Tool Off

G0 Z0; move to z-safe height
G0 X841.0000 Y268.5700
M3S0
G4 P0.5; Tool On
G1 F300 Z0.0000
G1 F15000 X9.0000 Y268.5700 Z0.0000
M3S245
G4 P0.5; Tool Off

G0 Z0; move to z-safe height
G0 X9.0000 Y286.5700
M3S0
G4 P0.5; Tool On
G1 F300 Z0.0000
G1 F15000 X841.0000 Y286.5700 Z0.0000
M3S245
G4 P0.5; Tool Off

G0 Z0; move to z-safe height
G0 X841.0000 Y304.5700
M3S0
G4 P0.5; Tool On
G1 F300 Z0.0000
G1 F15000 X9.0000 Y304.5700 Z0.0000
M3S245
G4 P0.5; Tool Off

G0 Z0; move to z-safe height
G0 X9.0000 Y322.5700
M3S0
G4 P0.5; Tool On
G1 F300 Z0.0000
G1 F15000 X841.0000 Y322.5700 Z0.0000
M3S245
G4 P0.5; Tool Off

G0 Z0; move to z-safe height
G0 X841.0000 Y340.5700
M3S0
G4 P0.5; Tool On
G1 F300 Z0.0000
G1 F15000 X9.0000 Y340.5700 Z0.0000
M3S245
G4 P0.5; Tool Off

G0 Z0; move to z-safe height
G0 X9.0000 Y358.5700
M3S0
G4 P0.5; Tool On
G1 F300 Z0.0000
G1 F15000 X841.0000 Y358.5700 Z0.0000
M3S245
G4 P0.5; Tool Off

G0 Z0; move to z-safe height
G0 X841.0000 Y376.5700
M3S0
G4 P0.5; Tool On
G1 F300 Z0.0000
G1 F15000 X9.0000 Y376.5700 Z0.0000
M3S245
G4 P0.5; Tool Off

G0 Z0; move to z-safe height
G0 X9.0000 Y394.5700
M3S0
G4 P0.5; Tool On
G1 F300 Z0.0000
G1 F15000 X841.0000 Y394.5700 Z0.0000
M3S245
G4 P0.5; Tool Off

G0 Z0; move to z-safe height
G0 X841.0000 Y412.5700
M3S0
G4 P0.5; Tool On
G1 F300 Z0.0000
G1 F15000 X9.0000 Y412.5700 Z0.0000
M3S245
G4 P0.5; Tool Off

G0 Z0; move to z-safe height
G0 X9.0000 Y430.5700
M3S0
G4 P0.5; Tool On
G1 F300 Z0.0000
G1 F15000 X841.0000 Y430.5700 Z0.0000
M3S245
G4 P0.5; Tool Off

G0 Z0; move to z-safe height
G0 X841.0000 Y448.5700
M3S0
G4 P0.5; Tool On
G1 F300 Z0.0000
G1 F15000 X9.0000 Y448.5700 Z0.0000
M3S245
G4 P0.5; Tool Off

G0 Z0; move to z-safe height
G0 X9.0000 Y466.5700
M3S0
G4 P0.5; Tool On
G1 F300 Z0.0000
G1 F15000 X841.0000 Y466.5700 Z0.0000
M3S245
G4 P0.5; Tool Off

G0 Z0; move to z-safe height
G0 X841.0000 Y484.5700
M3S0
G4 P0.5; Tool On
G1 F300 Z0.0000
G1 F15000 X9.0000 Y484.5700 Z0.0000
M3S245
G4 P0.5; Tool Off

G0 Z0; move to z-safe height
G0 X9.0000 Y502.5700
M3S0
G4 P0.5; Tool On
G1 F300 Z0.0000
G1 F15000 X841.0000 Y502.5700 Z0.0000
M3S245
G4 P0.5; Tool Off

G0 Z0; move to z-safe height
G0 X841.0000 Y520.5700
M3S0
G4 P0.5; Tool On
G1 F300 Z0.0000
G1 F15000 X9.0000 Y520.5700 Z0.0000
M3S245
G4 P0.5; Tool Off

G0 Z0; move to z-safe height
G0 X9.0000 Y538.5700
M3S0
G4 P0.5; Tool On
G1 F300 Z0.0000
G1 F15000 X841.0000 Y538.5700 Z0.0000
M3S245
G4 P0.5; Tool Off

G0 Z0; move to z-safe height
G0 X841.0000 Y556.5700
M3S0
G4 P0.5; Tool On
G1 F300 Z0.0000
G1 F15000 X9.0000 Y556.5700 Z0.0000
M3S245
G4 P0.5; Tool Off

G0 Z0; move to z-safe height
G0 X9.0000 Y574.5700
M3S0
G4 P0.5; Tool On
G1 F300 Z0.0000
G1 F15000 X841.0000 Y574.5700 Z0.0000
M3S245
G4 P0.5; Tool Off

G0 Z0; move to z-safe height
G0 X841.0000 Y592.5700
M3S0
G4 P0.5; Tool On
G1 F300 Z0.0000
G1 F15000 X9.0000 Y592.5700 Z0.0000
M3S245
G4 P0.5; Tool Off

G0 Z0; move to z-safe height
G0 X9.0000 Y610.5700
M3S0
G4 P0.5; Tool On
G1 F300 Z0.0000
G1 F15000 X841.0000 Y610.5700 Z0.0000
M3S245
G4 P0.5; Tool Off

G0 Z0; move to z-safe height
G0 X841.0000 Y628.5700
M3S0
G4 P0.5; Tool On
G1 F300 Z0.0000
G1 F15000 X9.0000 Y628.5700 Z0.0000
M3S245
G4 P0.5; Tool Off

G0 Z0; move to z-safe height
G0 X9.0000 Y646.5700
M3S0
G4 P0.5; Tool On
G1 F300 Z0.0000
G1 F15000 X841.0000 Y646.5700 Z0.0000
M3S245
G4 P0.5; Tool Off

G0 Z0; move to z-safe height
G0 X841.0000 Y664.5700
M3S0
G4 P0.5; Tool On
G1 F300 Z0.0000
G1 F15000 X9.0000 Y664.5700 Z0.0000
M3S245
G4 P0.5; Tool Off

G0 Z0; move to z-safe height
G0 X9.0000 Y682.5700
M3S0
G4 P0.5; Tool On
G1 F300 Z0.0000
G1 F15000 X841.0000 Y682.5700 Z0.0000
M3S245
G4 P0.5; Tool Off

G0 Z0; move to z-safe height
G0 X841.0000 Y700.5700
M3S0
G4 P0.5; Tool On
G1 F300 Z0.0000
G1 F15000 X9.0000 Y700.5700 Z0.0000
M3S245
G4 P0.5; Tool Off

G0 Z0; move to z-safe height
G0 X9.0000 Y718.5700
M3S0
G4 P0.5; Tool On
G1 F300 Z0.0000
G1 F15000 X841.0000 Y718.5700 Z0.0000
M3S245
G4 P0.5; Tool Off

G0 Z0; move to z-safe height
G0 X841.0000 Y736.5700
M3S0
G4 P0.5; Tool On
G1 F300 Z0.0000
G1 F15000 X9.0000 Y736.5700 Z0.0000
M3S245
G4 P0.5; Tool Off

G0 Z0; move to z-safe height
G0 X9.0000 Y754.5700
M3S0
G4 P0.5; Tool On
G1 F300 Z0.0000
G1 F15000 X841.0000 Y754.5700 Z0.0000
M3S245
G4 P0.5; Tool Off

G0 Z0; move to z-safe height
G0 X841.0000 Y772.5700
M3S0
G4 P0.5; Tool On
G1 F300 Z0.0000
G1 F15000 X9.0000 Y772.5700 Z0.0000
M3S245
G4 P0.5; Tool Off

G0 Z0; move to z-safe height
G0 X9.0000 Y790.5700
M3S0
G4 P0.5; Tool On
G1 F300 Z0.0000
G1 F15000 X841.0000 Y790.5700 Z0.0000
M3S245
G4 P0.5; Tool Off

G0 Z0; move to z-safe height
G0 X841.0000 Y808.5700
M3S0
G4 P0.5; Tool On
G1 F300 Z0.0000
G1 F15000 X9.0000 Y808.5700 Z0.0000
M3S245
G4 P0.5; Tool Off

G0 Z0; move to z-safe height
G0 X9.0000 Y826.5700
M3S0
G4 P0.5; Tool On
G1 F300 Z0.0000
G1 F15000 X841.0000 Y826.5700 Z0.0000
M3S245
G4 P0.5; Tool Off

G0 Z0; move to z-safe height
G0 X841.0000 Y844.5700
M3S0
G4 P0.5; Tool On
G1 F300 Z0.0000
G1 F15000 X9.0000 Y844.5700 Z0.0000
M3S245
G4 P0.5; Tool Off

G0 Z0; move to z-safe height
G0 X9.0000 Y862.5700
M3S0
G4 P0.5; Tool On
G1 F300 Z0.0000
G1 F15000 X841.0000 Y862.5700 Z0.0000
M3S245
G4 P0.5; Tool Off

G0 Z0; move to z-safe height
G0 X841.0000 Y880.5700
M3S0
G4 P0.5; Tool On
G1 F300 Z0.0000
G1 F15000 X9.0000 Y880.5700 Z0.0000
M3S245
G4 P0.5; Tool Off

G0 Z0; move to z-safe height
G0 X9.0000 Y898.5700
M3S0
G4 P0.5; Tool On
G1 F300 Z0.0000
G1 F15000 X841.0000 Y898.5700 Z0.0000
M3S245
G4 P0.5; Tool Off

G0 Z0; move to z-safe height
G0 X841.0000 Y916.5700
M3S0
G4 P0.5; Tool On
G1 F300 Z0.0000
G1 F15000 X9.0000 Y916.5700 Z0.0000
M3S245
G4 P0.5; Tool Off

G0 Z0; move to z-safe height
G0 X9.0000 Y934.5700
M3S0
G4 P0.5; Tool On
G1 F300 Z0.0000
G1 F15000 X841.0000 Y934.5700 Z0.0000
M3S245
G4 P0.5; Tool Off

G0 Z0; move to z-safe height
G0 X841.0000 Y952.5700
M3S0
G4 P0.5; Tool On
G1 F300 Z0.0000
G1 F15000 X9.0000 Y952.5700 Z0.0000
M3S245
G4 P0.5; Tool Off

G0 Z0; move to z-safe height
G0 X9.0000 Y970.5700
M3S0
G4 P0.5; Tool On
G1 F300 Z0.0000
G1 F15000 X841.0000 Y970.5700 Z0.0000
M3S245
G4 P0.5; Tool Off

G0 Z0; move to z-safe height
G0 X841.0000 Y988.5700
M3S0
G4 P0.5; Tool On
G1 F300 Z0.0000
G1 F15000 X9.0000 Y988.5700 Z0.0000
M3S245
G4 P0.5; Tool Off

G0 Z0; move to z-safe height
G0 X9.0000 Y1006.5700
M3S0
G4 P0.5; Tool On
G1 F300 Z0.0000
G1 F15000 X841.0000 Y1006.5700 Z0.0000
M3S245
G4 P0.5; Tool Off

G0 Z0; move to z-safe height
G0 X841.0000 Y1024.5700
M3S0
G4 P0.5; Tool On
G1 F300 Z0.0000
G1 F15000 X9.0000 Y1024.5700 Z0.0000
M3S245
G4 P0.5; Tool Off

G0 Z0; move to z-safe height
G0 X9.0000 Y1042.5700
M3S0
G4 P0.5; Tool On
G1 F300 Z0.0000
G1 F15000 X841.0000 Y1042.5700 Z0.0000
M3S245
G4 P0.5; Tool Off

G0 Z0; move to z-safe height
G0 X841.0000 Y1060.5700
M3S0
G4 P0.5; Tool On
G1 F300 Z0.0000
G1 F15000 X9.0000 Y1060.5700 Z0.0000
M3S245
G4 P0.5; Tool Off

G0 Z0; move to z-safe height
G0 X9.0000 Y1078.5700
M3S0
G4 P0.5; Tool On
G1 F300 Z0.0000
G1 F15000 X841.0000 Y1078.5700 Z0.0000
M3S245
G4 P0.5; Tool Off

G0 Z0; move to z-safe height
G0 X841.0000 Y1096.5700
M3S0
G4 P0.5; Tool On
G1 F300 Z0.0000
G1 F15000 X9.0000 Y1096.5700 Z0.0000
M3S245
G4 P0.5; Tool Off

G0 Z0; move to z-safe height
G0 X9.0000 Y1114.5700
M3S0
G4 P0.5; Tool On
G1 F300 Z0.0000
G1 F15000 X841.0000 Y1114.5700 Z0.0000
M3S245
G4 P0.5; Tool Off

G0 Z0; move to z-safe height
G0 X841.0000 Y1132.5700
M3S0
G4 P0.5; Tool On
G1 F300 Z0.0000
G1 F15000 X9.0000 Y1132.5700 Z0.0000
M3S245
G4 P0.5; Tool Off
; retracting back to z-safe
G0 Z0

; Plotter Mode Complete
