; GCODE Generated by cam.openbuilds.com on 2023-12-16 
G21 ; mm-mode
G54; Work Coordinates
G21; mm-mode
G90; Absolute Positioning
; Plotter Mode Active

; Operation 0: Pen Plotter: (lines fill)
; Pen Diameter: 2

G0 Z0; move to z-safe height
G0 F1000 X847.0000 Y8.1800
M3S0
G4 P0.5; Tool On
G1 F300 Z0.0000
G1 F15000 X3.0000 Y8.1800 Z0.0000
M3S245
G4 P0.5; Tool Off

G0 Z0; move to z-safe height
G0 X3.0000 Y14.1800
M3S0
G4 P0.5; Tool On
G1 F300 Z0.0000
G1 F15000 X847.0000 Y14.1800 Z0.0000
M3S245
G4 P0.5; Tool Off

G0 Z0; move to z-safe height
G0 X847.0000 Y20.1800
M3S0
G4 P0.5; Tool On
G1 F300 Z0.0000
G1 F15000 X3.0000 Y20.1800 Z0.0000
M3S245
G4 P0.5; Tool Off

G0 Z0; move to z-safe height
G0 X3.0000 Y26.1800
M3S0
G4 P0.5; Tool On
G1 F300 Z0.0000
G1 F15000 X847.0000 Y26.1800 Z0.0000
M3S245
G4 P0.5; Tool Off

G0 Z0; move to z-safe height
G0 X847.0000 Y32.1800
M3S0
G4 P0.5; Tool On
G1 F300 Z0.0000
G1 F15000 X3.0000 Y32.1800 Z0.0000
M3S245
G4 P0.5; Tool Off

G0 Z0; move to z-safe height
G0 X3.0000 Y38.1800
M3S0
G4 P0.5; Tool On
G1 F300 Z0.0000
G1 F15000 X847.0000 Y38.1800 Z0.0000
M3S245
G4 P0.5; Tool Off

G0 Z0; move to z-safe height
G0 X847.0000 Y44.1800
M3S0
G4 P0.5; Tool On
G1 F300 Z0.0000
G1 F15000 X3.0000 Y44.1800 Z0.0000
M3S245
G4 P0.5; Tool Off

G0 Z0; move to z-safe height
G0 X3.0000 Y50.1800
M3S0
G4 P0.5; Tool On
G1 F300 Z0.0000
G1 F15000 X847.0000 Y50.1800 Z0.0000
M3S245
G4 P0.5; Tool Off

G0 Z0; move to z-safe height
G0 X847.0000 Y56.1800
M3S0
G4 P0.5; Tool On
G1 F300 Z0.0000
G1 F15000 X3.0000 Y56.1800 Z0.0000
M3S245
G4 P0.5; Tool Off

G0 Z0; move to z-safe height
G0 X3.0000 Y62.1800
M3S0
G4 P0.5; Tool On
G1 F300 Z0.0000
G1 F15000 X847.0000 Y62.1800 Z0.0000
M3S245
G4 P0.5; Tool Off

G0 Z0; move to z-safe height
G0 X847.0000 Y68.1800
M3S0
G4 P0.5; Tool On
G1 F300 Z0.0000
G1 F15000 X3.0000 Y68.1800 Z0.0000
M3S245
G4 P0.5; Tool Off

G0 Z0; move to z-safe height
G0 X3.0000 Y74.1800
M3S0
G4 P0.5; Tool On
G1 F300 Z0.0000
G1 F15000 X847.0000 Y74.1800 Z0.0000
M3S245
G4 P0.5; Tool Off

G0 Z0; move to z-safe height
G0 X847.0000 Y80.1800
M3S0
G4 P0.5; Tool On
G1 F300 Z0.0000
G1 F15000 X3.0000 Y80.1800 Z0.0000
M3S245
G4 P0.5; Tool Off

G0 Z0; move to z-safe height
G0 X3.0000 Y86.1800
M3S0
G4 P0.5; Tool On
G1 F300 Z0.0000
G1 F15000 X847.0000 Y86.1800 Z0.0000
M3S245
G4 P0.5; Tool Off

G0 Z0; move to z-safe height
G0 X847.0000 Y92.1800
M3S0
G4 P0.5; Tool On
G1 F300 Z0.0000
G1 F15000 X3.0000 Y92.1800 Z0.0000
M3S245
G4 P0.5; Tool Off

G0 Z0; move to z-safe height
G0 X3.0000 Y98.1800
M3S0
G4 P0.5; Tool On
G1 F300 Z0.0000
G1 F15000 X847.0000 Y98.1800 Z0.0000
M3S245
G4 P0.5; Tool Off

G0 Z0; move to z-safe height
G0 X847.0000 Y104.1800
M3S0
G4 P0.5; Tool On
G1 F300 Z0.0000
G1 F15000 X3.0000 Y104.1800 Z0.0000
M3S245
G4 P0.5; Tool Off

G0 Z0; move to z-safe height
G0 X3.0000 Y110.1800
M3S0
G4 P0.5; Tool On
G1 F300 Z0.0000
G1 F15000 X847.0000 Y110.1800 Z0.0000
M3S245
G4 P0.5; Tool Off

G0 Z0; move to z-safe height
G0 X847.0000 Y116.1800
M3S0
G4 P0.5; Tool On
G1 F300 Z0.0000
G1 F15000 X3.0000 Y116.1800 Z0.0000
M3S245
G4 P0.5; Tool Off

G0 Z0; move to z-safe height
G0 X3.0000 Y122.1800
M3S0
G4 P0.5; Tool On
G1 F300 Z0.0000
G1 F15000 X847.0000 Y122.1800 Z0.0000
M3S245
G4 P0.5; Tool Off

G0 Z0; move to z-safe height
G0 X847.0000 Y128.1800
M3S0
G4 P0.5; Tool On
G1 F300 Z0.0000
G1 F15000 X3.0000 Y128.1800 Z0.0000
M3S245
G4 P0.5; Tool Off

G0 Z0; move to z-safe height
G0 X3.0000 Y134.1800
M3S0
G4 P0.5; Tool On
G1 F300 Z0.0000
G1 F15000 X847.0000 Y134.1800 Z0.0000
M3S245
G4 P0.5; Tool Off

G0 Z0; move to z-safe height
G0 X847.0000 Y140.1800
M3S0
G4 P0.5; Tool On
G1 F300 Z0.0000
G1 F15000 X3.0000 Y140.1800 Z0.0000
M3S245
G4 P0.5; Tool Off

G0 Z0; move to z-safe height
G0 X3.0000 Y146.1800
M3S0
G4 P0.5; Tool On
G1 F300 Z0.0000
G1 F15000 X847.0000 Y146.1800 Z0.0000
M3S245
G4 P0.5; Tool Off

G0 Z0; move to z-safe height
G0 X847.0000 Y152.1800
M3S0
G4 P0.5; Tool On
G1 F300 Z0.0000
G1 F15000 X3.0000 Y152.1800 Z0.0000
M3S245
G4 P0.5; Tool Off

G0 Z0; move to z-safe height
G0 X3.0000 Y158.1800
M3S0
G4 P0.5; Tool On
G1 F300 Z0.0000
G1 F15000 X847.0000 Y158.1800 Z0.0000
M3S245
G4 P0.5; Tool Off

G0 Z0; move to z-safe height
G0 X847.0000 Y164.1800
M3S0
G4 P0.5; Tool On
G1 F300 Z0.0000
G1 F15000 X3.0000 Y164.1800 Z0.0000
M3S245
G4 P0.5; Tool Off

G0 Z0; move to z-safe height
G0 X3.0000 Y170.1800
M3S0
G4 P0.5; Tool On
G1 F300 Z0.0000
G1 F15000 X847.0000 Y170.1800 Z0.0000
M3S245
G4 P0.5; Tool Off

G0 Z0; move to z-safe height
G0 X847.0000 Y176.1800
M3S0
G4 P0.5; Tool On
G1 F300 Z0.0000
G1 F15000 X3.0000 Y176.1800 Z0.0000
M3S245
G4 P0.5; Tool Off

G0 Z0; move to z-safe height
G0 X3.0000 Y182.1800
M3S0
G4 P0.5; Tool On
G1 F300 Z0.0000
G1 F15000 X847.0000 Y182.1800 Z0.0000
M3S245
G4 P0.5; Tool Off

G0 Z0; move to z-safe height
G0 X847.0000 Y188.1800
M3S0
G4 P0.5; Tool On
G1 F300 Z0.0000
G1 F15000 X3.0000 Y188.1800 Z0.0000
M3S245
G4 P0.5; Tool Off

G0 Z0; move to z-safe height
G0 X3.0000 Y194.1800
M3S0
G4 P0.5; Tool On
G1 F300 Z0.0000
G1 F15000 X847.0000 Y194.1800 Z0.0000
M3S245
G4 P0.5; Tool Off

G0 Z0; move to z-safe height
G0 X847.0000 Y200.1800
M3S0
G4 P0.5; Tool On
G1 F300 Z0.0000
G1 F15000 X3.0000 Y200.1800 Z0.0000
M3S245
G4 P0.5; Tool Off

G0 Z0; move to z-safe height
G0 X3.0000 Y206.1800
M3S0
G4 P0.5; Tool On
G1 F300 Z0.0000
G1 F15000 X847.0000 Y206.1800 Z0.0000
M3S245
G4 P0.5; Tool Off

G0 Z0; move to z-safe height
G0 X847.0000 Y212.1800
M3S0
G4 P0.5; Tool On
G1 F300 Z0.0000
G1 F15000 X3.0000 Y212.1800 Z0.0000
M3S245
G4 P0.5; Tool Off

G0 Z0; move to z-safe height
G0 X3.0000 Y218.1800
M3S0
G4 P0.5; Tool On
G1 F300 Z0.0000
G1 F15000 X847.0000 Y218.1800 Z0.0000
M3S245
G4 P0.5; Tool Off

G0 Z0; move to z-safe height
G0 X847.0000 Y224.1800
M3S0
G4 P0.5; Tool On
G1 F300 Z0.0000
G1 F15000 X3.0000 Y224.1800 Z0.0000
M3S245
G4 P0.5; Tool Off

G0 Z0; move to z-safe height
G0 X3.0000 Y230.1800
M3S0
G4 P0.5; Tool On
G1 F300 Z0.0000
G1 F15000 X847.0000 Y230.1800 Z0.0000
M3S245
G4 P0.5; Tool Off

G0 Z0; move to z-safe height
G0 X847.0000 Y236.1800
M3S0
G4 P0.5; Tool On
G1 F300 Z0.0000
G1 F15000 X3.0000 Y236.1800 Z0.0000
M3S245
G4 P0.5; Tool Off

G0 Z0; move to z-safe height
G0 X3.0000 Y242.1800
M3S0
G4 P0.5; Tool On
G1 F300 Z0.0000
G1 F15000 X847.0000 Y242.1800 Z0.0000
M3S245
G4 P0.5; Tool Off

G0 Z0; move to z-safe height
G0 X847.0000 Y248.1800
M3S0
G4 P0.5; Tool On
G1 F300 Z0.0000
G1 F15000 X3.0000 Y248.1800 Z0.0000
M3S245
G4 P0.5; Tool Off

G0 Z0; move to z-safe height
G0 X3.0000 Y254.1800
M3S0
G4 P0.5; Tool On
G1 F300 Z0.0000
G1 F15000 X847.0000 Y254.1800 Z0.0000
M3S245
G4 P0.5; Tool Off

G0 Z0; move to z-safe height
G0 X847.0000 Y260.1800
M3S0
G4 P0.5; Tool On
G1 F300 Z0.0000
G1 F15000 X3.0000 Y260.1800 Z0.0000
M3S245
G4 P0.5; Tool Off

G0 Z0; move to z-safe height
G0 X3.0000 Y266.1800
M3S0
G4 P0.5; Tool On
G1 F300 Z0.0000
G1 F15000 X847.0000 Y266.1800 Z0.0000
M3S245
G4 P0.5; Tool Off

G0 Z0; move to z-safe height
G0 X847.0000 Y272.1800
M3S0
G4 P0.5; Tool On
G1 F300 Z0.0000
G1 F15000 X3.0000 Y272.1800 Z0.0000
M3S245
G4 P0.5; Tool Off

G0 Z0; move to z-safe height
G0 X3.0000 Y278.1800
M3S0
G4 P0.5; Tool On
G1 F300 Z0.0000
G1 F15000 X847.0000 Y278.1800 Z0.0000
M3S245
G4 P0.5; Tool Off

G0 Z0; move to z-safe height
G0 X847.0000 Y284.1800
M3S0
G4 P0.5; Tool On
G1 F300 Z0.0000
G1 F15000 X3.0000 Y284.1800 Z0.0000
M3S245
G4 P0.5; Tool Off

G0 Z0; move to z-safe height
G0 X3.0000 Y290.1800
M3S0
G4 P0.5; Tool On
G1 F300 Z0.0000
G1 F15000 X847.0000 Y290.1800 Z0.0000
M3S245
G4 P0.5; Tool Off

G0 Z0; move to z-safe height
G0 X847.0000 Y296.1800
M3S0
G4 P0.5; Tool On
G1 F300 Z0.0000
G1 F15000 X3.0000 Y296.1800 Z0.0000
M3S245
G4 P0.5; Tool Off

G0 Z0; move to z-safe height
G0 X3.0000 Y302.1800
M3S0
G4 P0.5; Tool On
G1 F300 Z0.0000
G1 F15000 X847.0000 Y302.1800 Z0.0000
M3S245
G4 P0.5; Tool Off

G0 Z0; move to z-safe height
G0 X847.0000 Y308.1800
M3S0
G4 P0.5; Tool On
G1 F300 Z0.0000
G1 F15000 X3.0000 Y308.1800 Z0.0000
M3S245
G4 P0.5; Tool Off

G0 Z0; move to z-safe height
G0 X3.0000 Y314.1800
M3S0
G4 P0.5; Tool On
G1 F300 Z0.0000
G1 F15000 X847.0000 Y314.1800 Z0.0000
M3S245
G4 P0.5; Tool Off

G0 Z0; move to z-safe height
G0 X847.0000 Y320.1800
M3S0
G4 P0.5; Tool On
G1 F300 Z0.0000
G1 F15000 X3.0000 Y320.1800 Z0.0000
M3S245
G4 P0.5; Tool Off

G0 Z0; move to z-safe height
G0 X3.0000 Y326.1800
M3S0
G4 P0.5; Tool On
G1 F300 Z0.0000
G1 F15000 X847.0000 Y326.1800 Z0.0000
M3S245
G4 P0.5; Tool Off

G0 Z0; move to z-safe height
G0 X847.0000 Y332.1800
M3S0
G4 P0.5; Tool On
G1 F300 Z0.0000
G1 F15000 X3.0000 Y332.1800 Z0.0000
M3S245
G4 P0.5; Tool Off

G0 Z0; move to z-safe height
G0 X3.0000 Y338.1800
M3S0
G4 P0.5; Tool On
G1 F300 Z0.0000
G1 F15000 X847.0000 Y338.1800 Z0.0000
M3S245
G4 P0.5; Tool Off

G0 Z0; move to z-safe height
G0 X847.0000 Y344.1800
M3S0
G4 P0.5; Tool On
G1 F300 Z0.0000
G1 F15000 X3.0000 Y344.1800 Z0.0000
M3S245
G4 P0.5; Tool Off

G0 Z0; move to z-safe height
G0 X3.0000 Y350.1800
M3S0
G4 P0.5; Tool On
G1 F300 Z0.0000
G1 F15000 X847.0000 Y350.1800 Z0.0000
M3S245
G4 P0.5; Tool Off

G0 Z0; move to z-safe height
G0 X847.0000 Y356.1800
M3S0
G4 P0.5; Tool On
G1 F300 Z0.0000
G1 F15000 X3.0000 Y356.1800 Z0.0000
M3S245
G4 P0.5; Tool Off

G0 Z0; move to z-safe height
G0 X3.0000 Y362.1800
M3S0
G4 P0.5; Tool On
G1 F300 Z0.0000
G1 F15000 X847.0000 Y362.1800 Z0.0000
M3S245
G4 P0.5; Tool Off

G0 Z0; move to z-safe height
G0 X847.0000 Y368.1800
M3S0
G4 P0.5; Tool On
G1 F300 Z0.0000
G1 F15000 X3.0000 Y368.1800 Z0.0000
M3S245
G4 P0.5; Tool Off

G0 Z0; move to z-safe height
G0 X3.0000 Y374.1800
M3S0
G4 P0.5; Tool On
G1 F300 Z0.0000
G1 F15000 X847.0000 Y374.1800 Z0.0000
M3S245
G4 P0.5; Tool Off

G0 Z0; move to z-safe height
G0 X847.0000 Y380.1800
M3S0
G4 P0.5; Tool On
G1 F300 Z0.0000
G1 F15000 X3.0000 Y380.1800 Z0.0000
M3S245
G4 P0.5; Tool Off

G0 Z0; move to z-safe height
G0 X3.0000 Y386.1800
M3S0
G4 P0.5; Tool On
G1 F300 Z0.0000
G1 F15000 X847.0000 Y386.1800 Z0.0000
M3S245
G4 P0.5; Tool Off

G0 Z0; move to z-safe height
G0 X847.0000 Y392.1800
M3S0
G4 P0.5; Tool On
G1 F300 Z0.0000
G1 F15000 X3.0000 Y392.1800 Z0.0000
M3S245
G4 P0.5; Tool Off

G0 Z0; move to z-safe height
G0 X3.0000 Y398.1800
M3S0
G4 P0.5; Tool On
G1 F300 Z0.0000
G1 F15000 X847.0000 Y398.1800 Z0.0000
M3S245
G4 P0.5; Tool Off

G0 Z0; move to z-safe height
G0 X847.0000 Y404.1800
M3S0
G4 P0.5; Tool On
G1 F300 Z0.0000
G1 F15000 X3.0000 Y404.1800 Z0.0000
M3S245
G4 P0.5; Tool Off

G0 Z0; move to z-safe height
G0 X3.0000 Y410.1800
M3S0
G4 P0.5; Tool On
G1 F300 Z0.0000
G1 F15000 X847.0000 Y410.1800 Z0.0000
M3S245
G4 P0.5; Tool Off

G0 Z0; move to z-safe height
G0 X847.0000 Y416.1800
M3S0
G4 P0.5; Tool On
G1 F300 Z0.0000
G1 F15000 X3.0000 Y416.1800 Z0.0000
M3S245
G4 P0.5; Tool Off

G0 Z0; move to z-safe height
G0 X3.0000 Y422.1800
M3S0
G4 P0.5; Tool On
G1 F300 Z0.0000
G1 F15000 X847.0000 Y422.1800 Z0.0000
M3S245
G4 P0.5; Tool Off

G0 Z0; move to z-safe height
G0 X847.0000 Y428.1800
M3S0
G4 P0.5; Tool On
G1 F300 Z0.0000
G1 F15000 X3.0000 Y428.1800 Z0.0000
M3S245
G4 P0.5; Tool Off

G0 Z0; move to z-safe height
G0 X3.0000 Y434.1800
M3S0
G4 P0.5; Tool On
G1 F300 Z0.0000
G1 F15000 X847.0000 Y434.1800 Z0.0000
M3S245
G4 P0.5; Tool Off

G0 Z0; move to z-safe height
G0 X847.0000 Y440.1800
M3S0
G4 P0.5; Tool On
G1 F300 Z0.0000
G1 F15000 X3.0000 Y440.1800 Z0.0000
M3S245
G4 P0.5; Tool Off

G0 Z0; move to z-safe height
G0 X3.0000 Y446.1800
M3S0
G4 P0.5; Tool On
G1 F300 Z0.0000
G1 F15000 X847.0000 Y446.1800 Z0.0000
M3S245
G4 P0.5; Tool Off

G0 Z0; move to z-safe height
G0 X847.0000 Y452.1800
M3S0
G4 P0.5; Tool On
G1 F300 Z0.0000
G1 F15000 X3.0000 Y452.1800 Z0.0000
M3S245
G4 P0.5; Tool Off

G0 Z0; move to z-safe height
G0 X3.0000 Y458.1800
M3S0
G4 P0.5; Tool On
G1 F300 Z0.0000
G1 F15000 X847.0000 Y458.1800 Z0.0000
M3S245
G4 P0.5; Tool Off

G0 Z0; move to z-safe height
G0 X847.0000 Y464.1800
M3S0
G4 P0.5; Tool On
G1 F300 Z0.0000
G1 F15000 X3.0000 Y464.1800 Z0.0000
M3S245
G4 P0.5; Tool Off

G0 Z0; move to z-safe height
G0 X3.0000 Y470.1800
M3S0
G4 P0.5; Tool On
G1 F300 Z0.0000
G1 F15000 X847.0000 Y470.1800 Z0.0000
M3S245
G4 P0.5; Tool Off

G0 Z0; move to z-safe height
G0 X847.0000 Y476.1800
M3S0
G4 P0.5; Tool On
G1 F300 Z0.0000
G1 F15000 X3.0000 Y476.1800 Z0.0000
M3S245
G4 P0.5; Tool Off

G0 Z0; move to z-safe height
G0 X3.0000 Y482.1800
M3S0
G4 P0.5; Tool On
G1 F300 Z0.0000
G1 F15000 X847.0000 Y482.1800 Z0.0000
M3S245
G4 P0.5; Tool Off

G0 Z0; move to z-safe height
G0 X847.0000 Y488.1800
M3S0
G4 P0.5; Tool On
G1 F300 Z0.0000
G1 F15000 X3.0000 Y488.1800 Z0.0000
M3S245
G4 P0.5; Tool Off

G0 Z0; move to z-safe height
G0 X3.0000 Y494.1800
M3S0
G4 P0.5; Tool On
G1 F300 Z0.0000
G1 F15000 X847.0000 Y494.1800 Z0.0000
M3S245
G4 P0.5; Tool Off

G0 Z0; move to z-safe height
G0 X847.0000 Y500.1800
M3S0
G4 P0.5; Tool On
G1 F300 Z0.0000
G1 F15000 X3.0000 Y500.1800 Z0.0000
M3S245
G4 P0.5; Tool Off

G0 Z0; move to z-safe height
G0 X3.0000 Y506.1800
M3S0
G4 P0.5; Tool On
G1 F300 Z0.0000
G1 F15000 X847.0000 Y506.1800 Z0.0000
M3S245
G4 P0.5; Tool Off

G0 Z0; move to z-safe height
G0 X847.0000 Y512.1800
M3S0
G4 P0.5; Tool On
G1 F300 Z0.0000
G1 F15000 X3.0000 Y512.1800 Z0.0000
M3S245
G4 P0.5; Tool Off

G0 Z0; move to z-safe height
G0 X3.0000 Y518.1800
M3S0
G4 P0.5; Tool On
G1 F300 Z0.0000
G1 F15000 X847.0000 Y518.1800 Z0.0000
M3S245
G4 P0.5; Tool Off

G0 Z0; move to z-safe height
G0 X847.0000 Y524.1800
M3S0
G4 P0.5; Tool On
G1 F300 Z0.0000
G1 F15000 X3.0000 Y524.1800 Z0.0000
M3S245
G4 P0.5; Tool Off

G0 Z0; move to z-safe height
G0 X3.0000 Y530.1800
M3S0
G4 P0.5; Tool On
G1 F300 Z0.0000
G1 F15000 X847.0000 Y530.1800 Z0.0000
M3S245
G4 P0.5; Tool Off

G0 Z0; move to z-safe height
G0 X847.0000 Y536.1800
M3S0
G4 P0.5; Tool On
G1 F300 Z0.0000
G1 F15000 X3.0000 Y536.1800 Z0.0000
M3S245
G4 P0.5; Tool Off

G0 Z0; move to z-safe height
G0 X3.0000 Y542.1800
M3S0
G4 P0.5; Tool On
G1 F300 Z0.0000
G1 F15000 X847.0000 Y542.1800 Z0.0000
M3S245
G4 P0.5; Tool Off

G0 Z0; move to z-safe height
G0 X847.0000 Y548.1800
M3S0
G4 P0.5; Tool On
G1 F300 Z0.0000
G1 F15000 X3.0000 Y548.1800 Z0.0000
M3S245
G4 P0.5; Tool Off

G0 Z0; move to z-safe height
G0 X3.0000 Y554.1800
M3S0
G4 P0.5; Tool On
G1 F300 Z0.0000
G1 F15000 X847.0000 Y554.1800 Z0.0000
M3S245
G4 P0.5; Tool Off

G0 Z0; move to z-safe height
G0 X847.0000 Y560.1800
M3S0
G4 P0.5; Tool On
G1 F300 Z0.0000
G1 F15000 X3.0000 Y560.1800 Z0.0000
M3S245
G4 P0.5; Tool Off

G0 Z0; move to z-safe height
G0 X3.0000 Y566.1800
M3S0
G4 P0.5; Tool On
G1 F300 Z0.0000
G1 F15000 X847.0000 Y566.1800 Z0.0000
M3S245
G4 P0.5; Tool Off

G0 Z0; move to z-safe height
G0 X847.0000 Y572.1800
M3S0
G4 P0.5; Tool On
G1 F300 Z0.0000
G1 F15000 X3.0000 Y572.1800 Z0.0000
M3S245
G4 P0.5; Tool Off

G0 Z0; move to z-safe height
G0 X3.0000 Y578.1800
M3S0
G4 P0.5; Tool On
G1 F300 Z0.0000
G1 F15000 X847.0000 Y578.1800 Z0.0000
M3S245
G4 P0.5; Tool Off

G0 Z0; move to z-safe height
G0 X847.0000 Y584.1800
M3S0
G4 P0.5; Tool On
G1 F300 Z0.0000
G1 F15000 X3.0000 Y584.1800 Z0.0000
M3S245
G4 P0.5; Tool Off

G0 Z0; move to z-safe height
G0 X3.0000 Y590.1800
M3S0
G4 P0.5; Tool On
G1 F300 Z0.0000
G1 F15000 X847.0000 Y590.1800 Z0.0000
M3S245
G4 P0.5; Tool Off

G0 Z0; move to z-safe height
G0 X847.0000 Y596.1800
M3S0
G4 P0.5; Tool On
G1 F300 Z0.0000
G1 F15000 X3.0000 Y596.1800 Z0.0000
M3S245
G4 P0.5; Tool Off

G0 Z0; move to z-safe height
G0 X3.0000 Y602.1800
M3S0
G4 P0.5; Tool On
G1 F300 Z0.0000
G1 F15000 X847.0000 Y602.1800 Z0.0000
M3S245
G4 P0.5; Tool Off

G0 Z0; move to z-safe height
G0 X847.0000 Y608.1800
M3S0
G4 P0.5; Tool On
G1 F300 Z0.0000
G1 F15000 X3.0000 Y608.1800 Z0.0000
M3S245
G4 P0.5; Tool Off

G0 Z0; move to z-safe height
G0 X3.0000 Y614.1800
M3S0
G4 P0.5; Tool On
G1 F300 Z0.0000
G1 F15000 X847.0000 Y614.1800 Z0.0000
M3S245
G4 P0.5; Tool Off

G0 Z0; move to z-safe height
G0 X847.0000 Y620.1800
M3S0
G4 P0.5; Tool On
G1 F300 Z0.0000
G1 F15000 X3.0000 Y620.1800 Z0.0000
M3S245
G4 P0.5; Tool Off

G0 Z0; move to z-safe height
G0 X3.0000 Y626.1800
M3S0
G4 P0.5; Tool On
G1 F300 Z0.0000
G1 F15000 X847.0000 Y626.1800 Z0.0000
M3S245
G4 P0.5; Tool Off

G0 Z0; move to z-safe height
G0 X847.0000 Y632.1800
M3S0
G4 P0.5; Tool On
G1 F300 Z0.0000
G1 F15000 X3.0000 Y632.1800 Z0.0000
M3S245
G4 P0.5; Tool Off

G0 Z0; move to z-safe height
G0 X3.0000 Y638.1800
M3S0
G4 P0.5; Tool On
G1 F300 Z0.0000
G1 F15000 X847.0000 Y638.1800 Z0.0000
M3S245
G4 P0.5; Tool Off

G0 Z0; move to z-safe height
G0 X847.0000 Y644.1800
M3S0
G4 P0.5; Tool On
G1 F300 Z0.0000
G1 F15000 X3.0000 Y644.1800 Z0.0000
M3S245
G4 P0.5; Tool Off

G0 Z0; move to z-safe height
G0 X3.0000 Y650.1800
M3S0
G4 P0.5; Tool On
G1 F300 Z0.0000
G1 F15000 X847.0000 Y650.1800 Z0.0000
M3S245
G4 P0.5; Tool Off

G0 Z0; move to z-safe height
G0 X847.0000 Y656.1800
M3S0
G4 P0.5; Tool On
G1 F300 Z0.0000
G1 F15000 X3.0000 Y656.1800 Z0.0000
M3S245
G4 P0.5; Tool Off

G0 Z0; move to z-safe height
G0 X3.0000 Y662.1800
M3S0
G4 P0.5; Tool On
G1 F300 Z0.0000
G1 F15000 X847.0000 Y662.1800 Z0.0000
M3S245
G4 P0.5; Tool Off

G0 Z0; move to z-safe height
G0 X847.0000 Y668.1800
M3S0
G4 P0.5; Tool On
G1 F300 Z0.0000
G1 F15000 X3.0000 Y668.1800 Z0.0000
M3S245
G4 P0.5; Tool Off

G0 Z0; move to z-safe height
G0 X3.0000 Y674.1800
M3S0
G4 P0.5; Tool On
G1 F300 Z0.0000
G1 F15000 X847.0000 Y674.1800 Z0.0000
M3S245
G4 P0.5; Tool Off

G0 Z0; move to z-safe height
G0 X847.0000 Y680.1800
M3S0
G4 P0.5; Tool On
G1 F300 Z0.0000
G1 F15000 X3.0000 Y680.1800 Z0.0000
M3S245
G4 P0.5; Tool Off

G0 Z0; move to z-safe height
G0 X3.0000 Y686.1800
M3S0
G4 P0.5; Tool On
G1 F300 Z0.0000
G1 F15000 X847.0000 Y686.1800 Z0.0000
M3S245
G4 P0.5; Tool Off

G0 Z0; move to z-safe height
G0 X847.0000 Y692.1800
M3S0
G4 P0.5; Tool On
G1 F300 Z0.0000
G1 F15000 X3.0000 Y692.1800 Z0.0000
M3S245
G4 P0.5; Tool Off

G0 Z0; move to z-safe height
G0 X3.0000 Y698.1800
M3S0
G4 P0.5; Tool On
G1 F300 Z0.0000
G1 F15000 X847.0000 Y698.1800 Z0.0000
M3S245
G4 P0.5; Tool Off

G0 Z0; move to z-safe height
G0 X847.0000 Y704.1800
M3S0
G4 P0.5; Tool On
G1 F300 Z0.0000
G1 F15000 X3.0000 Y704.1800 Z0.0000
M3S245
G4 P0.5; Tool Off

G0 Z0; move to z-safe height
G0 X3.0000 Y710.1800
M3S0
G4 P0.5; Tool On
G1 F300 Z0.0000
G1 F15000 X847.0000 Y710.1800 Z0.0000
M3S245
G4 P0.5; Tool Off

G0 Z0; move to z-safe height
G0 X847.0000 Y716.1800
M3S0
G4 P0.5; Tool On
G1 F300 Z0.0000
G1 F15000 X3.0000 Y716.1800 Z0.0000
M3S245
G4 P0.5; Tool Off

G0 Z0; move to z-safe height
G0 X3.0000 Y722.1800
M3S0
G4 P0.5; Tool On
G1 F300 Z0.0000
G1 F15000 X847.0000 Y722.1800 Z0.0000
M3S245
G4 P0.5; Tool Off

G0 Z0; move to z-safe height
G0 X847.0000 Y728.1800
M3S0
G4 P0.5; Tool On
G1 F300 Z0.0000
G1 F15000 X3.0000 Y728.1800 Z0.0000
M3S245
G4 P0.5; Tool Off

G0 Z0; move to z-safe height
G0 X3.0000 Y734.1800
M3S0
G4 P0.5; Tool On
G1 F300 Z0.0000
G1 F15000 X847.0000 Y734.1800 Z0.0000
M3S245
G4 P0.5; Tool Off

G0 Z0; move to z-safe height
G0 X847.0000 Y740.1800
M3S0
G4 P0.5; Tool On
G1 F300 Z0.0000
G1 F15000 X3.0000 Y740.1800 Z0.0000
M3S245
G4 P0.5; Tool Off

G0 Z0; move to z-safe height
G0 X3.0000 Y746.1800
M3S0
G4 P0.5; Tool On
G1 F300 Z0.0000
G1 F15000 X847.0000 Y746.1800 Z0.0000
M3S245
G4 P0.5; Tool Off

G0 Z0; move to z-safe height
G0 X847.0000 Y752.1800
M3S0
G4 P0.5; Tool On
G1 F300 Z0.0000
G1 F15000 X3.0000 Y752.1800 Z0.0000
M3S245
G4 P0.5; Tool Off

G0 Z0; move to z-safe height
G0 X3.0000 Y758.1800
M3S0
G4 P0.5; Tool On
G1 F300 Z0.0000
G1 F15000 X847.0000 Y758.1800 Z0.0000
M3S245
G4 P0.5; Tool Off

G0 Z0; move to z-safe height
G0 X847.0000 Y764.1800
M3S0
G4 P0.5; Tool On
G1 F300 Z0.0000
G1 F15000 X3.0000 Y764.1800 Z0.0000
M3S245
G4 P0.5; Tool Off

G0 Z0; move to z-safe height
G0 X3.0000 Y770.1800
M3S0
G4 P0.5; Tool On
G1 F300 Z0.0000
G1 F15000 X847.0000 Y770.1800 Z0.0000
M3S245
G4 P0.5; Tool Off

G0 Z0; move to z-safe height
G0 X847.0000 Y776.1800
M3S0
G4 P0.5; Tool On
G1 F300 Z0.0000
G1 F15000 X3.0000 Y776.1800 Z0.0000
M3S245
G4 P0.5; Tool Off

G0 Z0; move to z-safe height
G0 X3.0000 Y782.1800
M3S0
G4 P0.5; Tool On
G1 F300 Z0.0000
G1 F15000 X847.0000 Y782.1800 Z0.0000
M3S245
G4 P0.5; Tool Off

G0 Z0; move to z-safe height
G0 X847.0000 Y788.1800
M3S0
G4 P0.5; Tool On
G1 F300 Z0.0000
G1 F15000 X3.0000 Y788.1800 Z0.0000
M3S245
G4 P0.5; Tool Off

G0 Z0; move to z-safe height
G0 X3.0000 Y794.1800
M3S0
G4 P0.5; Tool On
G1 F300 Z0.0000
G1 F15000 X847.0000 Y794.1800 Z0.0000
M3S245
G4 P0.5; Tool Off

G0 Z0; move to z-safe height
G0 X847.0000 Y800.1800
M3S0
G4 P0.5; Tool On
G1 F300 Z0.0000
G1 F15000 X3.0000 Y800.1800 Z0.0000
M3S245
G4 P0.5; Tool Off

G0 Z0; move to z-safe height
G0 X3.0000 Y806.1800
M3S0
G4 P0.5; Tool On
G1 F300 Z0.0000
G1 F15000 X847.0000 Y806.1800 Z0.0000
M3S245
G4 P0.5; Tool Off

G0 Z0; move to z-safe height
G0 X847.0000 Y812.1800
M3S0
G4 P0.5; Tool On
G1 F300 Z0.0000
G1 F15000 X3.0000 Y812.1800 Z0.0000
M3S245
G4 P0.5; Tool Off

G0 Z0; move to z-safe height
G0 X3.0000 Y818.1800
M3S0
G4 P0.5; Tool On
G1 F300 Z0.0000
G1 F15000 X847.0000 Y818.1800 Z0.0000
M3S245
G4 P0.5; Tool Off

G0 Z0; move to z-safe height
G0 X847.0000 Y824.1800
M3S0
G4 P0.5; Tool On
G1 F300 Z0.0000
G1 F15000 X3.0000 Y824.1800 Z0.0000
M3S245
G4 P0.5; Tool Off

G0 Z0; move to z-safe height
G0 X3.0000 Y830.1800
M3S0
G4 P0.5; Tool On
G1 F300 Z0.0000
G1 F15000 X847.0000 Y830.1800 Z0.0000
M3S245
G4 P0.5; Tool Off

G0 Z0; move to z-safe height
G0 X847.0000 Y836.1800
M3S0
G4 P0.5; Tool On
G1 F300 Z0.0000
G1 F15000 X3.0000 Y836.1800 Z0.0000
M3S245
G4 P0.5; Tool Off

G0 Z0; move to z-safe height
G0 X3.0000 Y842.1800
M3S0
G4 P0.5; Tool On
G1 F300 Z0.0000
G1 F15000 X847.0000 Y842.1800 Z0.0000
M3S245
G4 P0.5; Tool Off

G0 Z0; move to z-safe height
G0 X847.0000 Y848.1800
M3S0
G4 P0.5; Tool On
G1 F300 Z0.0000
G1 F15000 X3.0000 Y848.1800 Z0.0000
M3S245
G4 P0.5; Tool Off

G0 Z0; move to z-safe height
G0 X3.0000 Y854.1800
M3S0
G4 P0.5; Tool On
G1 F300 Z0.0000
G1 F15000 X847.0000 Y854.1800 Z0.0000
M3S245
G4 P0.5; Tool Off

G0 Z0; move to z-safe height
G0 X847.0000 Y860.1800
M3S0
G4 P0.5; Tool On
G1 F300 Z0.0000
G1 F15000 X3.0000 Y860.1800 Z0.0000
M3S245
G4 P0.5; Tool Off

G0 Z0; move to z-safe height
G0 X3.0000 Y866.1800
M3S0
G4 P0.5; Tool On
G1 F300 Z0.0000
G1 F15000 X847.0000 Y866.1800 Z0.0000
M3S245
G4 P0.5; Tool Off

G0 Z0; move to z-safe height
G0 X847.0000 Y872.1800
M3S0
G4 P0.5; Tool On
G1 F300 Z0.0000
G1 F15000 X3.0000 Y872.1800 Z0.0000
M3S245
G4 P0.5; Tool Off

G0 Z0; move to z-safe height
G0 X3.0000 Y878.1800
M3S0
G4 P0.5; Tool On
G1 F300 Z0.0000
G1 F15000 X847.0000 Y878.1800 Z0.0000
M3S245
G4 P0.5; Tool Off

G0 Z0; move to z-safe height
G0 X847.0000 Y884.1800
M3S0
G4 P0.5; Tool On
G1 F300 Z0.0000
G1 F15000 X3.0000 Y884.1800 Z0.0000
M3S245
G4 P0.5; Tool Off

G0 Z0; move to z-safe height
G0 X3.0000 Y890.1800
M3S0
G4 P0.5; Tool On
G1 F300 Z0.0000
G1 F15000 X847.0000 Y890.1800 Z0.0000
M3S245
G4 P0.5; Tool Off

G0 Z0; move to z-safe height
G0 X847.0000 Y896.1800
M3S0
G4 P0.5; Tool On
G1 F300 Z0.0000
G1 F15000 X3.0000 Y896.1800 Z0.0000
M3S245
G4 P0.5; Tool Off

G0 Z0; move to z-safe height
G0 X3.0000 Y902.1800
M3S0
G4 P0.5; Tool On
G1 F300 Z0.0000
G1 F15000 X847.0000 Y902.1800 Z0.0000
M3S245
G4 P0.5; Tool Off

G0 Z0; move to z-safe height
G0 X847.0000 Y908.1800
M3S0
G4 P0.5; Tool On
G1 F300 Z0.0000
G1 F15000 X3.0000 Y908.1800 Z0.0000
M3S245
G4 P0.5; Tool Off

G0 Z0; move to z-safe height
G0 X3.0000 Y914.1800
M3S0
G4 P0.5; Tool On
G1 F300 Z0.0000
G1 F15000 X847.0000 Y914.1800 Z0.0000
M3S245
G4 P0.5; Tool Off

G0 Z0; move to z-safe height
G0 X847.0000 Y920.1800
M3S0
G4 P0.5; Tool On
G1 F300 Z0.0000
G1 F15000 X3.0000 Y920.1800 Z0.0000
M3S245
G4 P0.5; Tool Off

G0 Z0; move to z-safe height
G0 X3.0000 Y926.1800
M3S0
G4 P0.5; Tool On
G1 F300 Z0.0000
G1 F15000 X847.0000 Y926.1800 Z0.0000
M3S245
G4 P0.5; Tool Off

G0 Z0; move to z-safe height
G0 X847.0000 Y932.1800
M3S0
G4 P0.5; Tool On
G1 F300 Z0.0000
G1 F15000 X3.0000 Y932.1800 Z0.0000
M3S245
G4 P0.5; Tool Off

G0 Z0; move to z-safe height
G0 X3.0000 Y938.1800
M3S0
G4 P0.5; Tool On
G1 F300 Z0.0000
G1 F15000 X847.0000 Y938.1800 Z0.0000
M3S245
G4 P0.5; Tool Off

G0 Z0; move to z-safe height
G0 X847.0000 Y944.1800
M3S0
G4 P0.5; Tool On
G1 F300 Z0.0000
G1 F15000 X3.0000 Y944.1800 Z0.0000
M3S245
G4 P0.5; Tool Off

G0 Z0; move to z-safe height
G0 X3.0000 Y950.1800
M3S0
G4 P0.5; Tool On
G1 F300 Z0.0000
G1 F15000 X847.0000 Y950.1800 Z0.0000
M3S245
G4 P0.5; Tool Off

G0 Z0; move to z-safe height
G0 X847.0000 Y956.1800
M3S0
G4 P0.5; Tool On
G1 F300 Z0.0000
G1 F15000 X3.0000 Y956.1800 Z0.0000
M3S245
G4 P0.5; Tool Off

G0 Z0; move to z-safe height
G0 X3.0000 Y962.1800
M3S0
G4 P0.5; Tool On
G1 F300 Z0.0000
G1 F15000 X847.0000 Y962.1800 Z0.0000
M3S245
G4 P0.5; Tool Off

G0 Z0; move to z-safe height
G0 X847.0000 Y968.1800
M3S0
G4 P0.5; Tool On
G1 F300 Z0.0000
G1 F15000 X3.0000 Y968.1800 Z0.0000
M3S245
G4 P0.5; Tool Off

G0 Z0; move to z-safe height
G0 X3.0000 Y974.1800
M3S0
G4 P0.5; Tool On
G1 F300 Z0.0000
G1 F15000 X847.0000 Y974.1800 Z0.0000
M3S245
G4 P0.5; Tool Off

G0 Z0; move to z-safe height
G0 X847.0000 Y980.1800
M3S0
G4 P0.5; Tool On
G1 F300 Z0.0000
G1 F15000 X3.0000 Y980.1800 Z0.0000
M3S245
G4 P0.5; Tool Off

G0 Z0; move to z-safe height
G0 X3.0000 Y986.1800
M3S0
G4 P0.5; Tool On
G1 F300 Z0.0000
G1 F15000 X847.0000 Y986.1800 Z0.0000
M3S245
G4 P0.5; Tool Off

G0 Z0; move to z-safe height
G0 X847.0000 Y992.1800
M3S0
G4 P0.5; Tool On
G1 F300 Z0.0000
G1 F15000 X3.0000 Y992.1800 Z0.0000
M3S245
G4 P0.5; Tool Off

G0 Z0; move to z-safe height
G0 X3.0000 Y998.1800
M3S0
G4 P0.5; Tool On
G1 F300 Z0.0000
G1 F15000 X847.0000 Y998.1800 Z0.0000
M3S245
G4 P0.5; Tool Off

G0 Z0; move to z-safe height
G0 X847.0000 Y1004.1800
M3S0
G4 P0.5; Tool On
G1 F300 Z0.0000
G1 F15000 X3.0000 Y1004.1800 Z0.0000
M3S245
G4 P0.5; Tool Off

G0 Z0; move to z-safe height
G0 X3.0000 Y1010.1800
M3S0
G4 P0.5; Tool On
G1 F300 Z0.0000
G1 F15000 X847.0000 Y1010.1800 Z0.0000
M3S245
G4 P0.5; Tool Off

G0 Z0; move to z-safe height
G0 X847.0000 Y1016.1800
M3S0
G4 P0.5; Tool On
G1 F300 Z0.0000
G1 F15000 X3.0000 Y1016.1800 Z0.0000
M3S245
G4 P0.5; Tool Off

G0 Z0; move to z-safe height
G0 X3.0000 Y1022.1800
M3S0
G4 P0.5; Tool On
G1 F300 Z0.0000
G1 F15000 X847.0000 Y1022.1800 Z0.0000
M3S245
G4 P0.5; Tool Off

G0 Z0; move to z-safe height
G0 X847.0000 Y1028.1800
M3S0
G4 P0.5; Tool On
G1 F300 Z0.0000
G1 F15000 X3.0000 Y1028.1800 Z0.0000
M3S245
G4 P0.5; Tool Off

G0 Z0; move to z-safe height
G0 X3.0000 Y1034.1800
M3S0
G4 P0.5; Tool On
G1 F300 Z0.0000
G1 F15000 X847.0000 Y1034.1800 Z0.0000
M3S245
G4 P0.5; Tool Off

G0 Z0; move to z-safe height
G0 X847.0000 Y1040.1800
M3S0
G4 P0.5; Tool On
G1 F300 Z0.0000
G1 F15000 X3.0000 Y1040.1800 Z0.0000
M3S245
G4 P0.5; Tool Off

G0 Z0; move to z-safe height
G0 X3.0000 Y1046.1800
M3S0
G4 P0.5; Tool On
G1 F300 Z0.0000
G1 F15000 X847.0000 Y1046.1800 Z0.0000
M3S245
G4 P0.5; Tool Off

G0 Z0; move to z-safe height
G0 X847.0000 Y1052.1800
M3S0
G4 P0.5; Tool On
G1 F300 Z0.0000
G1 F15000 X3.0000 Y1052.1800 Z0.0000
M3S245
G4 P0.5; Tool Off

G0 Z0; move to z-safe height
G0 X3.0000 Y1058.1800
M3S0
G4 P0.5; Tool On
G1 F300 Z0.0000
G1 F15000 X847.0000 Y1058.1800 Z0.0000
M3S245
G4 P0.5; Tool Off

G0 Z0; move to z-safe height
G0 X847.0000 Y1064.1800
M3S0
G4 P0.5; Tool On
G1 F300 Z0.0000
G1 F15000 X3.0000 Y1064.1800 Z0.0000
M3S245
G4 P0.5; Tool Off

G0 Z0; move to z-safe height
G0 X3.0000 Y1070.1800
M3S0
G4 P0.5; Tool On
G1 F300 Z0.0000
G1 F15000 X847.0000 Y1070.1800 Z0.0000
M3S245
G4 P0.5; Tool Off

G0 Z0; move to z-safe height
G0 X847.0000 Y1076.1800
M3S0
G4 P0.5; Tool On
G1 F300 Z0.0000
G1 F15000 X3.0000 Y1076.1800 Z0.0000
M3S245
G4 P0.5; Tool Off

G0 Z0; move to z-safe height
G0 X3.0000 Y1082.1800
M3S0
G4 P0.5; Tool On
G1 F300 Z0.0000
G1 F15000 X847.0000 Y1082.1800 Z0.0000
M3S245
G4 P0.5; Tool Off

G0 Z0; move to z-safe height
G0 X847.0000 Y1088.1800
M3S0
G4 P0.5; Tool On
G1 F300 Z0.0000
G1 F15000 X3.0000 Y1088.1800 Z0.0000
M3S245
G4 P0.5; Tool Off

G0 Z0; move to z-safe height
G0 X3.0000 Y1094.1800
M3S0
G4 P0.5; Tool On
G1 F300 Z0.0000
G1 F15000 X847.0000 Y1094.1800 Z0.0000
M3S245
G4 P0.5; Tool Off

G0 Z0; move to z-safe height
G0 X847.0000 Y1100.1800
M3S0
G4 P0.5; Tool On
G1 F300 Z0.0000
G1 F15000 X3.0000 Y1100.1800 Z0.0000
M3S245
G4 P0.5; Tool Off

G0 Z0; move to z-safe height
G0 X3.0000 Y1106.1800
M3S0
G4 P0.5; Tool On
G1 F300 Z0.0000
G1 F15000 X847.0000 Y1106.1800 Z0.0000
M3S245
G4 P0.5; Tool Off

G0 Z0; move to z-safe height
G0 X847.0000 Y1112.1800
M3S0
G4 P0.5; Tool On
G1 F300 Z0.0000
G1 F15000 X3.0000 Y1112.1800 Z0.0000
M3S245
G4 P0.5; Tool Off

G0 Z0; move to z-safe height
G0 X3.0000 Y1118.1800
M3S0
G4 P0.5; Tool On
G1 F300 Z0.0000
G1 F15000 X847.0000 Y1118.1800 Z0.0000
M3S245
G4 P0.5; Tool Off

G0 Z0; move to z-safe height
G0 X847.0000 Y1124.1800
M3S0
G4 P0.5; Tool On
G1 F300 Z0.0000
G1 F15000 X3.0000 Y1124.1800 Z0.0000
M3S245
G4 P0.5; Tool Off

G0 Z0; move to z-safe height
G0 X3.0000 Y1130.1800
M3S0
G4 P0.5; Tool On
G1 F300 Z0.0000
G1 F15000 X847.0000 Y1130.1800 Z0.0000
M3S245
G4 P0.5; Tool Off

G0 Z0; move to z-safe height
G0 X847.0000 Y1136.1800
M3S0
G4 P0.5; Tool On
G1 F300 Z0.0000
G1 F15000 X3.0000 Y1136.1800 Z0.0000
M3S245
G4 P0.5; Tool Off

G0 Z0; move to z-safe height
G0 X3.0000 Y1142.1800
M3S0
G4 P0.5; Tool On
G1 F300 Z0.0000
G1 F15000 X847.0000 Y1142.1800 Z0.0000
M3S245
G4 P0.5; Tool Off
; retracting back to z-safe
G0 Z0

; Plotter Mode Complete
