; GCODE Generated by cam.openbuilds.com on 2023-12-16 
G21 ; mm-mode
G54; Work Coordinates
G21; mm-mode
G90; Absolute Positioning
; Plotter Mode Active

; Operation 0: Pen Plotter: (lines fill)
; Pen Diameter: 2

G0 Z0; move to z-safe height
G0 F1000 X843.0000 Y9.7700
M3S0
G4 P0.5; Tool On
G1 F300 Z0.0000
G1 F15000 X7.0000 Y9.7700 Z0.0000
M3S245
G4 P0.5; Tool Off

G0 Z0; move to z-safe height
G0 X7.0000 Y23.7700
M3S0
G4 P0.5; Tool On
G1 F300 Z0.0000
G1 F15000 X843.0000 Y23.7700 Z0.0000
M3S245
G4 P0.5; Tool Off

G0 Z0; move to z-safe height
G0 X843.0000 Y37.7700
M3S0
G4 P0.5; Tool On
G1 F300 Z0.0000
G1 F15000 X7.0000 Y37.7700 Z0.0000
M3S245
G4 P0.5; Tool Off

G0 Z0; move to z-safe height
G0 X7.0000 Y51.7700
M3S0
G4 P0.5; Tool On
G1 F300 Z0.0000
G1 F15000 X843.0000 Y51.7700 Z0.0000
M3S245
G4 P0.5; Tool Off

G0 Z0; move to z-safe height
G0 X843.0000 Y65.7700
M3S0
G4 P0.5; Tool On
G1 F300 Z0.0000
G1 F15000 X7.0000 Y65.7700 Z0.0000
M3S245
G4 P0.5; Tool Off

G0 Z0; move to z-safe height
G0 X7.0000 Y79.7700
M3S0
G4 P0.5; Tool On
G1 F300 Z0.0000
G1 F15000 X843.0000 Y79.7700 Z0.0000
M3S245
G4 P0.5; Tool Off

G0 Z0; move to z-safe height
G0 X843.0000 Y93.7700
M3S0
G4 P0.5; Tool On
G1 F300 Z0.0000
G1 F15000 X7.0000 Y93.7700 Z0.0000
M3S245
G4 P0.5; Tool Off

G0 Z0; move to z-safe height
G0 X7.0000 Y107.7700
M3S0
G4 P0.5; Tool On
G1 F300 Z0.0000
G1 F15000 X843.0000 Y107.7700 Z0.0000
M3S245
G4 P0.5; Tool Off

G0 Z0; move to z-safe height
G0 X843.0000 Y121.7700
M3S0
G4 P0.5; Tool On
G1 F300 Z0.0000
G1 F15000 X7.0000 Y121.7700 Z0.0000
M3S245
G4 P0.5; Tool Off

G0 Z0; move to z-safe height
G0 X7.0000 Y135.7700
M3S0
G4 P0.5; Tool On
G1 F300 Z0.0000
G1 F15000 X843.0000 Y135.7700 Z0.0000
M3S245
G4 P0.5; Tool Off

G0 Z0; move to z-safe height
G0 X843.0000 Y149.7700
M3S0
G4 P0.5; Tool On
G1 F300 Z0.0000
G1 F15000 X7.0000 Y149.7700 Z0.0000
M3S245
G4 P0.5; Tool Off

G0 Z0; move to z-safe height
G0 X7.0000 Y163.7700
M3S0
G4 P0.5; Tool On
G1 F300 Z0.0000
G1 F15000 X843.0000 Y163.7700 Z0.0000
M3S245
G4 P0.5; Tool Off

G0 Z0; move to z-safe height
G0 X843.0000 Y177.7700
M3S0
G4 P0.5; Tool On
G1 F300 Z0.0000
G1 F15000 X7.0000 Y177.7700 Z0.0000
M3S245
G4 P0.5; Tool Off

G0 Z0; move to z-safe height
G0 X7.0000 Y191.7700
M3S0
G4 P0.5; Tool On
G1 F300 Z0.0000
G1 F15000 X843.0000 Y191.7700 Z0.0000
M3S245
G4 P0.5; Tool Off

G0 Z0; move to z-safe height
G0 X843.0000 Y205.7700
M3S0
G4 P0.5; Tool On
G1 F300 Z0.0000
G1 F15000 X7.0000 Y205.7700 Z0.0000
M3S245
G4 P0.5; Tool Off

G0 Z0; move to z-safe height
G0 X7.0000 Y219.7700
M3S0
G4 P0.5; Tool On
G1 F300 Z0.0000
G1 F15000 X843.0000 Y219.7700 Z0.0000
M3S245
G4 P0.5; Tool Off

G0 Z0; move to z-safe height
G0 X843.0000 Y233.7700
M3S0
G4 P0.5; Tool On
G1 F300 Z0.0000
G1 F15000 X7.0000 Y233.7700 Z0.0000
M3S245
G4 P0.5; Tool Off

G0 Z0; move to z-safe height
G0 X7.0000 Y247.7700
M3S0
G4 P0.5; Tool On
G1 F300 Z0.0000
G1 F15000 X843.0000 Y247.7700 Z0.0000
M3S245
G4 P0.5; Tool Off

G0 Z0; move to z-safe height
G0 X843.0000 Y261.7700
M3S0
G4 P0.5; Tool On
G1 F300 Z0.0000
G1 F15000 X7.0000 Y261.7700 Z0.0000
M3S245
G4 P0.5; Tool Off

G0 Z0; move to z-safe height
G0 X7.0000 Y275.7700
M3S0
G4 P0.5; Tool On
G1 F300 Z0.0000
G1 F15000 X843.0000 Y275.7700 Z0.0000
M3S245
G4 P0.5; Tool Off

G0 Z0; move to z-safe height
G0 X843.0000 Y289.7700
M3S0
G4 P0.5; Tool On
G1 F300 Z0.0000
G1 F15000 X7.0000 Y289.7700 Z0.0000
M3S245
G4 P0.5; Tool Off

G0 Z0; move to z-safe height
G0 X7.0000 Y303.7700
M3S0
G4 P0.5; Tool On
G1 F300 Z0.0000
G1 F15000 X843.0000 Y303.7700 Z0.0000
M3S245
G4 P0.5; Tool Off

G0 Z0; move to z-safe height
G0 X843.0000 Y317.7700
M3S0
G4 P0.5; Tool On
G1 F300 Z0.0000
G1 F15000 X7.0000 Y317.7700 Z0.0000
M3S245
G4 P0.5; Tool Off

G0 Z0; move to z-safe height
G0 X7.0000 Y331.7700
M3S0
G4 P0.5; Tool On
G1 F300 Z0.0000
G1 F15000 X843.0000 Y331.7700 Z0.0000
M3S245
G4 P0.5; Tool Off

G0 Z0; move to z-safe height
G0 X843.0000 Y345.7700
M3S0
G4 P0.5; Tool On
G1 F300 Z0.0000
G1 F15000 X7.0000 Y345.7700 Z0.0000
M3S245
G4 P0.5; Tool Off

G0 Z0; move to z-safe height
G0 X7.0000 Y359.7700
M3S0
G4 P0.5; Tool On
G1 F300 Z0.0000
G1 F15000 X843.0000 Y359.7700 Z0.0000
M3S245
G4 P0.5; Tool Off

G0 Z0; move to z-safe height
G0 X843.0000 Y373.7700
M3S0
G4 P0.5; Tool On
G1 F300 Z0.0000
G1 F15000 X7.0000 Y373.7700 Z0.0000
M3S245
G4 P0.5; Tool Off

G0 Z0; move to z-safe height
G0 X7.0000 Y387.7700
M3S0
G4 P0.5; Tool On
G1 F300 Z0.0000
G1 F15000 X843.0000 Y387.7700 Z0.0000
M3S245
G4 P0.5; Tool Off

G0 Z0; move to z-safe height
G0 X843.0000 Y401.7700
M3S0
G4 P0.5; Tool On
G1 F300 Z0.0000
G1 F15000 X7.0000 Y401.7700 Z0.0000
M3S245
G4 P0.5; Tool Off

G0 Z0; move to z-safe height
G0 X7.0000 Y415.7700
M3S0
G4 P0.5; Tool On
G1 F300 Z0.0000
G1 F15000 X843.0000 Y415.7700 Z0.0000
M3S245
G4 P0.5; Tool Off

G0 Z0; move to z-safe height
G0 X843.0000 Y429.7700
M3S0
G4 P0.5; Tool On
G1 F300 Z0.0000
G1 F15000 X7.0000 Y429.7700 Z0.0000
M3S245
G4 P0.5; Tool Off

G0 Z0; move to z-safe height
G0 X7.0000 Y443.7700
M3S0
G4 P0.5; Tool On
G1 F300 Z0.0000
G1 F15000 X843.0000 Y443.7700 Z0.0000
M3S245
G4 P0.5; Tool Off

G0 Z0; move to z-safe height
G0 X843.0000 Y457.7700
M3S0
G4 P0.5; Tool On
G1 F300 Z0.0000
G1 F15000 X7.0000 Y457.7700 Z0.0000
M3S245
G4 P0.5; Tool Off

G0 Z0; move to z-safe height
G0 X7.0000 Y471.7700
M3S0
G4 P0.5; Tool On
G1 F300 Z0.0000
G1 F15000 X843.0000 Y471.7700 Z0.0000
M3S245
G4 P0.5; Tool Off

G0 Z0; move to z-safe height
G0 X843.0000 Y485.7700
M3S0
G4 P0.5; Tool On
G1 F300 Z0.0000
G1 F15000 X7.0000 Y485.7700 Z0.0000
M3S245
G4 P0.5; Tool Off

G0 Z0; move to z-safe height
G0 X7.0000 Y499.7700
M3S0
G4 P0.5; Tool On
G1 F300 Z0.0000
G1 F15000 X843.0000 Y499.7700 Z0.0000
M3S245
G4 P0.5; Tool Off

G0 Z0; move to z-safe height
G0 X843.0000 Y513.7700
M3S0
G4 P0.5; Tool On
G1 F300 Z0.0000
G1 F15000 X7.0000 Y513.7700 Z0.0000
M3S245
G4 P0.5; Tool Off

G0 Z0; move to z-safe height
G0 X7.0000 Y527.7700
M3S0
G4 P0.5; Tool On
G1 F300 Z0.0000
G1 F15000 X843.0000 Y527.7700 Z0.0000
M3S245
G4 P0.5; Tool Off

G0 Z0; move to z-safe height
G0 X843.0000 Y541.7700
M3S0
G4 P0.5; Tool On
G1 F300 Z0.0000
G1 F15000 X7.0000 Y541.7700 Z0.0000
M3S245
G4 P0.5; Tool Off

G0 Z0; move to z-safe height
G0 X7.0000 Y555.7700
M3S0
G4 P0.5; Tool On
G1 F300 Z0.0000
G1 F15000 X843.0000 Y555.7700 Z0.0000
M3S245
G4 P0.5; Tool Off

G0 Z0; move to z-safe height
G0 X843.0000 Y569.7700
M3S0
G4 P0.5; Tool On
G1 F300 Z0.0000
G1 F15000 X7.0000 Y569.7700 Z0.0000
M3S245
G4 P0.5; Tool Off

G0 Z0; move to z-safe height
G0 X7.0000 Y583.7700
M3S0
G4 P0.5; Tool On
G1 F300 Z0.0000
G1 F15000 X843.0000 Y583.7700 Z0.0000
M3S245
G4 P0.5; Tool Off

G0 Z0; move to z-safe height
G0 X843.0000 Y597.7700
M3S0
G4 P0.5; Tool On
G1 F300 Z0.0000
G1 F15000 X7.0000 Y597.7700 Z0.0000
M3S245
G4 P0.5; Tool Off

G0 Z0; move to z-safe height
G0 X7.0000 Y611.7700
M3S0
G4 P0.5; Tool On
G1 F300 Z0.0000
G1 F15000 X843.0000 Y611.7700 Z0.0000
M3S245
G4 P0.5; Tool Off

G0 Z0; move to z-safe height
G0 X843.0000 Y625.7700
M3S0
G4 P0.5; Tool On
G1 F300 Z0.0000
G1 F15000 X7.0000 Y625.7700 Z0.0000
M3S245
G4 P0.5; Tool Off

G0 Z0; move to z-safe height
G0 X7.0000 Y639.7700
M3S0
G4 P0.5; Tool On
G1 F300 Z0.0000
G1 F15000 X843.0000 Y639.7700 Z0.0000
M3S245
G4 P0.5; Tool Off

G0 Z0; move to z-safe height
G0 X843.0000 Y653.7700
M3S0
G4 P0.5; Tool On
G1 F300 Z0.0000
G1 F15000 X7.0000 Y653.7700 Z0.0000
M3S245
G4 P0.5; Tool Off

G0 Z0; move to z-safe height
G0 X7.0000 Y667.7700
M3S0
G4 P0.5; Tool On
G1 F300 Z0.0000
G1 F15000 X843.0000 Y667.7700 Z0.0000
M3S245
G4 P0.5; Tool Off

G0 Z0; move to z-safe height
G0 X843.0000 Y681.7700
M3S0
G4 P0.5; Tool On
G1 F300 Z0.0000
G1 F15000 X7.0000 Y681.7700 Z0.0000
M3S245
G4 P0.5; Tool Off

G0 Z0; move to z-safe height
G0 X7.0000 Y695.7700
M3S0
G4 P0.5; Tool On
G1 F300 Z0.0000
G1 F15000 X843.0000 Y695.7700 Z0.0000
M3S245
G4 P0.5; Tool Off

G0 Z0; move to z-safe height
G0 X843.0000 Y709.7700
M3S0
G4 P0.5; Tool On
G1 F300 Z0.0000
G1 F15000 X7.0000 Y709.7700 Z0.0000
M3S245
G4 P0.5; Tool Off

G0 Z0; move to z-safe height
G0 X7.0000 Y723.7700
M3S0
G4 P0.5; Tool On
G1 F300 Z0.0000
G1 F15000 X843.0000 Y723.7700 Z0.0000
M3S245
G4 P0.5; Tool Off

G0 Z0; move to z-safe height
G0 X843.0000 Y737.7700
M3S0
G4 P0.5; Tool On
G1 F300 Z0.0000
G1 F15000 X7.0000 Y737.7700 Z0.0000
M3S245
G4 P0.5; Tool Off

G0 Z0; move to z-safe height
G0 X7.0000 Y751.7700
M3S0
G4 P0.5; Tool On
G1 F300 Z0.0000
G1 F15000 X843.0000 Y751.7700 Z0.0000
M3S245
G4 P0.5; Tool Off

G0 Z0; move to z-safe height
G0 X843.0000 Y765.7700
M3S0
G4 P0.5; Tool On
G1 F300 Z0.0000
G1 F15000 X7.0000 Y765.7700 Z0.0000
M3S245
G4 P0.5; Tool Off

G0 Z0; move to z-safe height
G0 X7.0000 Y779.7700
M3S0
G4 P0.5; Tool On
G1 F300 Z0.0000
G1 F15000 X843.0000 Y779.7700 Z0.0000
M3S245
G4 P0.5; Tool Off

G0 Z0; move to z-safe height
G0 X843.0000 Y793.7700
M3S0
G4 P0.5; Tool On
G1 F300 Z0.0000
G1 F15000 X7.0000 Y793.7700 Z0.0000
M3S245
G4 P0.5; Tool Off

G0 Z0; move to z-safe height
G0 X7.0000 Y807.7700
M3S0
G4 P0.5; Tool On
G1 F300 Z0.0000
G1 F15000 X843.0000 Y807.7700 Z0.0000
M3S245
G4 P0.5; Tool Off

G0 Z0; move to z-safe height
G0 X843.0000 Y821.7700
M3S0
G4 P0.5; Tool On
G1 F300 Z0.0000
G1 F15000 X7.0000 Y821.7700 Z0.0000
M3S245
G4 P0.5; Tool Off

G0 Z0; move to z-safe height
G0 X7.0000 Y835.7700
M3S0
G4 P0.5; Tool On
G1 F300 Z0.0000
G1 F15000 X843.0000 Y835.7700 Z0.0000
M3S245
G4 P0.5; Tool Off

G0 Z0; move to z-safe height
G0 X843.0000 Y849.7700
M3S0
G4 P0.5; Tool On
G1 F300 Z0.0000
G1 F15000 X7.0000 Y849.7700 Z0.0000
M3S245
G4 P0.5; Tool Off

G0 Z0; move to z-safe height
G0 X7.0000 Y863.7700
M3S0
G4 P0.5; Tool On
G1 F300 Z0.0000
G1 F15000 X843.0000 Y863.7700 Z0.0000
M3S245
G4 P0.5; Tool Off

G0 Z0; move to z-safe height
G0 X843.0000 Y877.7700
M3S0
G4 P0.5; Tool On
G1 F300 Z0.0000
G1 F15000 X7.0000 Y877.7700 Z0.0000
M3S245
G4 P0.5; Tool Off

G0 Z0; move to z-safe height
G0 X7.0000 Y891.7700
M3S0
G4 P0.5; Tool On
G1 F300 Z0.0000
G1 F15000 X843.0000 Y891.7700 Z0.0000
M3S245
G4 P0.5; Tool Off

G0 Z0; move to z-safe height
G0 X843.0000 Y905.7700
M3S0
G4 P0.5; Tool On
G1 F300 Z0.0000
G1 F15000 X7.0000 Y905.7700 Z0.0000
M3S245
G4 P0.5; Tool Off

G0 Z0; move to z-safe height
G0 X7.0000 Y919.7700
M3S0
G4 P0.5; Tool On
G1 F300 Z0.0000
G1 F15000 X843.0000 Y919.7700 Z0.0000
M3S245
G4 P0.5; Tool Off

G0 Z0; move to z-safe height
G0 X843.0000 Y933.7700
M3S0
G4 P0.5; Tool On
G1 F300 Z0.0000
G1 F15000 X7.0000 Y933.7700 Z0.0000
M3S245
G4 P0.5; Tool Off

G0 Z0; move to z-safe height
G0 X7.0000 Y947.7700
M3S0
G4 P0.5; Tool On
G1 F300 Z0.0000
G1 F15000 X843.0000 Y947.7700 Z0.0000
M3S245
G4 P0.5; Tool Off

G0 Z0; move to z-safe height
G0 X843.0000 Y961.7700
M3S0
G4 P0.5; Tool On
G1 F300 Z0.0000
G1 F15000 X7.0000 Y961.7700 Z0.0000
M3S245
G4 P0.5; Tool Off

G0 Z0; move to z-safe height
G0 X7.0000 Y975.7700
M3S0
G4 P0.5; Tool On
G1 F300 Z0.0000
G1 F15000 X843.0000 Y975.7700 Z0.0000
M3S245
G4 P0.5; Tool Off

G0 Z0; move to z-safe height
G0 X843.0000 Y989.7700
M3S0
G4 P0.5; Tool On
G1 F300 Z0.0000
G1 F15000 X7.0000 Y989.7700 Z0.0000
M3S245
G4 P0.5; Tool Off

G0 Z0; move to z-safe height
G0 X7.0000 Y1003.7700
M3S0
G4 P0.5; Tool On
G1 F300 Z0.0000
G1 F15000 X843.0000 Y1003.7700 Z0.0000
M3S245
G4 P0.5; Tool Off

G0 Z0; move to z-safe height
G0 X843.0000 Y1017.7700
M3S0
G4 P0.5; Tool On
G1 F300 Z0.0000
G1 F15000 X7.0000 Y1017.7700 Z0.0000
M3S245
G4 P0.5; Tool Off

G0 Z0; move to z-safe height
G0 X7.0000 Y1031.7700
M3S0
G4 P0.5; Tool On
G1 F300 Z0.0000
G1 F15000 X843.0000 Y1031.7700 Z0.0000
M3S245
G4 P0.5; Tool Off

G0 Z0; move to z-safe height
G0 X843.0000 Y1045.7700
M3S0
G4 P0.5; Tool On
G1 F300 Z0.0000
G1 F15000 X7.0000 Y1045.7700 Z0.0000
M3S245
G4 P0.5; Tool Off

G0 Z0; move to z-safe height
G0 X7.0000 Y1059.7700
M3S0
G4 P0.5; Tool On
G1 F300 Z0.0000
G1 F15000 X843.0000 Y1059.7700 Z0.0000
M3S245
G4 P0.5; Tool Off

G0 Z0; move to z-safe height
G0 X843.0000 Y1073.7700
M3S0
G4 P0.5; Tool On
G1 F300 Z0.0000
G1 F15000 X7.0000 Y1073.7700 Z0.0000
M3S245
G4 P0.5; Tool Off

G0 Z0; move to z-safe height
G0 X7.0000 Y1087.7700
M3S0
G4 P0.5; Tool On
G1 F300 Z0.0000
G1 F15000 X843.0000 Y1087.7700 Z0.0000
M3S245
G4 P0.5; Tool Off

G0 Z0; move to z-safe height
G0 X843.0000 Y1101.7700
M3S0
G4 P0.5; Tool On
G1 F300 Z0.0000
G1 F15000 X7.0000 Y1101.7700 Z0.0000
M3S245
G4 P0.5; Tool Off

G0 Z0; move to z-safe height
G0 X7.0000 Y1115.7700
M3S0
G4 P0.5; Tool On
G1 F300 Z0.0000
G1 F15000 X843.0000 Y1115.7700 Z0.0000
M3S245
G4 P0.5; Tool Off

G0 Z0; move to z-safe height
G0 X843.0000 Y1129.7700
M3S0
G4 P0.5; Tool On
G1 F300 Z0.0000
G1 F15000 X7.0000 Y1129.7700 Z0.0000
M3S245
G4 P0.5; Tool Off
; retracting back to z-safe
G0 Z0

; Plotter Mode Complete
