; GCODE Generated by cam.openbuilds.com on 2023-12-16 
G21 ; mm-mode
G54; Work Coordinates
G21; mm-mode
G90; Absolute Positioning
; Plotter Mode Active

; Operation 0: Pen Plotter: (lines fill)
; Pen Diameter: 2

G0 Z0; move to z-safe height
G0 F1000 X844.0000 Y12.3700
M3S0
G4 P0.5; Tool On
G1 F300 Z0.0000
G1 F15000 X6.0000 Y12.3700 Z0.0000
M3S245
G4 P0.5; Tool Off

G0 Z0; move to z-safe height
G0 X6.0000 Y24.3700
M3S0
G4 P0.5; Tool On
G1 F300 Z0.0000
G1 F15000 X844.0000 Y24.3700 Z0.0000
M3S245
G4 P0.5; Tool Off

G0 Z0; move to z-safe height
G0 X844.0000 Y36.3700
M3S0
G4 P0.5; Tool On
G1 F300 Z0.0000
G1 F15000 X6.0000 Y36.3700 Z0.0000
M3S245
G4 P0.5; Tool Off

G0 Z0; move to z-safe height
G0 X6.0000 Y48.3700
M3S0
G4 P0.5; Tool On
G1 F300 Z0.0000
G1 F15000 X844.0000 Y48.3700 Z0.0000
M3S245
G4 P0.5; Tool Off

G0 Z0; move to z-safe height
G0 X844.0000 Y60.3700
M3S0
G4 P0.5; Tool On
G1 F300 Z0.0000
G1 F15000 X6.0000 Y60.3700 Z0.0000
M3S245
G4 P0.5; Tool Off

G0 Z0; move to z-safe height
G0 X6.0000 Y72.3700
M3S0
G4 P0.5; Tool On
G1 F300 Z0.0000
G1 F15000 X844.0000 Y72.3700 Z0.0000
M3S245
G4 P0.5; Tool Off

G0 Z0; move to z-safe height
G0 X844.0000 Y84.3700
M3S0
G4 P0.5; Tool On
G1 F300 Z0.0000
G1 F15000 X6.0000 Y84.3700 Z0.0000
M3S245
G4 P0.5; Tool Off

G0 Z0; move to z-safe height
G0 X6.0000 Y96.3700
M3S0
G4 P0.5; Tool On
G1 F300 Z0.0000
G1 F15000 X844.0000 Y96.3700 Z0.0000
M3S245
G4 P0.5; Tool Off

G0 Z0; move to z-safe height
G0 X844.0000 Y108.3700
M3S0
G4 P0.5; Tool On
G1 F300 Z0.0000
G1 F15000 X6.0000 Y108.3700 Z0.0000
M3S245
G4 P0.5; Tool Off

G0 Z0; move to z-safe height
G0 X6.0000 Y120.3700
M3S0
G4 P0.5; Tool On
G1 F300 Z0.0000
G1 F15000 X844.0000 Y120.3700 Z0.0000
M3S245
G4 P0.5; Tool Off

G0 Z0; move to z-safe height
G0 X844.0000 Y132.3700
M3S0
G4 P0.5; Tool On
G1 F300 Z0.0000
G1 F15000 X6.0000 Y132.3700 Z0.0000
M3S245
G4 P0.5; Tool Off

G0 Z0; move to z-safe height
G0 X6.0000 Y144.3700
M3S0
G4 P0.5; Tool On
G1 F300 Z0.0000
G1 F15000 X844.0000 Y144.3700 Z0.0000
M3S245
G4 P0.5; Tool Off

G0 Z0; move to z-safe height
G0 X844.0000 Y156.3700
M3S0
G4 P0.5; Tool On
G1 F300 Z0.0000
G1 F15000 X6.0000 Y156.3700 Z0.0000
M3S245
G4 P0.5; Tool Off

G0 Z0; move to z-safe height
G0 X6.0000 Y168.3700
M3S0
G4 P0.5; Tool On
G1 F300 Z0.0000
G1 F15000 X844.0000 Y168.3700 Z0.0000
M3S245
G4 P0.5; Tool Off

G0 Z0; move to z-safe height
G0 X844.0000 Y180.3700
M3S0
G4 P0.5; Tool On
G1 F300 Z0.0000
G1 F15000 X6.0000 Y180.3700 Z0.0000
M3S245
G4 P0.5; Tool Off

G0 Z0; move to z-safe height
G0 X6.0000 Y192.3700
M3S0
G4 P0.5; Tool On
G1 F300 Z0.0000
G1 F15000 X844.0000 Y192.3700 Z0.0000
M3S245
G4 P0.5; Tool Off

G0 Z0; move to z-safe height
G0 X844.0000 Y204.3700
M3S0
G4 P0.5; Tool On
G1 F300 Z0.0000
G1 F15000 X6.0000 Y204.3700 Z0.0000
M3S245
G4 P0.5; Tool Off

G0 Z0; move to z-safe height
G0 X6.0000 Y216.3700
M3S0
G4 P0.5; Tool On
G1 F300 Z0.0000
G1 F15000 X844.0000 Y216.3700 Z0.0000
M3S245
G4 P0.5; Tool Off

G0 Z0; move to z-safe height
G0 X844.0000 Y228.3700
M3S0
G4 P0.5; Tool On
G1 F300 Z0.0000
G1 F15000 X6.0000 Y228.3700 Z0.0000
M3S245
G4 P0.5; Tool Off

G0 Z0; move to z-safe height
G0 X6.0000 Y240.3700
M3S0
G4 P0.5; Tool On
G1 F300 Z0.0000
G1 F15000 X844.0000 Y240.3700 Z0.0000
M3S245
G4 P0.5; Tool Off

G0 Z0; move to z-safe height
G0 X844.0000 Y252.3700
M3S0
G4 P0.5; Tool On
G1 F300 Z0.0000
G1 F15000 X6.0000 Y252.3700 Z0.0000
M3S245
G4 P0.5; Tool Off

G0 Z0; move to z-safe height
G0 X6.0000 Y264.3700
M3S0
G4 P0.5; Tool On
G1 F300 Z0.0000
G1 F15000 X844.0000 Y264.3700 Z0.0000
M3S245
G4 P0.5; Tool Off

G0 Z0; move to z-safe height
G0 X844.0000 Y276.3700
M3S0
G4 P0.5; Tool On
G1 F300 Z0.0000
G1 F15000 X6.0000 Y276.3700 Z0.0000
M3S245
G4 P0.5; Tool Off

G0 Z0; move to z-safe height
G0 X6.0000 Y288.3700
M3S0
G4 P0.5; Tool On
G1 F300 Z0.0000
G1 F15000 X844.0000 Y288.3700 Z0.0000
M3S245
G4 P0.5; Tool Off

G0 Z0; move to z-safe height
G0 X844.0000 Y300.3700
M3S0
G4 P0.5; Tool On
G1 F300 Z0.0000
G1 F15000 X6.0000 Y300.3700 Z0.0000
M3S245
G4 P0.5; Tool Off

G0 Z0; move to z-safe height
G0 X6.0000 Y312.3700
M3S0
G4 P0.5; Tool On
G1 F300 Z0.0000
G1 F15000 X844.0000 Y312.3700 Z0.0000
M3S245
G4 P0.5; Tool Off

G0 Z0; move to z-safe height
G0 X844.0000 Y324.3700
M3S0
G4 P0.5; Tool On
G1 F300 Z0.0000
G1 F15000 X6.0000 Y324.3700 Z0.0000
M3S245
G4 P0.5; Tool Off

G0 Z0; move to z-safe height
G0 X6.0000 Y336.3700
M3S0
G4 P0.5; Tool On
G1 F300 Z0.0000
G1 F15000 X844.0000 Y336.3700 Z0.0000
M3S245
G4 P0.5; Tool Off

G0 Z0; move to z-safe height
G0 X844.0000 Y348.3700
M3S0
G4 P0.5; Tool On
G1 F300 Z0.0000
G1 F15000 X6.0000 Y348.3700 Z0.0000
M3S245
G4 P0.5; Tool Off

G0 Z0; move to z-safe height
G0 X6.0000 Y360.3700
M3S0
G4 P0.5; Tool On
G1 F300 Z0.0000
G1 F15000 X844.0000 Y360.3700 Z0.0000
M3S245
G4 P0.5; Tool Off

G0 Z0; move to z-safe height
G0 X844.0000 Y372.3700
M3S0
G4 P0.5; Tool On
G1 F300 Z0.0000
G1 F15000 X6.0000 Y372.3700 Z0.0000
M3S245
G4 P0.5; Tool Off

G0 Z0; move to z-safe height
G0 X6.0000 Y384.3700
M3S0
G4 P0.5; Tool On
G1 F300 Z0.0000
G1 F15000 X844.0000 Y384.3700 Z0.0000
M3S245
G4 P0.5; Tool Off

G0 Z0; move to z-safe height
G0 X844.0000 Y396.3700
M3S0
G4 P0.5; Tool On
G1 F300 Z0.0000
G1 F15000 X6.0000 Y396.3700 Z0.0000
M3S245
G4 P0.5; Tool Off

G0 Z0; move to z-safe height
G0 X6.0000 Y408.3700
M3S0
G4 P0.5; Tool On
G1 F300 Z0.0000
G1 F15000 X844.0000 Y408.3700 Z0.0000
M3S245
G4 P0.5; Tool Off

G0 Z0; move to z-safe height
G0 X844.0000 Y420.3700
M3S0
G4 P0.5; Tool On
G1 F300 Z0.0000
G1 F15000 X6.0000 Y420.3700 Z0.0000
M3S245
G4 P0.5; Tool Off

G0 Z0; move to z-safe height
G0 X6.0000 Y432.3700
M3S0
G4 P0.5; Tool On
G1 F300 Z0.0000
G1 F15000 X844.0000 Y432.3700 Z0.0000
M3S245
G4 P0.5; Tool Off

G0 Z0; move to z-safe height
G0 X844.0000 Y444.3700
M3S0
G4 P0.5; Tool On
G1 F300 Z0.0000
G1 F15000 X6.0000 Y444.3700 Z0.0000
M3S245
G4 P0.5; Tool Off

G0 Z0; move to z-safe height
G0 X6.0000 Y456.3700
M3S0
G4 P0.5; Tool On
G1 F300 Z0.0000
G1 F15000 X844.0000 Y456.3700 Z0.0000
M3S245
G4 P0.5; Tool Off

G0 Z0; move to z-safe height
G0 X844.0000 Y468.3700
M3S0
G4 P0.5; Tool On
G1 F300 Z0.0000
G1 F15000 X6.0000 Y468.3700 Z0.0000
M3S245
G4 P0.5; Tool Off

G0 Z0; move to z-safe height
G0 X6.0000 Y480.3700
M3S0
G4 P0.5; Tool On
G1 F300 Z0.0000
G1 F15000 X844.0000 Y480.3700 Z0.0000
M3S245
G4 P0.5; Tool Off

G0 Z0; move to z-safe height
G0 X844.0000 Y492.3700
M3S0
G4 P0.5; Tool On
G1 F300 Z0.0000
G1 F15000 X6.0000 Y492.3700 Z0.0000
M3S245
G4 P0.5; Tool Off

G0 Z0; move to z-safe height
G0 X6.0000 Y504.3700
M3S0
G4 P0.5; Tool On
G1 F300 Z0.0000
G1 F15000 X844.0000 Y504.3700 Z0.0000
M3S245
G4 P0.5; Tool Off

G0 Z0; move to z-safe height
G0 X844.0000 Y516.3700
M3S0
G4 P0.5; Tool On
G1 F300 Z0.0000
G1 F15000 X6.0000 Y516.3700 Z0.0000
M3S245
G4 P0.5; Tool Off

G0 Z0; move to z-safe height
G0 X6.0000 Y528.3700
M3S0
G4 P0.5; Tool On
G1 F300 Z0.0000
G1 F15000 X844.0000 Y528.3700 Z0.0000
M3S245
G4 P0.5; Tool Off

G0 Z0; move to z-safe height
G0 X844.0000 Y540.3700
M3S0
G4 P0.5; Tool On
G1 F300 Z0.0000
G1 F15000 X6.0000 Y540.3700 Z0.0000
M3S245
G4 P0.5; Tool Off

G0 Z0; move to z-safe height
G0 X6.0000 Y552.3700
M3S0
G4 P0.5; Tool On
G1 F300 Z0.0000
G1 F15000 X844.0000 Y552.3700 Z0.0000
M3S245
G4 P0.5; Tool Off

G0 Z0; move to z-safe height
G0 X844.0000 Y564.3700
M3S0
G4 P0.5; Tool On
G1 F300 Z0.0000
G1 F15000 X6.0000 Y564.3700 Z0.0000
M3S245
G4 P0.5; Tool Off

G0 Z0; move to z-safe height
G0 X6.0000 Y576.3700
M3S0
G4 P0.5; Tool On
G1 F300 Z0.0000
G1 F15000 X844.0000 Y576.3700 Z0.0000
M3S245
G4 P0.5; Tool Off

G0 Z0; move to z-safe height
G0 X844.0000 Y588.3700
M3S0
G4 P0.5; Tool On
G1 F300 Z0.0000
G1 F15000 X6.0000 Y588.3700 Z0.0000
M3S245
G4 P0.5; Tool Off

G0 Z0; move to z-safe height
G0 X6.0000 Y600.3700
M3S0
G4 P0.5; Tool On
G1 F300 Z0.0000
G1 F15000 X844.0000 Y600.3700 Z0.0000
M3S245
G4 P0.5; Tool Off

G0 Z0; move to z-safe height
G0 X844.0000 Y612.3700
M3S0
G4 P0.5; Tool On
G1 F300 Z0.0000
G1 F15000 X6.0000 Y612.3700 Z0.0000
M3S245
G4 P0.5; Tool Off

G0 Z0; move to z-safe height
G0 X6.0000 Y624.3700
M3S0
G4 P0.5; Tool On
G1 F300 Z0.0000
G1 F15000 X844.0000 Y624.3700 Z0.0000
M3S245
G4 P0.5; Tool Off

G0 Z0; move to z-safe height
G0 X844.0000 Y636.3700
M3S0
G4 P0.5; Tool On
G1 F300 Z0.0000
G1 F15000 X6.0000 Y636.3700 Z0.0000
M3S245
G4 P0.5; Tool Off

G0 Z0; move to z-safe height
G0 X6.0000 Y648.3700
M3S0
G4 P0.5; Tool On
G1 F300 Z0.0000
G1 F15000 X844.0000 Y648.3700 Z0.0000
M3S245
G4 P0.5; Tool Off

G0 Z0; move to z-safe height
G0 X844.0000 Y660.3700
M3S0
G4 P0.5; Tool On
G1 F300 Z0.0000
G1 F15000 X6.0000 Y660.3700 Z0.0000
M3S245
G4 P0.5; Tool Off

G0 Z0; move to z-safe height
G0 X6.0000 Y672.3700
M3S0
G4 P0.5; Tool On
G1 F300 Z0.0000
G1 F15000 X844.0000 Y672.3700 Z0.0000
M3S245
G4 P0.5; Tool Off

G0 Z0; move to z-safe height
G0 X844.0000 Y684.3700
M3S0
G4 P0.5; Tool On
G1 F300 Z0.0000
G1 F15000 X6.0000 Y684.3700 Z0.0000
M3S245
G4 P0.5; Tool Off

G0 Z0; move to z-safe height
G0 X6.0000 Y696.3700
M3S0
G4 P0.5; Tool On
G1 F300 Z0.0000
G1 F15000 X844.0000 Y696.3700 Z0.0000
M3S245
G4 P0.5; Tool Off

G0 Z0; move to z-safe height
G0 X844.0000 Y708.3700
M3S0
G4 P0.5; Tool On
G1 F300 Z0.0000
G1 F15000 X6.0000 Y708.3700 Z0.0000
M3S245
G4 P0.5; Tool Off

G0 Z0; move to z-safe height
G0 X6.0000 Y720.3700
M3S0
G4 P0.5; Tool On
G1 F300 Z0.0000
G1 F15000 X844.0000 Y720.3700 Z0.0000
M3S245
G4 P0.5; Tool Off

G0 Z0; move to z-safe height
G0 X844.0000 Y732.3700
M3S0
G4 P0.5; Tool On
G1 F300 Z0.0000
G1 F15000 X6.0000 Y732.3700 Z0.0000
M3S245
G4 P0.5; Tool Off

G0 Z0; move to z-safe height
G0 X6.0000 Y744.3700
M3S0
G4 P0.5; Tool On
G1 F300 Z0.0000
G1 F15000 X844.0000 Y744.3700 Z0.0000
M3S245
G4 P0.5; Tool Off

G0 Z0; move to z-safe height
G0 X844.0000 Y756.3700
M3S0
G4 P0.5; Tool On
G1 F300 Z0.0000
G1 F15000 X6.0000 Y756.3700 Z0.0000
M3S245
G4 P0.5; Tool Off

G0 Z0; move to z-safe height
G0 X6.0000 Y768.3700
M3S0
G4 P0.5; Tool On
G1 F300 Z0.0000
G1 F15000 X844.0000 Y768.3700 Z0.0000
M3S245
G4 P0.5; Tool Off

G0 Z0; move to z-safe height
G0 X844.0000 Y780.3700
M3S0
G4 P0.5; Tool On
G1 F300 Z0.0000
G1 F15000 X6.0000 Y780.3700 Z0.0000
M3S245
G4 P0.5; Tool Off

G0 Z0; move to z-safe height
G0 X6.0000 Y792.3700
M3S0
G4 P0.5; Tool On
G1 F300 Z0.0000
G1 F15000 X844.0000 Y792.3700 Z0.0000
M3S245
G4 P0.5; Tool Off

G0 Z0; move to z-safe height
G0 X844.0000 Y804.3700
M3S0
G4 P0.5; Tool On
G1 F300 Z0.0000
G1 F15000 X6.0000 Y804.3700 Z0.0000
M3S245
G4 P0.5; Tool Off

G0 Z0; move to z-safe height
G0 X6.0000 Y816.3700
M3S0
G4 P0.5; Tool On
G1 F300 Z0.0000
G1 F15000 X844.0000 Y816.3700 Z0.0000
M3S245
G4 P0.5; Tool Off

G0 Z0; move to z-safe height
G0 X844.0000 Y828.3700
M3S0
G4 P0.5; Tool On
G1 F300 Z0.0000
G1 F15000 X6.0000 Y828.3700 Z0.0000
M3S245
G4 P0.5; Tool Off

G0 Z0; move to z-safe height
G0 X6.0000 Y840.3700
M3S0
G4 P0.5; Tool On
G1 F300 Z0.0000
G1 F15000 X844.0000 Y840.3700 Z0.0000
M3S245
G4 P0.5; Tool Off

G0 Z0; move to z-safe height
G0 X844.0000 Y852.3700
M3S0
G4 P0.5; Tool On
G1 F300 Z0.0000
G1 F15000 X6.0000 Y852.3700 Z0.0000
M3S245
G4 P0.5; Tool Off

G0 Z0; move to z-safe height
G0 X6.0000 Y864.3700
M3S0
G4 P0.5; Tool On
G1 F300 Z0.0000
G1 F15000 X844.0000 Y864.3700 Z0.0000
M3S245
G4 P0.5; Tool Off

G0 Z0; move to z-safe height
G0 X844.0000 Y876.3700
M3S0
G4 P0.5; Tool On
G1 F300 Z0.0000
G1 F15000 X6.0000 Y876.3700 Z0.0000
M3S245
G4 P0.5; Tool Off

G0 Z0; move to z-safe height
G0 X6.0000 Y888.3700
M3S0
G4 P0.5; Tool On
G1 F300 Z0.0000
G1 F15000 X844.0000 Y888.3700 Z0.0000
M3S245
G4 P0.5; Tool Off

G0 Z0; move to z-safe height
G0 X844.0000 Y900.3700
M3S0
G4 P0.5; Tool On
G1 F300 Z0.0000
G1 F15000 X6.0000 Y900.3700 Z0.0000
M3S245
G4 P0.5; Tool Off

G0 Z0; move to z-safe height
G0 X6.0000 Y912.3700
M3S0
G4 P0.5; Tool On
G1 F300 Z0.0000
G1 F15000 X844.0000 Y912.3700 Z0.0000
M3S245
G4 P0.5; Tool Off

G0 Z0; move to z-safe height
G0 X844.0000 Y924.3700
M3S0
G4 P0.5; Tool On
G1 F300 Z0.0000
G1 F15000 X6.0000 Y924.3700 Z0.0000
M3S245
G4 P0.5; Tool Off

G0 Z0; move to z-safe height
G0 X6.0000 Y936.3700
M3S0
G4 P0.5; Tool On
G1 F300 Z0.0000
G1 F15000 X844.0000 Y936.3700 Z0.0000
M3S245
G4 P0.5; Tool Off

G0 Z0; move to z-safe height
G0 X844.0000 Y948.3700
M3S0
G4 P0.5; Tool On
G1 F300 Z0.0000
G1 F15000 X6.0000 Y948.3700 Z0.0000
M3S245
G4 P0.5; Tool Off

G0 Z0; move to z-safe height
G0 X6.0000 Y960.3700
M3S0
G4 P0.5; Tool On
G1 F300 Z0.0000
G1 F15000 X844.0000 Y960.3700 Z0.0000
M3S245
G4 P0.5; Tool Off

G0 Z0; move to z-safe height
G0 X844.0000 Y972.3700
M3S0
G4 P0.5; Tool On
G1 F300 Z0.0000
G1 F15000 X6.0000 Y972.3700 Z0.0000
M3S245
G4 P0.5; Tool Off

G0 Z0; move to z-safe height
G0 X6.0000 Y984.3700
M3S0
G4 P0.5; Tool On
G1 F300 Z0.0000
G1 F15000 X844.0000 Y984.3700 Z0.0000
M3S245
G4 P0.5; Tool Off

G0 Z0; move to z-safe height
G0 X844.0000 Y996.3700
M3S0
G4 P0.5; Tool On
G1 F300 Z0.0000
G1 F15000 X6.0000 Y996.3700 Z0.0000
M3S245
G4 P0.5; Tool Off

G0 Z0; move to z-safe height
G0 X6.0000 Y1008.3700
M3S0
G4 P0.5; Tool On
G1 F300 Z0.0000
G1 F15000 X844.0000 Y1008.3700 Z0.0000
M3S245
G4 P0.5; Tool Off

G0 Z0; move to z-safe height
G0 X844.0000 Y1020.3700
M3S0
G4 P0.5; Tool On
G1 F300 Z0.0000
G1 F15000 X6.0000 Y1020.3700 Z0.0000
M3S245
G4 P0.5; Tool Off

G0 Z0; move to z-safe height
G0 X6.0000 Y1032.3700
M3S0
G4 P0.5; Tool On
G1 F300 Z0.0000
G1 F15000 X844.0000 Y1032.3700 Z0.0000
M3S245
G4 P0.5; Tool Off

G0 Z0; move to z-safe height
G0 X844.0000 Y1044.3700
M3S0
G4 P0.5; Tool On
G1 F300 Z0.0000
G1 F15000 X6.0000 Y1044.3700 Z0.0000
M3S245
G4 P0.5; Tool Off

G0 Z0; move to z-safe height
G0 X6.0000 Y1056.3700
M3S0
G4 P0.5; Tool On
G1 F300 Z0.0000
G1 F15000 X844.0000 Y1056.3700 Z0.0000
M3S245
G4 P0.5; Tool Off

G0 Z0; move to z-safe height
G0 X844.0000 Y1068.3700
M3S0
G4 P0.5; Tool On
G1 F300 Z0.0000
G1 F15000 X6.0000 Y1068.3700 Z0.0000
M3S245
G4 P0.5; Tool Off

G0 Z0; move to z-safe height
G0 X6.0000 Y1080.3700
M3S0
G4 P0.5; Tool On
G1 F300 Z0.0000
G1 F15000 X844.0000 Y1080.3700 Z0.0000
M3S245
G4 P0.5; Tool Off

G0 Z0; move to z-safe height
G0 X844.0000 Y1092.3700
M3S0
G4 P0.5; Tool On
G1 F300 Z0.0000
G1 F15000 X6.0000 Y1092.3700 Z0.0000
M3S245
G4 P0.5; Tool Off

G0 Z0; move to z-safe height
G0 X6.0000 Y1104.3700
M3S0
G4 P0.5; Tool On
G1 F300 Z0.0000
G1 F15000 X844.0000 Y1104.3700 Z0.0000
M3S245
G4 P0.5; Tool Off

G0 Z0; move to z-safe height
G0 X844.0000 Y1116.3700
M3S0
G4 P0.5; Tool On
G1 F300 Z0.0000
G1 F15000 X6.0000 Y1116.3700 Z0.0000
M3S245
G4 P0.5; Tool Off

G0 Z0; move to z-safe height
G0 X6.0000 Y1128.3700
M3S0
G4 P0.5; Tool On
G1 F300 Z0.0000
G1 F15000 X844.0000 Y1128.3700 Z0.0000
M3S245
G4 P0.5; Tool Off

G0 Z0; move to z-safe height
G0 X844.0000 Y1140.3700
M3S0
G4 P0.5; Tool On
G1 F300 Z0.0000
G1 F15000 X6.0000 Y1140.3700 Z0.0000
M3S245
G4 P0.5; Tool Off
; retracting back to z-safe
G0 Z0

; Plotter Mode Complete
