; GCODE Generated by cam.openbuilds.com on 2023-04-09 
G21 ; mm-mode
G54; Work Coordinates
G21; mm-mode
G90; Absolute Positioning
; Plotter Mode Active

; Operation 0: Pen Plotter: (lines fill)
; Pen Diameter: 2

G0 Z0; move to z-safe height
G0 F1000 X10.0000 Y14.0000
M3S0
G4 P0.5; Tool On
G1 F300 Z0.0000
G1 F15000 X1190.0000 Y14.0000 Z0.0000
M3S245
G4 P0.5; Tool Off

G0 Z0; move to z-safe height
G0 X1190.0000 Y34.0000
M3S0
G4 P0.5; Tool On
G1 F300 Z0.0000
G1 F15000 X10.0000 Y34.0000 Z0.0000
M3S245
G4 P0.5; Tool Off

G0 Z0; move to z-safe height
G0 X10.0000 Y54.0000
M3S0
G4 P0.5; Tool On
G1 F300 Z0.0000
G1 F15000 X1190.0000 Y54.0000 Z0.0000
M3S245
G4 P0.5; Tool Off

G0 Z0; move to z-safe height
G0 X1190.0000 Y74.0000
M3S0
G4 P0.5; Tool On
G1 F300 Z0.0000
G1 F15000 X10.0000 Y74.0000 Z0.0000
M3S245
G4 P0.5; Tool Off

G0 Z0; move to z-safe height
G0 X10.0000 Y94.0000
M3S0
G4 P0.5; Tool On
G1 F300 Z0.0000
G1 F15000 X1190.0000 Y94.0000 Z0.0000
M3S245
G4 P0.5; Tool Off

G0 Z0; move to z-safe height
G0 X1190.0000 Y114.0000
M3S0
G4 P0.5; Tool On
G1 F300 Z0.0000
G1 F15000 X10.0000 Y114.0000 Z0.0000
M3S245
G4 P0.5; Tool Off

G0 Z0; move to z-safe height
G0 X10.0000 Y134.0000
M3S0
G4 P0.5; Tool On
G1 F300 Z0.0000
G1 F15000 X1190.0000 Y134.0000 Z0.0000
M3S245
G4 P0.5; Tool Off

G0 Z0; move to z-safe height
G0 X1190.0000 Y154.0000
M3S0
G4 P0.5; Tool On
G1 F300 Z0.0000
G1 F15000 X10.0000 Y154.0000 Z0.0000
M3S245
G4 P0.5; Tool Off

G0 Z0; move to z-safe height
G0 X10.0000 Y174.0000
M3S0
G4 P0.5; Tool On
G1 F300 Z0.0000
G1 F15000 X1190.0000 Y174.0000 Z0.0000
M3S245
G4 P0.5; Tool Off

G0 Z0; move to z-safe height
G0 X1190.0000 Y194.0000
M3S0
G4 P0.5; Tool On
G1 F300 Z0.0000
G1 F15000 X10.0000 Y194.0000 Z0.0000
M3S245
G4 P0.5; Tool Off

G0 Z0; move to z-safe height
G0 X10.0000 Y214.0000
M3S0
G4 P0.5; Tool On
G1 F300 Z0.0000
G1 F15000 X1190.0000 Y214.0000 Z0.0000
M3S245
G4 P0.5; Tool Off

G0 Z0; move to z-safe height
G0 X1190.0000 Y234.0000
M3S0
G4 P0.5; Tool On
G1 F300 Z0.0000
G1 F15000 X10.0000 Y234.0000 Z0.0000
M3S245
G4 P0.5; Tool Off

G0 Z0; move to z-safe height
G0 X10.0000 Y254.0000
M3S0
G4 P0.5; Tool On
G1 F300 Z0.0000
G1 F15000 X1190.0000 Y254.0000 Z0.0000
M3S245
G4 P0.5; Tool Off

G0 Z0; move to z-safe height
G0 X1190.0000 Y274.0000
M3S0
G4 P0.5; Tool On
G1 F300 Z0.0000
G1 F15000 X10.0000 Y274.0000 Z0.0000
M3S245
G4 P0.5; Tool Off

G0 Z0; move to z-safe height
G0 X10.0000 Y294.0000
M3S0
G4 P0.5; Tool On
G1 F300 Z0.0000
G1 F15000 X1190.0000 Y294.0000 Z0.0000
M3S245
G4 P0.5; Tool Off

G0 Z0; move to z-safe height
G0 X1190.0000 Y314.0000
M3S0
G4 P0.5; Tool On
G1 F300 Z0.0000
G1 F15000 X10.0000 Y314.0000 Z0.0000
M3S245
G4 P0.5; Tool Off

G0 Z0; move to z-safe height
G0 X10.0000 Y334.0000
M3S0
G4 P0.5; Tool On
G1 F300 Z0.0000
G1 F15000 X1190.0000 Y334.0000 Z0.0000
M3S245
G4 P0.5; Tool Off

G0 Z0; move to z-safe height
G0 X1190.0000 Y354.0000
M3S0
G4 P0.5; Tool On
G1 F300 Z0.0000
G1 F15000 X10.0000 Y354.0000 Z0.0000
M3S245
G4 P0.5; Tool Off

G0 Z0; move to z-safe height
G0 X10.0000 Y374.0000
M3S0
G4 P0.5; Tool On
G1 F300 Z0.0000
G1 F15000 X1190.0000 Y374.0000 Z0.0000
M3S245
G4 P0.5; Tool Off

G0 Z0; move to z-safe height
G0 X1190.0000 Y394.0000
M3S0
G4 P0.5; Tool On
G1 F300 Z0.0000
G1 F15000 X10.0000 Y394.0000 Z0.0000
M3S245
G4 P0.5; Tool Off

G0 Z0; move to z-safe height
G0 X10.0000 Y414.0000
M3S0
G4 P0.5; Tool On
G1 F300 Z0.0000
G1 F15000 X1190.0000 Y414.0000 Z0.0000
M3S245
G4 P0.5; Tool Off

G0 Z0; move to z-safe height
G0 X1190.0000 Y434.0000
M3S0
G4 P0.5; Tool On
G1 F300 Z0.0000
G1 F15000 X10.0000 Y434.0000 Z0.0000
M3S245
G4 P0.5; Tool Off

G0 Z0; move to z-safe height
G0 X10.0000 Y454.0000
M3S0
G4 P0.5; Tool On
G1 F300 Z0.0000
G1 F15000 X1190.0000 Y454.0000 Z0.0000
M3S245
G4 P0.5; Tool Off

G0 Z0; move to z-safe height
G0 X1190.0000 Y474.0000
M3S0
G4 P0.5; Tool On
G1 F300 Z0.0000
G1 F15000 X10.0000 Y474.0000 Z0.0000
M3S245
G4 P0.5; Tool Off

G0 Z0; move to z-safe height
G0 X10.0000 Y494.0000
M3S0
G4 P0.5; Tool On
G1 F300 Z0.0000
G1 F15000 X1190.0000 Y494.0000 Z0.0000
M3S245
G4 P0.5; Tool Off

G0 Z0; move to z-safe height
G0 X1190.0000 Y514.0000
M3S0
G4 P0.5; Tool On
G1 F300 Z0.0000
G1 F15000 X10.0000 Y514.0000 Z0.0000
M3S245
G4 P0.5; Tool Off

G0 Z0; move to z-safe height
G0 X10.0000 Y534.0000
M3S0
G4 P0.5; Tool On
G1 F300 Z0.0000
G1 F15000 X1190.0000 Y534.0000 Z0.0000
M3S245
G4 P0.5; Tool Off

G0 Z0; move to z-safe height
G0 X1190.0000 Y554.0000
M3S0
G4 P0.5; Tool On
G1 F300 Z0.0000
G1 F15000 X10.0000 Y554.0000 Z0.0000
M3S245
G4 P0.5; Tool Off

G0 Z0; move to z-safe height
G0 X10.0000 Y574.0000
M3S0
G4 P0.5; Tool On
G1 F300 Z0.0000
G1 F15000 X1190.0000 Y574.0000 Z0.0000
M3S245
G4 P0.5; Tool Off

G0 Z0; move to z-safe height
G0 X1190.0000 Y594.0000
M3S0
G4 P0.5; Tool On
G1 F300 Z0.0000
G1 F15000 X10.0000 Y594.0000 Z0.0000
M3S245
G4 P0.5; Tool Off

G0 Z0; move to z-safe height
G0 X10.0000 Y614.0000
M3S0
G4 P0.5; Tool On
G1 F300 Z0.0000
G1 F15000 X1190.0000 Y614.0000 Z0.0000
M3S245
G4 P0.5; Tool Off

G0 Z0; move to z-safe height
G0 X1190.0000 Y634.0000
M3S0
G4 P0.5; Tool On
G1 F300 Z0.0000
G1 F15000 X10.0000 Y634.0000 Z0.0000
M3S245
G4 P0.5; Tool Off

G0 Z0; move to z-safe height
G0 X10.0000 Y654.0000
M3S0
G4 P0.5; Tool On
G1 F300 Z0.0000
G1 F15000 X1190.0000 Y654.0000 Z0.0000
M3S245
G4 P0.5; Tool Off

G0 Z0; move to z-safe height
G0 X1190.0000 Y674.0000
M3S0
G4 P0.5; Tool On
G1 F300 Z0.0000
G1 F15000 X10.0000 Y674.0000 Z0.0000
M3S245
G4 P0.5; Tool Off

G0 Z0; move to z-safe height
G0 X10.0000 Y694.0000
M3S0
G4 P0.5; Tool On
G1 F300 Z0.0000
G1 F15000 X1190.0000 Y694.0000 Z0.0000
M3S245
G4 P0.5; Tool Off

G0 Z0; move to z-safe height
G0 X1190.0000 Y714.0000
M3S0
G4 P0.5; Tool On
G1 F300 Z0.0000
G1 F15000 X10.0000 Y714.0000 Z0.0000
M3S245
G4 P0.5; Tool Off

G0 Z0; move to z-safe height
G0 X10.0000 Y734.0000
M3S0
G4 P0.5; Tool On
G1 F300 Z0.0000
G1 F15000 X1190.0000 Y734.0000 Z0.0000
M3S245
G4 P0.5; Tool Off

G0 Z0; move to z-safe height
G0 X1190.0000 Y754.0000
M3S0
G4 P0.5; Tool On
G1 F300 Z0.0000
G1 F15000 X10.0000 Y754.0000 Z0.0000
M3S245
G4 P0.5; Tool Off

G0 Z0; move to z-safe height
G0 X10.0000 Y774.0000
M3S0
G4 P0.5; Tool On
G1 F300 Z0.0000
G1 F15000 X1190.0000 Y774.0000 Z0.0000
M3S245
G4 P0.5; Tool Off

G0 Z0; move to z-safe height
G0 X1190.0000 Y794.0000
M3S0
G4 P0.5; Tool On
G1 F300 Z0.0000
G1 F15000 X10.0000 Y794.0000 Z0.0000
M3S245
G4 P0.5; Tool Off

G0 Z0; move to z-safe height
G0 X10.0000 Y814.0000
M3S0
G4 P0.5; Tool On
G1 F300 Z0.0000
G1 F15000 X1190.0000 Y814.0000 Z0.0000
M3S245
G4 P0.5; Tool Off

G0 Z0; move to z-safe height
G0 X1190.0000 Y834.0000
M3S0
G4 P0.5; Tool On
G1 F300 Z0.0000
G1 F15000 X10.0000 Y834.0000 Z0.0000
M3S245
G4 P0.5; Tool Off

G0 Z0; move to z-safe height
G0 X10.0000 Y854.0000
M3S0
G4 P0.5; Tool On
G1 F300 Z0.0000
G1 F15000 X1190.0000 Y854.0000 Z0.0000
M3S245
G4 P0.5; Tool Off

G0 Z0; move to z-safe height
G0 X1190.0000 Y874.0000
M3S0
G4 P0.5; Tool On
G1 F300 Z0.0000
G1 F15000 X10.0000 Y874.0000 Z0.0000
M3S245
G4 P0.5; Tool Off
; retracting back to z-safe
G0 Z0

; Plotter Mode Complete
