; GCODE Generated by cam.openbuilds.com on 2023-04-09 
G21 ; mm-mode
G54; Work Coordinates
G21; mm-mode
G90; Absolute Positioning
; Plotter Mode Active

; Operation 0: Pen Plotter: (lines fill)
; Pen Diameter: 2

G0 Z0; move to z-safe height
G0 F1000 X1193.0000 Y17.8000
M3S0
G4 P0.5; Tool On
G1 F300 Z0.0000
G1 F15000 X7.0000 Y17.8000 Z0.0000
M3S245
G4 P0.5; Tool Off

G0 Z0; move to z-safe height
G0 X7.0000 Y31.8000
M3S0
G4 P0.5; Tool On
G1 F300 Z0.0000
G1 F15000 X1193.0000 Y31.8000 Z0.0000
M3S245
G4 P0.5; Tool Off

G0 Z0; move to z-safe height
G0 X1193.0000 Y45.8000
M3S0
G4 P0.5; Tool On
G1 F300 Z0.0000
G1 F15000 X7.0000 Y45.8000 Z0.0000
M3S245
G4 P0.5; Tool Off

G0 Z0; move to z-safe height
G0 X7.0000 Y59.8000
M3S0
G4 P0.5; Tool On
G1 F300 Z0.0000
G1 F15000 X1193.0000 Y59.8000 Z0.0000
M3S245
G4 P0.5; Tool Off

G0 Z0; move to z-safe height
G0 X1193.0000 Y73.8000
M3S0
G4 P0.5; Tool On
G1 F300 Z0.0000
G1 F15000 X7.0000 Y73.8000 Z0.0000
M3S245
G4 P0.5; Tool Off

G0 Z0; move to z-safe height
G0 X7.0000 Y87.8000
M3S0
G4 P0.5; Tool On
G1 F300 Z0.0000
G1 F15000 X1193.0000 Y87.8000 Z0.0000
M3S245
G4 P0.5; Tool Off

G0 Z0; move to z-safe height
G0 X1193.0000 Y101.8000
M3S0
G4 P0.5; Tool On
G1 F300 Z0.0000
G1 F15000 X7.0000 Y101.8000 Z0.0000
M3S245
G4 P0.5; Tool Off

G0 Z0; move to z-safe height
G0 X7.0000 Y115.8000
M3S0
G4 P0.5; Tool On
G1 F300 Z0.0000
G1 F15000 X1193.0000 Y115.8000 Z0.0000
M3S245
G4 P0.5; Tool Off

G0 Z0; move to z-safe height
G0 X1193.0000 Y129.8000
M3S0
G4 P0.5; Tool On
G1 F300 Z0.0000
G1 F15000 X7.0000 Y129.8000 Z0.0000
M3S245
G4 P0.5; Tool Off

G0 Z0; move to z-safe height
G0 X7.0000 Y143.8000
M3S0
G4 P0.5; Tool On
G1 F300 Z0.0000
G1 F15000 X1193.0000 Y143.8000 Z0.0000
M3S245
G4 P0.5; Tool Off

G0 Z0; move to z-safe height
G0 X1193.0000 Y157.8000
M3S0
G4 P0.5; Tool On
G1 F300 Z0.0000
G1 F15000 X7.0000 Y157.8000 Z0.0000
M3S245
G4 P0.5; Tool Off

G0 Z0; move to z-safe height
G0 X7.0000 Y171.8000
M3S0
G4 P0.5; Tool On
G1 F300 Z0.0000
G1 F15000 X1193.0000 Y171.8000 Z0.0000
M3S245
G4 P0.5; Tool Off

G0 Z0; move to z-safe height
G0 X1193.0000 Y185.8000
M3S0
G4 P0.5; Tool On
G1 F300 Z0.0000
G1 F15000 X7.0000 Y185.8000 Z0.0000
M3S245
G4 P0.5; Tool Off

G0 Z0; move to z-safe height
G0 X7.0000 Y199.8000
M3S0
G4 P0.5; Tool On
G1 F300 Z0.0000
G1 F15000 X1193.0000 Y199.8000 Z0.0000
M3S245
G4 P0.5; Tool Off

G0 Z0; move to z-safe height
G0 X1193.0000 Y213.8000
M3S0
G4 P0.5; Tool On
G1 F300 Z0.0000
G1 F15000 X7.0000 Y213.8000 Z0.0000
M3S245
G4 P0.5; Tool Off

G0 Z0; move to z-safe height
G0 X7.0000 Y227.8000
M3S0
G4 P0.5; Tool On
G1 F300 Z0.0000
G1 F15000 X1193.0000 Y227.8000 Z0.0000
M3S245
G4 P0.5; Tool Off

G0 Z0; move to z-safe height
G0 X1193.0000 Y241.8000
M3S0
G4 P0.5; Tool On
G1 F300 Z0.0000
G1 F15000 X7.0000 Y241.8000 Z0.0000
M3S245
G4 P0.5; Tool Off

G0 Z0; move to z-safe height
G0 X7.0000 Y255.8000
M3S0
G4 P0.5; Tool On
G1 F300 Z0.0000
G1 F15000 X1193.0000 Y255.8000 Z0.0000
M3S245
G4 P0.5; Tool Off

G0 Z0; move to z-safe height
G0 X1193.0000 Y269.8000
M3S0
G4 P0.5; Tool On
G1 F300 Z0.0000
G1 F15000 X7.0000 Y269.8000 Z0.0000
M3S245
G4 P0.5; Tool Off

G0 Z0; move to z-safe height
G0 X7.0000 Y283.8000
M3S0
G4 P0.5; Tool On
G1 F300 Z0.0000
G1 F15000 X1193.0000 Y283.8000 Z0.0000
M3S245
G4 P0.5; Tool Off

G0 Z0; move to z-safe height
G0 X1193.0000 Y297.8000
M3S0
G4 P0.5; Tool On
G1 F300 Z0.0000
G1 F15000 X7.0000 Y297.8000 Z0.0000
M3S245
G4 P0.5; Tool Off

G0 Z0; move to z-safe height
G0 X7.0000 Y311.8000
M3S0
G4 P0.5; Tool On
G1 F300 Z0.0000
G1 F15000 X1193.0000 Y311.8000 Z0.0000
M3S245
G4 P0.5; Tool Off

G0 Z0; move to z-safe height
G0 X1193.0000 Y325.8000
M3S0
G4 P0.5; Tool On
G1 F300 Z0.0000
G1 F15000 X7.0000 Y325.8000 Z0.0000
M3S245
G4 P0.5; Tool Off

G0 Z0; move to z-safe height
G0 X7.0000 Y339.8000
M3S0
G4 P0.5; Tool On
G1 F300 Z0.0000
G1 F15000 X1193.0000 Y339.8000 Z0.0000
M3S245
G4 P0.5; Tool Off

G0 Z0; move to z-safe height
G0 X1193.0000 Y353.8000
M3S0
G4 P0.5; Tool On
G1 F300 Z0.0000
G1 F15000 X7.0000 Y353.8000 Z0.0000
M3S245
G4 P0.5; Tool Off

G0 Z0; move to z-safe height
G0 X7.0000 Y367.8000
M3S0
G4 P0.5; Tool On
G1 F300 Z0.0000
G1 F15000 X1193.0000 Y367.8000 Z0.0000
M3S245
G4 P0.5; Tool Off

G0 Z0; move to z-safe height
G0 X1193.0000 Y381.8000
M3S0
G4 P0.5; Tool On
G1 F300 Z0.0000
G1 F15000 X7.0000 Y381.8000 Z0.0000
M3S245
G4 P0.5; Tool Off

G0 Z0; move to z-safe height
G0 X7.0000 Y395.8000
M3S0
G4 P0.5; Tool On
G1 F300 Z0.0000
G1 F15000 X1193.0000 Y395.8000 Z0.0000
M3S245
G4 P0.5; Tool Off

G0 Z0; move to z-safe height
G0 X1193.0000 Y409.8000
M3S0
G4 P0.5; Tool On
G1 F300 Z0.0000
G1 F15000 X7.0000 Y409.8000 Z0.0000
M3S245
G4 P0.5; Tool Off

G0 Z0; move to z-safe height
G0 X7.0000 Y423.8000
M3S0
G4 P0.5; Tool On
G1 F300 Z0.0000
G1 F15000 X1193.0000 Y423.8000 Z0.0000
M3S245
G4 P0.5; Tool Off

G0 Z0; move to z-safe height
G0 X1193.0000 Y437.8000
M3S0
G4 P0.5; Tool On
G1 F300 Z0.0000
G1 F15000 X7.0000 Y437.8000 Z0.0000
M3S245
G4 P0.5; Tool Off

G0 Z0; move to z-safe height
G0 X7.0000 Y451.8000
M3S0
G4 P0.5; Tool On
G1 F300 Z0.0000
G1 F15000 X1193.0000 Y451.8000 Z0.0000
M3S245
G4 P0.5; Tool Off

G0 Z0; move to z-safe height
G0 X1193.0000 Y465.8000
M3S0
G4 P0.5; Tool On
G1 F300 Z0.0000
G1 F15000 X7.0000 Y465.8000 Z0.0000
M3S245
G4 P0.5; Tool Off

G0 Z0; move to z-safe height
G0 X7.0000 Y479.8000
M3S0
G4 P0.5; Tool On
G1 F300 Z0.0000
G1 F15000 X1193.0000 Y479.8000 Z0.0000
M3S245
G4 P0.5; Tool Off

G0 Z0; move to z-safe height
G0 X1193.0000 Y493.8000
M3S0
G4 P0.5; Tool On
G1 F300 Z0.0000
G1 F15000 X7.0000 Y493.8000 Z0.0000
M3S245
G4 P0.5; Tool Off

G0 Z0; move to z-safe height
G0 X7.0000 Y507.8000
M3S0
G4 P0.5; Tool On
G1 F300 Z0.0000
G1 F15000 X1193.0000 Y507.8000 Z0.0000
M3S245
G4 P0.5; Tool Off

G0 Z0; move to z-safe height
G0 X1193.0000 Y521.8000
M3S0
G4 P0.5; Tool On
G1 F300 Z0.0000
G1 F15000 X7.0000 Y521.8000 Z0.0000
M3S245
G4 P0.5; Tool Off

G0 Z0; move to z-safe height
G0 X7.0000 Y535.8000
M3S0
G4 P0.5; Tool On
G1 F300 Z0.0000
G1 F15000 X1193.0000 Y535.8000 Z0.0000
M3S245
G4 P0.5; Tool Off

G0 Z0; move to z-safe height
G0 X1193.0000 Y549.8000
M3S0
G4 P0.5; Tool On
G1 F300 Z0.0000
G1 F15000 X7.0000 Y549.8000 Z0.0000
M3S245
G4 P0.5; Tool Off

G0 Z0; move to z-safe height
G0 X7.0000 Y563.8000
M3S0
G4 P0.5; Tool On
G1 F300 Z0.0000
G1 F15000 X1193.0000 Y563.8000 Z0.0000
M3S245
G4 P0.5; Tool Off

G0 Z0; move to z-safe height
G0 X1193.0000 Y577.8000
M3S0
G4 P0.5; Tool On
G1 F300 Z0.0000
G1 F15000 X7.0000 Y577.8000 Z0.0000
M3S245
G4 P0.5; Tool Off

G0 Z0; move to z-safe height
G0 X7.0000 Y591.8000
M3S0
G4 P0.5; Tool On
G1 F300 Z0.0000
G1 F15000 X1193.0000 Y591.8000 Z0.0000
M3S245
G4 P0.5; Tool Off

G0 Z0; move to z-safe height
G0 X1193.0000 Y605.8000
M3S0
G4 P0.5; Tool On
G1 F300 Z0.0000
G1 F15000 X7.0000 Y605.8000 Z0.0000
M3S245
G4 P0.5; Tool Off

G0 Z0; move to z-safe height
G0 X7.0000 Y619.8000
M3S0
G4 P0.5; Tool On
G1 F300 Z0.0000
G1 F15000 X1193.0000 Y619.8000 Z0.0000
M3S245
G4 P0.5; Tool Off

G0 Z0; move to z-safe height
G0 X1193.0000 Y633.8000
M3S0
G4 P0.5; Tool On
G1 F300 Z0.0000
G1 F15000 X7.0000 Y633.8000 Z0.0000
M3S245
G4 P0.5; Tool Off

G0 Z0; move to z-safe height
G0 X7.0000 Y647.8000
M3S0
G4 P0.5; Tool On
G1 F300 Z0.0000
G1 F15000 X1193.0000 Y647.8000 Z0.0000
M3S245
G4 P0.5; Tool Off

G0 Z0; move to z-safe height
G0 X1193.0000 Y661.8000
M3S0
G4 P0.5; Tool On
G1 F300 Z0.0000
G1 F15000 X7.0000 Y661.8000 Z0.0000
M3S245
G4 P0.5; Tool Off

G0 Z0; move to z-safe height
G0 X7.0000 Y675.8000
M3S0
G4 P0.5; Tool On
G1 F300 Z0.0000
G1 F15000 X1193.0000 Y675.8000 Z0.0000
M3S245
G4 P0.5; Tool Off

G0 Z0; move to z-safe height
G0 X1193.0000 Y689.8000
M3S0
G4 P0.5; Tool On
G1 F300 Z0.0000
G1 F15000 X7.0000 Y689.8000 Z0.0000
M3S245
G4 P0.5; Tool Off

G0 Z0; move to z-safe height
G0 X7.0000 Y703.8000
M3S0
G4 P0.5; Tool On
G1 F300 Z0.0000
G1 F15000 X1193.0000 Y703.8000 Z0.0000
M3S245
G4 P0.5; Tool Off

G0 Z0; move to z-safe height
G0 X1193.0000 Y717.8000
M3S0
G4 P0.5; Tool On
G1 F300 Z0.0000
G1 F15000 X7.0000 Y717.8000 Z0.0000
M3S245
G4 P0.5; Tool Off

G0 Z0; move to z-safe height
G0 X7.0000 Y731.8000
M3S0
G4 P0.5; Tool On
G1 F300 Z0.0000
G1 F15000 X1193.0000 Y731.8000 Z0.0000
M3S245
G4 P0.5; Tool Off

G0 Z0; move to z-safe height
G0 X1193.0000 Y745.8000
M3S0
G4 P0.5; Tool On
G1 F300 Z0.0000
G1 F15000 X7.0000 Y745.8000 Z0.0000
M3S245
G4 P0.5; Tool Off

G0 Z0; move to z-safe height
G0 X7.0000 Y759.8000
M3S0
G4 P0.5; Tool On
G1 F300 Z0.0000
G1 F15000 X1193.0000 Y759.8000 Z0.0000
M3S245
G4 P0.5; Tool Off

G0 Z0; move to z-safe height
G0 X1193.0000 Y773.8000
M3S0
G4 P0.5; Tool On
G1 F300 Z0.0000
G1 F15000 X7.0000 Y773.8000 Z0.0000
M3S245
G4 P0.5; Tool Off

G0 Z0; move to z-safe height
G0 X7.0000 Y787.8000
M3S0
G4 P0.5; Tool On
G1 F300 Z0.0000
G1 F15000 X1193.0000 Y787.8000 Z0.0000
M3S245
G4 P0.5; Tool Off

G0 Z0; move to z-safe height
G0 X1193.0000 Y801.8000
M3S0
G4 P0.5; Tool On
G1 F300 Z0.0000
G1 F15000 X7.0000 Y801.8000 Z0.0000
M3S245
G4 P0.5; Tool Off

G0 Z0; move to z-safe height
G0 X7.0000 Y815.8000
M3S0
G4 P0.5; Tool On
G1 F300 Z0.0000
G1 F15000 X1193.0000 Y815.8000 Z0.0000
M3S245
G4 P0.5; Tool Off

G0 Z0; move to z-safe height
G0 X1193.0000 Y829.8000
M3S0
G4 P0.5; Tool On
G1 F300 Z0.0000
G1 F15000 X7.0000 Y829.8000 Z0.0000
M3S245
G4 P0.5; Tool Off

G0 Z0; move to z-safe height
G0 X7.0000 Y843.8000
M3S0
G4 P0.5; Tool On
G1 F300 Z0.0000
G1 F15000 X1193.0000 Y843.8000 Z0.0000
M3S245
G4 P0.5; Tool Off

G0 Z0; move to z-safe height
G0 X1193.0000 Y857.8000
M3S0
G4 P0.5; Tool On
G1 F300 Z0.0000
G1 F15000 X7.0000 Y857.8000 Z0.0000
M3S245
G4 P0.5; Tool Off

G0 Z0; move to z-safe height
G0 X7.0000 Y871.8000
M3S0
G4 P0.5; Tool On
G1 F300 Z0.0000
G1 F15000 X1193.0000 Y871.8000 Z0.0000
M3S245
G4 P0.5; Tool Off

G0 Z0; move to z-safe height
G0 X1193.0000 Y885.8000
M3S0
G4 P0.5; Tool On
G1 F300 Z0.0000
G1 F15000 X7.0000 Y885.8000 Z0.0000
M3S245
G4 P0.5; Tool Off
; retracting back to z-safe
G0 Z0

; Plotter Mode Complete
