; GCODE Generated by cam.openbuilds.com on 2023-04-09 
G21 ; mm-mode
G54; Work Coordinates
G21; mm-mode
G90; Absolute Positioning
; Plotter Mode Active

; Operation 0: Pen Plotter: (lines fill)
; Pen Diameter: 2

G0 Z0; move to z-safe height
G0 F1000 X1197.0000 Y4.2000
M3S0
G4 P0.5; Tool On
G1 F300 Z0.0000
G1 F15000 X3.0000 Y4.2000 Z0.0000
M3S245
G4 P0.5; Tool Off

G0 Z0; move to z-safe height
G0 X3.0000 Y10.2000
M3S0
G4 P0.5; Tool On
G1 F300 Z0.0000
G1 F15000 X1197.0000 Y10.2000 Z0.0000
M3S245
G4 P0.5; Tool Off

G0 Z0; move to z-safe height
G0 X1197.0000 Y16.2000
M3S0
G4 P0.5; Tool On
G1 F300 Z0.0000
G1 F15000 X3.0000 Y16.2000 Z0.0000
M3S245
G4 P0.5; Tool Off

G0 Z0; move to z-safe height
G0 X3.0000 Y22.2000
M3S0
G4 P0.5; Tool On
G1 F300 Z0.0000
G1 F15000 X1197.0000 Y22.2000 Z0.0000
M3S245
G4 P0.5; Tool Off

G0 Z0; move to z-safe height
G0 X1197.0000 Y28.2000
M3S0
G4 P0.5; Tool On
G1 F300 Z0.0000
G1 F15000 X3.0000 Y28.2000 Z0.0000
M3S245
G4 P0.5; Tool Off

G0 Z0; move to z-safe height
G0 X3.0000 Y34.2000
M3S0
G4 P0.5; Tool On
G1 F300 Z0.0000
G1 F15000 X1197.0000 Y34.2000 Z0.0000
M3S245
G4 P0.5; Tool Off

G0 Z0; move to z-safe height
G0 X1197.0000 Y40.2000
M3S0
G4 P0.5; Tool On
G1 F300 Z0.0000
G1 F15000 X3.0000 Y40.2000 Z0.0000
M3S245
G4 P0.5; Tool Off

G0 Z0; move to z-safe height
G0 X3.0000 Y46.2000
M3S0
G4 P0.5; Tool On
G1 F300 Z0.0000
G1 F15000 X1197.0000 Y46.2000 Z0.0000
M3S245
G4 P0.5; Tool Off

G0 Z0; move to z-safe height
G0 X1197.0000 Y52.2000
M3S0
G4 P0.5; Tool On
G1 F300 Z0.0000
G1 F15000 X3.0000 Y52.2000 Z0.0000
M3S245
G4 P0.5; Tool Off

G0 Z0; move to z-safe height
G0 X3.0000 Y58.2000
M3S0
G4 P0.5; Tool On
G1 F300 Z0.0000
G1 F15000 X1197.0000 Y58.2000 Z0.0000
M3S245
G4 P0.5; Tool Off

G0 Z0; move to z-safe height
G0 X1197.0000 Y64.2000
M3S0
G4 P0.5; Tool On
G1 F300 Z0.0000
G1 F15000 X3.0000 Y64.2000 Z0.0000
M3S245
G4 P0.5; Tool Off

G0 Z0; move to z-safe height
G0 X3.0000 Y70.2000
M3S0
G4 P0.5; Tool On
G1 F300 Z0.0000
G1 F15000 X1197.0000 Y70.2000 Z0.0000
M3S245
G4 P0.5; Tool Off

G0 Z0; move to z-safe height
G0 X1197.0000 Y76.2000
M3S0
G4 P0.5; Tool On
G1 F300 Z0.0000
G1 F15000 X3.0000 Y76.2000 Z0.0000
M3S245
G4 P0.5; Tool Off

G0 Z0; move to z-safe height
G0 X3.0000 Y82.2000
M3S0
G4 P0.5; Tool On
G1 F300 Z0.0000
G1 F15000 X1197.0000 Y82.2000 Z0.0000
M3S245
G4 P0.5; Tool Off

G0 Z0; move to z-safe height
G0 X1197.0000 Y88.2000
M3S0
G4 P0.5; Tool On
G1 F300 Z0.0000
G1 F15000 X3.0000 Y88.2000 Z0.0000
M3S245
G4 P0.5; Tool Off

G0 Z0; move to z-safe height
G0 X3.0000 Y94.2000
M3S0
G4 P0.5; Tool On
G1 F300 Z0.0000
G1 F15000 X1197.0000 Y94.2000 Z0.0000
M3S245
G4 P0.5; Tool Off

G0 Z0; move to z-safe height
G0 X1197.0000 Y100.2000
M3S0
G4 P0.5; Tool On
G1 F300 Z0.0000
G1 F15000 X3.0000 Y100.2000 Z0.0000
M3S245
G4 P0.5; Tool Off

G0 Z0; move to z-safe height
G0 X3.0000 Y106.2000
M3S0
G4 P0.5; Tool On
G1 F300 Z0.0000
G1 F15000 X1197.0000 Y106.2000 Z0.0000
M3S245
G4 P0.5; Tool Off

G0 Z0; move to z-safe height
G0 X1197.0000 Y112.2000
M3S0
G4 P0.5; Tool On
G1 F300 Z0.0000
G1 F15000 X3.0000 Y112.2000 Z0.0000
M3S245
G4 P0.5; Tool Off

G0 Z0; move to z-safe height
G0 X3.0000 Y118.2000
M3S0
G4 P0.5; Tool On
G1 F300 Z0.0000
G1 F15000 X1197.0000 Y118.2000 Z0.0000
M3S245
G4 P0.5; Tool Off

G0 Z0; move to z-safe height
G0 X1197.0000 Y124.2000
M3S0
G4 P0.5; Tool On
G1 F300 Z0.0000
G1 F15000 X3.0000 Y124.2000 Z0.0000
M3S245
G4 P0.5; Tool Off

G0 Z0; move to z-safe height
G0 X3.0000 Y130.2000
M3S0
G4 P0.5; Tool On
G1 F300 Z0.0000
G1 F15000 X1197.0000 Y130.2000 Z0.0000
M3S245
G4 P0.5; Tool Off

G0 Z0; move to z-safe height
G0 X1197.0000 Y136.2000
M3S0
G4 P0.5; Tool On
G1 F300 Z0.0000
G1 F15000 X3.0000 Y136.2000 Z0.0000
M3S245
G4 P0.5; Tool Off

G0 Z0; move to z-safe height
G0 X3.0000 Y142.2000
M3S0
G4 P0.5; Tool On
G1 F300 Z0.0000
G1 F15000 X1197.0000 Y142.2000 Z0.0000
M3S245
G4 P0.5; Tool Off

G0 Z0; move to z-safe height
G0 X1197.0000 Y148.2000
M3S0
G4 P0.5; Tool On
G1 F300 Z0.0000
G1 F15000 X3.0000 Y148.2000 Z0.0000
M3S245
G4 P0.5; Tool Off

G0 Z0; move to z-safe height
G0 X3.0000 Y154.2000
M3S0
G4 P0.5; Tool On
G1 F300 Z0.0000
G1 F15000 X1197.0000 Y154.2000 Z0.0000
M3S245
G4 P0.5; Tool Off

G0 Z0; move to z-safe height
G0 X1197.0000 Y160.2000
M3S0
G4 P0.5; Tool On
G1 F300 Z0.0000
G1 F15000 X3.0000 Y160.2000 Z0.0000
M3S245
G4 P0.5; Tool Off

G0 Z0; move to z-safe height
G0 X3.0000 Y166.2000
M3S0
G4 P0.5; Tool On
G1 F300 Z0.0000
G1 F15000 X1197.0000 Y166.2000 Z0.0000
M3S245
G4 P0.5; Tool Off

G0 Z0; move to z-safe height
G0 X1197.0000 Y172.2000
M3S0
G4 P0.5; Tool On
G1 F300 Z0.0000
G1 F15000 X3.0000 Y172.2000 Z0.0000
M3S245
G4 P0.5; Tool Off

G0 Z0; move to z-safe height
G0 X3.0000 Y178.2000
M3S0
G4 P0.5; Tool On
G1 F300 Z0.0000
G1 F15000 X1197.0000 Y178.2000 Z0.0000
M3S245
G4 P0.5; Tool Off

G0 Z0; move to z-safe height
G0 X1197.0000 Y184.2000
M3S0
G4 P0.5; Tool On
G1 F300 Z0.0000
G1 F15000 X3.0000 Y184.2000 Z0.0000
M3S245
G4 P0.5; Tool Off

G0 Z0; move to z-safe height
G0 X3.0000 Y190.2000
M3S0
G4 P0.5; Tool On
G1 F300 Z0.0000
G1 F15000 X1197.0000 Y190.2000 Z0.0000
M3S245
G4 P0.5; Tool Off

G0 Z0; move to z-safe height
G0 X1197.0000 Y196.2000
M3S0
G4 P0.5; Tool On
G1 F300 Z0.0000
G1 F15000 X3.0000 Y196.2000 Z0.0000
M3S245
G4 P0.5; Tool Off

G0 Z0; move to z-safe height
G0 X3.0000 Y202.2000
M3S0
G4 P0.5; Tool On
G1 F300 Z0.0000
G1 F15000 X1197.0000 Y202.2000 Z0.0000
M3S245
G4 P0.5; Tool Off

G0 Z0; move to z-safe height
G0 X1197.0000 Y208.2000
M3S0
G4 P0.5; Tool On
G1 F300 Z0.0000
G1 F15000 X3.0000 Y208.2000 Z0.0000
M3S245
G4 P0.5; Tool Off

G0 Z0; move to z-safe height
G0 X3.0000 Y214.2000
M3S0
G4 P0.5; Tool On
G1 F300 Z0.0000
G1 F15000 X1197.0000 Y214.2000 Z0.0000
M3S245
G4 P0.5; Tool Off

G0 Z0; move to z-safe height
G0 X1197.0000 Y220.2000
M3S0
G4 P0.5; Tool On
G1 F300 Z0.0000
G1 F15000 X3.0000 Y220.2000 Z0.0000
M3S245
G4 P0.5; Tool Off

G0 Z0; move to z-safe height
G0 X3.0000 Y226.2000
M3S0
G4 P0.5; Tool On
G1 F300 Z0.0000
G1 F15000 X1197.0000 Y226.2000 Z0.0000
M3S245
G4 P0.5; Tool Off

G0 Z0; move to z-safe height
G0 X1197.0000 Y232.2000
M3S0
G4 P0.5; Tool On
G1 F300 Z0.0000
G1 F15000 X3.0000 Y232.2000 Z0.0000
M3S245
G4 P0.5; Tool Off

G0 Z0; move to z-safe height
G0 X3.0000 Y238.2000
M3S0
G4 P0.5; Tool On
G1 F300 Z0.0000
G1 F15000 X1197.0000 Y238.2000 Z0.0000
M3S245
G4 P0.5; Tool Off

G0 Z0; move to z-safe height
G0 X1197.0000 Y244.2000
M3S0
G4 P0.5; Tool On
G1 F300 Z0.0000
G1 F15000 X3.0000 Y244.2000 Z0.0000
M3S245
G4 P0.5; Tool Off

G0 Z0; move to z-safe height
G0 X3.0000 Y250.2000
M3S0
G4 P0.5; Tool On
G1 F300 Z0.0000
G1 F15000 X1197.0000 Y250.2000 Z0.0000
M3S245
G4 P0.5; Tool Off

G0 Z0; move to z-safe height
G0 X1197.0000 Y256.2000
M3S0
G4 P0.5; Tool On
G1 F300 Z0.0000
G1 F15000 X3.0000 Y256.2000 Z0.0000
M3S245
G4 P0.5; Tool Off

G0 Z0; move to z-safe height
G0 X3.0000 Y262.2000
M3S0
G4 P0.5; Tool On
G1 F300 Z0.0000
G1 F15000 X1197.0000 Y262.2000 Z0.0000
M3S245
G4 P0.5; Tool Off

G0 Z0; move to z-safe height
G0 X1197.0000 Y268.2000
M3S0
G4 P0.5; Tool On
G1 F300 Z0.0000
G1 F15000 X3.0000 Y268.2000 Z0.0000
M3S245
G4 P0.5; Tool Off

G0 Z0; move to z-safe height
G0 X3.0000 Y274.2000
M3S0
G4 P0.5; Tool On
G1 F300 Z0.0000
G1 F15000 X1197.0000 Y274.2000 Z0.0000
M3S245
G4 P0.5; Tool Off

G0 Z0; move to z-safe height
G0 X1197.0000 Y280.2000
M3S0
G4 P0.5; Tool On
G1 F300 Z0.0000
G1 F15000 X3.0000 Y280.2000 Z0.0000
M3S245
G4 P0.5; Tool Off

G0 Z0; move to z-safe height
G0 X3.0000 Y286.2000
M3S0
G4 P0.5; Tool On
G1 F300 Z0.0000
G1 F15000 X1197.0000 Y286.2000 Z0.0000
M3S245
G4 P0.5; Tool Off

G0 Z0; move to z-safe height
G0 X1197.0000 Y292.2000
M3S0
G4 P0.5; Tool On
G1 F300 Z0.0000
G1 F15000 X3.0000 Y292.2000 Z0.0000
M3S245
G4 P0.5; Tool Off

G0 Z0; move to z-safe height
G0 X3.0000 Y298.2000
M3S0
G4 P0.5; Tool On
G1 F300 Z0.0000
G1 F15000 X1197.0000 Y298.2000 Z0.0000
M3S245
G4 P0.5; Tool Off

G0 Z0; move to z-safe height
G0 X1197.0000 Y304.2000
M3S0
G4 P0.5; Tool On
G1 F300 Z0.0000
G1 F15000 X3.0000 Y304.2000 Z0.0000
M3S245
G4 P0.5; Tool Off

G0 Z0; move to z-safe height
G0 X3.0000 Y310.2000
M3S0
G4 P0.5; Tool On
G1 F300 Z0.0000
G1 F15000 X1197.0000 Y310.2000 Z0.0000
M3S245
G4 P0.5; Tool Off

G0 Z0; move to z-safe height
G0 X1197.0000 Y316.2000
M3S0
G4 P0.5; Tool On
G1 F300 Z0.0000
G1 F15000 X3.0000 Y316.2000 Z0.0000
M3S245
G4 P0.5; Tool Off

G0 Z0; move to z-safe height
G0 X3.0000 Y322.2000
M3S0
G4 P0.5; Tool On
G1 F300 Z0.0000
G1 F15000 X1197.0000 Y322.2000 Z0.0000
M3S245
G4 P0.5; Tool Off

G0 Z0; move to z-safe height
G0 X1197.0000 Y328.2000
M3S0
G4 P0.5; Tool On
G1 F300 Z0.0000
G1 F15000 X3.0000 Y328.2000 Z0.0000
M3S245
G4 P0.5; Tool Off

G0 Z0; move to z-safe height
G0 X3.0000 Y334.2000
M3S0
G4 P0.5; Tool On
G1 F300 Z0.0000
G1 F15000 X1197.0000 Y334.2000 Z0.0000
M3S245
G4 P0.5; Tool Off

G0 Z0; move to z-safe height
G0 X1197.0000 Y340.2000
M3S0
G4 P0.5; Tool On
G1 F300 Z0.0000
G1 F15000 X3.0000 Y340.2000 Z0.0000
M3S245
G4 P0.5; Tool Off

G0 Z0; move to z-safe height
G0 X3.0000 Y346.2000
M3S0
G4 P0.5; Tool On
G1 F300 Z0.0000
G1 F15000 X1197.0000 Y346.2000 Z0.0000
M3S245
G4 P0.5; Tool Off

G0 Z0; move to z-safe height
G0 X1197.0000 Y352.2000
M3S0
G4 P0.5; Tool On
G1 F300 Z0.0000
G1 F15000 X3.0000 Y352.2000 Z0.0000
M3S245
G4 P0.5; Tool Off

G0 Z0; move to z-safe height
G0 X3.0000 Y358.2000
M3S0
G4 P0.5; Tool On
G1 F300 Z0.0000
G1 F15000 X1197.0000 Y358.2000 Z0.0000
M3S245
G4 P0.5; Tool Off

G0 Z0; move to z-safe height
G0 X1197.0000 Y364.2000
M3S0
G4 P0.5; Tool On
G1 F300 Z0.0000
G1 F15000 X3.0000 Y364.2000 Z0.0000
M3S245
G4 P0.5; Tool Off

G0 Z0; move to z-safe height
G0 X3.0000 Y370.2000
M3S0
G4 P0.5; Tool On
G1 F300 Z0.0000
G1 F15000 X1197.0000 Y370.2000 Z0.0000
M3S245
G4 P0.5; Tool Off

G0 Z0; move to z-safe height
G0 X1197.0000 Y376.2000
M3S0
G4 P0.5; Tool On
G1 F300 Z0.0000
G1 F15000 X3.0000 Y376.2000 Z0.0000
M3S245
G4 P0.5; Tool Off

G0 Z0; move to z-safe height
G0 X3.0000 Y382.2000
M3S0
G4 P0.5; Tool On
G1 F300 Z0.0000
G1 F15000 X1197.0000 Y382.2000 Z0.0000
M3S245
G4 P0.5; Tool Off

G0 Z0; move to z-safe height
G0 X1197.0000 Y388.2000
M3S0
G4 P0.5; Tool On
G1 F300 Z0.0000
G1 F15000 X3.0000 Y388.2000 Z0.0000
M3S245
G4 P0.5; Tool Off

G0 Z0; move to z-safe height
G0 X3.0000 Y394.2000
M3S0
G4 P0.5; Tool On
G1 F300 Z0.0000
G1 F15000 X1197.0000 Y394.2000 Z0.0000
M3S245
G4 P0.5; Tool Off

G0 Z0; move to z-safe height
G0 X1197.0000 Y400.2000
M3S0
G4 P0.5; Tool On
G1 F300 Z0.0000
G1 F15000 X3.0000 Y400.2000 Z0.0000
M3S245
G4 P0.5; Tool Off

G0 Z0; move to z-safe height
G0 X3.0000 Y406.2000
M3S0
G4 P0.5; Tool On
G1 F300 Z0.0000
G1 F15000 X1197.0000 Y406.2000 Z0.0000
M3S245
G4 P0.5; Tool Off

G0 Z0; move to z-safe height
G0 X1197.0000 Y412.2000
M3S0
G4 P0.5; Tool On
G1 F300 Z0.0000
G1 F15000 X3.0000 Y412.2000 Z0.0000
M3S245
G4 P0.5; Tool Off

G0 Z0; move to z-safe height
G0 X3.0000 Y418.2000
M3S0
G4 P0.5; Tool On
G1 F300 Z0.0000
G1 F15000 X1197.0000 Y418.2000 Z0.0000
M3S245
G4 P0.5; Tool Off

G0 Z0; move to z-safe height
G0 X1197.0000 Y424.2000
M3S0
G4 P0.5; Tool On
G1 F300 Z0.0000
G1 F15000 X3.0000 Y424.2000 Z0.0000
M3S245
G4 P0.5; Tool Off

G0 Z0; move to z-safe height
G0 X3.0000 Y430.2000
M3S0
G4 P0.5; Tool On
G1 F300 Z0.0000
G1 F15000 X1197.0000 Y430.2000 Z0.0000
M3S245
G4 P0.5; Tool Off

G0 Z0; move to z-safe height
G0 X1197.0000 Y436.2000
M3S0
G4 P0.5; Tool On
G1 F300 Z0.0000
G1 F15000 X3.0000 Y436.2000 Z0.0000
M3S245
G4 P0.5; Tool Off

G0 Z0; move to z-safe height
G0 X3.0000 Y442.2000
M3S0
G4 P0.5; Tool On
G1 F300 Z0.0000
G1 F15000 X1197.0000 Y442.2000 Z0.0000
M3S245
G4 P0.5; Tool Off

G0 Z0; move to z-safe height
G0 X1197.0000 Y448.2000
M3S0
G4 P0.5; Tool On
G1 F300 Z0.0000
G1 F15000 X3.0000 Y448.2000 Z0.0000
M3S245
G4 P0.5; Tool Off

G0 Z0; move to z-safe height
G0 X3.0000 Y454.2000
M3S0
G4 P0.5; Tool On
G1 F300 Z0.0000
G1 F15000 X1197.0000 Y454.2000 Z0.0000
M3S245
G4 P0.5; Tool Off

G0 Z0; move to z-safe height
G0 X1197.0000 Y460.2000
M3S0
G4 P0.5; Tool On
G1 F300 Z0.0000
G1 F15000 X3.0000 Y460.2000 Z0.0000
M3S245
G4 P0.5; Tool Off

G0 Z0; move to z-safe height
G0 X3.0000 Y466.2000
M3S0
G4 P0.5; Tool On
G1 F300 Z0.0000
G1 F15000 X1197.0000 Y466.2000 Z0.0000
M3S245
G4 P0.5; Tool Off

G0 Z0; move to z-safe height
G0 X1197.0000 Y472.2000
M3S0
G4 P0.5; Tool On
G1 F300 Z0.0000
G1 F15000 X3.0000 Y472.2000 Z0.0000
M3S245
G4 P0.5; Tool Off

G0 Z0; move to z-safe height
G0 X3.0000 Y478.2000
M3S0
G4 P0.5; Tool On
G1 F300 Z0.0000
G1 F15000 X1197.0000 Y478.2000 Z0.0000
M3S245
G4 P0.5; Tool Off

G0 Z0; move to z-safe height
G0 X1197.0000 Y484.2000
M3S0
G4 P0.5; Tool On
G1 F300 Z0.0000
G1 F15000 X3.0000 Y484.2000 Z0.0000
M3S245
G4 P0.5; Tool Off

G0 Z0; move to z-safe height
G0 X3.0000 Y490.2000
M3S0
G4 P0.5; Tool On
G1 F300 Z0.0000
G1 F15000 X1197.0000 Y490.2000 Z0.0000
M3S245
G4 P0.5; Tool Off

G0 Z0; move to z-safe height
G0 X1197.0000 Y496.2000
M3S0
G4 P0.5; Tool On
G1 F300 Z0.0000
G1 F15000 X3.0000 Y496.2000 Z0.0000
M3S245
G4 P0.5; Tool Off

G0 Z0; move to z-safe height
G0 X3.0000 Y502.2000
M3S0
G4 P0.5; Tool On
G1 F300 Z0.0000
G1 F15000 X1197.0000 Y502.2000 Z0.0000
M3S245
G4 P0.5; Tool Off

G0 Z0; move to z-safe height
G0 X1197.0000 Y508.2000
M3S0
G4 P0.5; Tool On
G1 F300 Z0.0000
G1 F15000 X3.0000 Y508.2000 Z0.0000
M3S245
G4 P0.5; Tool Off

G0 Z0; move to z-safe height
G0 X3.0000 Y514.2000
M3S0
G4 P0.5; Tool On
G1 F300 Z0.0000
G1 F15000 X1197.0000 Y514.2000 Z0.0000
M3S245
G4 P0.5; Tool Off

G0 Z0; move to z-safe height
G0 X1197.0000 Y520.2000
M3S0
G4 P0.5; Tool On
G1 F300 Z0.0000
G1 F15000 X3.0000 Y520.2000 Z0.0000
M3S245
G4 P0.5; Tool Off

G0 Z0; move to z-safe height
G0 X3.0000 Y526.2000
M3S0
G4 P0.5; Tool On
G1 F300 Z0.0000
G1 F15000 X1197.0000 Y526.2000 Z0.0000
M3S245
G4 P0.5; Tool Off

G0 Z0; move to z-safe height
G0 X1197.0000 Y532.2000
M3S0
G4 P0.5; Tool On
G1 F300 Z0.0000
G1 F15000 X3.0000 Y532.2000 Z0.0000
M3S245
G4 P0.5; Tool Off

G0 Z0; move to z-safe height
G0 X3.0000 Y538.2000
M3S0
G4 P0.5; Tool On
G1 F300 Z0.0000
G1 F15000 X1197.0000 Y538.2000 Z0.0000
M3S245
G4 P0.5; Tool Off

G0 Z0; move to z-safe height
G0 X1197.0000 Y544.2000
M3S0
G4 P0.5; Tool On
G1 F300 Z0.0000
G1 F15000 X3.0000 Y544.2000 Z0.0000
M3S245
G4 P0.5; Tool Off

G0 Z0; move to z-safe height
G0 X3.0000 Y550.2000
M3S0
G4 P0.5; Tool On
G1 F300 Z0.0000
G1 F15000 X1197.0000 Y550.2000 Z0.0000
M3S245
G4 P0.5; Tool Off

G0 Z0; move to z-safe height
G0 X1197.0000 Y556.2000
M3S0
G4 P0.5; Tool On
G1 F300 Z0.0000
G1 F15000 X3.0000 Y556.2000 Z0.0000
M3S245
G4 P0.5; Tool Off

G0 Z0; move to z-safe height
G0 X3.0000 Y562.2000
M3S0
G4 P0.5; Tool On
G1 F300 Z0.0000
G1 F15000 X1197.0000 Y562.2000 Z0.0000
M3S245
G4 P0.5; Tool Off

G0 Z0; move to z-safe height
G0 X1197.0000 Y568.2000
M3S0
G4 P0.5; Tool On
G1 F300 Z0.0000
G1 F15000 X3.0000 Y568.2000 Z0.0000
M3S245
G4 P0.5; Tool Off

G0 Z0; move to z-safe height
G0 X3.0000 Y574.2000
M3S0
G4 P0.5; Tool On
G1 F300 Z0.0000
G1 F15000 X1197.0000 Y574.2000 Z0.0000
M3S245
G4 P0.5; Tool Off

G0 Z0; move to z-safe height
G0 X1197.0000 Y580.2000
M3S0
G4 P0.5; Tool On
G1 F300 Z0.0000
G1 F15000 X3.0000 Y580.2000 Z0.0000
M3S245
G4 P0.5; Tool Off

G0 Z0; move to z-safe height
G0 X3.0000 Y586.2000
M3S0
G4 P0.5; Tool On
G1 F300 Z0.0000
G1 F15000 X1197.0000 Y586.2000 Z0.0000
M3S245
G4 P0.5; Tool Off

G0 Z0; move to z-safe height
G0 X1197.0000 Y592.2000
M3S0
G4 P0.5; Tool On
G1 F300 Z0.0000
G1 F15000 X3.0000 Y592.2000 Z0.0000
M3S245
G4 P0.5; Tool Off

G0 Z0; move to z-safe height
G0 X3.0000 Y598.2000
M3S0
G4 P0.5; Tool On
G1 F300 Z0.0000
G1 F15000 X1197.0000 Y598.2000 Z0.0000
M3S245
G4 P0.5; Tool Off

G0 Z0; move to z-safe height
G0 X1197.0000 Y604.2000
M3S0
G4 P0.5; Tool On
G1 F300 Z0.0000
G1 F15000 X3.0000 Y604.2000 Z0.0000
M3S245
G4 P0.5; Tool Off

G0 Z0; move to z-safe height
G0 X3.0000 Y610.2000
M3S0
G4 P0.5; Tool On
G1 F300 Z0.0000
G1 F15000 X1197.0000 Y610.2000 Z0.0000
M3S245
G4 P0.5; Tool Off

G0 Z0; move to z-safe height
G0 X1197.0000 Y616.2000
M3S0
G4 P0.5; Tool On
G1 F300 Z0.0000
G1 F15000 X3.0000 Y616.2000 Z0.0000
M3S245
G4 P0.5; Tool Off

G0 Z0; move to z-safe height
G0 X3.0000 Y622.2000
M3S0
G4 P0.5; Tool On
G1 F300 Z0.0000
G1 F15000 X1197.0000 Y622.2000 Z0.0000
M3S245
G4 P0.5; Tool Off

G0 Z0; move to z-safe height
G0 X1197.0000 Y628.2000
M3S0
G4 P0.5; Tool On
G1 F300 Z0.0000
G1 F15000 X3.0000 Y628.2000 Z0.0000
M3S245
G4 P0.5; Tool Off

G0 Z0; move to z-safe height
G0 X3.0000 Y634.2000
M3S0
G4 P0.5; Tool On
G1 F300 Z0.0000
G1 F15000 X1197.0000 Y634.2000 Z0.0000
M3S245
G4 P0.5; Tool Off

G0 Z0; move to z-safe height
G0 X1197.0000 Y640.2000
M3S0
G4 P0.5; Tool On
G1 F300 Z0.0000
G1 F15000 X3.0000 Y640.2000 Z0.0000
M3S245
G4 P0.5; Tool Off

G0 Z0; move to z-safe height
G0 X3.0000 Y646.2000
M3S0
G4 P0.5; Tool On
G1 F300 Z0.0000
G1 F15000 X1197.0000 Y646.2000 Z0.0000
M3S245
G4 P0.5; Tool Off

G0 Z0; move to z-safe height
G0 X1197.0000 Y652.2000
M3S0
G4 P0.5; Tool On
G1 F300 Z0.0000
G1 F15000 X3.0000 Y652.2000 Z0.0000
M3S245
G4 P0.5; Tool Off

G0 Z0; move to z-safe height
G0 X3.0000 Y658.2000
M3S0
G4 P0.5; Tool On
G1 F300 Z0.0000
G1 F15000 X1197.0000 Y658.2000 Z0.0000
M3S245
G4 P0.5; Tool Off

G0 Z0; move to z-safe height
G0 X1197.0000 Y664.2000
M3S0
G4 P0.5; Tool On
G1 F300 Z0.0000
G1 F15000 X3.0000 Y664.2000 Z0.0000
M3S245
G4 P0.5; Tool Off

G0 Z0; move to z-safe height
G0 X3.0000 Y670.2000
M3S0
G4 P0.5; Tool On
G1 F300 Z0.0000
G1 F15000 X1197.0000 Y670.2000 Z0.0000
M3S245
G4 P0.5; Tool Off

G0 Z0; move to z-safe height
G0 X1197.0000 Y676.2000
M3S0
G4 P0.5; Tool On
G1 F300 Z0.0000
G1 F15000 X3.0000 Y676.2000 Z0.0000
M3S245
G4 P0.5; Tool Off

G0 Z0; move to z-safe height
G0 X3.0000 Y682.2000
M3S0
G4 P0.5; Tool On
G1 F300 Z0.0000
G1 F15000 X1197.0000 Y682.2000 Z0.0000
M3S245
G4 P0.5; Tool Off

G0 Z0; move to z-safe height
G0 X1197.0000 Y688.2000
M3S0
G4 P0.5; Tool On
G1 F300 Z0.0000
G1 F15000 X3.0000 Y688.2000 Z0.0000
M3S245
G4 P0.5; Tool Off

G0 Z0; move to z-safe height
G0 X3.0000 Y694.2000
M3S0
G4 P0.5; Tool On
G1 F300 Z0.0000
G1 F15000 X1197.0000 Y694.2000 Z0.0000
M3S245
G4 P0.5; Tool Off

G0 Z0; move to z-safe height
G0 X1197.0000 Y700.2000
M3S0
G4 P0.5; Tool On
G1 F300 Z0.0000
G1 F15000 X3.0000 Y700.2000 Z0.0000
M3S245
G4 P0.5; Tool Off

G0 Z0; move to z-safe height
G0 X3.0000 Y706.2000
M3S0
G4 P0.5; Tool On
G1 F300 Z0.0000
G1 F15000 X1197.0000 Y706.2000 Z0.0000
M3S245
G4 P0.5; Tool Off

G0 Z0; move to z-safe height
G0 X1197.0000 Y712.2000
M3S0
G4 P0.5; Tool On
G1 F300 Z0.0000
G1 F15000 X3.0000 Y712.2000 Z0.0000
M3S245
G4 P0.5; Tool Off

G0 Z0; move to z-safe height
G0 X3.0000 Y718.2000
M3S0
G4 P0.5; Tool On
G1 F300 Z0.0000
G1 F15000 X1197.0000 Y718.2000 Z0.0000
M3S245
G4 P0.5; Tool Off

G0 Z0; move to z-safe height
G0 X1197.0000 Y724.2000
M3S0
G4 P0.5; Tool On
G1 F300 Z0.0000
G1 F15000 X3.0000 Y724.2000 Z0.0000
M3S245
G4 P0.5; Tool Off

G0 Z0; move to z-safe height
G0 X3.0000 Y730.2000
M3S0
G4 P0.5; Tool On
G1 F300 Z0.0000
G1 F15000 X1197.0000 Y730.2000 Z0.0000
M3S245
G4 P0.5; Tool Off

G0 Z0; move to z-safe height
G0 X1197.0000 Y736.2000
M3S0
G4 P0.5; Tool On
G1 F300 Z0.0000
G1 F15000 X3.0000 Y736.2000 Z0.0000
M3S245
G4 P0.5; Tool Off

G0 Z0; move to z-safe height
G0 X3.0000 Y742.2000
M3S0
G4 P0.5; Tool On
G1 F300 Z0.0000
G1 F15000 X1197.0000 Y742.2000 Z0.0000
M3S245
G4 P0.5; Tool Off

G0 Z0; move to z-safe height
G0 X1197.0000 Y748.2000
M3S0
G4 P0.5; Tool On
G1 F300 Z0.0000
G1 F15000 X3.0000 Y748.2000 Z0.0000
M3S245
G4 P0.5; Tool Off

G0 Z0; move to z-safe height
G0 X3.0000 Y754.2000
M3S0
G4 P0.5; Tool On
G1 F300 Z0.0000
G1 F15000 X1197.0000 Y754.2000 Z0.0000
M3S245
G4 P0.5; Tool Off

G0 Z0; move to z-safe height
G0 X1197.0000 Y760.2000
M3S0
G4 P0.5; Tool On
G1 F300 Z0.0000
G1 F15000 X3.0000 Y760.2000 Z0.0000
M3S245
G4 P0.5; Tool Off

G0 Z0; move to z-safe height
G0 X3.0000 Y766.2000
M3S0
G4 P0.5; Tool On
G1 F300 Z0.0000
G1 F15000 X1197.0000 Y766.2000 Z0.0000
M3S245
G4 P0.5; Tool Off

G0 Z0; move to z-safe height
G0 X1197.0000 Y772.2000
M3S0
G4 P0.5; Tool On
G1 F300 Z0.0000
G1 F15000 X3.0000 Y772.2000 Z0.0000
M3S245
G4 P0.5; Tool Off

G0 Z0; move to z-safe height
G0 X3.0000 Y778.2000
M3S0
G4 P0.5; Tool On
G1 F300 Z0.0000
G1 F15000 X1197.0000 Y778.2000 Z0.0000
M3S245
G4 P0.5; Tool Off

G0 Z0; move to z-safe height
G0 X1197.0000 Y784.2000
M3S0
G4 P0.5; Tool On
G1 F300 Z0.0000
G1 F15000 X3.0000 Y784.2000 Z0.0000
M3S245
G4 P0.5; Tool Off

G0 Z0; move to z-safe height
G0 X3.0000 Y790.2000
M3S0
G4 P0.5; Tool On
G1 F300 Z0.0000
G1 F15000 X1197.0000 Y790.2000 Z0.0000
M3S245
G4 P0.5; Tool Off

G0 Z0; move to z-safe height
G0 X1197.0000 Y796.2000
M3S0
G4 P0.5; Tool On
G1 F300 Z0.0000
G1 F15000 X3.0000 Y796.2000 Z0.0000
M3S245
G4 P0.5; Tool Off

G0 Z0; move to z-safe height
G0 X3.0000 Y802.2000
M3S0
G4 P0.5; Tool On
G1 F300 Z0.0000
G1 F15000 X1197.0000 Y802.2000 Z0.0000
M3S245
G4 P0.5; Tool Off

G0 Z0; move to z-safe height
G0 X1197.0000 Y808.2000
M3S0
G4 P0.5; Tool On
G1 F300 Z0.0000
G1 F15000 X3.0000 Y808.2000 Z0.0000
M3S245
G4 P0.5; Tool Off

G0 Z0; move to z-safe height
G0 X3.0000 Y814.2000
M3S0
G4 P0.5; Tool On
G1 F300 Z0.0000
G1 F15000 X1197.0000 Y814.2000 Z0.0000
M3S245
G4 P0.5; Tool Off

G0 Z0; move to z-safe height
G0 X1197.0000 Y820.2000
M3S0
G4 P0.5; Tool On
G1 F300 Z0.0000
G1 F15000 X3.0000 Y820.2000 Z0.0000
M3S245
G4 P0.5; Tool Off

G0 Z0; move to z-safe height
G0 X3.0000 Y826.2000
M3S0
G4 P0.5; Tool On
G1 F300 Z0.0000
G1 F15000 X1197.0000 Y826.2000 Z0.0000
M3S245
G4 P0.5; Tool Off

G0 Z0; move to z-safe height
G0 X1197.0000 Y832.2000
M3S0
G4 P0.5; Tool On
G1 F300 Z0.0000
G1 F15000 X3.0000 Y832.2000 Z0.0000
M3S245
G4 P0.5; Tool Off

G0 Z0; move to z-safe height
G0 X3.0000 Y838.2000
M3S0
G4 P0.5; Tool On
G1 F300 Z0.0000
G1 F15000 X1197.0000 Y838.2000 Z0.0000
M3S245
G4 P0.5; Tool Off

G0 Z0; move to z-safe height
G0 X1197.0000 Y844.2000
M3S0
G4 P0.5; Tool On
G1 F300 Z0.0000
G1 F15000 X3.0000 Y844.2000 Z0.0000
M3S245
G4 P0.5; Tool Off

G0 Z0; move to z-safe height
G0 X3.0000 Y850.2000
M3S0
G4 P0.5; Tool On
G1 F300 Z0.0000
G1 F15000 X1197.0000 Y850.2000 Z0.0000
M3S245
G4 P0.5; Tool Off

G0 Z0; move to z-safe height
G0 X1197.0000 Y856.2000
M3S0
G4 P0.5; Tool On
G1 F300 Z0.0000
G1 F15000 X3.0000 Y856.2000 Z0.0000
M3S245
G4 P0.5; Tool Off

G0 Z0; move to z-safe height
G0 X3.0000 Y862.2000
M3S0
G4 P0.5; Tool On
G1 F300 Z0.0000
G1 F15000 X1197.0000 Y862.2000 Z0.0000
M3S245
G4 P0.5; Tool Off

G0 Z0; move to z-safe height
G0 X1197.0000 Y868.2000
M3S0
G4 P0.5; Tool On
G1 F300 Z0.0000
G1 F15000 X3.0000 Y868.2000 Z0.0000
M3S245
G4 P0.5; Tool Off

G0 Z0; move to z-safe height
G0 X3.0000 Y874.2000
M3S0
G4 P0.5; Tool On
G1 F300 Z0.0000
G1 F15000 X1197.0000 Y874.2000 Z0.0000
M3S245
G4 P0.5; Tool Off

G0 Z0; move to z-safe height
G0 X1197.0000 Y880.2000
M3S0
G4 P0.5; Tool On
G1 F300 Z0.0000
G1 F15000 X3.0000 Y880.2000 Z0.0000
M3S245
G4 P0.5; Tool Off

G0 Z0; move to z-safe height
G0 X3.0000 Y886.2000
M3S0
G4 P0.5; Tool On
G1 F300 Z0.0000
G1 F15000 X1197.0000 Y886.2000 Z0.0000
M3S245
G4 P0.5; Tool Off

G0 Z0; move to z-safe height
G0 X1197.0000 Y892.2000
M3S0
G4 P0.5; Tool On
G1 F300 Z0.0000
G1 F15000 X3.0000 Y892.2000 Z0.0000
M3S245
G4 P0.5; Tool Off
; retracting back to z-safe
G0 Z0

; Plotter Mode Complete
