; GCODE Generated by cam.openbuilds.com on 2023-04-09 
G21 ; mm-mode
G54; Work Coordinates
G21; mm-mode
G90; Absolute Positioning
; Plotter Mode Active

; Operation 0: Pen Plotter: (lines fill)
; Pen Diameter: 2

G0 Z0; move to z-safe height
G0 F1000 X8.0000 Y15.2000
M3S0
G4 P0.5; Tool On
G1 F300 Z0.0000
G1 F15000 X1192.0000 Y15.2000 Z0.0000
M3S245
G4 P0.5; Tool Off

G0 Z0; move to z-safe height
G0 X1192.0000 Y31.2000
M3S0
G4 P0.5; Tool On
G1 F300 Z0.0000
G1 F15000 X8.0000 Y31.2000 Z0.0000
M3S245
G4 P0.5; Tool Off

G0 Z0; move to z-safe height
G0 X8.0000 Y47.2000
M3S0
G4 P0.5; Tool On
G1 F300 Z0.0000
G1 F15000 X1192.0000 Y47.2000 Z0.0000
M3S245
G4 P0.5; Tool Off

G0 Z0; move to z-safe height
G0 X1192.0000 Y63.2000
M3S0
G4 P0.5; Tool On
G1 F300 Z0.0000
G1 F15000 X8.0000 Y63.2000 Z0.0000
M3S245
G4 P0.5; Tool Off

G0 Z0; move to z-safe height
G0 X8.0000 Y79.2000
M3S0
G4 P0.5; Tool On
G1 F300 Z0.0000
G1 F15000 X1192.0000 Y79.2000 Z0.0000
M3S245
G4 P0.5; Tool Off

G0 Z0; move to z-safe height
G0 X1192.0000 Y95.2000
M3S0
G4 P0.5; Tool On
G1 F300 Z0.0000
G1 F15000 X8.0000 Y95.2000 Z0.0000
M3S245
G4 P0.5; Tool Off

G0 Z0; move to z-safe height
G0 X8.0000 Y111.2000
M3S0
G4 P0.5; Tool On
G1 F300 Z0.0000
G1 F15000 X1192.0000 Y111.2000 Z0.0000
M3S245
G4 P0.5; Tool Off

G0 Z0; move to z-safe height
G0 X1192.0000 Y127.2000
M3S0
G4 P0.5; Tool On
G1 F300 Z0.0000
G1 F15000 X8.0000 Y127.2000 Z0.0000
M3S245
G4 P0.5; Tool Off

G0 Z0; move to z-safe height
G0 X8.0000 Y143.2000
M3S0
G4 P0.5; Tool On
G1 F300 Z0.0000
G1 F15000 X1192.0000 Y143.2000 Z0.0000
M3S245
G4 P0.5; Tool Off

G0 Z0; move to z-safe height
G0 X1192.0000 Y159.2000
M3S0
G4 P0.5; Tool On
G1 F300 Z0.0000
G1 F15000 X8.0000 Y159.2000 Z0.0000
M3S245
G4 P0.5; Tool Off

G0 Z0; move to z-safe height
G0 X8.0000 Y175.2000
M3S0
G4 P0.5; Tool On
G1 F300 Z0.0000
G1 F15000 X1192.0000 Y175.2000 Z0.0000
M3S245
G4 P0.5; Tool Off

G0 Z0; move to z-safe height
G0 X1192.0000 Y191.2000
M3S0
G4 P0.5; Tool On
G1 F300 Z0.0000
G1 F15000 X8.0000 Y191.2000 Z0.0000
M3S245
G4 P0.5; Tool Off

G0 Z0; move to z-safe height
G0 X8.0000 Y207.2000
M3S0
G4 P0.5; Tool On
G1 F300 Z0.0000
G1 F15000 X1192.0000 Y207.2000 Z0.0000
M3S245
G4 P0.5; Tool Off

G0 Z0; move to z-safe height
G0 X1192.0000 Y223.2000
M3S0
G4 P0.5; Tool On
G1 F300 Z0.0000
G1 F15000 X8.0000 Y223.2000 Z0.0000
M3S245
G4 P0.5; Tool Off

G0 Z0; move to z-safe height
G0 X8.0000 Y239.2000
M3S0
G4 P0.5; Tool On
G1 F300 Z0.0000
G1 F15000 X1192.0000 Y239.2000 Z0.0000
M3S245
G4 P0.5; Tool Off

G0 Z0; move to z-safe height
G0 X1192.0000 Y255.2000
M3S0
G4 P0.5; Tool On
G1 F300 Z0.0000
G1 F15000 X8.0000 Y255.2000 Z0.0000
M3S245
G4 P0.5; Tool Off

G0 Z0; move to z-safe height
G0 X8.0000 Y271.2000
M3S0
G4 P0.5; Tool On
G1 F300 Z0.0000
G1 F15000 X1192.0000 Y271.2000 Z0.0000
M3S245
G4 P0.5; Tool Off

G0 Z0; move to z-safe height
G0 X1192.0000 Y287.2000
M3S0
G4 P0.5; Tool On
G1 F300 Z0.0000
G1 F15000 X8.0000 Y287.2000 Z0.0000
M3S245
G4 P0.5; Tool Off

G0 Z0; move to z-safe height
G0 X8.0000 Y303.2000
M3S0
G4 P0.5; Tool On
G1 F300 Z0.0000
G1 F15000 X1192.0000 Y303.2000 Z0.0000
M3S245
G4 P0.5; Tool Off

G0 Z0; move to z-safe height
G0 X1192.0000 Y319.2000
M3S0
G4 P0.5; Tool On
G1 F300 Z0.0000
G1 F15000 X8.0000 Y319.2000 Z0.0000
M3S245
G4 P0.5; Tool Off

G0 Z0; move to z-safe height
G0 X8.0000 Y335.2000
M3S0
G4 P0.5; Tool On
G1 F300 Z0.0000
G1 F15000 X1192.0000 Y335.2000 Z0.0000
M3S245
G4 P0.5; Tool Off

G0 Z0; move to z-safe height
G0 X1192.0000 Y351.2000
M3S0
G4 P0.5; Tool On
G1 F300 Z0.0000
G1 F15000 X8.0000 Y351.2000 Z0.0000
M3S245
G4 P0.5; Tool Off

G0 Z0; move to z-safe height
G0 X8.0000 Y367.2000
M3S0
G4 P0.5; Tool On
G1 F300 Z0.0000
G1 F15000 X1192.0000 Y367.2000 Z0.0000
M3S245
G4 P0.5; Tool Off

G0 Z0; move to z-safe height
G0 X1192.0000 Y383.2000
M3S0
G4 P0.5; Tool On
G1 F300 Z0.0000
G1 F15000 X8.0000 Y383.2000 Z0.0000
M3S245
G4 P0.5; Tool Off

G0 Z0; move to z-safe height
G0 X8.0000 Y399.2000
M3S0
G4 P0.5; Tool On
G1 F300 Z0.0000
G1 F15000 X1192.0000 Y399.2000 Z0.0000
M3S245
G4 P0.5; Tool Off

G0 Z0; move to z-safe height
G0 X1192.0000 Y415.2000
M3S0
G4 P0.5; Tool On
G1 F300 Z0.0000
G1 F15000 X8.0000 Y415.2000 Z0.0000
M3S245
G4 P0.5; Tool Off

G0 Z0; move to z-safe height
G0 X8.0000 Y431.2000
M3S0
G4 P0.5; Tool On
G1 F300 Z0.0000
G1 F15000 X1192.0000 Y431.2000 Z0.0000
M3S245
G4 P0.5; Tool Off

G0 Z0; move to z-safe height
G0 X1192.0000 Y447.2000
M3S0
G4 P0.5; Tool On
G1 F300 Z0.0000
G1 F15000 X8.0000 Y447.2000 Z0.0000
M3S245
G4 P0.5; Tool Off

G0 Z0; move to z-safe height
G0 X8.0000 Y463.2000
M3S0
G4 P0.5; Tool On
G1 F300 Z0.0000
G1 F15000 X1192.0000 Y463.2000 Z0.0000
M3S245
G4 P0.5; Tool Off

G0 Z0; move to z-safe height
G0 X1192.0000 Y479.2000
M3S0
G4 P0.5; Tool On
G1 F300 Z0.0000
G1 F15000 X8.0000 Y479.2000 Z0.0000
M3S245
G4 P0.5; Tool Off

G0 Z0; move to z-safe height
G0 X8.0000 Y495.2000
M3S0
G4 P0.5; Tool On
G1 F300 Z0.0000
G1 F15000 X1192.0000 Y495.2000 Z0.0000
M3S245
G4 P0.5; Tool Off

G0 Z0; move to z-safe height
G0 X1192.0000 Y511.2000
M3S0
G4 P0.5; Tool On
G1 F300 Z0.0000
G1 F15000 X8.0000 Y511.2000 Z0.0000
M3S245
G4 P0.5; Tool Off

G0 Z0; move to z-safe height
G0 X8.0000 Y527.2000
M3S0
G4 P0.5; Tool On
G1 F300 Z0.0000
G1 F15000 X1192.0000 Y527.2000 Z0.0000
M3S245
G4 P0.5; Tool Off

G0 Z0; move to z-safe height
G0 X1192.0000 Y543.2000
M3S0
G4 P0.5; Tool On
G1 F300 Z0.0000
G1 F15000 X8.0000 Y543.2000 Z0.0000
M3S245
G4 P0.5; Tool Off

G0 Z0; move to z-safe height
G0 X8.0000 Y559.2000
M3S0
G4 P0.5; Tool On
G1 F300 Z0.0000
G1 F15000 X1192.0000 Y559.2000 Z0.0000
M3S245
G4 P0.5; Tool Off

G0 Z0; move to z-safe height
G0 X1192.0000 Y575.2000
M3S0
G4 P0.5; Tool On
G1 F300 Z0.0000
G1 F15000 X8.0000 Y575.2000 Z0.0000
M3S245
G4 P0.5; Tool Off

G0 Z0; move to z-safe height
G0 X8.0000 Y591.2000
M3S0
G4 P0.5; Tool On
G1 F300 Z0.0000
G1 F15000 X1192.0000 Y591.2000 Z0.0000
M3S245
G4 P0.5; Tool Off

G0 Z0; move to z-safe height
G0 X1192.0000 Y607.2000
M3S0
G4 P0.5; Tool On
G1 F300 Z0.0000
G1 F15000 X8.0000 Y607.2000 Z0.0000
M3S245
G4 P0.5; Tool Off

G0 Z0; move to z-safe height
G0 X8.0000 Y623.2000
M3S0
G4 P0.5; Tool On
G1 F300 Z0.0000
G1 F15000 X1192.0000 Y623.2000 Z0.0000
M3S245
G4 P0.5; Tool Off

G0 Z0; move to z-safe height
G0 X1192.0000 Y639.2000
M3S0
G4 P0.5; Tool On
G1 F300 Z0.0000
G1 F15000 X8.0000 Y639.2000 Z0.0000
M3S245
G4 P0.5; Tool Off

G0 Z0; move to z-safe height
G0 X8.0000 Y655.2000
M3S0
G4 P0.5; Tool On
G1 F300 Z0.0000
G1 F15000 X1192.0000 Y655.2000 Z0.0000
M3S245
G4 P0.5; Tool Off

G0 Z0; move to z-safe height
G0 X1192.0000 Y671.2000
M3S0
G4 P0.5; Tool On
G1 F300 Z0.0000
G1 F15000 X8.0000 Y671.2000 Z0.0000
M3S245
G4 P0.5; Tool Off

G0 Z0; move to z-safe height
G0 X8.0000 Y687.2000
M3S0
G4 P0.5; Tool On
G1 F300 Z0.0000
G1 F15000 X1192.0000 Y687.2000 Z0.0000
M3S245
G4 P0.5; Tool Off

G0 Z0; move to z-safe height
G0 X1192.0000 Y703.2000
M3S0
G4 P0.5; Tool On
G1 F300 Z0.0000
G1 F15000 X8.0000 Y703.2000 Z0.0000
M3S245
G4 P0.5; Tool Off

G0 Z0; move to z-safe height
G0 X8.0000 Y719.2000
M3S0
G4 P0.5; Tool On
G1 F300 Z0.0000
G1 F15000 X1192.0000 Y719.2000 Z0.0000
M3S245
G4 P0.5; Tool Off

G0 Z0; move to z-safe height
G0 X1192.0000 Y735.2000
M3S0
G4 P0.5; Tool On
G1 F300 Z0.0000
G1 F15000 X8.0000 Y735.2000 Z0.0000
M3S245
G4 P0.5; Tool Off

G0 Z0; move to z-safe height
G0 X8.0000 Y751.2000
M3S0
G4 P0.5; Tool On
G1 F300 Z0.0000
G1 F15000 X1192.0000 Y751.2000 Z0.0000
M3S245
G4 P0.5; Tool Off

G0 Z0; move to z-safe height
G0 X1192.0000 Y767.2000
M3S0
G4 P0.5; Tool On
G1 F300 Z0.0000
G1 F15000 X8.0000 Y767.2000 Z0.0000
M3S245
G4 P0.5; Tool Off

G0 Z0; move to z-safe height
G0 X8.0000 Y783.2000
M3S0
G4 P0.5; Tool On
G1 F300 Z0.0000
G1 F15000 X1192.0000 Y783.2000 Z0.0000
M3S245
G4 P0.5; Tool Off

G0 Z0; move to z-safe height
G0 X1192.0000 Y799.2000
M3S0
G4 P0.5; Tool On
G1 F300 Z0.0000
G1 F15000 X8.0000 Y799.2000 Z0.0000
M3S245
G4 P0.5; Tool Off

G0 Z0; move to z-safe height
G0 X8.0000 Y815.2000
M3S0
G4 P0.5; Tool On
G1 F300 Z0.0000
G1 F15000 X1192.0000 Y815.2000 Z0.0000
M3S245
G4 P0.5; Tool Off

G0 Z0; move to z-safe height
G0 X1192.0000 Y831.2000
M3S0
G4 P0.5; Tool On
G1 F300 Z0.0000
G1 F15000 X8.0000 Y831.2000 Z0.0000
M3S245
G4 P0.5; Tool Off

G0 Z0; move to z-safe height
G0 X8.0000 Y847.2000
M3S0
G4 P0.5; Tool On
G1 F300 Z0.0000
G1 F15000 X1192.0000 Y847.2000 Z0.0000
M3S245
G4 P0.5; Tool Off

G0 Z0; move to z-safe height
G0 X1192.0000 Y863.2000
M3S0
G4 P0.5; Tool On
G1 F300 Z0.0000
G1 F15000 X8.0000 Y863.2000 Z0.0000
M3S245
G4 P0.5; Tool Off

G0 Z0; move to z-safe height
G0 X8.0000 Y879.2000
M3S0
G4 P0.5; Tool On
G1 F300 Z0.0000
G1 F15000 X1192.0000 Y879.2000 Z0.0000
M3S245
G4 P0.5; Tool Off
; retracting back to z-safe
G0 Z0

; Plotter Mode Complete
