; GCODE Generated by cam.openbuilds.com on 2023-04-09 
G21 ; mm-mode
G54; Work Coordinates
G21; mm-mode
G90; Absolute Positioning
; Plotter Mode Active

; Operation 0: Pen Plotter: (lines fill)
; Pen Diameter: 2

G0 Z0; move to z-safe height
G0 F1000 X1199.0000 Y1.4000
M3S0
G4 P0.5; Tool On
G1 F300 Z0.0000
G1 F15000 X1.0000 Y1.4000 Z0.0000
M3S245
G4 P0.5; Tool Off

G0 Z0; move to z-safe height
G0 X1.0000 Y3.4000
M3S0
G4 P0.5; Tool On
G1 F300 Z0.0000
G1 F15000 X1199.0000 Y3.4000 Z0.0000
M3S245
G4 P0.5; Tool Off

G0 Z0; move to z-safe height
G0 X1199.0000 Y5.4000
M3S0
G4 P0.5; Tool On
G1 F300 Z0.0000
G1 F15000 X1.0000 Y5.4000 Z0.0000
M3S245
G4 P0.5; Tool Off

G0 Z0; move to z-safe height
G0 X1.0000 Y7.4000
M3S0
G4 P0.5; Tool On
G1 F300 Z0.0000
G1 F15000 X1199.0000 Y7.4000 Z0.0000
M3S245
G4 P0.5; Tool Off

G0 Z0; move to z-safe height
G0 X1199.0000 Y9.4000
M3S0
G4 P0.5; Tool On
G1 F300 Z0.0000
G1 F15000 X1.0000 Y9.4000 Z0.0000
M3S245
G4 P0.5; Tool Off

G0 Z0; move to z-safe height
G0 X1.0000 Y11.4000
M3S0
G4 P0.5; Tool On
G1 F300 Z0.0000
G1 F15000 X1199.0000 Y11.4000 Z0.0000
M3S245
G4 P0.5; Tool Off

G0 Z0; move to z-safe height
G0 X1199.0000 Y13.4000
M3S0
G4 P0.5; Tool On
G1 F300 Z0.0000
G1 F15000 X1.0000 Y13.4000 Z0.0000
M3S245
G4 P0.5; Tool Off

G0 Z0; move to z-safe height
G0 X1.0000 Y15.4000
M3S0
G4 P0.5; Tool On
G1 F300 Z0.0000
G1 F15000 X1199.0000 Y15.4000 Z0.0000
M3S245
G4 P0.5; Tool Off

G0 Z0; move to z-safe height
G0 X1199.0000 Y17.4000
M3S0
G4 P0.5; Tool On
G1 F300 Z0.0000
G1 F15000 X1.0000 Y17.4000 Z0.0000
M3S245
G4 P0.5; Tool Off

G0 Z0; move to z-safe height
G0 X1.0000 Y19.4000
M3S0
G4 P0.5; Tool On
G1 F300 Z0.0000
G1 F15000 X1199.0000 Y19.4000 Z0.0000
M3S245
G4 P0.5; Tool Off

G0 Z0; move to z-safe height
G0 X1199.0000 Y21.4000
M3S0
G4 P0.5; Tool On
G1 F300 Z0.0000
G1 F15000 X1.0000 Y21.4000 Z0.0000
M3S245
G4 P0.5; Tool Off

G0 Z0; move to z-safe height
G0 X1.0000 Y23.4000
M3S0
G4 P0.5; Tool On
G1 F300 Z0.0000
G1 F15000 X1199.0000 Y23.4000 Z0.0000
M3S245
G4 P0.5; Tool Off

G0 Z0; move to z-safe height
G0 X1199.0000 Y25.4000
M3S0
G4 P0.5; Tool On
G1 F300 Z0.0000
G1 F15000 X1.0000 Y25.4000 Z0.0000
M3S245
G4 P0.5; Tool Off

G0 Z0; move to z-safe height
G0 X1.0000 Y27.4000
M3S0
G4 P0.5; Tool On
G1 F300 Z0.0000
G1 F15000 X1199.0000 Y27.4000 Z0.0000
M3S245
G4 P0.5; Tool Off

G0 Z0; move to z-safe height
G0 X1199.0000 Y29.4000
M3S0
G4 P0.5; Tool On
G1 F300 Z0.0000
G1 F15000 X1.0000 Y29.4000 Z0.0000
M3S245
G4 P0.5; Tool Off

G0 Z0; move to z-safe height
G0 X1.0000 Y31.4000
M3S0
G4 P0.5; Tool On
G1 F300 Z0.0000
G1 F15000 X1199.0000 Y31.4000 Z0.0000
M3S245
G4 P0.5; Tool Off

G0 Z0; move to z-safe height
G0 X1199.0000 Y33.4000
M3S0
G4 P0.5; Tool On
G1 F300 Z0.0000
G1 F15000 X1.0000 Y33.4000 Z0.0000
M3S245
G4 P0.5; Tool Off

G0 Z0; move to z-safe height
G0 X1.0000 Y35.4000
M3S0
G4 P0.5; Tool On
G1 F300 Z0.0000
G1 F15000 X1199.0000 Y35.4000 Z0.0000
M3S245
G4 P0.5; Tool Off

G0 Z0; move to z-safe height
G0 X1199.0000 Y37.4000
M3S0
G4 P0.5; Tool On
G1 F300 Z0.0000
G1 F15000 X1.0000 Y37.4000 Z0.0000
M3S245
G4 P0.5; Tool Off

G0 Z0; move to z-safe height
G0 X1.0000 Y39.4000
M3S0
G4 P0.5; Tool On
G1 F300 Z0.0000
G1 F15000 X1199.0000 Y39.4000 Z0.0000
M3S245
G4 P0.5; Tool Off

G0 Z0; move to z-safe height
G0 X1199.0000 Y41.4000
M3S0
G4 P0.5; Tool On
G1 F300 Z0.0000
G1 F15000 X1.0000 Y41.4000 Z0.0000
M3S245
G4 P0.5; Tool Off

G0 Z0; move to z-safe height
G0 X1.0000 Y43.4000
M3S0
G4 P0.5; Tool On
G1 F300 Z0.0000
G1 F15000 X1199.0000 Y43.4000 Z0.0000
M3S245
G4 P0.5; Tool Off

G0 Z0; move to z-safe height
G0 X1199.0000 Y45.4000
M3S0
G4 P0.5; Tool On
G1 F300 Z0.0000
G1 F15000 X1.0000 Y45.4000 Z0.0000
M3S245
G4 P0.5; Tool Off

G0 Z0; move to z-safe height
G0 X1.0000 Y47.4000
M3S0
G4 P0.5; Tool On
G1 F300 Z0.0000
G1 F15000 X1199.0000 Y47.4000 Z0.0000
M3S245
G4 P0.5; Tool Off

G0 Z0; move to z-safe height
G0 X1199.0000 Y49.4000
M3S0
G4 P0.5; Tool On
G1 F300 Z0.0000
G1 F15000 X1.0000 Y49.4000 Z0.0000
M3S245
G4 P0.5; Tool Off

G0 Z0; move to z-safe height
G0 X1.0000 Y51.4000
M3S0
G4 P0.5; Tool On
G1 F300 Z0.0000
G1 F15000 X1199.0000 Y51.4000 Z0.0000
M3S245
G4 P0.5; Tool Off

G0 Z0; move to z-safe height
G0 X1199.0000 Y53.4000
M3S0
G4 P0.5; Tool On
G1 F300 Z0.0000
G1 F15000 X1.0000 Y53.4000 Z0.0000
M3S245
G4 P0.5; Tool Off

G0 Z0; move to z-safe height
G0 X1.0000 Y55.4000
M3S0
G4 P0.5; Tool On
G1 F300 Z0.0000
G1 F15000 X1199.0000 Y55.4000 Z0.0000
M3S245
G4 P0.5; Tool Off

G0 Z0; move to z-safe height
G0 X1199.0000 Y57.4000
M3S0
G4 P0.5; Tool On
G1 F300 Z0.0000
G1 F15000 X1.0000 Y57.4000 Z0.0000
M3S245
G4 P0.5; Tool Off

G0 Z0; move to z-safe height
G0 X1.0000 Y59.4000
M3S0
G4 P0.5; Tool On
G1 F300 Z0.0000
G1 F15000 X1199.0000 Y59.4000 Z0.0000
M3S245
G4 P0.5; Tool Off

G0 Z0; move to z-safe height
G0 X1199.0000 Y61.4000
M3S0
G4 P0.5; Tool On
G1 F300 Z0.0000
G1 F15000 X1.0000 Y61.4000 Z0.0000
M3S245
G4 P0.5; Tool Off

G0 Z0; move to z-safe height
G0 X1.0000 Y63.4000
M3S0
G4 P0.5; Tool On
G1 F300 Z0.0000
G1 F15000 X1199.0000 Y63.4000 Z0.0000
M3S245
G4 P0.5; Tool Off

G0 Z0; move to z-safe height
G0 X1199.0000 Y65.4000
M3S0
G4 P0.5; Tool On
G1 F300 Z0.0000
G1 F15000 X1.0000 Y65.4000 Z0.0000
M3S245
G4 P0.5; Tool Off

G0 Z0; move to z-safe height
G0 X1.0000 Y67.4000
M3S0
G4 P0.5; Tool On
G1 F300 Z0.0000
G1 F15000 X1199.0000 Y67.4000 Z0.0000
M3S245
G4 P0.5; Tool Off

G0 Z0; move to z-safe height
G0 X1199.0000 Y69.4000
M3S0
G4 P0.5; Tool On
G1 F300 Z0.0000
G1 F15000 X1.0000 Y69.4000 Z0.0000
M3S245
G4 P0.5; Tool Off

G0 Z0; move to z-safe height
G0 X1.0000 Y71.4000
M3S0
G4 P0.5; Tool On
G1 F300 Z0.0000
G1 F15000 X1199.0000 Y71.4000 Z0.0000
M3S245
G4 P0.5; Tool Off

G0 Z0; move to z-safe height
G0 X1199.0000 Y73.4000
M3S0
G4 P0.5; Tool On
G1 F300 Z0.0000
G1 F15000 X1.0000 Y73.4000 Z0.0000
M3S245
G4 P0.5; Tool Off

G0 Z0; move to z-safe height
G0 X1.0000 Y75.4000
M3S0
G4 P0.5; Tool On
G1 F300 Z0.0000
G1 F15000 X1199.0000 Y75.4000 Z0.0000
M3S245
G4 P0.5; Tool Off

G0 Z0; move to z-safe height
G0 X1199.0000 Y77.4000
M3S0
G4 P0.5; Tool On
G1 F300 Z0.0000
G1 F15000 X1.0000 Y77.4000 Z0.0000
M3S245
G4 P0.5; Tool Off

G0 Z0; move to z-safe height
G0 X1.0000 Y79.4000
M3S0
G4 P0.5; Tool On
G1 F300 Z0.0000
G1 F15000 X1199.0000 Y79.4000 Z0.0000
M3S245
G4 P0.5; Tool Off

G0 Z0; move to z-safe height
G0 X1199.0000 Y81.4000
M3S0
G4 P0.5; Tool On
G1 F300 Z0.0000
G1 F15000 X1.0000 Y81.4000 Z0.0000
M3S245
G4 P0.5; Tool Off

G0 Z0; move to z-safe height
G0 X1.0000 Y83.4000
M3S0
G4 P0.5; Tool On
G1 F300 Z0.0000
G1 F15000 X1199.0000 Y83.4000 Z0.0000
M3S245
G4 P0.5; Tool Off

G0 Z0; move to z-safe height
G0 X1199.0000 Y85.4000
M3S0
G4 P0.5; Tool On
G1 F300 Z0.0000
G1 F15000 X1.0000 Y85.4000 Z0.0000
M3S245
G4 P0.5; Tool Off

G0 Z0; move to z-safe height
G0 X1.0000 Y87.4000
M3S0
G4 P0.5; Tool On
G1 F300 Z0.0000
G1 F15000 X1199.0000 Y87.4000 Z0.0000
M3S245
G4 P0.5; Tool Off

G0 Z0; move to z-safe height
G0 X1199.0000 Y89.4000
M3S0
G4 P0.5; Tool On
G1 F300 Z0.0000
G1 F15000 X1.0000 Y89.4000 Z0.0000
M3S245
G4 P0.5; Tool Off

G0 Z0; move to z-safe height
G0 X1.0000 Y91.4000
M3S0
G4 P0.5; Tool On
G1 F300 Z0.0000
G1 F15000 X1199.0000 Y91.4000 Z0.0000
M3S245
G4 P0.5; Tool Off

G0 Z0; move to z-safe height
G0 X1199.0000 Y93.4000
M3S0
G4 P0.5; Tool On
G1 F300 Z0.0000
G1 F15000 X1.0000 Y93.4000 Z0.0000
M3S245
G4 P0.5; Tool Off

G0 Z0; move to z-safe height
G0 X1.0000 Y95.4000
M3S0
G4 P0.5; Tool On
G1 F300 Z0.0000
G1 F15000 X1199.0000 Y95.4000 Z0.0000
M3S245
G4 P0.5; Tool Off

G0 Z0; move to z-safe height
G0 X1199.0000 Y97.4000
M3S0
G4 P0.5; Tool On
G1 F300 Z0.0000
G1 F15000 X1.0000 Y97.4000 Z0.0000
M3S245
G4 P0.5; Tool Off

G0 Z0; move to z-safe height
G0 X1.0000 Y99.4000
M3S0
G4 P0.5; Tool On
G1 F300 Z0.0000
G1 F15000 X1199.0000 Y99.4000 Z0.0000
M3S245
G4 P0.5; Tool Off

G0 Z0; move to z-safe height
G0 X1199.0000 Y101.4000
M3S0
G4 P0.5; Tool On
G1 F300 Z0.0000
G1 F15000 X1.0000 Y101.4000 Z0.0000
M3S245
G4 P0.5; Tool Off

G0 Z0; move to z-safe height
G0 X1.0000 Y103.4000
M3S0
G4 P0.5; Tool On
G1 F300 Z0.0000
G1 F15000 X1199.0000 Y103.4000 Z0.0000
M3S245
G4 P0.5; Tool Off

G0 Z0; move to z-safe height
G0 X1199.0000 Y105.4000
M3S0
G4 P0.5; Tool On
G1 F300 Z0.0000
G1 F15000 X1.0000 Y105.4000 Z0.0000
M3S245
G4 P0.5; Tool Off

G0 Z0; move to z-safe height
G0 X1.0000 Y107.4000
M3S0
G4 P0.5; Tool On
G1 F300 Z0.0000
G1 F15000 X1199.0000 Y107.4000 Z0.0000
M3S245
G4 P0.5; Tool Off

G0 Z0; move to z-safe height
G0 X1199.0000 Y109.4000
M3S0
G4 P0.5; Tool On
G1 F300 Z0.0000
G1 F15000 X1.0000 Y109.4000 Z0.0000
M3S245
G4 P0.5; Tool Off

G0 Z0; move to z-safe height
G0 X1.0000 Y111.4000
M3S0
G4 P0.5; Tool On
G1 F300 Z0.0000
G1 F15000 X1199.0000 Y111.4000 Z0.0000
M3S245
G4 P0.5; Tool Off

G0 Z0; move to z-safe height
G0 X1199.0000 Y113.4000
M3S0
G4 P0.5; Tool On
G1 F300 Z0.0000
G1 F15000 X1.0000 Y113.4000 Z0.0000
M3S245
G4 P0.5; Tool Off

G0 Z0; move to z-safe height
G0 X1.0000 Y115.4000
M3S0
G4 P0.5; Tool On
G1 F300 Z0.0000
G1 F15000 X1199.0000 Y115.4000 Z0.0000
M3S245
G4 P0.5; Tool Off

G0 Z0; move to z-safe height
G0 X1199.0000 Y117.4000
M3S0
G4 P0.5; Tool On
G1 F300 Z0.0000
G1 F15000 X1.0000 Y117.4000 Z0.0000
M3S245
G4 P0.5; Tool Off

G0 Z0; move to z-safe height
G0 X1.0000 Y119.4000
M3S0
G4 P0.5; Tool On
G1 F300 Z0.0000
G1 F15000 X1199.0000 Y119.4000 Z0.0000
M3S245
G4 P0.5; Tool Off

G0 Z0; move to z-safe height
G0 X1199.0000 Y121.4000
M3S0
G4 P0.5; Tool On
G1 F300 Z0.0000
G1 F15000 X1.0000 Y121.4000 Z0.0000
M3S245
G4 P0.5; Tool Off

G0 Z0; move to z-safe height
G0 X1.0000 Y123.4000
M3S0
G4 P0.5; Tool On
G1 F300 Z0.0000
G1 F15000 X1199.0000 Y123.4000 Z0.0000
M3S245
G4 P0.5; Tool Off

G0 Z0; move to z-safe height
G0 X1199.0000 Y125.4000
M3S0
G4 P0.5; Tool On
G1 F300 Z0.0000
G1 F15000 X1.0000 Y125.4000 Z0.0000
M3S245
G4 P0.5; Tool Off

G0 Z0; move to z-safe height
G0 X1.0000 Y127.4000
M3S0
G4 P0.5; Tool On
G1 F300 Z0.0000
G1 F15000 X1199.0000 Y127.4000 Z0.0000
M3S245
G4 P0.5; Tool Off

G0 Z0; move to z-safe height
G0 X1199.0000 Y129.4000
M3S0
G4 P0.5; Tool On
G1 F300 Z0.0000
G1 F15000 X1.0000 Y129.4000 Z0.0000
M3S245
G4 P0.5; Tool Off

G0 Z0; move to z-safe height
G0 X1.0000 Y131.4000
M3S0
G4 P0.5; Tool On
G1 F300 Z0.0000
G1 F15000 X1199.0000 Y131.4000 Z0.0000
M3S245
G4 P0.5; Tool Off

G0 Z0; move to z-safe height
G0 X1199.0000 Y133.4000
M3S0
G4 P0.5; Tool On
G1 F300 Z0.0000
G1 F15000 X1.0000 Y133.4000 Z0.0000
M3S245
G4 P0.5; Tool Off

G0 Z0; move to z-safe height
G0 X1.0000 Y135.4000
M3S0
G4 P0.5; Tool On
G1 F300 Z0.0000
G1 F15000 X1199.0000 Y135.4000 Z0.0000
M3S245
G4 P0.5; Tool Off

G0 Z0; move to z-safe height
G0 X1199.0000 Y137.4000
M3S0
G4 P0.5; Tool On
G1 F300 Z0.0000
G1 F15000 X1.0000 Y137.4000 Z0.0000
M3S245
G4 P0.5; Tool Off

G0 Z0; move to z-safe height
G0 X1.0000 Y139.4000
M3S0
G4 P0.5; Tool On
G1 F300 Z0.0000
G1 F15000 X1199.0000 Y139.4000 Z0.0000
M3S245
G4 P0.5; Tool Off

G0 Z0; move to z-safe height
G0 X1199.0000 Y141.4000
M3S0
G4 P0.5; Tool On
G1 F300 Z0.0000
G1 F15000 X1.0000 Y141.4000 Z0.0000
M3S245
G4 P0.5; Tool Off

G0 Z0; move to z-safe height
G0 X1.0000 Y143.4000
M3S0
G4 P0.5; Tool On
G1 F300 Z0.0000
G1 F15000 X1199.0000 Y143.4000 Z0.0000
M3S245
G4 P0.5; Tool Off

G0 Z0; move to z-safe height
G0 X1199.0000 Y145.4000
M3S0
G4 P0.5; Tool On
G1 F300 Z0.0000
G1 F15000 X1.0000 Y145.4000 Z0.0000
M3S245
G4 P0.5; Tool Off

G0 Z0; move to z-safe height
G0 X1.0000 Y147.4000
M3S0
G4 P0.5; Tool On
G1 F300 Z0.0000
G1 F15000 X1199.0000 Y147.4000 Z0.0000
M3S245
G4 P0.5; Tool Off

G0 Z0; move to z-safe height
G0 X1199.0000 Y149.4000
M3S0
G4 P0.5; Tool On
G1 F300 Z0.0000
G1 F15000 X1.0000 Y149.4000 Z0.0000
M3S245
G4 P0.5; Tool Off

G0 Z0; move to z-safe height
G0 X1.0000 Y151.4000
M3S0
G4 P0.5; Tool On
G1 F300 Z0.0000
G1 F15000 X1199.0000 Y151.4000 Z0.0000
M3S245
G4 P0.5; Tool Off

G0 Z0; move to z-safe height
G0 X1199.0000 Y153.4000
M3S0
G4 P0.5; Tool On
G1 F300 Z0.0000
G1 F15000 X1.0000 Y153.4000 Z0.0000
M3S245
G4 P0.5; Tool Off

G0 Z0; move to z-safe height
G0 X1.0000 Y155.4000
M3S0
G4 P0.5; Tool On
G1 F300 Z0.0000
G1 F15000 X1199.0000 Y155.4000 Z0.0000
M3S245
G4 P0.5; Tool Off

G0 Z0; move to z-safe height
G0 X1199.0000 Y157.4000
M3S0
G4 P0.5; Tool On
G1 F300 Z0.0000
G1 F15000 X1.0000 Y157.4000 Z0.0000
M3S245
G4 P0.5; Tool Off

G0 Z0; move to z-safe height
G0 X1.0000 Y159.4000
M3S0
G4 P0.5; Tool On
G1 F300 Z0.0000
G1 F15000 X1199.0000 Y159.4000 Z0.0000
M3S245
G4 P0.5; Tool Off

G0 Z0; move to z-safe height
G0 X1199.0000 Y161.4000
M3S0
G4 P0.5; Tool On
G1 F300 Z0.0000
G1 F15000 X1.0000 Y161.4000 Z0.0000
M3S245
G4 P0.5; Tool Off

G0 Z0; move to z-safe height
G0 X1.0000 Y163.4000
M3S0
G4 P0.5; Tool On
G1 F300 Z0.0000
G1 F15000 X1199.0000 Y163.4000 Z0.0000
M3S245
G4 P0.5; Tool Off

G0 Z0; move to z-safe height
G0 X1199.0000 Y165.4000
M3S0
G4 P0.5; Tool On
G1 F300 Z0.0000
G1 F15000 X1.0000 Y165.4000 Z0.0000
M3S245
G4 P0.5; Tool Off

G0 Z0; move to z-safe height
G0 X1.0000 Y167.4000
M3S0
G4 P0.5; Tool On
G1 F300 Z0.0000
G1 F15000 X1199.0000 Y167.4000 Z0.0000
M3S245
G4 P0.5; Tool Off

G0 Z0; move to z-safe height
G0 X1199.0000 Y169.4000
M3S0
G4 P0.5; Tool On
G1 F300 Z0.0000
G1 F15000 X1.0000 Y169.4000 Z0.0000
M3S245
G4 P0.5; Tool Off

G0 Z0; move to z-safe height
G0 X1.0000 Y171.4000
M3S0
G4 P0.5; Tool On
G1 F300 Z0.0000
G1 F15000 X1199.0000 Y171.4000 Z0.0000
M3S245
G4 P0.5; Tool Off

G0 Z0; move to z-safe height
G0 X1199.0000 Y173.4000
M3S0
G4 P0.5; Tool On
G1 F300 Z0.0000
G1 F15000 X1.0000 Y173.4000 Z0.0000
M3S245
G4 P0.5; Tool Off

G0 Z0; move to z-safe height
G0 X1.0000 Y175.4000
M3S0
G4 P0.5; Tool On
G1 F300 Z0.0000
G1 F15000 X1199.0000 Y175.4000 Z0.0000
M3S245
G4 P0.5; Tool Off

G0 Z0; move to z-safe height
G0 X1199.0000 Y177.4000
M3S0
G4 P0.5; Tool On
G1 F300 Z0.0000
G1 F15000 X1.0000 Y177.4000 Z0.0000
M3S245
G4 P0.5; Tool Off

G0 Z0; move to z-safe height
G0 X1.0000 Y179.4000
M3S0
G4 P0.5; Tool On
G1 F300 Z0.0000
G1 F15000 X1199.0000 Y179.4000 Z0.0000
M3S245
G4 P0.5; Tool Off

G0 Z0; move to z-safe height
G0 X1199.0000 Y181.4000
M3S0
G4 P0.5; Tool On
G1 F300 Z0.0000
G1 F15000 X1.0000 Y181.4000 Z0.0000
M3S245
G4 P0.5; Tool Off

G0 Z0; move to z-safe height
G0 X1.0000 Y183.4000
M3S0
G4 P0.5; Tool On
G1 F300 Z0.0000
G1 F15000 X1199.0000 Y183.4000 Z0.0000
M3S245
G4 P0.5; Tool Off

G0 Z0; move to z-safe height
G0 X1199.0000 Y185.4000
M3S0
G4 P0.5; Tool On
G1 F300 Z0.0000
G1 F15000 X1.0000 Y185.4000 Z0.0000
M3S245
G4 P0.5; Tool Off

G0 Z0; move to z-safe height
G0 X1.0000 Y187.4000
M3S0
G4 P0.5; Tool On
G1 F300 Z0.0000
G1 F15000 X1199.0000 Y187.4000 Z0.0000
M3S245
G4 P0.5; Tool Off

G0 Z0; move to z-safe height
G0 X1199.0000 Y189.4000
M3S0
G4 P0.5; Tool On
G1 F300 Z0.0000
G1 F15000 X1.0000 Y189.4000 Z0.0000
M3S245
G4 P0.5; Tool Off

G0 Z0; move to z-safe height
G0 X1.0000 Y191.4000
M3S0
G4 P0.5; Tool On
G1 F300 Z0.0000
G1 F15000 X1199.0000 Y191.4000 Z0.0000
M3S245
G4 P0.5; Tool Off

G0 Z0; move to z-safe height
G0 X1199.0000 Y193.4000
M3S0
G4 P0.5; Tool On
G1 F300 Z0.0000
G1 F15000 X1.0000 Y193.4000 Z0.0000
M3S245
G4 P0.5; Tool Off

G0 Z0; move to z-safe height
G0 X1.0000 Y195.4000
M3S0
G4 P0.5; Tool On
G1 F300 Z0.0000
G1 F15000 X1199.0000 Y195.4000 Z0.0000
M3S245
G4 P0.5; Tool Off

G0 Z0; move to z-safe height
G0 X1199.0000 Y197.4000
M3S0
G4 P0.5; Tool On
G1 F300 Z0.0000
G1 F15000 X1.0000 Y197.4000 Z0.0000
M3S245
G4 P0.5; Tool Off

G0 Z0; move to z-safe height
G0 X1.0000 Y199.4000
M3S0
G4 P0.5; Tool On
G1 F300 Z0.0000
G1 F15000 X1199.0000 Y199.4000 Z0.0000
M3S245
G4 P0.5; Tool Off

G0 Z0; move to z-safe height
G0 X1199.0000 Y201.4000
M3S0
G4 P0.5; Tool On
G1 F300 Z0.0000
G1 F15000 X1.0000 Y201.4000 Z0.0000
M3S245
G4 P0.5; Tool Off

G0 Z0; move to z-safe height
G0 X1.0000 Y203.4000
M3S0
G4 P0.5; Tool On
G1 F300 Z0.0000
G1 F15000 X1199.0000 Y203.4000 Z0.0000
M3S245
G4 P0.5; Tool Off

G0 Z0; move to z-safe height
G0 X1199.0000 Y205.4000
M3S0
G4 P0.5; Tool On
G1 F300 Z0.0000
G1 F15000 X1.0000 Y205.4000 Z0.0000
M3S245
G4 P0.5; Tool Off

G0 Z0; move to z-safe height
G0 X1.0000 Y207.4000
M3S0
G4 P0.5; Tool On
G1 F300 Z0.0000
G1 F15000 X1199.0000 Y207.4000 Z0.0000
M3S245
G4 P0.5; Tool Off

G0 Z0; move to z-safe height
G0 X1199.0000 Y209.4000
M3S0
G4 P0.5; Tool On
G1 F300 Z0.0000
G1 F15000 X1.0000 Y209.4000 Z0.0000
M3S245
G4 P0.5; Tool Off

G0 Z0; move to z-safe height
G0 X1.0000 Y211.4000
M3S0
G4 P0.5; Tool On
G1 F300 Z0.0000
G1 F15000 X1199.0000 Y211.4000 Z0.0000
M3S245
G4 P0.5; Tool Off

G0 Z0; move to z-safe height
G0 X1199.0000 Y213.4000
M3S0
G4 P0.5; Tool On
G1 F300 Z0.0000
G1 F15000 X1.0000 Y213.4000 Z0.0000
M3S245
G4 P0.5; Tool Off

G0 Z0; move to z-safe height
G0 X1.0000 Y215.4000
M3S0
G4 P0.5; Tool On
G1 F300 Z0.0000
G1 F15000 X1199.0000 Y215.4000 Z0.0000
M3S245
G4 P0.5; Tool Off

G0 Z0; move to z-safe height
G0 X1199.0000 Y217.4000
M3S0
G4 P0.5; Tool On
G1 F300 Z0.0000
G1 F15000 X1.0000 Y217.4000 Z0.0000
M3S245
G4 P0.5; Tool Off

G0 Z0; move to z-safe height
G0 X1.0000 Y219.4000
M3S0
G4 P0.5; Tool On
G1 F300 Z0.0000
G1 F15000 X1199.0000 Y219.4000 Z0.0000
M3S245
G4 P0.5; Tool Off

G0 Z0; move to z-safe height
G0 X1199.0000 Y221.4000
M3S0
G4 P0.5; Tool On
G1 F300 Z0.0000
G1 F15000 X1.0000 Y221.4000 Z0.0000
M3S245
G4 P0.5; Tool Off

G0 Z0; move to z-safe height
G0 X1.0000 Y223.4000
M3S0
G4 P0.5; Tool On
G1 F300 Z0.0000
G1 F15000 X1199.0000 Y223.4000 Z0.0000
M3S245
G4 P0.5; Tool Off

G0 Z0; move to z-safe height
G0 X1199.0000 Y225.4000
M3S0
G4 P0.5; Tool On
G1 F300 Z0.0000
G1 F15000 X1.0000 Y225.4000 Z0.0000
M3S245
G4 P0.5; Tool Off

G0 Z0; move to z-safe height
G0 X1.0000 Y227.4000
M3S0
G4 P0.5; Tool On
G1 F300 Z0.0000
G1 F15000 X1199.0000 Y227.4000 Z0.0000
M3S245
G4 P0.5; Tool Off

G0 Z0; move to z-safe height
G0 X1199.0000 Y229.4000
M3S0
G4 P0.5; Tool On
G1 F300 Z0.0000
G1 F15000 X1.0000 Y229.4000 Z0.0000
M3S245
G4 P0.5; Tool Off

G0 Z0; move to z-safe height
G0 X1.0000 Y231.4000
M3S0
G4 P0.5; Tool On
G1 F300 Z0.0000
G1 F15000 X1199.0000 Y231.4000 Z0.0000
M3S245
G4 P0.5; Tool Off

G0 Z0; move to z-safe height
G0 X1199.0000 Y233.4000
M3S0
G4 P0.5; Tool On
G1 F300 Z0.0000
G1 F15000 X1.0000 Y233.4000 Z0.0000
M3S245
G4 P0.5; Tool Off

G0 Z0; move to z-safe height
G0 X1.0000 Y235.4000
M3S0
G4 P0.5; Tool On
G1 F300 Z0.0000
G1 F15000 X1199.0000 Y235.4000 Z0.0000
M3S245
G4 P0.5; Tool Off

G0 Z0; move to z-safe height
G0 X1199.0000 Y237.4000
M3S0
G4 P0.5; Tool On
G1 F300 Z0.0000
G1 F15000 X1.0000 Y237.4000 Z0.0000
M3S245
G4 P0.5; Tool Off

G0 Z0; move to z-safe height
G0 X1.0000 Y239.4000
M3S0
G4 P0.5; Tool On
G1 F300 Z0.0000
G1 F15000 X1199.0000 Y239.4000 Z0.0000
M3S245
G4 P0.5; Tool Off

G0 Z0; move to z-safe height
G0 X1199.0000 Y241.4000
M3S0
G4 P0.5; Tool On
G1 F300 Z0.0000
G1 F15000 X1.0000 Y241.4000 Z0.0000
M3S245
G4 P0.5; Tool Off

G0 Z0; move to z-safe height
G0 X1.0000 Y243.4000
M3S0
G4 P0.5; Tool On
G1 F300 Z0.0000
G1 F15000 X1199.0000 Y243.4000 Z0.0000
M3S245
G4 P0.5; Tool Off

G0 Z0; move to z-safe height
G0 X1199.0000 Y245.4000
M3S0
G4 P0.5; Tool On
G1 F300 Z0.0000
G1 F15000 X1.0000 Y245.4000 Z0.0000
M3S245
G4 P0.5; Tool Off

G0 Z0; move to z-safe height
G0 X1.0000 Y247.4000
M3S0
G4 P0.5; Tool On
G1 F300 Z0.0000
G1 F15000 X1199.0000 Y247.4000 Z0.0000
M3S245
G4 P0.5; Tool Off

G0 Z0; move to z-safe height
G0 X1199.0000 Y249.4000
M3S0
G4 P0.5; Tool On
G1 F300 Z0.0000
G1 F15000 X1.0000 Y249.4000 Z0.0000
M3S245
G4 P0.5; Tool Off

G0 Z0; move to z-safe height
G0 X1.0000 Y251.4000
M3S0
G4 P0.5; Tool On
G1 F300 Z0.0000
G1 F15000 X1199.0000 Y251.4000 Z0.0000
M3S245
G4 P0.5; Tool Off

G0 Z0; move to z-safe height
G0 X1199.0000 Y253.4000
M3S0
G4 P0.5; Tool On
G1 F300 Z0.0000
G1 F15000 X1.0000 Y253.4000 Z0.0000
M3S245
G4 P0.5; Tool Off

G0 Z0; move to z-safe height
G0 X1.0000 Y255.4000
M3S0
G4 P0.5; Tool On
G1 F300 Z0.0000
G1 F15000 X1199.0000 Y255.4000 Z0.0000
M3S245
G4 P0.5; Tool Off

G0 Z0; move to z-safe height
G0 X1199.0000 Y257.4000
M3S0
G4 P0.5; Tool On
G1 F300 Z0.0000
G1 F15000 X1.0000 Y257.4000 Z0.0000
M3S245
G4 P0.5; Tool Off

G0 Z0; move to z-safe height
G0 X1.0000 Y259.4000
M3S0
G4 P0.5; Tool On
G1 F300 Z0.0000
G1 F15000 X1199.0000 Y259.4000 Z0.0000
M3S245
G4 P0.5; Tool Off

G0 Z0; move to z-safe height
G0 X1199.0000 Y261.4000
M3S0
G4 P0.5; Tool On
G1 F300 Z0.0000
G1 F15000 X1.0000 Y261.4000 Z0.0000
M3S245
G4 P0.5; Tool Off

G0 Z0; move to z-safe height
G0 X1.0000 Y263.4000
M3S0
G4 P0.5; Tool On
G1 F300 Z0.0000
G1 F15000 X1199.0000 Y263.4000 Z0.0000
M3S245
G4 P0.5; Tool Off

G0 Z0; move to z-safe height
G0 X1199.0000 Y265.4000
M3S0
G4 P0.5; Tool On
G1 F300 Z0.0000
G1 F15000 X1.0000 Y265.4000 Z0.0000
M3S245
G4 P0.5; Tool Off

G0 Z0; move to z-safe height
G0 X1.0000 Y267.4000
M3S0
G4 P0.5; Tool On
G1 F300 Z0.0000
G1 F15000 X1199.0000 Y267.4000 Z0.0000
M3S245
G4 P0.5; Tool Off

G0 Z0; move to z-safe height
G0 X1199.0000 Y269.4000
M3S0
G4 P0.5; Tool On
G1 F300 Z0.0000
G1 F15000 X1.0000 Y269.4000 Z0.0000
M3S245
G4 P0.5; Tool Off

G0 Z0; move to z-safe height
G0 X1.0000 Y271.4000
M3S0
G4 P0.5; Tool On
G1 F300 Z0.0000
G1 F15000 X1199.0000 Y271.4000 Z0.0000
M3S245
G4 P0.5; Tool Off

G0 Z0; move to z-safe height
G0 X1199.0000 Y273.4000
M3S0
G4 P0.5; Tool On
G1 F300 Z0.0000
G1 F15000 X1.0000 Y273.4000 Z0.0000
M3S245
G4 P0.5; Tool Off

G0 Z0; move to z-safe height
G0 X1.0000 Y275.4000
M3S0
G4 P0.5; Tool On
G1 F300 Z0.0000
G1 F15000 X1199.0000 Y275.4000 Z0.0000
M3S245
G4 P0.5; Tool Off

G0 Z0; move to z-safe height
G0 X1199.0000 Y277.4000
M3S0
G4 P0.5; Tool On
G1 F300 Z0.0000
G1 F15000 X1.0000 Y277.4000 Z0.0000
M3S245
G4 P0.5; Tool Off

G0 Z0; move to z-safe height
G0 X1.0000 Y279.4000
M3S0
G4 P0.5; Tool On
G1 F300 Z0.0000
G1 F15000 X1199.0000 Y279.4000 Z0.0000
M3S245
G4 P0.5; Tool Off

G0 Z0; move to z-safe height
G0 X1199.0000 Y281.4000
M3S0
G4 P0.5; Tool On
G1 F300 Z0.0000
G1 F15000 X1.0000 Y281.4000 Z0.0000
M3S245
G4 P0.5; Tool Off

G0 Z0; move to z-safe height
G0 X1.0000 Y283.4000
M3S0
G4 P0.5; Tool On
G1 F300 Z0.0000
G1 F15000 X1199.0000 Y283.4000 Z0.0000
M3S245
G4 P0.5; Tool Off

G0 Z0; move to z-safe height
G0 X1199.0000 Y285.4000
M3S0
G4 P0.5; Tool On
G1 F300 Z0.0000
G1 F15000 X1.0000 Y285.4000 Z0.0000
M3S245
G4 P0.5; Tool Off

G0 Z0; move to z-safe height
G0 X1.0000 Y287.4000
M3S0
G4 P0.5; Tool On
G1 F300 Z0.0000
G1 F15000 X1199.0000 Y287.4000 Z0.0000
M3S245
G4 P0.5; Tool Off

G0 Z0; move to z-safe height
G0 X1199.0000 Y289.4000
M3S0
G4 P0.5; Tool On
G1 F300 Z0.0000
G1 F15000 X1.0000 Y289.4000 Z0.0000
M3S245
G4 P0.5; Tool Off

G0 Z0; move to z-safe height
G0 X1.0000 Y291.4000
M3S0
G4 P0.5; Tool On
G1 F300 Z0.0000
G1 F15000 X1199.0000 Y291.4000 Z0.0000
M3S245
G4 P0.5; Tool Off

G0 Z0; move to z-safe height
G0 X1199.0000 Y293.4000
M3S0
G4 P0.5; Tool On
G1 F300 Z0.0000
G1 F15000 X1.0000 Y293.4000 Z0.0000
M3S245
G4 P0.5; Tool Off

G0 Z0; move to z-safe height
G0 X1.0000 Y295.4000
M3S0
G4 P0.5; Tool On
G1 F300 Z0.0000
G1 F15000 X1199.0000 Y295.4000 Z0.0000
M3S245
G4 P0.5; Tool Off

G0 Z0; move to z-safe height
G0 X1199.0000 Y297.4000
M3S0
G4 P0.5; Tool On
G1 F300 Z0.0000
G1 F15000 X1.0000 Y297.4000 Z0.0000
M3S245
G4 P0.5; Tool Off

G0 Z0; move to z-safe height
G0 X1.0000 Y299.4000
M3S0
G4 P0.5; Tool On
G1 F300 Z0.0000
G1 F15000 X1199.0000 Y299.4000 Z0.0000
M3S245
G4 P0.5; Tool Off

G0 Z0; move to z-safe height
G0 X1199.0000 Y301.4000
M3S0
G4 P0.5; Tool On
G1 F300 Z0.0000
G1 F15000 X1.0000 Y301.4000 Z0.0000
M3S245
G4 P0.5; Tool Off

G0 Z0; move to z-safe height
G0 X1.0000 Y303.4000
M3S0
G4 P0.5; Tool On
G1 F300 Z0.0000
G1 F15000 X1199.0000 Y303.4000 Z0.0000
M3S245
G4 P0.5; Tool Off

G0 Z0; move to z-safe height
G0 X1199.0000 Y305.4000
M3S0
G4 P0.5; Tool On
G1 F300 Z0.0000
G1 F15000 X1.0000 Y305.4000 Z0.0000
M3S245
G4 P0.5; Tool Off

G0 Z0; move to z-safe height
G0 X1.0000 Y307.4000
M3S0
G4 P0.5; Tool On
G1 F300 Z0.0000
G1 F15000 X1199.0000 Y307.4000 Z0.0000
M3S245
G4 P0.5; Tool Off

G0 Z0; move to z-safe height
G0 X1199.0000 Y309.4000
M3S0
G4 P0.5; Tool On
G1 F300 Z0.0000
G1 F15000 X1.0000 Y309.4000 Z0.0000
M3S245
G4 P0.5; Tool Off

G0 Z0; move to z-safe height
G0 X1.0000 Y311.4000
M3S0
G4 P0.5; Tool On
G1 F300 Z0.0000
G1 F15000 X1199.0000 Y311.4000 Z0.0000
M3S245
G4 P0.5; Tool Off

G0 Z0; move to z-safe height
G0 X1199.0000 Y313.4000
M3S0
G4 P0.5; Tool On
G1 F300 Z0.0000
G1 F15000 X1.0000 Y313.4000 Z0.0000
M3S245
G4 P0.5; Tool Off

G0 Z0; move to z-safe height
G0 X1.0000 Y315.4000
M3S0
G4 P0.5; Tool On
G1 F300 Z0.0000
G1 F15000 X1199.0000 Y315.4000 Z0.0000
M3S245
G4 P0.5; Tool Off

G0 Z0; move to z-safe height
G0 X1199.0000 Y317.4000
M3S0
G4 P0.5; Tool On
G1 F300 Z0.0000
G1 F15000 X1.0000 Y317.4000 Z0.0000
M3S245
G4 P0.5; Tool Off

G0 Z0; move to z-safe height
G0 X1.0000 Y319.4000
M3S0
G4 P0.5; Tool On
G1 F300 Z0.0000
G1 F15000 X1199.0000 Y319.4000 Z0.0000
M3S245
G4 P0.5; Tool Off

G0 Z0; move to z-safe height
G0 X1199.0000 Y321.4000
M3S0
G4 P0.5; Tool On
G1 F300 Z0.0000
G1 F15000 X1.0000 Y321.4000 Z0.0000
M3S245
G4 P0.5; Tool Off

G0 Z0; move to z-safe height
G0 X1.0000 Y323.4000
M3S0
G4 P0.5; Tool On
G1 F300 Z0.0000
G1 F15000 X1199.0000 Y323.4000 Z0.0000
M3S245
G4 P0.5; Tool Off

G0 Z0; move to z-safe height
G0 X1199.0000 Y325.4000
M3S0
G4 P0.5; Tool On
G1 F300 Z0.0000
G1 F15000 X1.0000 Y325.4000 Z0.0000
M3S245
G4 P0.5; Tool Off

G0 Z0; move to z-safe height
G0 X1.0000 Y327.4000
M3S0
G4 P0.5; Tool On
G1 F300 Z0.0000
G1 F15000 X1199.0000 Y327.4000 Z0.0000
M3S245
G4 P0.5; Tool Off

G0 Z0; move to z-safe height
G0 X1199.0000 Y329.4000
M3S0
G4 P0.5; Tool On
G1 F300 Z0.0000
G1 F15000 X1.0000 Y329.4000 Z0.0000
M3S245
G4 P0.5; Tool Off

G0 Z0; move to z-safe height
G0 X1.0000 Y331.4000
M3S0
G4 P0.5; Tool On
G1 F300 Z0.0000
G1 F15000 X1199.0000 Y331.4000 Z0.0000
M3S245
G4 P0.5; Tool Off

G0 Z0; move to z-safe height
G0 X1199.0000 Y333.4000
M3S0
G4 P0.5; Tool On
G1 F300 Z0.0000
G1 F15000 X1.0000 Y333.4000 Z0.0000
M3S245
G4 P0.5; Tool Off

G0 Z0; move to z-safe height
G0 X1.0000 Y335.4000
M3S0
G4 P0.5; Tool On
G1 F300 Z0.0000
G1 F15000 X1199.0000 Y335.4000 Z0.0000
M3S245
G4 P0.5; Tool Off

G0 Z0; move to z-safe height
G0 X1199.0000 Y337.4000
M3S0
G4 P0.5; Tool On
G1 F300 Z0.0000
G1 F15000 X1.0000 Y337.4000 Z0.0000
M3S245
G4 P0.5; Tool Off

G0 Z0; move to z-safe height
G0 X1.0000 Y339.4000
M3S0
G4 P0.5; Tool On
G1 F300 Z0.0000
G1 F15000 X1199.0000 Y339.4000 Z0.0000
M3S245
G4 P0.5; Tool Off

G0 Z0; move to z-safe height
G0 X1199.0000 Y341.4000
M3S0
G4 P0.5; Tool On
G1 F300 Z0.0000
G1 F15000 X1.0000 Y341.4000 Z0.0000
M3S245
G4 P0.5; Tool Off

G0 Z0; move to z-safe height
G0 X1.0000 Y343.4000
M3S0
G4 P0.5; Tool On
G1 F300 Z0.0000
G1 F15000 X1199.0000 Y343.4000 Z0.0000
M3S245
G4 P0.5; Tool Off

G0 Z0; move to z-safe height
G0 X1199.0000 Y345.4000
M3S0
G4 P0.5; Tool On
G1 F300 Z0.0000
G1 F15000 X1.0000 Y345.4000 Z0.0000
M3S245
G4 P0.5; Tool Off

G0 Z0; move to z-safe height
G0 X1.0000 Y347.4000
M3S0
G4 P0.5; Tool On
G1 F300 Z0.0000
G1 F15000 X1199.0000 Y347.4000 Z0.0000
M3S245
G4 P0.5; Tool Off

G0 Z0; move to z-safe height
G0 X1199.0000 Y349.4000
M3S0
G4 P0.5; Tool On
G1 F300 Z0.0000
G1 F15000 X1.0000 Y349.4000 Z0.0000
M3S245
G4 P0.5; Tool Off

G0 Z0; move to z-safe height
G0 X1.0000 Y351.4000
M3S0
G4 P0.5; Tool On
G1 F300 Z0.0000
G1 F15000 X1199.0000 Y351.4000 Z0.0000
M3S245
G4 P0.5; Tool Off

G0 Z0; move to z-safe height
G0 X1199.0000 Y353.4000
M3S0
G4 P0.5; Tool On
G1 F300 Z0.0000
G1 F15000 X1.0000 Y353.4000 Z0.0000
M3S245
G4 P0.5; Tool Off

G0 Z0; move to z-safe height
G0 X1.0000 Y355.4000
M3S0
G4 P0.5; Tool On
G1 F300 Z0.0000
G1 F15000 X1199.0000 Y355.4000 Z0.0000
M3S245
G4 P0.5; Tool Off

G0 Z0; move to z-safe height
G0 X1199.0000 Y357.4000
M3S0
G4 P0.5; Tool On
G1 F300 Z0.0000
G1 F15000 X1.0000 Y357.4000 Z0.0000
M3S245
G4 P0.5; Tool Off

G0 Z0; move to z-safe height
G0 X1.0000 Y359.4000
M3S0
G4 P0.5; Tool On
G1 F300 Z0.0000
G1 F15000 X1199.0000 Y359.4000 Z0.0000
M3S245
G4 P0.5; Tool Off

G0 Z0; move to z-safe height
G0 X1199.0000 Y361.4000
M3S0
G4 P0.5; Tool On
G1 F300 Z0.0000
G1 F15000 X1.0000 Y361.4000 Z0.0000
M3S245
G4 P0.5; Tool Off

G0 Z0; move to z-safe height
G0 X1.0000 Y363.4000
M3S0
G4 P0.5; Tool On
G1 F300 Z0.0000
G1 F15000 X1199.0000 Y363.4000 Z0.0000
M3S245
G4 P0.5; Tool Off

G0 Z0; move to z-safe height
G0 X1199.0000 Y365.4000
M3S0
G4 P0.5; Tool On
G1 F300 Z0.0000
G1 F15000 X1.0000 Y365.4000 Z0.0000
M3S245
G4 P0.5; Tool Off

G0 Z0; move to z-safe height
G0 X1.0000 Y367.4000
M3S0
G4 P0.5; Tool On
G1 F300 Z0.0000
G1 F15000 X1199.0000 Y367.4000 Z0.0000
M3S245
G4 P0.5; Tool Off

G0 Z0; move to z-safe height
G0 X1199.0000 Y369.4000
M3S0
G4 P0.5; Tool On
G1 F300 Z0.0000
G1 F15000 X1.0000 Y369.4000 Z0.0000
M3S245
G4 P0.5; Tool Off

G0 Z0; move to z-safe height
G0 X1.0000 Y371.4000
M3S0
G4 P0.5; Tool On
G1 F300 Z0.0000
G1 F15000 X1199.0000 Y371.4000 Z0.0000
M3S245
G4 P0.5; Tool Off

G0 Z0; move to z-safe height
G0 X1199.0000 Y373.4000
M3S0
G4 P0.5; Tool On
G1 F300 Z0.0000
G1 F15000 X1.0000 Y373.4000 Z0.0000
M3S245
G4 P0.5; Tool Off

G0 Z0; move to z-safe height
G0 X1.0000 Y375.4000
M3S0
G4 P0.5; Tool On
G1 F300 Z0.0000
G1 F15000 X1199.0000 Y375.4000 Z0.0000
M3S245
G4 P0.5; Tool Off

G0 Z0; move to z-safe height
G0 X1199.0000 Y377.4000
M3S0
G4 P0.5; Tool On
G1 F300 Z0.0000
G1 F15000 X1.0000 Y377.4000 Z0.0000
M3S245
G4 P0.5; Tool Off

G0 Z0; move to z-safe height
G0 X1.0000 Y379.4000
M3S0
G4 P0.5; Tool On
G1 F300 Z0.0000
G1 F15000 X1199.0000 Y379.4000 Z0.0000
M3S245
G4 P0.5; Tool Off

G0 Z0; move to z-safe height
G0 X1199.0000 Y381.4000
M3S0
G4 P0.5; Tool On
G1 F300 Z0.0000
G1 F15000 X1.0000 Y381.4000 Z0.0000
M3S245
G4 P0.5; Tool Off

G0 Z0; move to z-safe height
G0 X1.0000 Y383.4000
M3S0
G4 P0.5; Tool On
G1 F300 Z0.0000
G1 F15000 X1199.0000 Y383.4000 Z0.0000
M3S245
G4 P0.5; Tool Off

G0 Z0; move to z-safe height
G0 X1199.0000 Y385.4000
M3S0
G4 P0.5; Tool On
G1 F300 Z0.0000
G1 F15000 X1.0000 Y385.4000 Z0.0000
M3S245
G4 P0.5; Tool Off

G0 Z0; move to z-safe height
G0 X1.0000 Y387.4000
M3S0
G4 P0.5; Tool On
G1 F300 Z0.0000
G1 F15000 X1199.0000 Y387.4000 Z0.0000
M3S245
G4 P0.5; Tool Off

G0 Z0; move to z-safe height
G0 X1199.0000 Y389.4000
M3S0
G4 P0.5; Tool On
G1 F300 Z0.0000
G1 F15000 X1.0000 Y389.4000 Z0.0000
M3S245
G4 P0.5; Tool Off

G0 Z0; move to z-safe height
G0 X1.0000 Y391.4000
M3S0
G4 P0.5; Tool On
G1 F300 Z0.0000
G1 F15000 X1199.0000 Y391.4000 Z0.0000
M3S245
G4 P0.5; Tool Off

G0 Z0; move to z-safe height
G0 X1199.0000 Y393.4000
M3S0
G4 P0.5; Tool On
G1 F300 Z0.0000
G1 F15000 X1.0000 Y393.4000 Z0.0000
M3S245
G4 P0.5; Tool Off

G0 Z0; move to z-safe height
G0 X1.0000 Y395.4000
M3S0
G4 P0.5; Tool On
G1 F300 Z0.0000
G1 F15000 X1199.0000 Y395.4000 Z0.0000
M3S245
G4 P0.5; Tool Off

G0 Z0; move to z-safe height
G0 X1199.0000 Y397.4000
M3S0
G4 P0.5; Tool On
G1 F300 Z0.0000
G1 F15000 X1.0000 Y397.4000 Z0.0000
M3S245
G4 P0.5; Tool Off

G0 Z0; move to z-safe height
G0 X1.0000 Y399.4000
M3S0
G4 P0.5; Tool On
G1 F300 Z0.0000
G1 F15000 X1199.0000 Y399.4000 Z0.0000
M3S245
G4 P0.5; Tool Off

G0 Z0; move to z-safe height
G0 X1199.0000 Y401.4000
M3S0
G4 P0.5; Tool On
G1 F300 Z0.0000
G1 F15000 X1.0000 Y401.4000 Z0.0000
M3S245
G4 P0.5; Tool Off

G0 Z0; move to z-safe height
G0 X1.0000 Y403.4000
M3S0
G4 P0.5; Tool On
G1 F300 Z0.0000
G1 F15000 X1199.0000 Y403.4000 Z0.0000
M3S245
G4 P0.5; Tool Off

G0 Z0; move to z-safe height
G0 X1199.0000 Y405.4000
M3S0
G4 P0.5; Tool On
G1 F300 Z0.0000
G1 F15000 X1.0000 Y405.4000 Z0.0000
M3S245
G4 P0.5; Tool Off

G0 Z0; move to z-safe height
G0 X1.0000 Y407.4000
M3S0
G4 P0.5; Tool On
G1 F300 Z0.0000
G1 F15000 X1199.0000 Y407.4000 Z0.0000
M3S245
G4 P0.5; Tool Off

G0 Z0; move to z-safe height
G0 X1199.0000 Y409.4000
M3S0
G4 P0.5; Tool On
G1 F300 Z0.0000
G1 F15000 X1.0000 Y409.4000 Z0.0000
M3S245
G4 P0.5; Tool Off

G0 Z0; move to z-safe height
G0 X1.0000 Y411.4000
M3S0
G4 P0.5; Tool On
G1 F300 Z0.0000
G1 F15000 X1199.0000 Y411.4000 Z0.0000
M3S245
G4 P0.5; Tool Off

G0 Z0; move to z-safe height
G0 X1199.0000 Y413.4000
M3S0
G4 P0.5; Tool On
G1 F300 Z0.0000
G1 F15000 X1.0000 Y413.4000 Z0.0000
M3S245
G4 P0.5; Tool Off

G0 Z0; move to z-safe height
G0 X1.0000 Y415.4000
M3S0
G4 P0.5; Tool On
G1 F300 Z0.0000
G1 F15000 X1199.0000 Y415.4000 Z0.0000
M3S245
G4 P0.5; Tool Off

G0 Z0; move to z-safe height
G0 X1199.0000 Y417.4000
M3S0
G4 P0.5; Tool On
G1 F300 Z0.0000
G1 F15000 X1.0000 Y417.4000 Z0.0000
M3S245
G4 P0.5; Tool Off

G0 Z0; move to z-safe height
G0 X1.0000 Y419.4000
M3S0
G4 P0.5; Tool On
G1 F300 Z0.0000
G1 F15000 X1199.0000 Y419.4000 Z0.0000
M3S245
G4 P0.5; Tool Off

G0 Z0; move to z-safe height
G0 X1199.0000 Y421.4000
M3S0
G4 P0.5; Tool On
G1 F300 Z0.0000
G1 F15000 X1.0000 Y421.4000 Z0.0000
M3S245
G4 P0.5; Tool Off

G0 Z0; move to z-safe height
G0 X1.0000 Y423.4000
M3S0
G4 P0.5; Tool On
G1 F300 Z0.0000
G1 F15000 X1199.0000 Y423.4000 Z0.0000
M3S245
G4 P0.5; Tool Off

G0 Z0; move to z-safe height
G0 X1199.0000 Y425.4000
M3S0
G4 P0.5; Tool On
G1 F300 Z0.0000
G1 F15000 X1.0000 Y425.4000 Z0.0000
M3S245
G4 P0.5; Tool Off

G0 Z0; move to z-safe height
G0 X1.0000 Y427.4000
M3S0
G4 P0.5; Tool On
G1 F300 Z0.0000
G1 F15000 X1199.0000 Y427.4000 Z0.0000
M3S245
G4 P0.5; Tool Off

G0 Z0; move to z-safe height
G0 X1199.0000 Y429.4000
M3S0
G4 P0.5; Tool On
G1 F300 Z0.0000
G1 F15000 X1.0000 Y429.4000 Z0.0000
M3S245
G4 P0.5; Tool Off

G0 Z0; move to z-safe height
G0 X1.0000 Y431.4000
M3S0
G4 P0.5; Tool On
G1 F300 Z0.0000
G1 F15000 X1199.0000 Y431.4000 Z0.0000
M3S245
G4 P0.5; Tool Off

G0 Z0; move to z-safe height
G0 X1199.0000 Y433.4000
M3S0
G4 P0.5; Tool On
G1 F300 Z0.0000
G1 F15000 X1.0000 Y433.4000 Z0.0000
M3S245
G4 P0.5; Tool Off

G0 Z0; move to z-safe height
G0 X1.0000 Y435.4000
M3S0
G4 P0.5; Tool On
G1 F300 Z0.0000
G1 F15000 X1199.0000 Y435.4000 Z0.0000
M3S245
G4 P0.5; Tool Off

G0 Z0; move to z-safe height
G0 X1199.0000 Y437.4000
M3S0
G4 P0.5; Tool On
G1 F300 Z0.0000
G1 F15000 X1.0000 Y437.4000 Z0.0000
M3S245
G4 P0.5; Tool Off

G0 Z0; move to z-safe height
G0 X1.0000 Y439.4000
M3S0
G4 P0.5; Tool On
G1 F300 Z0.0000
G1 F15000 X1199.0000 Y439.4000 Z0.0000
M3S245
G4 P0.5; Tool Off

G0 Z0; move to z-safe height
G0 X1199.0000 Y441.4000
M3S0
G4 P0.5; Tool On
G1 F300 Z0.0000
G1 F15000 X1.0000 Y441.4000 Z0.0000
M3S245
G4 P0.5; Tool Off

G0 Z0; move to z-safe height
G0 X1.0000 Y443.4000
M3S0
G4 P0.5; Tool On
G1 F300 Z0.0000
G1 F15000 X1199.0000 Y443.4000 Z0.0000
M3S245
G4 P0.5; Tool Off

G0 Z0; move to z-safe height
G0 X1199.0000 Y445.4000
M3S0
G4 P0.5; Tool On
G1 F300 Z0.0000
G1 F15000 X1.0000 Y445.4000 Z0.0000
M3S245
G4 P0.5; Tool Off

G0 Z0; move to z-safe height
G0 X1.0000 Y447.4000
M3S0
G4 P0.5; Tool On
G1 F300 Z0.0000
G1 F15000 X1199.0000 Y447.4000 Z0.0000
M3S245
G4 P0.5; Tool Off

G0 Z0; move to z-safe height
G0 X1199.0000 Y449.4000
M3S0
G4 P0.5; Tool On
G1 F300 Z0.0000
G1 F15000 X1.0000 Y449.4000 Z0.0000
M3S245
G4 P0.5; Tool Off

G0 Z0; move to z-safe height
G0 X1.0000 Y451.4000
M3S0
G4 P0.5; Tool On
G1 F300 Z0.0000
G1 F15000 X1199.0000 Y451.4000 Z0.0000
M3S245
G4 P0.5; Tool Off

G0 Z0; move to z-safe height
G0 X1199.0000 Y453.4000
M3S0
G4 P0.5; Tool On
G1 F300 Z0.0000
G1 F15000 X1.0000 Y453.4000 Z0.0000
M3S245
G4 P0.5; Tool Off

G0 Z0; move to z-safe height
G0 X1.0000 Y455.4000
M3S0
G4 P0.5; Tool On
G1 F300 Z0.0000
G1 F15000 X1199.0000 Y455.4000 Z0.0000
M3S245
G4 P0.5; Tool Off

G0 Z0; move to z-safe height
G0 X1199.0000 Y457.4000
M3S0
G4 P0.5; Tool On
G1 F300 Z0.0000
G1 F15000 X1.0000 Y457.4000 Z0.0000
M3S245
G4 P0.5; Tool Off

G0 Z0; move to z-safe height
G0 X1.0000 Y459.4000
M3S0
G4 P0.5; Tool On
G1 F300 Z0.0000
G1 F15000 X1199.0000 Y459.4000 Z0.0000
M3S245
G4 P0.5; Tool Off

G0 Z0; move to z-safe height
G0 X1199.0000 Y461.4000
M3S0
G4 P0.5; Tool On
G1 F300 Z0.0000
G1 F15000 X1.0000 Y461.4000 Z0.0000
M3S245
G4 P0.5; Tool Off

G0 Z0; move to z-safe height
G0 X1.0000 Y463.4000
M3S0
G4 P0.5; Tool On
G1 F300 Z0.0000
G1 F15000 X1199.0000 Y463.4000 Z0.0000
M3S245
G4 P0.5; Tool Off

G0 Z0; move to z-safe height
G0 X1199.0000 Y465.4000
M3S0
G4 P0.5; Tool On
G1 F300 Z0.0000
G1 F15000 X1.0000 Y465.4000 Z0.0000
M3S245
G4 P0.5; Tool Off

G0 Z0; move to z-safe height
G0 X1.0000 Y467.4000
M3S0
G4 P0.5; Tool On
G1 F300 Z0.0000
G1 F15000 X1199.0000 Y467.4000 Z0.0000
M3S245
G4 P0.5; Tool Off

G0 Z0; move to z-safe height
G0 X1199.0000 Y469.4000
M3S0
G4 P0.5; Tool On
G1 F300 Z0.0000
G1 F15000 X1.0000 Y469.4000 Z0.0000
M3S245
G4 P0.5; Tool Off

G0 Z0; move to z-safe height
G0 X1.0000 Y471.4000
M3S0
G4 P0.5; Tool On
G1 F300 Z0.0000
G1 F15000 X1199.0000 Y471.4000 Z0.0000
M3S245
G4 P0.5; Tool Off

G0 Z0; move to z-safe height
G0 X1199.0000 Y473.4000
M3S0
G4 P0.5; Tool On
G1 F300 Z0.0000
G1 F15000 X1.0000 Y473.4000 Z0.0000
M3S245
G4 P0.5; Tool Off

G0 Z0; move to z-safe height
G0 X1.0000 Y475.4000
M3S0
G4 P0.5; Tool On
G1 F300 Z0.0000
G1 F15000 X1199.0000 Y475.4000 Z0.0000
M3S245
G4 P0.5; Tool Off

G0 Z0; move to z-safe height
G0 X1199.0000 Y477.4000
M3S0
G4 P0.5; Tool On
G1 F300 Z0.0000
G1 F15000 X1.0000 Y477.4000 Z0.0000
M3S245
G4 P0.5; Tool Off

G0 Z0; move to z-safe height
G0 X1.0000 Y479.4000
M3S0
G4 P0.5; Tool On
G1 F300 Z0.0000
G1 F15000 X1199.0000 Y479.4000 Z0.0000
M3S245
G4 P0.5; Tool Off

G0 Z0; move to z-safe height
G0 X1199.0000 Y481.4000
M3S0
G4 P0.5; Tool On
G1 F300 Z0.0000
G1 F15000 X1.0000 Y481.4000 Z0.0000
M3S245
G4 P0.5; Tool Off

G0 Z0; move to z-safe height
G0 X1.0000 Y483.4000
M3S0
G4 P0.5; Tool On
G1 F300 Z0.0000
G1 F15000 X1199.0000 Y483.4000 Z0.0000
M3S245
G4 P0.5; Tool Off

G0 Z0; move to z-safe height
G0 X1199.0000 Y485.4000
M3S0
G4 P0.5; Tool On
G1 F300 Z0.0000
G1 F15000 X1.0000 Y485.4000 Z0.0000
M3S245
G4 P0.5; Tool Off

G0 Z0; move to z-safe height
G0 X1.0000 Y487.4000
M3S0
G4 P0.5; Tool On
G1 F300 Z0.0000
G1 F15000 X1199.0000 Y487.4000 Z0.0000
M3S245
G4 P0.5; Tool Off

G0 Z0; move to z-safe height
G0 X1199.0000 Y489.4000
M3S0
G4 P0.5; Tool On
G1 F300 Z0.0000
G1 F15000 X1.0000 Y489.4000 Z0.0000
M3S245
G4 P0.5; Tool Off

G0 Z0; move to z-safe height
G0 X1.0000 Y491.4000
M3S0
G4 P0.5; Tool On
G1 F300 Z0.0000
G1 F15000 X1199.0000 Y491.4000 Z0.0000
M3S245
G4 P0.5; Tool Off

G0 Z0; move to z-safe height
G0 X1199.0000 Y493.4000
M3S0
G4 P0.5; Tool On
G1 F300 Z0.0000
G1 F15000 X1.0000 Y493.4000 Z0.0000
M3S245
G4 P0.5; Tool Off

G0 Z0; move to z-safe height
G0 X1.0000 Y495.4000
M3S0
G4 P0.5; Tool On
G1 F300 Z0.0000
G1 F15000 X1199.0000 Y495.4000 Z0.0000
M3S245
G4 P0.5; Tool Off

G0 Z0; move to z-safe height
G0 X1199.0000 Y497.4000
M3S0
G4 P0.5; Tool On
G1 F300 Z0.0000
G1 F15000 X1.0000 Y497.4000 Z0.0000
M3S245
G4 P0.5; Tool Off

G0 Z0; move to z-safe height
G0 X1.0000 Y499.4000
M3S0
G4 P0.5; Tool On
G1 F300 Z0.0000
G1 F15000 X1199.0000 Y499.4000 Z0.0000
M3S245
G4 P0.5; Tool Off

G0 Z0; move to z-safe height
G0 X1199.0000 Y501.4000
M3S0
G4 P0.5; Tool On
G1 F300 Z0.0000
G1 F15000 X1.0000 Y501.4000 Z0.0000
M3S245
G4 P0.5; Tool Off

G0 Z0; move to z-safe height
G0 X1.0000 Y503.4000
M3S0
G4 P0.5; Tool On
G1 F300 Z0.0000
G1 F15000 X1199.0000 Y503.4000 Z0.0000
M3S245
G4 P0.5; Tool Off

G0 Z0; move to z-safe height
G0 X1199.0000 Y505.4000
M3S0
G4 P0.5; Tool On
G1 F300 Z0.0000
G1 F15000 X1.0000 Y505.4000 Z0.0000
M3S245
G4 P0.5; Tool Off

G0 Z0; move to z-safe height
G0 X1.0000 Y507.4000
M3S0
G4 P0.5; Tool On
G1 F300 Z0.0000
G1 F15000 X1199.0000 Y507.4000 Z0.0000
M3S245
G4 P0.5; Tool Off

G0 Z0; move to z-safe height
G0 X1199.0000 Y509.4000
M3S0
G4 P0.5; Tool On
G1 F300 Z0.0000
G1 F15000 X1.0000 Y509.4000 Z0.0000
M3S245
G4 P0.5; Tool Off

G0 Z0; move to z-safe height
G0 X1.0000 Y511.4000
M3S0
G4 P0.5; Tool On
G1 F300 Z0.0000
G1 F15000 X1199.0000 Y511.4000 Z0.0000
M3S245
G4 P0.5; Tool Off

G0 Z0; move to z-safe height
G0 X1199.0000 Y513.4000
M3S0
G4 P0.5; Tool On
G1 F300 Z0.0000
G1 F15000 X1.0000 Y513.4000 Z0.0000
M3S245
G4 P0.5; Tool Off

G0 Z0; move to z-safe height
G0 X1.0000 Y515.4000
M3S0
G4 P0.5; Tool On
G1 F300 Z0.0000
G1 F15000 X1199.0000 Y515.4000 Z0.0000
M3S245
G4 P0.5; Tool Off

G0 Z0; move to z-safe height
G0 X1199.0000 Y517.4000
M3S0
G4 P0.5; Tool On
G1 F300 Z0.0000
G1 F15000 X1.0000 Y517.4000 Z0.0000
M3S245
G4 P0.5; Tool Off

G0 Z0; move to z-safe height
G0 X1.0000 Y519.4000
M3S0
G4 P0.5; Tool On
G1 F300 Z0.0000
G1 F15000 X1199.0000 Y519.4000 Z0.0000
M3S245
G4 P0.5; Tool Off

G0 Z0; move to z-safe height
G0 X1199.0000 Y521.4000
M3S0
G4 P0.5; Tool On
G1 F300 Z0.0000
G1 F15000 X1.0000 Y521.4000 Z0.0000
M3S245
G4 P0.5; Tool Off

G0 Z0; move to z-safe height
G0 X1.0000 Y523.4000
M3S0
G4 P0.5; Tool On
G1 F300 Z0.0000
G1 F15000 X1199.0000 Y523.4000 Z0.0000
M3S245
G4 P0.5; Tool Off

G0 Z0; move to z-safe height
G0 X1199.0000 Y525.4000
M3S0
G4 P0.5; Tool On
G1 F300 Z0.0000
G1 F15000 X1.0000 Y525.4000 Z0.0000
M3S245
G4 P0.5; Tool Off

G0 Z0; move to z-safe height
G0 X1.0000 Y527.4000
M3S0
G4 P0.5; Tool On
G1 F300 Z0.0000
G1 F15000 X1199.0000 Y527.4000 Z0.0000
M3S245
G4 P0.5; Tool Off

G0 Z0; move to z-safe height
G0 X1199.0000 Y529.4000
M3S0
G4 P0.5; Tool On
G1 F300 Z0.0000
G1 F15000 X1.0000 Y529.4000 Z0.0000
M3S245
G4 P0.5; Tool Off

G0 Z0; move to z-safe height
G0 X1.0000 Y531.4000
M3S0
G4 P0.5; Tool On
G1 F300 Z0.0000
G1 F15000 X1199.0000 Y531.4000 Z0.0000
M3S245
G4 P0.5; Tool Off

G0 Z0; move to z-safe height
G0 X1199.0000 Y533.4000
M3S0
G4 P0.5; Tool On
G1 F300 Z0.0000
G1 F15000 X1.0000 Y533.4000 Z0.0000
M3S245
G4 P0.5; Tool Off

G0 Z0; move to z-safe height
G0 X1.0000 Y535.4000
M3S0
G4 P0.5; Tool On
G1 F300 Z0.0000
G1 F15000 X1199.0000 Y535.4000 Z0.0000
M3S245
G4 P0.5; Tool Off

G0 Z0; move to z-safe height
G0 X1199.0000 Y537.4000
M3S0
G4 P0.5; Tool On
G1 F300 Z0.0000
G1 F15000 X1.0000 Y537.4000 Z0.0000
M3S245
G4 P0.5; Tool Off

G0 Z0; move to z-safe height
G0 X1.0000 Y539.4000
M3S0
G4 P0.5; Tool On
G1 F300 Z0.0000
G1 F15000 X1199.0000 Y539.4000 Z0.0000
M3S245
G4 P0.5; Tool Off

G0 Z0; move to z-safe height
G0 X1199.0000 Y541.4000
M3S0
G4 P0.5; Tool On
G1 F300 Z0.0000
G1 F15000 X1.0000 Y541.4000 Z0.0000
M3S245
G4 P0.5; Tool Off

G0 Z0; move to z-safe height
G0 X1.0000 Y543.4000
M3S0
G4 P0.5; Tool On
G1 F300 Z0.0000
G1 F15000 X1199.0000 Y543.4000 Z0.0000
M3S245
G4 P0.5; Tool Off

G0 Z0; move to z-safe height
G0 X1199.0000 Y545.4000
M3S0
G4 P0.5; Tool On
G1 F300 Z0.0000
G1 F15000 X1.0000 Y545.4000 Z0.0000
M3S245
G4 P0.5; Tool Off

G0 Z0; move to z-safe height
G0 X1.0000 Y547.4000
M3S0
G4 P0.5; Tool On
G1 F300 Z0.0000
G1 F15000 X1199.0000 Y547.4000 Z0.0000
M3S245
G4 P0.5; Tool Off

G0 Z0; move to z-safe height
G0 X1199.0000 Y549.4000
M3S0
G4 P0.5; Tool On
G1 F300 Z0.0000
G1 F15000 X1.0000 Y549.4000 Z0.0000
M3S245
G4 P0.5; Tool Off

G0 Z0; move to z-safe height
G0 X1.0000 Y551.4000
M3S0
G4 P0.5; Tool On
G1 F300 Z0.0000
G1 F15000 X1199.0000 Y551.4000 Z0.0000
M3S245
G4 P0.5; Tool Off

G0 Z0; move to z-safe height
G0 X1199.0000 Y553.4000
M3S0
G4 P0.5; Tool On
G1 F300 Z0.0000
G1 F15000 X1.0000 Y553.4000 Z0.0000
M3S245
G4 P0.5; Tool Off

G0 Z0; move to z-safe height
G0 X1.0000 Y555.4000
M3S0
G4 P0.5; Tool On
G1 F300 Z0.0000
G1 F15000 X1199.0000 Y555.4000 Z0.0000
M3S245
G4 P0.5; Tool Off

G0 Z0; move to z-safe height
G0 X1199.0000 Y557.4000
M3S0
G4 P0.5; Tool On
G1 F300 Z0.0000
G1 F15000 X1.0000 Y557.4000 Z0.0000
M3S245
G4 P0.5; Tool Off

G0 Z0; move to z-safe height
G0 X1.0000 Y559.4000
M3S0
G4 P0.5; Tool On
G1 F300 Z0.0000
G1 F15000 X1199.0000 Y559.4000 Z0.0000
M3S245
G4 P0.5; Tool Off

G0 Z0; move to z-safe height
G0 X1199.0000 Y561.4000
M3S0
G4 P0.5; Tool On
G1 F300 Z0.0000
G1 F15000 X1.0000 Y561.4000 Z0.0000
M3S245
G4 P0.5; Tool Off

G0 Z0; move to z-safe height
G0 X1.0000 Y563.4000
M3S0
G4 P0.5; Tool On
G1 F300 Z0.0000
G1 F15000 X1199.0000 Y563.4000 Z0.0000
M3S245
G4 P0.5; Tool Off

G0 Z0; move to z-safe height
G0 X1199.0000 Y565.4000
M3S0
G4 P0.5; Tool On
G1 F300 Z0.0000
G1 F15000 X1.0000 Y565.4000 Z0.0000
M3S245
G4 P0.5; Tool Off

G0 Z0; move to z-safe height
G0 X1.0000 Y567.4000
M3S0
G4 P0.5; Tool On
G1 F300 Z0.0000
G1 F15000 X1199.0000 Y567.4000 Z0.0000
M3S245
G4 P0.5; Tool Off

G0 Z0; move to z-safe height
G0 X1199.0000 Y569.4000
M3S0
G4 P0.5; Tool On
G1 F300 Z0.0000
G1 F15000 X1.0000 Y569.4000 Z0.0000
M3S245
G4 P0.5; Tool Off

G0 Z0; move to z-safe height
G0 X1.0000 Y571.4000
M3S0
G4 P0.5; Tool On
G1 F300 Z0.0000
G1 F15000 X1199.0000 Y571.4000 Z0.0000
M3S245
G4 P0.5; Tool Off

G0 Z0; move to z-safe height
G0 X1199.0000 Y573.4000
M3S0
G4 P0.5; Tool On
G1 F300 Z0.0000
G1 F15000 X1.0000 Y573.4000 Z0.0000
M3S245
G4 P0.5; Tool Off

G0 Z0; move to z-safe height
G0 X1.0000 Y575.4000
M3S0
G4 P0.5; Tool On
G1 F300 Z0.0000
G1 F15000 X1199.0000 Y575.4000 Z0.0000
M3S245
G4 P0.5; Tool Off

G0 Z0; move to z-safe height
G0 X1199.0000 Y577.4000
M3S0
G4 P0.5; Tool On
G1 F300 Z0.0000
G1 F15000 X1.0000 Y577.4000 Z0.0000
M3S245
G4 P0.5; Tool Off

G0 Z0; move to z-safe height
G0 X1.0000 Y579.4000
M3S0
G4 P0.5; Tool On
G1 F300 Z0.0000
G1 F15000 X1199.0000 Y579.4000 Z0.0000
M3S245
G4 P0.5; Tool Off

G0 Z0; move to z-safe height
G0 X1199.0000 Y581.4000
M3S0
G4 P0.5; Tool On
G1 F300 Z0.0000
G1 F15000 X1.0000 Y581.4000 Z0.0000
M3S245
G4 P0.5; Tool Off

G0 Z0; move to z-safe height
G0 X1.0000 Y583.4000
M3S0
G4 P0.5; Tool On
G1 F300 Z0.0000
G1 F15000 X1199.0000 Y583.4000 Z0.0000
M3S245
G4 P0.5; Tool Off

G0 Z0; move to z-safe height
G0 X1199.0000 Y585.4000
M3S0
G4 P0.5; Tool On
G1 F300 Z0.0000
G1 F15000 X1.0000 Y585.4000 Z0.0000
M3S245
G4 P0.5; Tool Off

G0 Z0; move to z-safe height
G0 X1.0000 Y587.4000
M3S0
G4 P0.5; Tool On
G1 F300 Z0.0000
G1 F15000 X1199.0000 Y587.4000 Z0.0000
M3S245
G4 P0.5; Tool Off

G0 Z0; move to z-safe height
G0 X1199.0000 Y589.4000
M3S0
G4 P0.5; Tool On
G1 F300 Z0.0000
G1 F15000 X1.0000 Y589.4000 Z0.0000
M3S245
G4 P0.5; Tool Off

G0 Z0; move to z-safe height
G0 X1.0000 Y591.4000
M3S0
G4 P0.5; Tool On
G1 F300 Z0.0000
G1 F15000 X1199.0000 Y591.4000 Z0.0000
M3S245
G4 P0.5; Tool Off

G0 Z0; move to z-safe height
G0 X1199.0000 Y593.4000
M3S0
G4 P0.5; Tool On
G1 F300 Z0.0000
G1 F15000 X1.0000 Y593.4000 Z0.0000
M3S245
G4 P0.5; Tool Off

G0 Z0; move to z-safe height
G0 X1.0000 Y595.4000
M3S0
G4 P0.5; Tool On
G1 F300 Z0.0000
G1 F15000 X1199.0000 Y595.4000 Z0.0000
M3S245
G4 P0.5; Tool Off

G0 Z0; move to z-safe height
G0 X1199.0000 Y597.4000
M3S0
G4 P0.5; Tool On
G1 F300 Z0.0000
G1 F15000 X1.0000 Y597.4000 Z0.0000
M3S245
G4 P0.5; Tool Off

G0 Z0; move to z-safe height
G0 X1.0000 Y599.4000
M3S0
G4 P0.5; Tool On
G1 F300 Z0.0000
G1 F15000 X1199.0000 Y599.4000 Z0.0000
M3S245
G4 P0.5; Tool Off

G0 Z0; move to z-safe height
G0 X1199.0000 Y601.4000
M3S0
G4 P0.5; Tool On
G1 F300 Z0.0000
G1 F15000 X1.0000 Y601.4000 Z0.0000
M3S245
G4 P0.5; Tool Off

G0 Z0; move to z-safe height
G0 X1.0000 Y603.4000
M3S0
G4 P0.5; Tool On
G1 F300 Z0.0000
G1 F15000 X1199.0000 Y603.4000 Z0.0000
M3S245
G4 P0.5; Tool Off

G0 Z0; move to z-safe height
G0 X1199.0000 Y605.4000
M3S0
G4 P0.5; Tool On
G1 F300 Z0.0000
G1 F15000 X1.0000 Y605.4000 Z0.0000
M3S245
G4 P0.5; Tool Off

G0 Z0; move to z-safe height
G0 X1.0000 Y607.4000
M3S0
G4 P0.5; Tool On
G1 F300 Z0.0000
G1 F15000 X1199.0000 Y607.4000 Z0.0000
M3S245
G4 P0.5; Tool Off

G0 Z0; move to z-safe height
G0 X1199.0000 Y609.4000
M3S0
G4 P0.5; Tool On
G1 F300 Z0.0000
G1 F15000 X1.0000 Y609.4000 Z0.0000
M3S245
G4 P0.5; Tool Off

G0 Z0; move to z-safe height
G0 X1.0000 Y611.4000
M3S0
G4 P0.5; Tool On
G1 F300 Z0.0000
G1 F15000 X1199.0000 Y611.4000 Z0.0000
M3S245
G4 P0.5; Tool Off

G0 Z0; move to z-safe height
G0 X1199.0000 Y613.4000
M3S0
G4 P0.5; Tool On
G1 F300 Z0.0000
G1 F15000 X1.0000 Y613.4000 Z0.0000
M3S245
G4 P0.5; Tool Off

G0 Z0; move to z-safe height
G0 X1.0000 Y615.4000
M3S0
G4 P0.5; Tool On
G1 F300 Z0.0000
G1 F15000 X1199.0000 Y615.4000 Z0.0000
M3S245
G4 P0.5; Tool Off

G0 Z0; move to z-safe height
G0 X1199.0000 Y617.4000
M3S0
G4 P0.5; Tool On
G1 F300 Z0.0000
G1 F15000 X1.0000 Y617.4000 Z0.0000
M3S245
G4 P0.5; Tool Off

G0 Z0; move to z-safe height
G0 X1.0000 Y619.4000
M3S0
G4 P0.5; Tool On
G1 F300 Z0.0000
G1 F15000 X1199.0000 Y619.4000 Z0.0000
M3S245
G4 P0.5; Tool Off

G0 Z0; move to z-safe height
G0 X1199.0000 Y621.4000
M3S0
G4 P0.5; Tool On
G1 F300 Z0.0000
G1 F15000 X1.0000 Y621.4000 Z0.0000
M3S245
G4 P0.5; Tool Off

G0 Z0; move to z-safe height
G0 X1.0000 Y623.4000
M3S0
G4 P0.5; Tool On
G1 F300 Z0.0000
G1 F15000 X1199.0000 Y623.4000 Z0.0000
M3S245
G4 P0.5; Tool Off

G0 Z0; move to z-safe height
G0 X1199.0000 Y625.4000
M3S0
G4 P0.5; Tool On
G1 F300 Z0.0000
G1 F15000 X1.0000 Y625.4000 Z0.0000
M3S245
G4 P0.5; Tool Off

G0 Z0; move to z-safe height
G0 X1.0000 Y627.4000
M3S0
G4 P0.5; Tool On
G1 F300 Z0.0000
G1 F15000 X1199.0000 Y627.4000 Z0.0000
M3S245
G4 P0.5; Tool Off

G0 Z0; move to z-safe height
G0 X1199.0000 Y629.4000
M3S0
G4 P0.5; Tool On
G1 F300 Z0.0000
G1 F15000 X1.0000 Y629.4000 Z0.0000
M3S245
G4 P0.5; Tool Off

G0 Z0; move to z-safe height
G0 X1.0000 Y631.4000
M3S0
G4 P0.5; Tool On
G1 F300 Z0.0000
G1 F15000 X1199.0000 Y631.4000 Z0.0000
M3S245
G4 P0.5; Tool Off

G0 Z0; move to z-safe height
G0 X1199.0000 Y633.4000
M3S0
G4 P0.5; Tool On
G1 F300 Z0.0000
G1 F15000 X1.0000 Y633.4000 Z0.0000
M3S245
G4 P0.5; Tool Off

G0 Z0; move to z-safe height
G0 X1.0000 Y635.4000
M3S0
G4 P0.5; Tool On
G1 F300 Z0.0000
G1 F15000 X1199.0000 Y635.4000 Z0.0000
M3S245
G4 P0.5; Tool Off

G0 Z0; move to z-safe height
G0 X1199.0000 Y637.4000
M3S0
G4 P0.5; Tool On
G1 F300 Z0.0000
G1 F15000 X1.0000 Y637.4000 Z0.0000
M3S245
G4 P0.5; Tool Off

G0 Z0; move to z-safe height
G0 X1.0000 Y639.4000
M3S0
G4 P0.5; Tool On
G1 F300 Z0.0000
G1 F15000 X1199.0000 Y639.4000 Z0.0000
M3S245
G4 P0.5; Tool Off

G0 Z0; move to z-safe height
G0 X1199.0000 Y641.4000
M3S0
G4 P0.5; Tool On
G1 F300 Z0.0000
G1 F15000 X1.0000 Y641.4000 Z0.0000
M3S245
G4 P0.5; Tool Off

G0 Z0; move to z-safe height
G0 X1.0000 Y643.4000
M3S0
G4 P0.5; Tool On
G1 F300 Z0.0000
G1 F15000 X1199.0000 Y643.4000 Z0.0000
M3S245
G4 P0.5; Tool Off

G0 Z0; move to z-safe height
G0 X1199.0000 Y645.4000
M3S0
G4 P0.5; Tool On
G1 F300 Z0.0000
G1 F15000 X1.0000 Y645.4000 Z0.0000
M3S245
G4 P0.5; Tool Off

G0 Z0; move to z-safe height
G0 X1.0000 Y647.4000
M3S0
G4 P0.5; Tool On
G1 F300 Z0.0000
G1 F15000 X1199.0000 Y647.4000 Z0.0000
M3S245
G4 P0.5; Tool Off

G0 Z0; move to z-safe height
G0 X1199.0000 Y649.4000
M3S0
G4 P0.5; Tool On
G1 F300 Z0.0000
G1 F15000 X1.0000 Y649.4000 Z0.0000
M3S245
G4 P0.5; Tool Off

G0 Z0; move to z-safe height
G0 X1.0000 Y651.4000
M3S0
G4 P0.5; Tool On
G1 F300 Z0.0000
G1 F15000 X1199.0000 Y651.4000 Z0.0000
M3S245
G4 P0.5; Tool Off

G0 Z0; move to z-safe height
G0 X1199.0000 Y653.4000
M3S0
G4 P0.5; Tool On
G1 F300 Z0.0000
G1 F15000 X1.0000 Y653.4000 Z0.0000
M3S245
G4 P0.5; Tool Off

G0 Z0; move to z-safe height
G0 X1.0000 Y655.4000
M3S0
G4 P0.5; Tool On
G1 F300 Z0.0000
G1 F15000 X1199.0000 Y655.4000 Z0.0000
M3S245
G4 P0.5; Tool Off

G0 Z0; move to z-safe height
G0 X1199.0000 Y657.4000
M3S0
G4 P0.5; Tool On
G1 F300 Z0.0000
G1 F15000 X1.0000 Y657.4000 Z0.0000
M3S245
G4 P0.5; Tool Off

G0 Z0; move to z-safe height
G0 X1.0000 Y659.4000
M3S0
G4 P0.5; Tool On
G1 F300 Z0.0000
G1 F15000 X1199.0000 Y659.4000 Z0.0000
M3S245
G4 P0.5; Tool Off

G0 Z0; move to z-safe height
G0 X1199.0000 Y661.4000
M3S0
G4 P0.5; Tool On
G1 F300 Z0.0000
G1 F15000 X1.0000 Y661.4000 Z0.0000
M3S245
G4 P0.5; Tool Off

G0 Z0; move to z-safe height
G0 X1.0000 Y663.4000
M3S0
G4 P0.5; Tool On
G1 F300 Z0.0000
G1 F15000 X1199.0000 Y663.4000 Z0.0000
M3S245
G4 P0.5; Tool Off

G0 Z0; move to z-safe height
G0 X1199.0000 Y665.4000
M3S0
G4 P0.5; Tool On
G1 F300 Z0.0000
G1 F15000 X1.0000 Y665.4000 Z0.0000
M3S245
G4 P0.5; Tool Off

G0 Z0; move to z-safe height
G0 X1.0000 Y667.4000
M3S0
G4 P0.5; Tool On
G1 F300 Z0.0000
G1 F15000 X1199.0000 Y667.4000 Z0.0000
M3S245
G4 P0.5; Tool Off

G0 Z0; move to z-safe height
G0 X1199.0000 Y669.4000
M3S0
G4 P0.5; Tool On
G1 F300 Z0.0000
G1 F15000 X1.0000 Y669.4000 Z0.0000
M3S245
G4 P0.5; Tool Off

G0 Z0; move to z-safe height
G0 X1.0000 Y671.4000
M3S0
G4 P0.5; Tool On
G1 F300 Z0.0000
G1 F15000 X1199.0000 Y671.4000 Z0.0000
M3S245
G4 P0.5; Tool Off

G0 Z0; move to z-safe height
G0 X1199.0000 Y673.4000
M3S0
G4 P0.5; Tool On
G1 F300 Z0.0000
G1 F15000 X1.0000 Y673.4000 Z0.0000
M3S245
G4 P0.5; Tool Off

G0 Z0; move to z-safe height
G0 X1.0000 Y675.4000
M3S0
G4 P0.5; Tool On
G1 F300 Z0.0000
G1 F15000 X1199.0000 Y675.4000 Z0.0000
M3S245
G4 P0.5; Tool Off

G0 Z0; move to z-safe height
G0 X1199.0000 Y677.4000
M3S0
G4 P0.5; Tool On
G1 F300 Z0.0000
G1 F15000 X1.0000 Y677.4000 Z0.0000
M3S245
G4 P0.5; Tool Off

G0 Z0; move to z-safe height
G0 X1.0000 Y679.4000
M3S0
G4 P0.5; Tool On
G1 F300 Z0.0000
G1 F15000 X1199.0000 Y679.4000 Z0.0000
M3S245
G4 P0.5; Tool Off

G0 Z0; move to z-safe height
G0 X1199.0000 Y681.4000
M3S0
G4 P0.5; Tool On
G1 F300 Z0.0000
G1 F15000 X1.0000 Y681.4000 Z0.0000
M3S245
G4 P0.5; Tool Off

G0 Z0; move to z-safe height
G0 X1.0000 Y683.4000
M3S0
G4 P0.5; Tool On
G1 F300 Z0.0000
G1 F15000 X1199.0000 Y683.4000 Z0.0000
M3S245
G4 P0.5; Tool Off

G0 Z0; move to z-safe height
G0 X1199.0000 Y685.4000
M3S0
G4 P0.5; Tool On
G1 F300 Z0.0000
G1 F15000 X1.0000 Y685.4000 Z0.0000
M3S245
G4 P0.5; Tool Off

G0 Z0; move to z-safe height
G0 X1.0000 Y687.4000
M3S0
G4 P0.5; Tool On
G1 F300 Z0.0000
G1 F15000 X1199.0000 Y687.4000 Z0.0000
M3S245
G4 P0.5; Tool Off

G0 Z0; move to z-safe height
G0 X1199.0000 Y689.4000
M3S0
G4 P0.5; Tool On
G1 F300 Z0.0000
G1 F15000 X1.0000 Y689.4000 Z0.0000
M3S245
G4 P0.5; Tool Off

G0 Z0; move to z-safe height
G0 X1.0000 Y691.4000
M3S0
G4 P0.5; Tool On
G1 F300 Z0.0000
G1 F15000 X1199.0000 Y691.4000 Z0.0000
M3S245
G4 P0.5; Tool Off

G0 Z0; move to z-safe height
G0 X1199.0000 Y693.4000
M3S0
G4 P0.5; Tool On
G1 F300 Z0.0000
G1 F15000 X1.0000 Y693.4000 Z0.0000
M3S245
G4 P0.5; Tool Off

G0 Z0; move to z-safe height
G0 X1.0000 Y695.4000
M3S0
G4 P0.5; Tool On
G1 F300 Z0.0000
G1 F15000 X1199.0000 Y695.4000 Z0.0000
M3S245
G4 P0.5; Tool Off

G0 Z0; move to z-safe height
G0 X1199.0000 Y697.4000
M3S0
G4 P0.5; Tool On
G1 F300 Z0.0000
G1 F15000 X1.0000 Y697.4000 Z0.0000
M3S245
G4 P0.5; Tool Off

G0 Z0; move to z-safe height
G0 X1.0000 Y699.4000
M3S0
G4 P0.5; Tool On
G1 F300 Z0.0000
G1 F15000 X1199.0000 Y699.4000 Z0.0000
M3S245
G4 P0.5; Tool Off

G0 Z0; move to z-safe height
G0 X1199.0000 Y701.4000
M3S0
G4 P0.5; Tool On
G1 F300 Z0.0000
G1 F15000 X1.0000 Y701.4000 Z0.0000
M3S245
G4 P0.5; Tool Off

G0 Z0; move to z-safe height
G0 X1.0000 Y703.4000
M3S0
G4 P0.5; Tool On
G1 F300 Z0.0000
G1 F15000 X1199.0000 Y703.4000 Z0.0000
M3S245
G4 P0.5; Tool Off

G0 Z0; move to z-safe height
G0 X1199.0000 Y705.4000
M3S0
G4 P0.5; Tool On
G1 F300 Z0.0000
G1 F15000 X1.0000 Y705.4000 Z0.0000
M3S245
G4 P0.5; Tool Off

G0 Z0; move to z-safe height
G0 X1.0000 Y707.4000
M3S0
G4 P0.5; Tool On
G1 F300 Z0.0000
G1 F15000 X1199.0000 Y707.4000 Z0.0000
M3S245
G4 P0.5; Tool Off

G0 Z0; move to z-safe height
G0 X1199.0000 Y709.4000
M3S0
G4 P0.5; Tool On
G1 F300 Z0.0000
G1 F15000 X1.0000 Y709.4000 Z0.0000
M3S245
G4 P0.5; Tool Off

G0 Z0; move to z-safe height
G0 X1.0000 Y711.4000
M3S0
G4 P0.5; Tool On
G1 F300 Z0.0000
G1 F15000 X1199.0000 Y711.4000 Z0.0000
M3S245
G4 P0.5; Tool Off

G0 Z0; move to z-safe height
G0 X1199.0000 Y713.4000
M3S0
G4 P0.5; Tool On
G1 F300 Z0.0000
G1 F15000 X1.0000 Y713.4000 Z0.0000
M3S245
G4 P0.5; Tool Off

G0 Z0; move to z-safe height
G0 X1.0000 Y715.4000
M3S0
G4 P0.5; Tool On
G1 F300 Z0.0000
G1 F15000 X1199.0000 Y715.4000 Z0.0000
M3S245
G4 P0.5; Tool Off

G0 Z0; move to z-safe height
G0 X1199.0000 Y717.4000
M3S0
G4 P0.5; Tool On
G1 F300 Z0.0000
G1 F15000 X1.0000 Y717.4000 Z0.0000
M3S245
G4 P0.5; Tool Off

G0 Z0; move to z-safe height
G0 X1.0000 Y719.4000
M3S0
G4 P0.5; Tool On
G1 F300 Z0.0000
G1 F15000 X1199.0000 Y719.4000 Z0.0000
M3S245
G4 P0.5; Tool Off

G0 Z0; move to z-safe height
G0 X1199.0000 Y721.4000
M3S0
G4 P0.5; Tool On
G1 F300 Z0.0000
G1 F15000 X1.0000 Y721.4000 Z0.0000
M3S245
G4 P0.5; Tool Off

G0 Z0; move to z-safe height
G0 X1.0000 Y723.4000
M3S0
G4 P0.5; Tool On
G1 F300 Z0.0000
G1 F15000 X1199.0000 Y723.4000 Z0.0000
M3S245
G4 P0.5; Tool Off

G0 Z0; move to z-safe height
G0 X1199.0000 Y725.4000
M3S0
G4 P0.5; Tool On
G1 F300 Z0.0000
G1 F15000 X1.0000 Y725.4000 Z0.0000
M3S245
G4 P0.5; Tool Off

G0 Z0; move to z-safe height
G0 X1.0000 Y727.4000
M3S0
G4 P0.5; Tool On
G1 F300 Z0.0000
G1 F15000 X1199.0000 Y727.4000 Z0.0000
M3S245
G4 P0.5; Tool Off

G0 Z0; move to z-safe height
G0 X1199.0000 Y729.4000
M3S0
G4 P0.5; Tool On
G1 F300 Z0.0000
G1 F15000 X1.0000 Y729.4000 Z0.0000
M3S245
G4 P0.5; Tool Off

G0 Z0; move to z-safe height
G0 X1.0000 Y731.4000
M3S0
G4 P0.5; Tool On
G1 F300 Z0.0000
G1 F15000 X1199.0000 Y731.4000 Z0.0000
M3S245
G4 P0.5; Tool Off

G0 Z0; move to z-safe height
G0 X1199.0000 Y733.4000
M3S0
G4 P0.5; Tool On
G1 F300 Z0.0000
G1 F15000 X1.0000 Y733.4000 Z0.0000
M3S245
G4 P0.5; Tool Off

G0 Z0; move to z-safe height
G0 X1.0000 Y735.4000
M3S0
G4 P0.5; Tool On
G1 F300 Z0.0000
G1 F15000 X1199.0000 Y735.4000 Z0.0000
M3S245
G4 P0.5; Tool Off

G0 Z0; move to z-safe height
G0 X1199.0000 Y737.4000
M3S0
G4 P0.5; Tool On
G1 F300 Z0.0000
G1 F15000 X1.0000 Y737.4000 Z0.0000
M3S245
G4 P0.5; Tool Off

G0 Z0; move to z-safe height
G0 X1.0000 Y739.4000
M3S0
G4 P0.5; Tool On
G1 F300 Z0.0000
G1 F15000 X1199.0000 Y739.4000 Z0.0000
M3S245
G4 P0.5; Tool Off

G0 Z0; move to z-safe height
G0 X1199.0000 Y741.4000
M3S0
G4 P0.5; Tool On
G1 F300 Z0.0000
G1 F15000 X1.0000 Y741.4000 Z0.0000
M3S245
G4 P0.5; Tool Off

G0 Z0; move to z-safe height
G0 X1.0000 Y743.4000
M3S0
G4 P0.5; Tool On
G1 F300 Z0.0000
G1 F15000 X1199.0000 Y743.4000 Z0.0000
M3S245
G4 P0.5; Tool Off

G0 Z0; move to z-safe height
G0 X1199.0000 Y745.4000
M3S0
G4 P0.5; Tool On
G1 F300 Z0.0000
G1 F15000 X1.0000 Y745.4000 Z0.0000
M3S245
G4 P0.5; Tool Off

G0 Z0; move to z-safe height
G0 X1.0000 Y747.4000
M3S0
G4 P0.5; Tool On
G1 F300 Z0.0000
G1 F15000 X1199.0000 Y747.4000 Z0.0000
M3S245
G4 P0.5; Tool Off

G0 Z0; move to z-safe height
G0 X1199.0000 Y749.4000
M3S0
G4 P0.5; Tool On
G1 F300 Z0.0000
G1 F15000 X1.0000 Y749.4000 Z0.0000
M3S245
G4 P0.5; Tool Off

G0 Z0; move to z-safe height
G0 X1.0000 Y751.4000
M3S0
G4 P0.5; Tool On
G1 F300 Z0.0000
G1 F15000 X1199.0000 Y751.4000 Z0.0000
M3S245
G4 P0.5; Tool Off

G0 Z0; move to z-safe height
G0 X1199.0000 Y753.4000
M3S0
G4 P0.5; Tool On
G1 F300 Z0.0000
G1 F15000 X1.0000 Y753.4000 Z0.0000
M3S245
G4 P0.5; Tool Off

G0 Z0; move to z-safe height
G0 X1.0000 Y755.4000
M3S0
G4 P0.5; Tool On
G1 F300 Z0.0000
G1 F15000 X1199.0000 Y755.4000 Z0.0000
M3S245
G4 P0.5; Tool Off

G0 Z0; move to z-safe height
G0 X1199.0000 Y757.4000
M3S0
G4 P0.5; Tool On
G1 F300 Z0.0000
G1 F15000 X1.0000 Y757.4000 Z0.0000
M3S245
G4 P0.5; Tool Off

G0 Z0; move to z-safe height
G0 X1.0000 Y759.4000
M3S0
G4 P0.5; Tool On
G1 F300 Z0.0000
G1 F15000 X1199.0000 Y759.4000 Z0.0000
M3S245
G4 P0.5; Tool Off

G0 Z0; move to z-safe height
G0 X1199.0000 Y761.4000
M3S0
G4 P0.5; Tool On
G1 F300 Z0.0000
G1 F15000 X1.0000 Y761.4000 Z0.0000
M3S245
G4 P0.5; Tool Off

G0 Z0; move to z-safe height
G0 X1.0000 Y763.4000
M3S0
G4 P0.5; Tool On
G1 F300 Z0.0000
G1 F15000 X1199.0000 Y763.4000 Z0.0000
M3S245
G4 P0.5; Tool Off

G0 Z0; move to z-safe height
G0 X1199.0000 Y765.4000
M3S0
G4 P0.5; Tool On
G1 F300 Z0.0000
G1 F15000 X1.0000 Y765.4000 Z0.0000
M3S245
G4 P0.5; Tool Off

G0 Z0; move to z-safe height
G0 X1.0000 Y767.4000
M3S0
G4 P0.5; Tool On
G1 F300 Z0.0000
G1 F15000 X1199.0000 Y767.4000 Z0.0000
M3S245
G4 P0.5; Tool Off

G0 Z0; move to z-safe height
G0 X1199.0000 Y769.4000
M3S0
G4 P0.5; Tool On
G1 F300 Z0.0000
G1 F15000 X1.0000 Y769.4000 Z0.0000
M3S245
G4 P0.5; Tool Off

G0 Z0; move to z-safe height
G0 X1.0000 Y771.4000
M3S0
G4 P0.5; Tool On
G1 F300 Z0.0000
G1 F15000 X1199.0000 Y771.4000 Z0.0000
M3S245
G4 P0.5; Tool Off

G0 Z0; move to z-safe height
G0 X1199.0000 Y773.4000
M3S0
G4 P0.5; Tool On
G1 F300 Z0.0000
G1 F15000 X1.0000 Y773.4000 Z0.0000
M3S245
G4 P0.5; Tool Off

G0 Z0; move to z-safe height
G0 X1.0000 Y775.4000
M3S0
G4 P0.5; Tool On
G1 F300 Z0.0000
G1 F15000 X1199.0000 Y775.4000 Z0.0000
M3S245
G4 P0.5; Tool Off

G0 Z0; move to z-safe height
G0 X1199.0000 Y777.4000
M3S0
G4 P0.5; Tool On
G1 F300 Z0.0000
G1 F15000 X1.0000 Y777.4000 Z0.0000
M3S245
G4 P0.5; Tool Off

G0 Z0; move to z-safe height
G0 X1.0000 Y779.4000
M3S0
G4 P0.5; Tool On
G1 F300 Z0.0000
G1 F15000 X1199.0000 Y779.4000 Z0.0000
M3S245
G4 P0.5; Tool Off

G0 Z0; move to z-safe height
G0 X1199.0000 Y781.4000
M3S0
G4 P0.5; Tool On
G1 F300 Z0.0000
G1 F15000 X1.0000 Y781.4000 Z0.0000
M3S245
G4 P0.5; Tool Off

G0 Z0; move to z-safe height
G0 X1.0000 Y783.4000
M3S0
G4 P0.5; Tool On
G1 F300 Z0.0000
G1 F15000 X1199.0000 Y783.4000 Z0.0000
M3S245
G4 P0.5; Tool Off

G0 Z0; move to z-safe height
G0 X1199.0000 Y785.4000
M3S0
G4 P0.5; Tool On
G1 F300 Z0.0000
G1 F15000 X1.0000 Y785.4000 Z0.0000
M3S245
G4 P0.5; Tool Off

G0 Z0; move to z-safe height
G0 X1.0000 Y787.4000
M3S0
G4 P0.5; Tool On
G1 F300 Z0.0000
G1 F15000 X1199.0000 Y787.4000 Z0.0000
M3S245
G4 P0.5; Tool Off

G0 Z0; move to z-safe height
G0 X1199.0000 Y789.4000
M3S0
G4 P0.5; Tool On
G1 F300 Z0.0000
G1 F15000 X1.0000 Y789.4000 Z0.0000
M3S245
G4 P0.5; Tool Off

G0 Z0; move to z-safe height
G0 X1.0000 Y791.4000
M3S0
G4 P0.5; Tool On
G1 F300 Z0.0000
G1 F15000 X1199.0000 Y791.4000 Z0.0000
M3S245
G4 P0.5; Tool Off

G0 Z0; move to z-safe height
G0 X1199.0000 Y793.4000
M3S0
G4 P0.5; Tool On
G1 F300 Z0.0000
G1 F15000 X1.0000 Y793.4000 Z0.0000
M3S245
G4 P0.5; Tool Off

G0 Z0; move to z-safe height
G0 X1.0000 Y795.4000
M3S0
G4 P0.5; Tool On
G1 F300 Z0.0000
G1 F15000 X1199.0000 Y795.4000 Z0.0000
M3S245
G4 P0.5; Tool Off

G0 Z0; move to z-safe height
G0 X1199.0000 Y797.4000
M3S0
G4 P0.5; Tool On
G1 F300 Z0.0000
G1 F15000 X1.0000 Y797.4000 Z0.0000
M3S245
G4 P0.5; Tool Off

G0 Z0; move to z-safe height
G0 X1.0000 Y799.4000
M3S0
G4 P0.5; Tool On
G1 F300 Z0.0000
G1 F15000 X1199.0000 Y799.4000 Z0.0000
M3S245
G4 P0.5; Tool Off

G0 Z0; move to z-safe height
G0 X1199.0000 Y801.4000
M3S0
G4 P0.5; Tool On
G1 F300 Z0.0000
G1 F15000 X1.0000 Y801.4000 Z0.0000
M3S245
G4 P0.5; Tool Off

G0 Z0; move to z-safe height
G0 X1.0000 Y803.4000
M3S0
G4 P0.5; Tool On
G1 F300 Z0.0000
G1 F15000 X1199.0000 Y803.4000 Z0.0000
M3S245
G4 P0.5; Tool Off

G0 Z0; move to z-safe height
G0 X1199.0000 Y805.4000
M3S0
G4 P0.5; Tool On
G1 F300 Z0.0000
G1 F15000 X1.0000 Y805.4000 Z0.0000
M3S245
G4 P0.5; Tool Off

G0 Z0; move to z-safe height
G0 X1.0000 Y807.4000
M3S0
G4 P0.5; Tool On
G1 F300 Z0.0000
G1 F15000 X1199.0000 Y807.4000 Z0.0000
M3S245
G4 P0.5; Tool Off

G0 Z0; move to z-safe height
G0 X1199.0000 Y809.4000
M3S0
G4 P0.5; Tool On
G1 F300 Z0.0000
G1 F15000 X1.0000 Y809.4000 Z0.0000
M3S245
G4 P0.5; Tool Off

G0 Z0; move to z-safe height
G0 X1.0000 Y811.4000
M3S0
G4 P0.5; Tool On
G1 F300 Z0.0000
G1 F15000 X1199.0000 Y811.4000 Z0.0000
M3S245
G4 P0.5; Tool Off

G0 Z0; move to z-safe height
G0 X1199.0000 Y813.4000
M3S0
G4 P0.5; Tool On
G1 F300 Z0.0000
G1 F15000 X1.0000 Y813.4000 Z0.0000
M3S245
G4 P0.5; Tool Off

G0 Z0; move to z-safe height
G0 X1.0000 Y815.4000
M3S0
G4 P0.5; Tool On
G1 F300 Z0.0000
G1 F15000 X1199.0000 Y815.4000 Z0.0000
M3S245
G4 P0.5; Tool Off

G0 Z0; move to z-safe height
G0 X1199.0000 Y817.4000
M3S0
G4 P0.5; Tool On
G1 F300 Z0.0000
G1 F15000 X1.0000 Y817.4000 Z0.0000
M3S245
G4 P0.5; Tool Off

G0 Z0; move to z-safe height
G0 X1.0000 Y819.4000
M3S0
G4 P0.5; Tool On
G1 F300 Z0.0000
G1 F15000 X1199.0000 Y819.4000 Z0.0000
M3S245
G4 P0.5; Tool Off

G0 Z0; move to z-safe height
G0 X1199.0000 Y821.4000
M3S0
G4 P0.5; Tool On
G1 F300 Z0.0000
G1 F15000 X1.0000 Y821.4000 Z0.0000
M3S245
G4 P0.5; Tool Off

G0 Z0; move to z-safe height
G0 X1.0000 Y823.4000
M3S0
G4 P0.5; Tool On
G1 F300 Z0.0000
G1 F15000 X1199.0000 Y823.4000 Z0.0000
M3S245
G4 P0.5; Tool Off

G0 Z0; move to z-safe height
G0 X1199.0000 Y825.4000
M3S0
G4 P0.5; Tool On
G1 F300 Z0.0000
G1 F15000 X1.0000 Y825.4000 Z0.0000
M3S245
G4 P0.5; Tool Off

G0 Z0; move to z-safe height
G0 X1.0000 Y827.4000
M3S0
G4 P0.5; Tool On
G1 F300 Z0.0000
G1 F15000 X1199.0000 Y827.4000 Z0.0000
M3S245
G4 P0.5; Tool Off

G0 Z0; move to z-safe height
G0 X1199.0000 Y829.4000
M3S0
G4 P0.5; Tool On
G1 F300 Z0.0000
G1 F15000 X1.0000 Y829.4000 Z0.0000
M3S245
G4 P0.5; Tool Off

G0 Z0; move to z-safe height
G0 X1.0000 Y831.4000
M3S0
G4 P0.5; Tool On
G1 F300 Z0.0000
G1 F15000 X1199.0000 Y831.4000 Z0.0000
M3S245
G4 P0.5; Tool Off

G0 Z0; move to z-safe height
G0 X1199.0000 Y833.4000
M3S0
G4 P0.5; Tool On
G1 F300 Z0.0000
G1 F15000 X1.0000 Y833.4000 Z0.0000
M3S245
G4 P0.5; Tool Off

G0 Z0; move to z-safe height
G0 X1.0000 Y835.4000
M3S0
G4 P0.5; Tool On
G1 F300 Z0.0000
G1 F15000 X1199.0000 Y835.4000 Z0.0000
M3S245
G4 P0.5; Tool Off

G0 Z0; move to z-safe height
G0 X1199.0000 Y837.4000
M3S0
G4 P0.5; Tool On
G1 F300 Z0.0000
G1 F15000 X1.0000 Y837.4000 Z0.0000
M3S245
G4 P0.5; Tool Off

G0 Z0; move to z-safe height
G0 X1.0000 Y839.4000
M3S0
G4 P0.5; Tool On
G1 F300 Z0.0000
G1 F15000 X1199.0000 Y839.4000 Z0.0000
M3S245
G4 P0.5; Tool Off

G0 Z0; move to z-safe height
G0 X1199.0000 Y841.4000
M3S0
G4 P0.5; Tool On
G1 F300 Z0.0000
G1 F15000 X1.0000 Y841.4000 Z0.0000
M3S245
G4 P0.5; Tool Off

G0 Z0; move to z-safe height
G0 X1.0000 Y843.4000
M3S0
G4 P0.5; Tool On
G1 F300 Z0.0000
G1 F15000 X1199.0000 Y843.4000 Z0.0000
M3S245
G4 P0.5; Tool Off

G0 Z0; move to z-safe height
G0 X1199.0000 Y845.4000
M3S0
G4 P0.5; Tool On
G1 F300 Z0.0000
G1 F15000 X1.0000 Y845.4000 Z0.0000
M3S245
G4 P0.5; Tool Off

G0 Z0; move to z-safe height
G0 X1.0000 Y847.4000
M3S0
G4 P0.5; Tool On
G1 F300 Z0.0000
G1 F15000 X1199.0000 Y847.4000 Z0.0000
M3S245
G4 P0.5; Tool Off

G0 Z0; move to z-safe height
G0 X1199.0000 Y849.4000
M3S0
G4 P0.5; Tool On
G1 F300 Z0.0000
G1 F15000 X1.0000 Y849.4000 Z0.0000
M3S245
G4 P0.5; Tool Off

G0 Z0; move to z-safe height
G0 X1.0000 Y851.4000
M3S0
G4 P0.5; Tool On
G1 F300 Z0.0000
G1 F15000 X1199.0000 Y851.4000 Z0.0000
M3S245
G4 P0.5; Tool Off

G0 Z0; move to z-safe height
G0 X1199.0000 Y853.4000
M3S0
G4 P0.5; Tool On
G1 F300 Z0.0000
G1 F15000 X1.0000 Y853.4000 Z0.0000
M3S245
G4 P0.5; Tool Off

G0 Z0; move to z-safe height
G0 X1.0000 Y855.4000
M3S0
G4 P0.5; Tool On
G1 F300 Z0.0000
G1 F15000 X1199.0000 Y855.4000 Z0.0000
M3S245
G4 P0.5; Tool Off

G0 Z0; move to z-safe height
G0 X1199.0000 Y857.4000
M3S0
G4 P0.5; Tool On
G1 F300 Z0.0000
G1 F15000 X1.0000 Y857.4000 Z0.0000
M3S245
G4 P0.5; Tool Off

G0 Z0; move to z-safe height
G0 X1.0000 Y859.4000
M3S0
G4 P0.5; Tool On
G1 F300 Z0.0000
G1 F15000 X1199.0000 Y859.4000 Z0.0000
M3S245
G4 P0.5; Tool Off

G0 Z0; move to z-safe height
G0 X1199.0000 Y861.4000
M3S0
G4 P0.5; Tool On
G1 F300 Z0.0000
G1 F15000 X1.0000 Y861.4000 Z0.0000
M3S245
G4 P0.5; Tool Off

G0 Z0; move to z-safe height
G0 X1.0000 Y863.4000
M3S0
G4 P0.5; Tool On
G1 F300 Z0.0000
G1 F15000 X1199.0000 Y863.4000 Z0.0000
M3S245
G4 P0.5; Tool Off

G0 Z0; move to z-safe height
G0 X1199.0000 Y865.4000
M3S0
G4 P0.5; Tool On
G1 F300 Z0.0000
G1 F15000 X1.0000 Y865.4000 Z0.0000
M3S245
G4 P0.5; Tool Off

G0 Z0; move to z-safe height
G0 X1.0000 Y867.4000
M3S0
G4 P0.5; Tool On
G1 F300 Z0.0000
G1 F15000 X1199.0000 Y867.4000 Z0.0000
M3S245
G4 P0.5; Tool Off

G0 Z0; move to z-safe height
G0 X1199.0000 Y869.4000
M3S0
G4 P0.5; Tool On
G1 F300 Z0.0000
G1 F15000 X1.0000 Y869.4000 Z0.0000
M3S245
G4 P0.5; Tool Off

G0 Z0; move to z-safe height
G0 X1.0000 Y871.4000
M3S0
G4 P0.5; Tool On
G1 F300 Z0.0000
G1 F15000 X1199.0000 Y871.4000 Z0.0000
M3S245
G4 P0.5; Tool Off

G0 Z0; move to z-safe height
G0 X1199.0000 Y873.4000
M3S0
G4 P0.5; Tool On
G1 F300 Z0.0000
G1 F15000 X1.0000 Y873.4000 Z0.0000
M3S245
G4 P0.5; Tool Off

G0 Z0; move to z-safe height
G0 X1.0000 Y875.4000
M3S0
G4 P0.5; Tool On
G1 F300 Z0.0000
G1 F15000 X1199.0000 Y875.4000 Z0.0000
M3S245
G4 P0.5; Tool Off

G0 Z0; move to z-safe height
G0 X1199.0000 Y877.4000
M3S0
G4 P0.5; Tool On
G1 F300 Z0.0000
G1 F15000 X1.0000 Y877.4000 Z0.0000
M3S245
G4 P0.5; Tool Off

G0 Z0; move to z-safe height
G0 X1.0000 Y879.4000
M3S0
G4 P0.5; Tool On
G1 F300 Z0.0000
G1 F15000 X1199.0000 Y879.4000 Z0.0000
M3S245
G4 P0.5; Tool Off

G0 Z0; move to z-safe height
G0 X1199.0000 Y881.4000
M3S0
G4 P0.5; Tool On
G1 F300 Z0.0000
G1 F15000 X1.0000 Y881.4000 Z0.0000
M3S245
G4 P0.5; Tool Off

G0 Z0; move to z-safe height
G0 X1.0000 Y883.4000
M3S0
G4 P0.5; Tool On
G1 F300 Z0.0000
G1 F15000 X1199.0000 Y883.4000 Z0.0000
M3S245
G4 P0.5; Tool Off

G0 Z0; move to z-safe height
G0 X1199.0000 Y885.4000
M3S0
G4 P0.5; Tool On
G1 F300 Z0.0000
G1 F15000 X1.0000 Y885.4000 Z0.0000
M3S245
G4 P0.5; Tool Off

G0 Z0; move to z-safe height
G0 X1.0000 Y887.4000
M3S0
G4 P0.5; Tool On
G1 F300 Z0.0000
G1 F15000 X1199.0000 Y887.4000 Z0.0000
M3S245
G4 P0.5; Tool Off

G0 Z0; move to z-safe height
G0 X1199.0000 Y889.4000
M3S0
G4 P0.5; Tool On
G1 F300 Z0.0000
G1 F15000 X1.0000 Y889.4000 Z0.0000
M3S245
G4 P0.5; Tool Off

G0 Z0; move to z-safe height
G0 X1.0000 Y891.4000
M3S0
G4 P0.5; Tool On
G1 F300 Z0.0000
G1 F15000 X1199.0000 Y891.4000 Z0.0000
M3S245
G4 P0.5; Tool Off

G0 Z0; move to z-safe height
G0 X1199.0000 Y893.4000
M3S0
G4 P0.5; Tool On
G1 F300 Z0.0000
G1 F15000 X1.0000 Y893.4000 Z0.0000
M3S245
G4 P0.5; Tool Off

G0 Z0; move to z-safe height
G0 X1.0000 Y895.4000
M3S0
G4 P0.5; Tool On
G1 F300 Z0.0000
G1 F15000 X1199.0000 Y895.4000 Z0.0000
M3S245
G4 P0.5; Tool Off

G0 Z0; move to z-safe height
G0 X1199.0000 Y897.4000
M3S0
G4 P0.5; Tool On
G1 F300 Z0.0000
G1 F15000 X1.0000 Y897.4000 Z0.0000
M3S245
G4 P0.5; Tool Off
; retracting back to z-safe
G0 Z0

; Plotter Mode Complete
