; GCODE Generated by cam.openbuilds.com on 2023-04-09 
G21 ; mm-mode
G54; Work Coordinates
G21; mm-mode
G90; Absolute Positioning
; Plotter Mode Active

; Operation 0: Pen Plotter: (lines fill)
; Pen Diameter: 2

G0 Z0; move to z-safe height
G0 F1000 X2.0000 Y2.8000
M3S0
G4 P0.5; Tool On
G1 F300 Z0.0000
G1 F15000 X1198.0000 Y2.8000 Z0.0000
M3S245
G4 P0.5; Tool Off

G0 Z0; move to z-safe height
G0 X1198.0000 Y6.8000
M3S0
G4 P0.5; Tool On
G1 F300 Z0.0000
G1 F15000 X2.0000 Y6.8000 Z0.0000
M3S245
G4 P0.5; Tool Off

G0 Z0; move to z-safe height
G0 X2.0000 Y10.8000
M3S0
G4 P0.5; Tool On
G1 F300 Z0.0000
G1 F15000 X1198.0000 Y10.8000 Z0.0000
M3S245
G4 P0.5; Tool Off

G0 Z0; move to z-safe height
G0 X1198.0000 Y14.8000
M3S0
G4 P0.5; Tool On
G1 F300 Z0.0000
G1 F15000 X2.0000 Y14.8000 Z0.0000
M3S245
G4 P0.5; Tool Off

G0 Z0; move to z-safe height
G0 X2.0000 Y18.8000
M3S0
G4 P0.5; Tool On
G1 F300 Z0.0000
G1 F15000 X1198.0000 Y18.8000 Z0.0000
M3S245
G4 P0.5; Tool Off

G0 Z0; move to z-safe height
G0 X1198.0000 Y22.8000
M3S0
G4 P0.5; Tool On
G1 F300 Z0.0000
G1 F15000 X2.0000 Y22.8000 Z0.0000
M3S245
G4 P0.5; Tool Off

G0 Z0; move to z-safe height
G0 X2.0000 Y26.8000
M3S0
G4 P0.5; Tool On
G1 F300 Z0.0000
G1 F15000 X1198.0000 Y26.8000 Z0.0000
M3S245
G4 P0.5; Tool Off

G0 Z0; move to z-safe height
G0 X1198.0000 Y30.8000
M3S0
G4 P0.5; Tool On
G1 F300 Z0.0000
G1 F15000 X2.0000 Y30.8000 Z0.0000
M3S245
G4 P0.5; Tool Off

G0 Z0; move to z-safe height
G0 X2.0000 Y34.8000
M3S0
G4 P0.5; Tool On
G1 F300 Z0.0000
G1 F15000 X1198.0000 Y34.8000 Z0.0000
M3S245
G4 P0.5; Tool Off

G0 Z0; move to z-safe height
G0 X1198.0000 Y38.8000
M3S0
G4 P0.5; Tool On
G1 F300 Z0.0000
G1 F15000 X2.0000 Y38.8000 Z0.0000
M3S245
G4 P0.5; Tool Off

G0 Z0; move to z-safe height
G0 X2.0000 Y42.8000
M3S0
G4 P0.5; Tool On
G1 F300 Z0.0000
G1 F15000 X1198.0000 Y42.8000 Z0.0000
M3S245
G4 P0.5; Tool Off

G0 Z0; move to z-safe height
G0 X1198.0000 Y46.8000
M3S0
G4 P0.5; Tool On
G1 F300 Z0.0000
G1 F15000 X2.0000 Y46.8000 Z0.0000
M3S245
G4 P0.5; Tool Off

G0 Z0; move to z-safe height
G0 X2.0000 Y50.8000
M3S0
G4 P0.5; Tool On
G1 F300 Z0.0000
G1 F15000 X1198.0000 Y50.8000 Z0.0000
M3S245
G4 P0.5; Tool Off

G0 Z0; move to z-safe height
G0 X1198.0000 Y54.8000
M3S0
G4 P0.5; Tool On
G1 F300 Z0.0000
G1 F15000 X2.0000 Y54.8000 Z0.0000
M3S245
G4 P0.5; Tool Off

G0 Z0; move to z-safe height
G0 X2.0000 Y58.8000
M3S0
G4 P0.5; Tool On
G1 F300 Z0.0000
G1 F15000 X1198.0000 Y58.8000 Z0.0000
M3S245
G4 P0.5; Tool Off

G0 Z0; move to z-safe height
G0 X1198.0000 Y62.8000
M3S0
G4 P0.5; Tool On
G1 F300 Z0.0000
G1 F15000 X2.0000 Y62.8000 Z0.0000
M3S245
G4 P0.5; Tool Off

G0 Z0; move to z-safe height
G0 X2.0000 Y66.8000
M3S0
G4 P0.5; Tool On
G1 F300 Z0.0000
G1 F15000 X1198.0000 Y66.8000 Z0.0000
M3S245
G4 P0.5; Tool Off

G0 Z0; move to z-safe height
G0 X1198.0000 Y70.8000
M3S0
G4 P0.5; Tool On
G1 F300 Z0.0000
G1 F15000 X2.0000 Y70.8000 Z0.0000
M3S245
G4 P0.5; Tool Off

G0 Z0; move to z-safe height
G0 X2.0000 Y74.8000
M3S0
G4 P0.5; Tool On
G1 F300 Z0.0000
G1 F15000 X1198.0000 Y74.8000 Z0.0000
M3S245
G4 P0.5; Tool Off

G0 Z0; move to z-safe height
G0 X1198.0000 Y78.8000
M3S0
G4 P0.5; Tool On
G1 F300 Z0.0000
G1 F15000 X2.0000 Y78.8000 Z0.0000
M3S245
G4 P0.5; Tool Off

G0 Z0; move to z-safe height
G0 X2.0000 Y82.8000
M3S0
G4 P0.5; Tool On
G1 F300 Z0.0000
G1 F15000 X1198.0000 Y82.8000 Z0.0000
M3S245
G4 P0.5; Tool Off

G0 Z0; move to z-safe height
G0 X1198.0000 Y86.8000
M3S0
G4 P0.5; Tool On
G1 F300 Z0.0000
G1 F15000 X2.0000 Y86.8000 Z0.0000
M3S245
G4 P0.5; Tool Off

G0 Z0; move to z-safe height
G0 X2.0000 Y90.8000
M3S0
G4 P0.5; Tool On
G1 F300 Z0.0000
G1 F15000 X1198.0000 Y90.8000 Z0.0000
M3S245
G4 P0.5; Tool Off

G0 Z0; move to z-safe height
G0 X1198.0000 Y94.8000
M3S0
G4 P0.5; Tool On
G1 F300 Z0.0000
G1 F15000 X2.0000 Y94.8000 Z0.0000
M3S245
G4 P0.5; Tool Off

G0 Z0; move to z-safe height
G0 X2.0000 Y98.8000
M3S0
G4 P0.5; Tool On
G1 F300 Z0.0000
G1 F15000 X1198.0000 Y98.8000 Z0.0000
M3S245
G4 P0.5; Tool Off

G0 Z0; move to z-safe height
G0 X1198.0000 Y102.8000
M3S0
G4 P0.5; Tool On
G1 F300 Z0.0000
G1 F15000 X2.0000 Y102.8000 Z0.0000
M3S245
G4 P0.5; Tool Off

G0 Z0; move to z-safe height
G0 X2.0000 Y106.8000
M3S0
G4 P0.5; Tool On
G1 F300 Z0.0000
G1 F15000 X1198.0000 Y106.8000 Z0.0000
M3S245
G4 P0.5; Tool Off

G0 Z0; move to z-safe height
G0 X1198.0000 Y110.8000
M3S0
G4 P0.5; Tool On
G1 F300 Z0.0000
G1 F15000 X2.0000 Y110.8000 Z0.0000
M3S245
G4 P0.5; Tool Off

G0 Z0; move to z-safe height
G0 X2.0000 Y114.8000
M3S0
G4 P0.5; Tool On
G1 F300 Z0.0000
G1 F15000 X1198.0000 Y114.8000 Z0.0000
M3S245
G4 P0.5; Tool Off

G0 Z0; move to z-safe height
G0 X1198.0000 Y118.8000
M3S0
G4 P0.5; Tool On
G1 F300 Z0.0000
G1 F15000 X2.0000 Y118.8000 Z0.0000
M3S245
G4 P0.5; Tool Off

G0 Z0; move to z-safe height
G0 X2.0000 Y122.8000
M3S0
G4 P0.5; Tool On
G1 F300 Z0.0000
G1 F15000 X1198.0000 Y122.8000 Z0.0000
M3S245
G4 P0.5; Tool Off

G0 Z0; move to z-safe height
G0 X1198.0000 Y126.8000
M3S0
G4 P0.5; Tool On
G1 F300 Z0.0000
G1 F15000 X2.0000 Y126.8000 Z0.0000
M3S245
G4 P0.5; Tool Off

G0 Z0; move to z-safe height
G0 X2.0000 Y130.8000
M3S0
G4 P0.5; Tool On
G1 F300 Z0.0000
G1 F15000 X1198.0000 Y130.8000 Z0.0000
M3S245
G4 P0.5; Tool Off

G0 Z0; move to z-safe height
G0 X1198.0000 Y134.8000
M3S0
G4 P0.5; Tool On
G1 F300 Z0.0000
G1 F15000 X2.0000 Y134.8000 Z0.0000
M3S245
G4 P0.5; Tool Off

G0 Z0; move to z-safe height
G0 X2.0000 Y138.8000
M3S0
G4 P0.5; Tool On
G1 F300 Z0.0000
G1 F15000 X1198.0000 Y138.8000 Z0.0000
M3S245
G4 P0.5; Tool Off

G0 Z0; move to z-safe height
G0 X1198.0000 Y142.8000
M3S0
G4 P0.5; Tool On
G1 F300 Z0.0000
G1 F15000 X2.0000 Y142.8000 Z0.0000
M3S245
G4 P0.5; Tool Off

G0 Z0; move to z-safe height
G0 X2.0000 Y146.8000
M3S0
G4 P0.5; Tool On
G1 F300 Z0.0000
G1 F15000 X1198.0000 Y146.8000 Z0.0000
M3S245
G4 P0.5; Tool Off

G0 Z0; move to z-safe height
G0 X1198.0000 Y150.8000
M3S0
G4 P0.5; Tool On
G1 F300 Z0.0000
G1 F15000 X2.0000 Y150.8000 Z0.0000
M3S245
G4 P0.5; Tool Off

G0 Z0; move to z-safe height
G0 X2.0000 Y154.8000
M3S0
G4 P0.5; Tool On
G1 F300 Z0.0000
G1 F15000 X1198.0000 Y154.8000 Z0.0000
M3S245
G4 P0.5; Tool Off

G0 Z0; move to z-safe height
G0 X1198.0000 Y158.8000
M3S0
G4 P0.5; Tool On
G1 F300 Z0.0000
G1 F15000 X2.0000 Y158.8000 Z0.0000
M3S245
G4 P0.5; Tool Off

G0 Z0; move to z-safe height
G0 X2.0000 Y162.8000
M3S0
G4 P0.5; Tool On
G1 F300 Z0.0000
G1 F15000 X1198.0000 Y162.8000 Z0.0000
M3S245
G4 P0.5; Tool Off

G0 Z0; move to z-safe height
G0 X1198.0000 Y166.8000
M3S0
G4 P0.5; Tool On
G1 F300 Z0.0000
G1 F15000 X2.0000 Y166.8000 Z0.0000
M3S245
G4 P0.5; Tool Off

G0 Z0; move to z-safe height
G0 X2.0000 Y170.8000
M3S0
G4 P0.5; Tool On
G1 F300 Z0.0000
G1 F15000 X1198.0000 Y170.8000 Z0.0000
M3S245
G4 P0.5; Tool Off

G0 Z0; move to z-safe height
G0 X1198.0000 Y174.8000
M3S0
G4 P0.5; Tool On
G1 F300 Z0.0000
G1 F15000 X2.0000 Y174.8000 Z0.0000
M3S245
G4 P0.5; Tool Off

G0 Z0; move to z-safe height
G0 X2.0000 Y178.8000
M3S0
G4 P0.5; Tool On
G1 F300 Z0.0000
G1 F15000 X1198.0000 Y178.8000 Z0.0000
M3S245
G4 P0.5; Tool Off

G0 Z0; move to z-safe height
G0 X1198.0000 Y182.8000
M3S0
G4 P0.5; Tool On
G1 F300 Z0.0000
G1 F15000 X2.0000 Y182.8000 Z0.0000
M3S245
G4 P0.5; Tool Off

G0 Z0; move to z-safe height
G0 X2.0000 Y186.8000
M3S0
G4 P0.5; Tool On
G1 F300 Z0.0000
G1 F15000 X1198.0000 Y186.8000 Z0.0000
M3S245
G4 P0.5; Tool Off

G0 Z0; move to z-safe height
G0 X1198.0000 Y190.8000
M3S0
G4 P0.5; Tool On
G1 F300 Z0.0000
G1 F15000 X2.0000 Y190.8000 Z0.0000
M3S245
G4 P0.5; Tool Off

G0 Z0; move to z-safe height
G0 X2.0000 Y194.8000
M3S0
G4 P0.5; Tool On
G1 F300 Z0.0000
G1 F15000 X1198.0000 Y194.8000 Z0.0000
M3S245
G4 P0.5; Tool Off

G0 Z0; move to z-safe height
G0 X1198.0000 Y198.8000
M3S0
G4 P0.5; Tool On
G1 F300 Z0.0000
G1 F15000 X2.0000 Y198.8000 Z0.0000
M3S245
G4 P0.5; Tool Off

G0 Z0; move to z-safe height
G0 X2.0000 Y202.8000
M3S0
G4 P0.5; Tool On
G1 F300 Z0.0000
G1 F15000 X1198.0000 Y202.8000 Z0.0000
M3S245
G4 P0.5; Tool Off

G0 Z0; move to z-safe height
G0 X1198.0000 Y206.8000
M3S0
G4 P0.5; Tool On
G1 F300 Z0.0000
G1 F15000 X2.0000 Y206.8000 Z0.0000
M3S245
G4 P0.5; Tool Off

G0 Z0; move to z-safe height
G0 X2.0000 Y210.8000
M3S0
G4 P0.5; Tool On
G1 F300 Z0.0000
G1 F15000 X1198.0000 Y210.8000 Z0.0000
M3S245
G4 P0.5; Tool Off

G0 Z0; move to z-safe height
G0 X1198.0000 Y214.8000
M3S0
G4 P0.5; Tool On
G1 F300 Z0.0000
G1 F15000 X2.0000 Y214.8000 Z0.0000
M3S245
G4 P0.5; Tool Off

G0 Z0; move to z-safe height
G0 X2.0000 Y218.8000
M3S0
G4 P0.5; Tool On
G1 F300 Z0.0000
G1 F15000 X1198.0000 Y218.8000 Z0.0000
M3S245
G4 P0.5; Tool Off

G0 Z0; move to z-safe height
G0 X1198.0000 Y222.8000
M3S0
G4 P0.5; Tool On
G1 F300 Z0.0000
G1 F15000 X2.0000 Y222.8000 Z0.0000
M3S245
G4 P0.5; Tool Off

G0 Z0; move to z-safe height
G0 X2.0000 Y226.8000
M3S0
G4 P0.5; Tool On
G1 F300 Z0.0000
G1 F15000 X1198.0000 Y226.8000 Z0.0000
M3S245
G4 P0.5; Tool Off

G0 Z0; move to z-safe height
G0 X1198.0000 Y230.8000
M3S0
G4 P0.5; Tool On
G1 F300 Z0.0000
G1 F15000 X2.0000 Y230.8000 Z0.0000
M3S245
G4 P0.5; Tool Off

G0 Z0; move to z-safe height
G0 X2.0000 Y234.8000
M3S0
G4 P0.5; Tool On
G1 F300 Z0.0000
G1 F15000 X1198.0000 Y234.8000 Z0.0000
M3S245
G4 P0.5; Tool Off

G0 Z0; move to z-safe height
G0 X1198.0000 Y238.8000
M3S0
G4 P0.5; Tool On
G1 F300 Z0.0000
G1 F15000 X2.0000 Y238.8000 Z0.0000
M3S245
G4 P0.5; Tool Off

G0 Z0; move to z-safe height
G0 X2.0000 Y242.8000
M3S0
G4 P0.5; Tool On
G1 F300 Z0.0000
G1 F15000 X1198.0000 Y242.8000 Z0.0000
M3S245
G4 P0.5; Tool Off

G0 Z0; move to z-safe height
G0 X1198.0000 Y246.8000
M3S0
G4 P0.5; Tool On
G1 F300 Z0.0000
G1 F15000 X2.0000 Y246.8000 Z0.0000
M3S245
G4 P0.5; Tool Off

G0 Z0; move to z-safe height
G0 X2.0000 Y250.8000
M3S0
G4 P0.5; Tool On
G1 F300 Z0.0000
G1 F15000 X1198.0000 Y250.8000 Z0.0000
M3S245
G4 P0.5; Tool Off

G0 Z0; move to z-safe height
G0 X1198.0000 Y254.8000
M3S0
G4 P0.5; Tool On
G1 F300 Z0.0000
G1 F15000 X2.0000 Y254.8000 Z0.0000
M3S245
G4 P0.5; Tool Off

G0 Z0; move to z-safe height
G0 X2.0000 Y258.8000
M3S0
G4 P0.5; Tool On
G1 F300 Z0.0000
G1 F15000 X1198.0000 Y258.8000 Z0.0000
M3S245
G4 P0.5; Tool Off

G0 Z0; move to z-safe height
G0 X1198.0000 Y262.8000
M3S0
G4 P0.5; Tool On
G1 F300 Z0.0000
G1 F15000 X2.0000 Y262.8000 Z0.0000
M3S245
G4 P0.5; Tool Off

G0 Z0; move to z-safe height
G0 X2.0000 Y266.8000
M3S0
G4 P0.5; Tool On
G1 F300 Z0.0000
G1 F15000 X1198.0000 Y266.8000 Z0.0000
M3S245
G4 P0.5; Tool Off

G0 Z0; move to z-safe height
G0 X1198.0000 Y270.8000
M3S0
G4 P0.5; Tool On
G1 F300 Z0.0000
G1 F15000 X2.0000 Y270.8000 Z0.0000
M3S245
G4 P0.5; Tool Off

G0 Z0; move to z-safe height
G0 X2.0000 Y274.8000
M3S0
G4 P0.5; Tool On
G1 F300 Z0.0000
G1 F15000 X1198.0000 Y274.8000 Z0.0000
M3S245
G4 P0.5; Tool Off

G0 Z0; move to z-safe height
G0 X1198.0000 Y278.8000
M3S0
G4 P0.5; Tool On
G1 F300 Z0.0000
G1 F15000 X2.0000 Y278.8000 Z0.0000
M3S245
G4 P0.5; Tool Off

G0 Z0; move to z-safe height
G0 X2.0000 Y282.8000
M3S0
G4 P0.5; Tool On
G1 F300 Z0.0000
G1 F15000 X1198.0000 Y282.8000 Z0.0000
M3S245
G4 P0.5; Tool Off

G0 Z0; move to z-safe height
G0 X1198.0000 Y286.8000
M3S0
G4 P0.5; Tool On
G1 F300 Z0.0000
G1 F15000 X2.0000 Y286.8000 Z0.0000
M3S245
G4 P0.5; Tool Off

G0 Z0; move to z-safe height
G0 X2.0000 Y290.8000
M3S0
G4 P0.5; Tool On
G1 F300 Z0.0000
G1 F15000 X1198.0000 Y290.8000 Z0.0000
M3S245
G4 P0.5; Tool Off

G0 Z0; move to z-safe height
G0 X1198.0000 Y294.8000
M3S0
G4 P0.5; Tool On
G1 F300 Z0.0000
G1 F15000 X2.0000 Y294.8000 Z0.0000
M3S245
G4 P0.5; Tool Off

G0 Z0; move to z-safe height
G0 X2.0000 Y298.8000
M3S0
G4 P0.5; Tool On
G1 F300 Z0.0000
G1 F15000 X1198.0000 Y298.8000 Z0.0000
M3S245
G4 P0.5; Tool Off

G0 Z0; move to z-safe height
G0 X1198.0000 Y302.8000
M3S0
G4 P0.5; Tool On
G1 F300 Z0.0000
G1 F15000 X2.0000 Y302.8000 Z0.0000
M3S245
G4 P0.5; Tool Off

G0 Z0; move to z-safe height
G0 X2.0000 Y306.8000
M3S0
G4 P0.5; Tool On
G1 F300 Z0.0000
G1 F15000 X1198.0000 Y306.8000 Z0.0000
M3S245
G4 P0.5; Tool Off

G0 Z0; move to z-safe height
G0 X1198.0000 Y310.8000
M3S0
G4 P0.5; Tool On
G1 F300 Z0.0000
G1 F15000 X2.0000 Y310.8000 Z0.0000
M3S245
G4 P0.5; Tool Off

G0 Z0; move to z-safe height
G0 X2.0000 Y314.8000
M3S0
G4 P0.5; Tool On
G1 F300 Z0.0000
G1 F15000 X1198.0000 Y314.8000 Z0.0000
M3S245
G4 P0.5; Tool Off

G0 Z0; move to z-safe height
G0 X1198.0000 Y318.8000
M3S0
G4 P0.5; Tool On
G1 F300 Z0.0000
G1 F15000 X2.0000 Y318.8000 Z0.0000
M3S245
G4 P0.5; Tool Off

G0 Z0; move to z-safe height
G0 X2.0000 Y322.8000
M3S0
G4 P0.5; Tool On
G1 F300 Z0.0000
G1 F15000 X1198.0000 Y322.8000 Z0.0000
M3S245
G4 P0.5; Tool Off

G0 Z0; move to z-safe height
G0 X1198.0000 Y326.8000
M3S0
G4 P0.5; Tool On
G1 F300 Z0.0000
G1 F15000 X2.0000 Y326.8000 Z0.0000
M3S245
G4 P0.5; Tool Off

G0 Z0; move to z-safe height
G0 X2.0000 Y330.8000
M3S0
G4 P0.5; Tool On
G1 F300 Z0.0000
G1 F15000 X1198.0000 Y330.8000 Z0.0000
M3S245
G4 P0.5; Tool Off

G0 Z0; move to z-safe height
G0 X1198.0000 Y334.8000
M3S0
G4 P0.5; Tool On
G1 F300 Z0.0000
G1 F15000 X2.0000 Y334.8000 Z0.0000
M3S245
G4 P0.5; Tool Off

G0 Z0; move to z-safe height
G0 X2.0000 Y338.8000
M3S0
G4 P0.5; Tool On
G1 F300 Z0.0000
G1 F15000 X1198.0000 Y338.8000 Z0.0000
M3S245
G4 P0.5; Tool Off

G0 Z0; move to z-safe height
G0 X1198.0000 Y342.8000
M3S0
G4 P0.5; Tool On
G1 F300 Z0.0000
G1 F15000 X2.0000 Y342.8000 Z0.0000
M3S245
G4 P0.5; Tool Off

G0 Z0; move to z-safe height
G0 X2.0000 Y346.8000
M3S0
G4 P0.5; Tool On
G1 F300 Z0.0000
G1 F15000 X1198.0000 Y346.8000 Z0.0000
M3S245
G4 P0.5; Tool Off

G0 Z0; move to z-safe height
G0 X1198.0000 Y350.8000
M3S0
G4 P0.5; Tool On
G1 F300 Z0.0000
G1 F15000 X2.0000 Y350.8000 Z0.0000
M3S245
G4 P0.5; Tool Off

G0 Z0; move to z-safe height
G0 X2.0000 Y354.8000
M3S0
G4 P0.5; Tool On
G1 F300 Z0.0000
G1 F15000 X1198.0000 Y354.8000 Z0.0000
M3S245
G4 P0.5; Tool Off

G0 Z0; move to z-safe height
G0 X1198.0000 Y358.8000
M3S0
G4 P0.5; Tool On
G1 F300 Z0.0000
G1 F15000 X2.0000 Y358.8000 Z0.0000
M3S245
G4 P0.5; Tool Off

G0 Z0; move to z-safe height
G0 X2.0000 Y362.8000
M3S0
G4 P0.5; Tool On
G1 F300 Z0.0000
G1 F15000 X1198.0000 Y362.8000 Z0.0000
M3S245
G4 P0.5; Tool Off

G0 Z0; move to z-safe height
G0 X1198.0000 Y366.8000
M3S0
G4 P0.5; Tool On
G1 F300 Z0.0000
G1 F15000 X2.0000 Y366.8000 Z0.0000
M3S245
G4 P0.5; Tool Off

G0 Z0; move to z-safe height
G0 X2.0000 Y370.8000
M3S0
G4 P0.5; Tool On
G1 F300 Z0.0000
G1 F15000 X1198.0000 Y370.8000 Z0.0000
M3S245
G4 P0.5; Tool Off

G0 Z0; move to z-safe height
G0 X1198.0000 Y374.8000
M3S0
G4 P0.5; Tool On
G1 F300 Z0.0000
G1 F15000 X2.0000 Y374.8000 Z0.0000
M3S245
G4 P0.5; Tool Off

G0 Z0; move to z-safe height
G0 X2.0000 Y378.8000
M3S0
G4 P0.5; Tool On
G1 F300 Z0.0000
G1 F15000 X1198.0000 Y378.8000 Z0.0000
M3S245
G4 P0.5; Tool Off

G0 Z0; move to z-safe height
G0 X1198.0000 Y382.8000
M3S0
G4 P0.5; Tool On
G1 F300 Z0.0000
G1 F15000 X2.0000 Y382.8000 Z0.0000
M3S245
G4 P0.5; Tool Off

G0 Z0; move to z-safe height
G0 X2.0000 Y386.8000
M3S0
G4 P0.5; Tool On
G1 F300 Z0.0000
G1 F15000 X1198.0000 Y386.8000 Z0.0000
M3S245
G4 P0.5; Tool Off

G0 Z0; move to z-safe height
G0 X1198.0000 Y390.8000
M3S0
G4 P0.5; Tool On
G1 F300 Z0.0000
G1 F15000 X2.0000 Y390.8000 Z0.0000
M3S245
G4 P0.5; Tool Off

G0 Z0; move to z-safe height
G0 X2.0000 Y394.8000
M3S0
G4 P0.5; Tool On
G1 F300 Z0.0000
G1 F15000 X1198.0000 Y394.8000 Z0.0000
M3S245
G4 P0.5; Tool Off

G0 Z0; move to z-safe height
G0 X1198.0000 Y398.8000
M3S0
G4 P0.5; Tool On
G1 F300 Z0.0000
G1 F15000 X2.0000 Y398.8000 Z0.0000
M3S245
G4 P0.5; Tool Off

G0 Z0; move to z-safe height
G0 X2.0000 Y402.8000
M3S0
G4 P0.5; Tool On
G1 F300 Z0.0000
G1 F15000 X1198.0000 Y402.8000 Z0.0000
M3S245
G4 P0.5; Tool Off

G0 Z0; move to z-safe height
G0 X1198.0000 Y406.8000
M3S0
G4 P0.5; Tool On
G1 F300 Z0.0000
G1 F15000 X2.0000 Y406.8000 Z0.0000
M3S245
G4 P0.5; Tool Off

G0 Z0; move to z-safe height
G0 X2.0000 Y410.8000
M3S0
G4 P0.5; Tool On
G1 F300 Z0.0000
G1 F15000 X1198.0000 Y410.8000 Z0.0000
M3S245
G4 P0.5; Tool Off

G0 Z0; move to z-safe height
G0 X1198.0000 Y414.8000
M3S0
G4 P0.5; Tool On
G1 F300 Z0.0000
G1 F15000 X2.0000 Y414.8000 Z0.0000
M3S245
G4 P0.5; Tool Off

G0 Z0; move to z-safe height
G0 X2.0000 Y418.8000
M3S0
G4 P0.5; Tool On
G1 F300 Z0.0000
G1 F15000 X1198.0000 Y418.8000 Z0.0000
M3S245
G4 P0.5; Tool Off

G0 Z0; move to z-safe height
G0 X1198.0000 Y422.8000
M3S0
G4 P0.5; Tool On
G1 F300 Z0.0000
G1 F15000 X2.0000 Y422.8000 Z0.0000
M3S245
G4 P0.5; Tool Off

G0 Z0; move to z-safe height
G0 X2.0000 Y426.8000
M3S0
G4 P0.5; Tool On
G1 F300 Z0.0000
G1 F15000 X1198.0000 Y426.8000 Z0.0000
M3S245
G4 P0.5; Tool Off

G0 Z0; move to z-safe height
G0 X1198.0000 Y430.8000
M3S0
G4 P0.5; Tool On
G1 F300 Z0.0000
G1 F15000 X2.0000 Y430.8000 Z0.0000
M3S245
G4 P0.5; Tool Off

G0 Z0; move to z-safe height
G0 X2.0000 Y434.8000
M3S0
G4 P0.5; Tool On
G1 F300 Z0.0000
G1 F15000 X1198.0000 Y434.8000 Z0.0000
M3S245
G4 P0.5; Tool Off

G0 Z0; move to z-safe height
G0 X1198.0000 Y438.8000
M3S0
G4 P0.5; Tool On
G1 F300 Z0.0000
G1 F15000 X2.0000 Y438.8000 Z0.0000
M3S245
G4 P0.5; Tool Off

G0 Z0; move to z-safe height
G0 X2.0000 Y442.8000
M3S0
G4 P0.5; Tool On
G1 F300 Z0.0000
G1 F15000 X1198.0000 Y442.8000 Z0.0000
M3S245
G4 P0.5; Tool Off

G0 Z0; move to z-safe height
G0 X1198.0000 Y446.8000
M3S0
G4 P0.5; Tool On
G1 F300 Z0.0000
G1 F15000 X2.0000 Y446.8000 Z0.0000
M3S245
G4 P0.5; Tool Off

G0 Z0; move to z-safe height
G0 X2.0000 Y450.8000
M3S0
G4 P0.5; Tool On
G1 F300 Z0.0000
G1 F15000 X1198.0000 Y450.8000 Z0.0000
M3S245
G4 P0.5; Tool Off

G0 Z0; move to z-safe height
G0 X1198.0000 Y454.8000
M3S0
G4 P0.5; Tool On
G1 F300 Z0.0000
G1 F15000 X2.0000 Y454.8000 Z0.0000
M3S245
G4 P0.5; Tool Off

G0 Z0; move to z-safe height
G0 X2.0000 Y458.8000
M3S0
G4 P0.5; Tool On
G1 F300 Z0.0000
G1 F15000 X1198.0000 Y458.8000 Z0.0000
M3S245
G4 P0.5; Tool Off

G0 Z0; move to z-safe height
G0 X1198.0000 Y462.8000
M3S0
G4 P0.5; Tool On
G1 F300 Z0.0000
G1 F15000 X2.0000 Y462.8000 Z0.0000
M3S245
G4 P0.5; Tool Off

G0 Z0; move to z-safe height
G0 X2.0000 Y466.8000
M3S0
G4 P0.5; Tool On
G1 F300 Z0.0000
G1 F15000 X1198.0000 Y466.8000 Z0.0000
M3S245
G4 P0.5; Tool Off

G0 Z0; move to z-safe height
G0 X1198.0000 Y470.8000
M3S0
G4 P0.5; Tool On
G1 F300 Z0.0000
G1 F15000 X2.0000 Y470.8000 Z0.0000
M3S245
G4 P0.5; Tool Off

G0 Z0; move to z-safe height
G0 X2.0000 Y474.8000
M3S0
G4 P0.5; Tool On
G1 F300 Z0.0000
G1 F15000 X1198.0000 Y474.8000 Z0.0000
M3S245
G4 P0.5; Tool Off

G0 Z0; move to z-safe height
G0 X1198.0000 Y478.8000
M3S0
G4 P0.5; Tool On
G1 F300 Z0.0000
G1 F15000 X2.0000 Y478.8000 Z0.0000
M3S245
G4 P0.5; Tool Off

G0 Z0; move to z-safe height
G0 X2.0000 Y482.8000
M3S0
G4 P0.5; Tool On
G1 F300 Z0.0000
G1 F15000 X1198.0000 Y482.8000 Z0.0000
M3S245
G4 P0.5; Tool Off

G0 Z0; move to z-safe height
G0 X1198.0000 Y486.8000
M3S0
G4 P0.5; Tool On
G1 F300 Z0.0000
G1 F15000 X2.0000 Y486.8000 Z0.0000
M3S245
G4 P0.5; Tool Off

G0 Z0; move to z-safe height
G0 X2.0000 Y490.8000
M3S0
G4 P0.5; Tool On
G1 F300 Z0.0000
G1 F15000 X1198.0000 Y490.8000 Z0.0000
M3S245
G4 P0.5; Tool Off

G0 Z0; move to z-safe height
G0 X1198.0000 Y494.8000
M3S0
G4 P0.5; Tool On
G1 F300 Z0.0000
G1 F15000 X2.0000 Y494.8000 Z0.0000
M3S245
G4 P0.5; Tool Off

G0 Z0; move to z-safe height
G0 X2.0000 Y498.8000
M3S0
G4 P0.5; Tool On
G1 F300 Z0.0000
G1 F15000 X1198.0000 Y498.8000 Z0.0000
M3S245
G4 P0.5; Tool Off

G0 Z0; move to z-safe height
G0 X1198.0000 Y502.8000
M3S0
G4 P0.5; Tool On
G1 F300 Z0.0000
G1 F15000 X2.0000 Y502.8000 Z0.0000
M3S245
G4 P0.5; Tool Off

G0 Z0; move to z-safe height
G0 X2.0000 Y506.8000
M3S0
G4 P0.5; Tool On
G1 F300 Z0.0000
G1 F15000 X1198.0000 Y506.8000 Z0.0000
M3S245
G4 P0.5; Tool Off

G0 Z0; move to z-safe height
G0 X1198.0000 Y510.8000
M3S0
G4 P0.5; Tool On
G1 F300 Z0.0000
G1 F15000 X2.0000 Y510.8000 Z0.0000
M3S245
G4 P0.5; Tool Off

G0 Z0; move to z-safe height
G0 X2.0000 Y514.8000
M3S0
G4 P0.5; Tool On
G1 F300 Z0.0000
G1 F15000 X1198.0000 Y514.8000 Z0.0000
M3S245
G4 P0.5; Tool Off

G0 Z0; move to z-safe height
G0 X1198.0000 Y518.8000
M3S0
G4 P0.5; Tool On
G1 F300 Z0.0000
G1 F15000 X2.0000 Y518.8000 Z0.0000
M3S245
G4 P0.5; Tool Off

G0 Z0; move to z-safe height
G0 X2.0000 Y522.8000
M3S0
G4 P0.5; Tool On
G1 F300 Z0.0000
G1 F15000 X1198.0000 Y522.8000 Z0.0000
M3S245
G4 P0.5; Tool Off

G0 Z0; move to z-safe height
G0 X1198.0000 Y526.8000
M3S0
G4 P0.5; Tool On
G1 F300 Z0.0000
G1 F15000 X2.0000 Y526.8000 Z0.0000
M3S245
G4 P0.5; Tool Off

G0 Z0; move to z-safe height
G0 X2.0000 Y530.8000
M3S0
G4 P0.5; Tool On
G1 F300 Z0.0000
G1 F15000 X1198.0000 Y530.8000 Z0.0000
M3S245
G4 P0.5; Tool Off

G0 Z0; move to z-safe height
G0 X1198.0000 Y534.8000
M3S0
G4 P0.5; Tool On
G1 F300 Z0.0000
G1 F15000 X2.0000 Y534.8000 Z0.0000
M3S245
G4 P0.5; Tool Off

G0 Z0; move to z-safe height
G0 X2.0000 Y538.8000
M3S0
G4 P0.5; Tool On
G1 F300 Z0.0000
G1 F15000 X1198.0000 Y538.8000 Z0.0000
M3S245
G4 P0.5; Tool Off

G0 Z0; move to z-safe height
G0 X1198.0000 Y542.8000
M3S0
G4 P0.5; Tool On
G1 F300 Z0.0000
G1 F15000 X2.0000 Y542.8000 Z0.0000
M3S245
G4 P0.5; Tool Off

G0 Z0; move to z-safe height
G0 X2.0000 Y546.8000
M3S0
G4 P0.5; Tool On
G1 F300 Z0.0000
G1 F15000 X1198.0000 Y546.8000 Z0.0000
M3S245
G4 P0.5; Tool Off

G0 Z0; move to z-safe height
G0 X1198.0000 Y550.8000
M3S0
G4 P0.5; Tool On
G1 F300 Z0.0000
G1 F15000 X2.0000 Y550.8000 Z0.0000
M3S245
G4 P0.5; Tool Off

G0 Z0; move to z-safe height
G0 X2.0000 Y554.8000
M3S0
G4 P0.5; Tool On
G1 F300 Z0.0000
G1 F15000 X1198.0000 Y554.8000 Z0.0000
M3S245
G4 P0.5; Tool Off

G0 Z0; move to z-safe height
G0 X1198.0000 Y558.8000
M3S0
G4 P0.5; Tool On
G1 F300 Z0.0000
G1 F15000 X2.0000 Y558.8000 Z0.0000
M3S245
G4 P0.5; Tool Off

G0 Z0; move to z-safe height
G0 X2.0000 Y562.8000
M3S0
G4 P0.5; Tool On
G1 F300 Z0.0000
G1 F15000 X1198.0000 Y562.8000 Z0.0000
M3S245
G4 P0.5; Tool Off

G0 Z0; move to z-safe height
G0 X1198.0000 Y566.8000
M3S0
G4 P0.5; Tool On
G1 F300 Z0.0000
G1 F15000 X2.0000 Y566.8000 Z0.0000
M3S245
G4 P0.5; Tool Off

G0 Z0; move to z-safe height
G0 X2.0000 Y570.8000
M3S0
G4 P0.5; Tool On
G1 F300 Z0.0000
G1 F15000 X1198.0000 Y570.8000 Z0.0000
M3S245
G4 P0.5; Tool Off

G0 Z0; move to z-safe height
G0 X1198.0000 Y574.8000
M3S0
G4 P0.5; Tool On
G1 F300 Z0.0000
G1 F15000 X2.0000 Y574.8000 Z0.0000
M3S245
G4 P0.5; Tool Off

G0 Z0; move to z-safe height
G0 X2.0000 Y578.8000
M3S0
G4 P0.5; Tool On
G1 F300 Z0.0000
G1 F15000 X1198.0000 Y578.8000 Z0.0000
M3S245
G4 P0.5; Tool Off

G0 Z0; move to z-safe height
G0 X1198.0000 Y582.8000
M3S0
G4 P0.5; Tool On
G1 F300 Z0.0000
G1 F15000 X2.0000 Y582.8000 Z0.0000
M3S245
G4 P0.5; Tool Off

G0 Z0; move to z-safe height
G0 X2.0000 Y586.8000
M3S0
G4 P0.5; Tool On
G1 F300 Z0.0000
G1 F15000 X1198.0000 Y586.8000 Z0.0000
M3S245
G4 P0.5; Tool Off

G0 Z0; move to z-safe height
G0 X1198.0000 Y590.8000
M3S0
G4 P0.5; Tool On
G1 F300 Z0.0000
G1 F15000 X2.0000 Y590.8000 Z0.0000
M3S245
G4 P0.5; Tool Off

G0 Z0; move to z-safe height
G0 X2.0000 Y594.8000
M3S0
G4 P0.5; Tool On
G1 F300 Z0.0000
G1 F15000 X1198.0000 Y594.8000 Z0.0000
M3S245
G4 P0.5; Tool Off

G0 Z0; move to z-safe height
G0 X1198.0000 Y598.8000
M3S0
G4 P0.5; Tool On
G1 F300 Z0.0000
G1 F15000 X2.0000 Y598.8000 Z0.0000
M3S245
G4 P0.5; Tool Off

G0 Z0; move to z-safe height
G0 X2.0000 Y602.8000
M3S0
G4 P0.5; Tool On
G1 F300 Z0.0000
G1 F15000 X1198.0000 Y602.8000 Z0.0000
M3S245
G4 P0.5; Tool Off

G0 Z0; move to z-safe height
G0 X1198.0000 Y606.8000
M3S0
G4 P0.5; Tool On
G1 F300 Z0.0000
G1 F15000 X2.0000 Y606.8000 Z0.0000
M3S245
G4 P0.5; Tool Off

G0 Z0; move to z-safe height
G0 X2.0000 Y610.8000
M3S0
G4 P0.5; Tool On
G1 F300 Z0.0000
G1 F15000 X1198.0000 Y610.8000 Z0.0000
M3S245
G4 P0.5; Tool Off

G0 Z0; move to z-safe height
G0 X1198.0000 Y614.8000
M3S0
G4 P0.5; Tool On
G1 F300 Z0.0000
G1 F15000 X2.0000 Y614.8000 Z0.0000
M3S245
G4 P0.5; Tool Off

G0 Z0; move to z-safe height
G0 X2.0000 Y618.8000
M3S0
G4 P0.5; Tool On
G1 F300 Z0.0000
G1 F15000 X1198.0000 Y618.8000 Z0.0000
M3S245
G4 P0.5; Tool Off

G0 Z0; move to z-safe height
G0 X1198.0000 Y622.8000
M3S0
G4 P0.5; Tool On
G1 F300 Z0.0000
G1 F15000 X2.0000 Y622.8000 Z0.0000
M3S245
G4 P0.5; Tool Off

G0 Z0; move to z-safe height
G0 X2.0000 Y626.8000
M3S0
G4 P0.5; Tool On
G1 F300 Z0.0000
G1 F15000 X1198.0000 Y626.8000 Z0.0000
M3S245
G4 P0.5; Tool Off

G0 Z0; move to z-safe height
G0 X1198.0000 Y630.8000
M3S0
G4 P0.5; Tool On
G1 F300 Z0.0000
G1 F15000 X2.0000 Y630.8000 Z0.0000
M3S245
G4 P0.5; Tool Off

G0 Z0; move to z-safe height
G0 X2.0000 Y634.8000
M3S0
G4 P0.5; Tool On
G1 F300 Z0.0000
G1 F15000 X1198.0000 Y634.8000 Z0.0000
M3S245
G4 P0.5; Tool Off

G0 Z0; move to z-safe height
G0 X1198.0000 Y638.8000
M3S0
G4 P0.5; Tool On
G1 F300 Z0.0000
G1 F15000 X2.0000 Y638.8000 Z0.0000
M3S245
G4 P0.5; Tool Off

G0 Z0; move to z-safe height
G0 X2.0000 Y642.8000
M3S0
G4 P0.5; Tool On
G1 F300 Z0.0000
G1 F15000 X1198.0000 Y642.8000 Z0.0000
M3S245
G4 P0.5; Tool Off

G0 Z0; move to z-safe height
G0 X1198.0000 Y646.8000
M3S0
G4 P0.5; Tool On
G1 F300 Z0.0000
G1 F15000 X2.0000 Y646.8000 Z0.0000
M3S245
G4 P0.5; Tool Off

G0 Z0; move to z-safe height
G0 X2.0000 Y650.8000
M3S0
G4 P0.5; Tool On
G1 F300 Z0.0000
G1 F15000 X1198.0000 Y650.8000 Z0.0000
M3S245
G4 P0.5; Tool Off

G0 Z0; move to z-safe height
G0 X1198.0000 Y654.8000
M3S0
G4 P0.5; Tool On
G1 F300 Z0.0000
G1 F15000 X2.0000 Y654.8000 Z0.0000
M3S245
G4 P0.5; Tool Off

G0 Z0; move to z-safe height
G0 X2.0000 Y658.8000
M3S0
G4 P0.5; Tool On
G1 F300 Z0.0000
G1 F15000 X1198.0000 Y658.8000 Z0.0000
M3S245
G4 P0.5; Tool Off

G0 Z0; move to z-safe height
G0 X1198.0000 Y662.8000
M3S0
G4 P0.5; Tool On
G1 F300 Z0.0000
G1 F15000 X2.0000 Y662.8000 Z0.0000
M3S245
G4 P0.5; Tool Off

G0 Z0; move to z-safe height
G0 X2.0000 Y666.8000
M3S0
G4 P0.5; Tool On
G1 F300 Z0.0000
G1 F15000 X1198.0000 Y666.8000 Z0.0000
M3S245
G4 P0.5; Tool Off

G0 Z0; move to z-safe height
G0 X1198.0000 Y670.8000
M3S0
G4 P0.5; Tool On
G1 F300 Z0.0000
G1 F15000 X2.0000 Y670.8000 Z0.0000
M3S245
G4 P0.5; Tool Off

G0 Z0; move to z-safe height
G0 X2.0000 Y674.8000
M3S0
G4 P0.5; Tool On
G1 F300 Z0.0000
G1 F15000 X1198.0000 Y674.8000 Z0.0000
M3S245
G4 P0.5; Tool Off

G0 Z0; move to z-safe height
G0 X1198.0000 Y678.8000
M3S0
G4 P0.5; Tool On
G1 F300 Z0.0000
G1 F15000 X2.0000 Y678.8000 Z0.0000
M3S245
G4 P0.5; Tool Off

G0 Z0; move to z-safe height
G0 X2.0000 Y682.8000
M3S0
G4 P0.5; Tool On
G1 F300 Z0.0000
G1 F15000 X1198.0000 Y682.8000 Z0.0000
M3S245
G4 P0.5; Tool Off

G0 Z0; move to z-safe height
G0 X1198.0000 Y686.8000
M3S0
G4 P0.5; Tool On
G1 F300 Z0.0000
G1 F15000 X2.0000 Y686.8000 Z0.0000
M3S245
G4 P0.5; Tool Off

G0 Z0; move to z-safe height
G0 X2.0000 Y690.8000
M3S0
G4 P0.5; Tool On
G1 F300 Z0.0000
G1 F15000 X1198.0000 Y690.8000 Z0.0000
M3S245
G4 P0.5; Tool Off

G0 Z0; move to z-safe height
G0 X1198.0000 Y694.8000
M3S0
G4 P0.5; Tool On
G1 F300 Z0.0000
G1 F15000 X2.0000 Y694.8000 Z0.0000
M3S245
G4 P0.5; Tool Off

G0 Z0; move to z-safe height
G0 X2.0000 Y698.8000
M3S0
G4 P0.5; Tool On
G1 F300 Z0.0000
G1 F15000 X1198.0000 Y698.8000 Z0.0000
M3S245
G4 P0.5; Tool Off

G0 Z0; move to z-safe height
G0 X1198.0000 Y702.8000
M3S0
G4 P0.5; Tool On
G1 F300 Z0.0000
G1 F15000 X2.0000 Y702.8000 Z0.0000
M3S245
G4 P0.5; Tool Off

G0 Z0; move to z-safe height
G0 X2.0000 Y706.8000
M3S0
G4 P0.5; Tool On
G1 F300 Z0.0000
G1 F15000 X1198.0000 Y706.8000 Z0.0000
M3S245
G4 P0.5; Tool Off

G0 Z0; move to z-safe height
G0 X1198.0000 Y710.8000
M3S0
G4 P0.5; Tool On
G1 F300 Z0.0000
G1 F15000 X2.0000 Y710.8000 Z0.0000
M3S245
G4 P0.5; Tool Off

G0 Z0; move to z-safe height
G0 X2.0000 Y714.8000
M3S0
G4 P0.5; Tool On
G1 F300 Z0.0000
G1 F15000 X1198.0000 Y714.8000 Z0.0000
M3S245
G4 P0.5; Tool Off

G0 Z0; move to z-safe height
G0 X1198.0000 Y718.8000
M3S0
G4 P0.5; Tool On
G1 F300 Z0.0000
G1 F15000 X2.0000 Y718.8000 Z0.0000
M3S245
G4 P0.5; Tool Off

G0 Z0; move to z-safe height
G0 X2.0000 Y722.8000
M3S0
G4 P0.5; Tool On
G1 F300 Z0.0000
G1 F15000 X1198.0000 Y722.8000 Z0.0000
M3S245
G4 P0.5; Tool Off

G0 Z0; move to z-safe height
G0 X1198.0000 Y726.8000
M3S0
G4 P0.5; Tool On
G1 F300 Z0.0000
G1 F15000 X2.0000 Y726.8000 Z0.0000
M3S245
G4 P0.5; Tool Off

G0 Z0; move to z-safe height
G0 X2.0000 Y730.8000
M3S0
G4 P0.5; Tool On
G1 F300 Z0.0000
G1 F15000 X1198.0000 Y730.8000 Z0.0000
M3S245
G4 P0.5; Tool Off

G0 Z0; move to z-safe height
G0 X1198.0000 Y734.8000
M3S0
G4 P0.5; Tool On
G1 F300 Z0.0000
G1 F15000 X2.0000 Y734.8000 Z0.0000
M3S245
G4 P0.5; Tool Off

G0 Z0; move to z-safe height
G0 X2.0000 Y738.8000
M3S0
G4 P0.5; Tool On
G1 F300 Z0.0000
G1 F15000 X1198.0000 Y738.8000 Z0.0000
M3S245
G4 P0.5; Tool Off

G0 Z0; move to z-safe height
G0 X1198.0000 Y742.8000
M3S0
G4 P0.5; Tool On
G1 F300 Z0.0000
G1 F15000 X2.0000 Y742.8000 Z0.0000
M3S245
G4 P0.5; Tool Off

G0 Z0; move to z-safe height
G0 X2.0000 Y746.8000
M3S0
G4 P0.5; Tool On
G1 F300 Z0.0000
G1 F15000 X1198.0000 Y746.8000 Z0.0000
M3S245
G4 P0.5; Tool Off

G0 Z0; move to z-safe height
G0 X1198.0000 Y750.8000
M3S0
G4 P0.5; Tool On
G1 F300 Z0.0000
G1 F15000 X2.0000 Y750.8000 Z0.0000
M3S245
G4 P0.5; Tool Off

G0 Z0; move to z-safe height
G0 X2.0000 Y754.8000
M3S0
G4 P0.5; Tool On
G1 F300 Z0.0000
G1 F15000 X1198.0000 Y754.8000 Z0.0000
M3S245
G4 P0.5; Tool Off

G0 Z0; move to z-safe height
G0 X1198.0000 Y758.8000
M3S0
G4 P0.5; Tool On
G1 F300 Z0.0000
G1 F15000 X2.0000 Y758.8000 Z0.0000
M3S245
G4 P0.5; Tool Off

G0 Z0; move to z-safe height
G0 X2.0000 Y762.8000
M3S0
G4 P0.5; Tool On
G1 F300 Z0.0000
G1 F15000 X1198.0000 Y762.8000 Z0.0000
M3S245
G4 P0.5; Tool Off

G0 Z0; move to z-safe height
G0 X1198.0000 Y766.8000
M3S0
G4 P0.5; Tool On
G1 F300 Z0.0000
G1 F15000 X2.0000 Y766.8000 Z0.0000
M3S245
G4 P0.5; Tool Off

G0 Z0; move to z-safe height
G0 X2.0000 Y770.8000
M3S0
G4 P0.5; Tool On
G1 F300 Z0.0000
G1 F15000 X1198.0000 Y770.8000 Z0.0000
M3S245
G4 P0.5; Tool Off

G0 Z0; move to z-safe height
G0 X1198.0000 Y774.8000
M3S0
G4 P0.5; Tool On
G1 F300 Z0.0000
G1 F15000 X2.0000 Y774.8000 Z0.0000
M3S245
G4 P0.5; Tool Off

G0 Z0; move to z-safe height
G0 X2.0000 Y778.8000
M3S0
G4 P0.5; Tool On
G1 F300 Z0.0000
G1 F15000 X1198.0000 Y778.8000 Z0.0000
M3S245
G4 P0.5; Tool Off

G0 Z0; move to z-safe height
G0 X1198.0000 Y782.8000
M3S0
G4 P0.5; Tool On
G1 F300 Z0.0000
G1 F15000 X2.0000 Y782.8000 Z0.0000
M3S245
G4 P0.5; Tool Off

G0 Z0; move to z-safe height
G0 X2.0000 Y786.8000
M3S0
G4 P0.5; Tool On
G1 F300 Z0.0000
G1 F15000 X1198.0000 Y786.8000 Z0.0000
M3S245
G4 P0.5; Tool Off

G0 Z0; move to z-safe height
G0 X1198.0000 Y790.8000
M3S0
G4 P0.5; Tool On
G1 F300 Z0.0000
G1 F15000 X2.0000 Y790.8000 Z0.0000
M3S245
G4 P0.5; Tool Off

G0 Z0; move to z-safe height
G0 X2.0000 Y794.8000
M3S0
G4 P0.5; Tool On
G1 F300 Z0.0000
G1 F15000 X1198.0000 Y794.8000 Z0.0000
M3S245
G4 P0.5; Tool Off

G0 Z0; move to z-safe height
G0 X1198.0000 Y798.8000
M3S0
G4 P0.5; Tool On
G1 F300 Z0.0000
G1 F15000 X2.0000 Y798.8000 Z0.0000
M3S245
G4 P0.5; Tool Off

G0 Z0; move to z-safe height
G0 X2.0000 Y802.8000
M3S0
G4 P0.5; Tool On
G1 F300 Z0.0000
G1 F15000 X1198.0000 Y802.8000 Z0.0000
M3S245
G4 P0.5; Tool Off

G0 Z0; move to z-safe height
G0 X1198.0000 Y806.8000
M3S0
G4 P0.5; Tool On
G1 F300 Z0.0000
G1 F15000 X2.0000 Y806.8000 Z0.0000
M3S245
G4 P0.5; Tool Off

G0 Z0; move to z-safe height
G0 X2.0000 Y810.8000
M3S0
G4 P0.5; Tool On
G1 F300 Z0.0000
G1 F15000 X1198.0000 Y810.8000 Z0.0000
M3S245
G4 P0.5; Tool Off

G0 Z0; move to z-safe height
G0 X1198.0000 Y814.8000
M3S0
G4 P0.5; Tool On
G1 F300 Z0.0000
G1 F15000 X2.0000 Y814.8000 Z0.0000
M3S245
G4 P0.5; Tool Off

G0 Z0; move to z-safe height
G0 X2.0000 Y818.8000
M3S0
G4 P0.5; Tool On
G1 F300 Z0.0000
G1 F15000 X1198.0000 Y818.8000 Z0.0000
M3S245
G4 P0.5; Tool Off

G0 Z0; move to z-safe height
G0 X1198.0000 Y822.8000
M3S0
G4 P0.5; Tool On
G1 F300 Z0.0000
G1 F15000 X2.0000 Y822.8000 Z0.0000
M3S245
G4 P0.5; Tool Off

G0 Z0; move to z-safe height
G0 X2.0000 Y826.8000
M3S0
G4 P0.5; Tool On
G1 F300 Z0.0000
G1 F15000 X1198.0000 Y826.8000 Z0.0000
M3S245
G4 P0.5; Tool Off

G0 Z0; move to z-safe height
G0 X1198.0000 Y830.8000
M3S0
G4 P0.5; Tool On
G1 F300 Z0.0000
G1 F15000 X2.0000 Y830.8000 Z0.0000
M3S245
G4 P0.5; Tool Off

G0 Z0; move to z-safe height
G0 X2.0000 Y834.8000
M3S0
G4 P0.5; Tool On
G1 F300 Z0.0000
G1 F15000 X1198.0000 Y834.8000 Z0.0000
M3S245
G4 P0.5; Tool Off

G0 Z0; move to z-safe height
G0 X1198.0000 Y838.8000
M3S0
G4 P0.5; Tool On
G1 F300 Z0.0000
G1 F15000 X2.0000 Y838.8000 Z0.0000
M3S245
G4 P0.5; Tool Off

G0 Z0; move to z-safe height
G0 X2.0000 Y842.8000
M3S0
G4 P0.5; Tool On
G1 F300 Z0.0000
G1 F15000 X1198.0000 Y842.8000 Z0.0000
M3S245
G4 P0.5; Tool Off

G0 Z0; move to z-safe height
G0 X1198.0000 Y846.8000
M3S0
G4 P0.5; Tool On
G1 F300 Z0.0000
G1 F15000 X2.0000 Y846.8000 Z0.0000
M3S245
G4 P0.5; Tool Off

G0 Z0; move to z-safe height
G0 X2.0000 Y850.8000
M3S0
G4 P0.5; Tool On
G1 F300 Z0.0000
G1 F15000 X1198.0000 Y850.8000 Z0.0000
M3S245
G4 P0.5; Tool Off

G0 Z0; move to z-safe height
G0 X1198.0000 Y854.8000
M3S0
G4 P0.5; Tool On
G1 F300 Z0.0000
G1 F15000 X2.0000 Y854.8000 Z0.0000
M3S245
G4 P0.5; Tool Off

G0 Z0; move to z-safe height
G0 X2.0000 Y858.8000
M3S0
G4 P0.5; Tool On
G1 F300 Z0.0000
G1 F15000 X1198.0000 Y858.8000 Z0.0000
M3S245
G4 P0.5; Tool Off

G0 Z0; move to z-safe height
G0 X1198.0000 Y862.8000
M3S0
G4 P0.5; Tool On
G1 F300 Z0.0000
G1 F15000 X2.0000 Y862.8000 Z0.0000
M3S245
G4 P0.5; Tool Off

G0 Z0; move to z-safe height
G0 X2.0000 Y866.8000
M3S0
G4 P0.5; Tool On
G1 F300 Z0.0000
G1 F15000 X1198.0000 Y866.8000 Z0.0000
M3S245
G4 P0.5; Tool Off

G0 Z0; move to z-safe height
G0 X1198.0000 Y870.8000
M3S0
G4 P0.5; Tool On
G1 F300 Z0.0000
G1 F15000 X2.0000 Y870.8000 Z0.0000
M3S245
G4 P0.5; Tool Off

G0 Z0; move to z-safe height
G0 X2.0000 Y874.8000
M3S0
G4 P0.5; Tool On
G1 F300 Z0.0000
G1 F15000 X1198.0000 Y874.8000 Z0.0000
M3S245
G4 P0.5; Tool Off

G0 Z0; move to z-safe height
G0 X1198.0000 Y878.8000
M3S0
G4 P0.5; Tool On
G1 F300 Z0.0000
G1 F15000 X2.0000 Y878.8000 Z0.0000
M3S245
G4 P0.5; Tool Off

G0 Z0; move to z-safe height
G0 X2.0000 Y882.8000
M3S0
G4 P0.5; Tool On
G1 F300 Z0.0000
G1 F15000 X1198.0000 Y882.8000 Z0.0000
M3S245
G4 P0.5; Tool Off

G0 Z0; move to z-safe height
G0 X1198.0000 Y886.8000
M3S0
G4 P0.5; Tool On
G1 F300 Z0.0000
G1 F15000 X2.0000 Y886.8000 Z0.0000
M3S245
G4 P0.5; Tool Off

G0 Z0; move to z-safe height
G0 X2.0000 Y890.8000
M3S0
G4 P0.5; Tool On
G1 F300 Z0.0000
G1 F15000 X1198.0000 Y890.8000 Z0.0000
M3S245
G4 P0.5; Tool Off

G0 Z0; move to z-safe height
G0 X1198.0000 Y894.8000
M3S0
G4 P0.5; Tool On
G1 F300 Z0.0000
G1 F15000 X2.0000 Y894.8000 Z0.0000
M3S245
G4 P0.5; Tool Off
; retracting back to z-safe
G0 Z0

; Plotter Mode Complete
