; GCODE Generated by cam.openbuilds.com on 2023-04-09 
G21 ; mm-mode
G54; Work Coordinates
G21; mm-mode
G90; Absolute Positioning
; Plotter Mode Active

; Operation 0: Pen Plotter: (lines fill)
; Pen Diameter: 2

G0 Z0; move to z-safe height
G0 F1000 X6.0000 Y8.4000
M3S0
G4 P0.5; Tool On
G1 F300 Z0.0000
G1 F15000 X1194.0000 Y8.4000 Z0.0000
M3S245
G4 P0.5; Tool Off

G0 Z0; move to z-safe height
G0 X1194.0000 Y20.4000
M3S0
G4 P0.5; Tool On
G1 F300 Z0.0000
G1 F15000 X6.0000 Y20.4000 Z0.0000
M3S245
G4 P0.5; Tool Off

G0 Z0; move to z-safe height
G0 X6.0000 Y32.4000
M3S0
G4 P0.5; Tool On
G1 F300 Z0.0000
G1 F15000 X1194.0000 Y32.4000 Z0.0000
M3S245
G4 P0.5; Tool Off

G0 Z0; move to z-safe height
G0 X1194.0000 Y44.4000
M3S0
G4 P0.5; Tool On
G1 F300 Z0.0000
G1 F15000 X6.0000 Y44.4000 Z0.0000
M3S245
G4 P0.5; Tool Off

G0 Z0; move to z-safe height
G0 X6.0000 Y56.4000
M3S0
G4 P0.5; Tool On
G1 F300 Z0.0000
G1 F15000 X1194.0000 Y56.4000 Z0.0000
M3S245
G4 P0.5; Tool Off

G0 Z0; move to z-safe height
G0 X1194.0000 Y68.4000
M3S0
G4 P0.5; Tool On
G1 F300 Z0.0000
G1 F15000 X6.0000 Y68.4000 Z0.0000
M3S245
G4 P0.5; Tool Off

G0 Z0; move to z-safe height
G0 X6.0000 Y80.4000
M3S0
G4 P0.5; Tool On
G1 F300 Z0.0000
G1 F15000 X1194.0000 Y80.4000 Z0.0000
M3S245
G4 P0.5; Tool Off

G0 Z0; move to z-safe height
G0 X1194.0000 Y92.4000
M3S0
G4 P0.5; Tool On
G1 F300 Z0.0000
G1 F15000 X6.0000 Y92.4000 Z0.0000
M3S245
G4 P0.5; Tool Off

G0 Z0; move to z-safe height
G0 X6.0000 Y104.4000
M3S0
G4 P0.5; Tool On
G1 F300 Z0.0000
G1 F15000 X1194.0000 Y104.4000 Z0.0000
M3S245
G4 P0.5; Tool Off

G0 Z0; move to z-safe height
G0 X1194.0000 Y116.4000
M3S0
G4 P0.5; Tool On
G1 F300 Z0.0000
G1 F15000 X6.0000 Y116.4000 Z0.0000
M3S245
G4 P0.5; Tool Off

G0 Z0; move to z-safe height
G0 X6.0000 Y128.4000
M3S0
G4 P0.5; Tool On
G1 F300 Z0.0000
G1 F15000 X1194.0000 Y128.4000 Z0.0000
M3S245
G4 P0.5; Tool Off

G0 Z0; move to z-safe height
G0 X1194.0000 Y140.4000
M3S0
G4 P0.5; Tool On
G1 F300 Z0.0000
G1 F15000 X6.0000 Y140.4000 Z0.0000
M3S245
G4 P0.5; Tool Off

G0 Z0; move to z-safe height
G0 X6.0000 Y152.4000
M3S0
G4 P0.5; Tool On
G1 F300 Z0.0000
G1 F15000 X1194.0000 Y152.4000 Z0.0000
M3S245
G4 P0.5; Tool Off

G0 Z0; move to z-safe height
G0 X1194.0000 Y164.4000
M3S0
G4 P0.5; Tool On
G1 F300 Z0.0000
G1 F15000 X6.0000 Y164.4000 Z0.0000
M3S245
G4 P0.5; Tool Off

G0 Z0; move to z-safe height
G0 X6.0000 Y176.4000
M3S0
G4 P0.5; Tool On
G1 F300 Z0.0000
G1 F15000 X1194.0000 Y176.4000 Z0.0000
M3S245
G4 P0.5; Tool Off

G0 Z0; move to z-safe height
G0 X1194.0000 Y188.4000
M3S0
G4 P0.5; Tool On
G1 F300 Z0.0000
G1 F15000 X6.0000 Y188.4000 Z0.0000
M3S245
G4 P0.5; Tool Off

G0 Z0; move to z-safe height
G0 X6.0000 Y200.4000
M3S0
G4 P0.5; Tool On
G1 F300 Z0.0000
G1 F15000 X1194.0000 Y200.4000 Z0.0000
M3S245
G4 P0.5; Tool Off

G0 Z0; move to z-safe height
G0 X1194.0000 Y212.4000
M3S0
G4 P0.5; Tool On
G1 F300 Z0.0000
G1 F15000 X6.0000 Y212.4000 Z0.0000
M3S245
G4 P0.5; Tool Off

G0 Z0; move to z-safe height
G0 X6.0000 Y224.4000
M3S0
G4 P0.5; Tool On
G1 F300 Z0.0000
G1 F15000 X1194.0000 Y224.4000 Z0.0000
M3S245
G4 P0.5; Tool Off

G0 Z0; move to z-safe height
G0 X1194.0000 Y236.4000
M3S0
G4 P0.5; Tool On
G1 F300 Z0.0000
G1 F15000 X6.0000 Y236.4000 Z0.0000
M3S245
G4 P0.5; Tool Off

G0 Z0; move to z-safe height
G0 X6.0000 Y248.4000
M3S0
G4 P0.5; Tool On
G1 F300 Z0.0000
G1 F15000 X1194.0000 Y248.4000 Z0.0000
M3S245
G4 P0.5; Tool Off

G0 Z0; move to z-safe height
G0 X1194.0000 Y260.4000
M3S0
G4 P0.5; Tool On
G1 F300 Z0.0000
G1 F15000 X6.0000 Y260.4000 Z0.0000
M3S245
G4 P0.5; Tool Off

G0 Z0; move to z-safe height
G0 X6.0000 Y272.4000
M3S0
G4 P0.5; Tool On
G1 F300 Z0.0000
G1 F15000 X1194.0000 Y272.4000 Z0.0000
M3S245
G4 P0.5; Tool Off

G0 Z0; move to z-safe height
G0 X1194.0000 Y284.4000
M3S0
G4 P0.5; Tool On
G1 F300 Z0.0000
G1 F15000 X6.0000 Y284.4000 Z0.0000
M3S245
G4 P0.5; Tool Off

G0 Z0; move to z-safe height
G0 X6.0000 Y296.4000
M3S0
G4 P0.5; Tool On
G1 F300 Z0.0000
G1 F15000 X1194.0000 Y296.4000 Z0.0000
M3S245
G4 P0.5; Tool Off

G0 Z0; move to z-safe height
G0 X1194.0000 Y308.4000
M3S0
G4 P0.5; Tool On
G1 F300 Z0.0000
G1 F15000 X6.0000 Y308.4000 Z0.0000
M3S245
G4 P0.5; Tool Off

G0 Z0; move to z-safe height
G0 X6.0000 Y320.4000
M3S0
G4 P0.5; Tool On
G1 F300 Z0.0000
G1 F15000 X1194.0000 Y320.4000 Z0.0000
M3S245
G4 P0.5; Tool Off

G0 Z0; move to z-safe height
G0 X1194.0000 Y332.4000
M3S0
G4 P0.5; Tool On
G1 F300 Z0.0000
G1 F15000 X6.0000 Y332.4000 Z0.0000
M3S245
G4 P0.5; Tool Off

G0 Z0; move to z-safe height
G0 X6.0000 Y344.4000
M3S0
G4 P0.5; Tool On
G1 F300 Z0.0000
G1 F15000 X1194.0000 Y344.4000 Z0.0000
M3S245
G4 P0.5; Tool Off

G0 Z0; move to z-safe height
G0 X1194.0000 Y356.4000
M3S0
G4 P0.5; Tool On
G1 F300 Z0.0000
G1 F15000 X6.0000 Y356.4000 Z0.0000
M3S245
G4 P0.5; Tool Off

G0 Z0; move to z-safe height
G0 X6.0000 Y368.4000
M3S0
G4 P0.5; Tool On
G1 F300 Z0.0000
G1 F15000 X1194.0000 Y368.4000 Z0.0000
M3S245
G4 P0.5; Tool Off

G0 Z0; move to z-safe height
G0 X1194.0000 Y380.4000
M3S0
G4 P0.5; Tool On
G1 F300 Z0.0000
G1 F15000 X6.0000 Y380.4000 Z0.0000
M3S245
G4 P0.5; Tool Off

G0 Z0; move to z-safe height
G0 X6.0000 Y392.4000
M3S0
G4 P0.5; Tool On
G1 F300 Z0.0000
G1 F15000 X1194.0000 Y392.4000 Z0.0000
M3S245
G4 P0.5; Tool Off

G0 Z0; move to z-safe height
G0 X1194.0000 Y404.4000
M3S0
G4 P0.5; Tool On
G1 F300 Z0.0000
G1 F15000 X6.0000 Y404.4000 Z0.0000
M3S245
G4 P0.5; Tool Off

G0 Z0; move to z-safe height
G0 X6.0000 Y416.4000
M3S0
G4 P0.5; Tool On
G1 F300 Z0.0000
G1 F15000 X1194.0000 Y416.4000 Z0.0000
M3S245
G4 P0.5; Tool Off

G0 Z0; move to z-safe height
G0 X1194.0000 Y428.4000
M3S0
G4 P0.5; Tool On
G1 F300 Z0.0000
G1 F15000 X6.0000 Y428.4000 Z0.0000
M3S245
G4 P0.5; Tool Off

G0 Z0; move to z-safe height
G0 X6.0000 Y440.4000
M3S0
G4 P0.5; Tool On
G1 F300 Z0.0000
G1 F15000 X1194.0000 Y440.4000 Z0.0000
M3S245
G4 P0.5; Tool Off

G0 Z0; move to z-safe height
G0 X1194.0000 Y452.4000
M3S0
G4 P0.5; Tool On
G1 F300 Z0.0000
G1 F15000 X6.0000 Y452.4000 Z0.0000
M3S245
G4 P0.5; Tool Off

G0 Z0; move to z-safe height
G0 X6.0000 Y464.4000
M3S0
G4 P0.5; Tool On
G1 F300 Z0.0000
G1 F15000 X1194.0000 Y464.4000 Z0.0000
M3S245
G4 P0.5; Tool Off

G0 Z0; move to z-safe height
G0 X1194.0000 Y476.4000
M3S0
G4 P0.5; Tool On
G1 F300 Z0.0000
G1 F15000 X6.0000 Y476.4000 Z0.0000
M3S245
G4 P0.5; Tool Off

G0 Z0; move to z-safe height
G0 X6.0000 Y488.4000
M3S0
G4 P0.5; Tool On
G1 F300 Z0.0000
G1 F15000 X1194.0000 Y488.4000 Z0.0000
M3S245
G4 P0.5; Tool Off

G0 Z0; move to z-safe height
G0 X1194.0000 Y500.4000
M3S0
G4 P0.5; Tool On
G1 F300 Z0.0000
G1 F15000 X6.0000 Y500.4000 Z0.0000
M3S245
G4 P0.5; Tool Off

G0 Z0; move to z-safe height
G0 X6.0000 Y512.4000
M3S0
G4 P0.5; Tool On
G1 F300 Z0.0000
G1 F15000 X1194.0000 Y512.4000 Z0.0000
M3S245
G4 P0.5; Tool Off

G0 Z0; move to z-safe height
G0 X1194.0000 Y524.4000
M3S0
G4 P0.5; Tool On
G1 F300 Z0.0000
G1 F15000 X6.0000 Y524.4000 Z0.0000
M3S245
G4 P0.5; Tool Off

G0 Z0; move to z-safe height
G0 X6.0000 Y536.4000
M3S0
G4 P0.5; Tool On
G1 F300 Z0.0000
G1 F15000 X1194.0000 Y536.4000 Z0.0000
M3S245
G4 P0.5; Tool Off

G0 Z0; move to z-safe height
G0 X1194.0000 Y548.4000
M3S0
G4 P0.5; Tool On
G1 F300 Z0.0000
G1 F15000 X6.0000 Y548.4000 Z0.0000
M3S245
G4 P0.5; Tool Off

G0 Z0; move to z-safe height
G0 X6.0000 Y560.4000
M3S0
G4 P0.5; Tool On
G1 F300 Z0.0000
G1 F15000 X1194.0000 Y560.4000 Z0.0000
M3S245
G4 P0.5; Tool Off

G0 Z0; move to z-safe height
G0 X1194.0000 Y572.4000
M3S0
G4 P0.5; Tool On
G1 F300 Z0.0000
G1 F15000 X6.0000 Y572.4000 Z0.0000
M3S245
G4 P0.5; Tool Off

G0 Z0; move to z-safe height
G0 X6.0000 Y584.4000
M3S0
G4 P0.5; Tool On
G1 F300 Z0.0000
G1 F15000 X1194.0000 Y584.4000 Z0.0000
M3S245
G4 P0.5; Tool Off

G0 Z0; move to z-safe height
G0 X1194.0000 Y596.4000
M3S0
G4 P0.5; Tool On
G1 F300 Z0.0000
G1 F15000 X6.0000 Y596.4000 Z0.0000
M3S245
G4 P0.5; Tool Off

G0 Z0; move to z-safe height
G0 X6.0000 Y608.4000
M3S0
G4 P0.5; Tool On
G1 F300 Z0.0000
G1 F15000 X1194.0000 Y608.4000 Z0.0000
M3S245
G4 P0.5; Tool Off

G0 Z0; move to z-safe height
G0 X1194.0000 Y620.4000
M3S0
G4 P0.5; Tool On
G1 F300 Z0.0000
G1 F15000 X6.0000 Y620.4000 Z0.0000
M3S245
G4 P0.5; Tool Off

G0 Z0; move to z-safe height
G0 X6.0000 Y632.4000
M3S0
G4 P0.5; Tool On
G1 F300 Z0.0000
G1 F15000 X1194.0000 Y632.4000 Z0.0000
M3S245
G4 P0.5; Tool Off

G0 Z0; move to z-safe height
G0 X1194.0000 Y644.4000
M3S0
G4 P0.5; Tool On
G1 F300 Z0.0000
G1 F15000 X6.0000 Y644.4000 Z0.0000
M3S245
G4 P0.5; Tool Off

G0 Z0; move to z-safe height
G0 X6.0000 Y656.4000
M3S0
G4 P0.5; Tool On
G1 F300 Z0.0000
G1 F15000 X1194.0000 Y656.4000 Z0.0000
M3S245
G4 P0.5; Tool Off

G0 Z0; move to z-safe height
G0 X1194.0000 Y668.4000
M3S0
G4 P0.5; Tool On
G1 F300 Z0.0000
G1 F15000 X6.0000 Y668.4000 Z0.0000
M3S245
G4 P0.5; Tool Off

G0 Z0; move to z-safe height
G0 X6.0000 Y680.4000
M3S0
G4 P0.5; Tool On
G1 F300 Z0.0000
G1 F15000 X1194.0000 Y680.4000 Z0.0000
M3S245
G4 P0.5; Tool Off

G0 Z0; move to z-safe height
G0 X1194.0000 Y692.4000
M3S0
G4 P0.5; Tool On
G1 F300 Z0.0000
G1 F15000 X6.0000 Y692.4000 Z0.0000
M3S245
G4 P0.5; Tool Off

G0 Z0; move to z-safe height
G0 X6.0000 Y704.4000
M3S0
G4 P0.5; Tool On
G1 F300 Z0.0000
G1 F15000 X1194.0000 Y704.4000 Z0.0000
M3S245
G4 P0.5; Tool Off

G0 Z0; move to z-safe height
G0 X1194.0000 Y716.4000
M3S0
G4 P0.5; Tool On
G1 F300 Z0.0000
G1 F15000 X6.0000 Y716.4000 Z0.0000
M3S245
G4 P0.5; Tool Off

G0 Z0; move to z-safe height
G0 X6.0000 Y728.4000
M3S0
G4 P0.5; Tool On
G1 F300 Z0.0000
G1 F15000 X1194.0000 Y728.4000 Z0.0000
M3S245
G4 P0.5; Tool Off

G0 Z0; move to z-safe height
G0 X1194.0000 Y740.4000
M3S0
G4 P0.5; Tool On
G1 F300 Z0.0000
G1 F15000 X6.0000 Y740.4000 Z0.0000
M3S245
G4 P0.5; Tool Off

G0 Z0; move to z-safe height
G0 X6.0000 Y752.4000
M3S0
G4 P0.5; Tool On
G1 F300 Z0.0000
G1 F15000 X1194.0000 Y752.4000 Z0.0000
M3S245
G4 P0.5; Tool Off

G0 Z0; move to z-safe height
G0 X1194.0000 Y764.4000
M3S0
G4 P0.5; Tool On
G1 F300 Z0.0000
G1 F15000 X6.0000 Y764.4000 Z0.0000
M3S245
G4 P0.5; Tool Off

G0 Z0; move to z-safe height
G0 X6.0000 Y776.4000
M3S0
G4 P0.5; Tool On
G1 F300 Z0.0000
G1 F15000 X1194.0000 Y776.4000 Z0.0000
M3S245
G4 P0.5; Tool Off

G0 Z0; move to z-safe height
G0 X1194.0000 Y788.4000
M3S0
G4 P0.5; Tool On
G1 F300 Z0.0000
G1 F15000 X6.0000 Y788.4000 Z0.0000
M3S245
G4 P0.5; Tool Off

G0 Z0; move to z-safe height
G0 X6.0000 Y800.4000
M3S0
G4 P0.5; Tool On
G1 F300 Z0.0000
G1 F15000 X1194.0000 Y800.4000 Z0.0000
M3S245
G4 P0.5; Tool Off

G0 Z0; move to z-safe height
G0 X1194.0000 Y812.4000
M3S0
G4 P0.5; Tool On
G1 F300 Z0.0000
G1 F15000 X6.0000 Y812.4000 Z0.0000
M3S245
G4 P0.5; Tool Off

G0 Z0; move to z-safe height
G0 X6.0000 Y824.4000
M3S0
G4 P0.5; Tool On
G1 F300 Z0.0000
G1 F15000 X1194.0000 Y824.4000 Z0.0000
M3S245
G4 P0.5; Tool Off

G0 Z0; move to z-safe height
G0 X1194.0000 Y836.4000
M3S0
G4 P0.5; Tool On
G1 F300 Z0.0000
G1 F15000 X6.0000 Y836.4000 Z0.0000
M3S245
G4 P0.5; Tool Off

G0 Z0; move to z-safe height
G0 X6.0000 Y848.4000
M3S0
G4 P0.5; Tool On
G1 F300 Z0.0000
G1 F15000 X1194.0000 Y848.4000 Z0.0000
M3S245
G4 P0.5; Tool Off

G0 Z0; move to z-safe height
G0 X1194.0000 Y860.4000
M3S0
G4 P0.5; Tool On
G1 F300 Z0.0000
G1 F15000 X6.0000 Y860.4000 Z0.0000
M3S245
G4 P0.5; Tool Off

G0 Z0; move to z-safe height
G0 X6.0000 Y872.4000
M3S0
G4 P0.5; Tool On
G1 F300 Z0.0000
G1 F15000 X1194.0000 Y872.4000 Z0.0000
M3S245
G4 P0.5; Tool Off

G0 Z0; move to z-safe height
G0 X1194.0000 Y884.4000
M3S0
G4 P0.5; Tool On
G1 F300 Z0.0000
G1 F15000 X6.0000 Y884.4000 Z0.0000
M3S245
G4 P0.5; Tool Off
; retracting back to z-safe
G0 Z0

; Plotter Mode Complete
