; GCODE Generated by cam.openbuilds.com on 2023-04-09 
G21 ; mm-mode
G54; Work Coordinates
G21; mm-mode
G90; Absolute Positioning
; Plotter Mode Active

; Operation 0: Pen Plotter: (lines fill)
; Pen Diameter: 2

G0 Z0; move to z-safe height
G0 F1000 X9.0000 Y18.6000
M3S0
G4 P0.5; Tool On
G1 F300 Z0.0000
G1 F15000 X1191.0000 Y18.6000 Z0.0000
M3S245
G4 P0.5; Tool Off

G0 Z0; move to z-safe height
G0 X1191.0000 Y36.6000
M3S0
G4 P0.5; Tool On
G1 F300 Z0.0000
G1 F15000 X9.0000 Y36.6000 Z0.0000
M3S245
G4 P0.5; Tool Off

G0 Z0; move to z-safe height
G0 X9.0000 Y54.6000
M3S0
G4 P0.5; Tool On
G1 F300 Z0.0000
G1 F15000 X1191.0000 Y54.6000 Z0.0000
M3S245
G4 P0.5; Tool Off

G0 Z0; move to z-safe height
G0 X1191.0000 Y72.6000
M3S0
G4 P0.5; Tool On
G1 F300 Z0.0000
G1 F15000 X9.0000 Y72.6000 Z0.0000
M3S245
G4 P0.5; Tool Off

G0 Z0; move to z-safe height
G0 X9.0000 Y90.6000
M3S0
G4 P0.5; Tool On
G1 F300 Z0.0000
G1 F15000 X1191.0000 Y90.6000 Z0.0000
M3S245
G4 P0.5; Tool Off

G0 Z0; move to z-safe height
G0 X1191.0000 Y108.6000
M3S0
G4 P0.5; Tool On
G1 F300 Z0.0000
G1 F15000 X9.0000 Y108.6000 Z0.0000
M3S245
G4 P0.5; Tool Off

G0 Z0; move to z-safe height
G0 X9.0000 Y126.6000
M3S0
G4 P0.5; Tool On
G1 F300 Z0.0000
G1 F15000 X1191.0000 Y126.6000 Z0.0000
M3S245
G4 P0.5; Tool Off

G0 Z0; move to z-safe height
G0 X1191.0000 Y144.6000
M3S0
G4 P0.5; Tool On
G1 F300 Z0.0000
G1 F15000 X9.0000 Y144.6000 Z0.0000
M3S245
G4 P0.5; Tool Off

G0 Z0; move to z-safe height
G0 X9.0000 Y162.6000
M3S0
G4 P0.5; Tool On
G1 F300 Z0.0000
G1 F15000 X1191.0000 Y162.6000 Z0.0000
M3S245
G4 P0.5; Tool Off

G0 Z0; move to z-safe height
G0 X1191.0000 Y180.6000
M3S0
G4 P0.5; Tool On
G1 F300 Z0.0000
G1 F15000 X9.0000 Y180.6000 Z0.0000
M3S245
G4 P0.5; Tool Off

G0 Z0; move to z-safe height
G0 X9.0000 Y198.6000
M3S0
G4 P0.5; Tool On
G1 F300 Z0.0000
G1 F15000 X1191.0000 Y198.6000 Z0.0000
M3S245
G4 P0.5; Tool Off

G0 Z0; move to z-safe height
G0 X1191.0000 Y216.6000
M3S0
G4 P0.5; Tool On
G1 F300 Z0.0000
G1 F15000 X9.0000 Y216.6000 Z0.0000
M3S245
G4 P0.5; Tool Off

G0 Z0; move to z-safe height
G0 X9.0000 Y234.6000
M3S0
G4 P0.5; Tool On
G1 F300 Z0.0000
G1 F15000 X1191.0000 Y234.6000 Z0.0000
M3S245
G4 P0.5; Tool Off

G0 Z0; move to z-safe height
G0 X1191.0000 Y252.6000
M3S0
G4 P0.5; Tool On
G1 F300 Z0.0000
G1 F15000 X9.0000 Y252.6000 Z0.0000
M3S245
G4 P0.5; Tool Off

G0 Z0; move to z-safe height
G0 X9.0000 Y270.6000
M3S0
G4 P0.5; Tool On
G1 F300 Z0.0000
G1 F15000 X1191.0000 Y270.6000 Z0.0000
M3S245
G4 P0.5; Tool Off

G0 Z0; move to z-safe height
G0 X1191.0000 Y288.6000
M3S0
G4 P0.5; Tool On
G1 F300 Z0.0000
G1 F15000 X9.0000 Y288.6000 Z0.0000
M3S245
G4 P0.5; Tool Off

G0 Z0; move to z-safe height
G0 X9.0000 Y306.6000
M3S0
G4 P0.5; Tool On
G1 F300 Z0.0000
G1 F15000 X1191.0000 Y306.6000 Z0.0000
M3S245
G4 P0.5; Tool Off

G0 Z0; move to z-safe height
G0 X1191.0000 Y324.6000
M3S0
G4 P0.5; Tool On
G1 F300 Z0.0000
G1 F15000 X9.0000 Y324.6000 Z0.0000
M3S245
G4 P0.5; Tool Off

G0 Z0; move to z-safe height
G0 X9.0000 Y342.6000
M3S0
G4 P0.5; Tool On
G1 F300 Z0.0000
G1 F15000 X1191.0000 Y342.6000 Z0.0000
M3S245
G4 P0.5; Tool Off

G0 Z0; move to z-safe height
G0 X1191.0000 Y360.6000
M3S0
G4 P0.5; Tool On
G1 F300 Z0.0000
G1 F15000 X9.0000 Y360.6000 Z0.0000
M3S245
G4 P0.5; Tool Off

G0 Z0; move to z-safe height
G0 X9.0000 Y378.6000
M3S0
G4 P0.5; Tool On
G1 F300 Z0.0000
G1 F15000 X1191.0000 Y378.6000 Z0.0000
M3S245
G4 P0.5; Tool Off

G0 Z0; move to z-safe height
G0 X1191.0000 Y396.6000
M3S0
G4 P0.5; Tool On
G1 F300 Z0.0000
G1 F15000 X9.0000 Y396.6000 Z0.0000
M3S245
G4 P0.5; Tool Off

G0 Z0; move to z-safe height
G0 X9.0000 Y414.6000
M3S0
G4 P0.5; Tool On
G1 F300 Z0.0000
G1 F15000 X1191.0000 Y414.6000 Z0.0000
M3S245
G4 P0.5; Tool Off

G0 Z0; move to z-safe height
G0 X1191.0000 Y432.6000
M3S0
G4 P0.5; Tool On
G1 F300 Z0.0000
G1 F15000 X9.0000 Y432.6000 Z0.0000
M3S245
G4 P0.5; Tool Off

G0 Z0; move to z-safe height
G0 X9.0000 Y450.6000
M3S0
G4 P0.5; Tool On
G1 F300 Z0.0000
G1 F15000 X1191.0000 Y450.6000 Z0.0000
M3S245
G4 P0.5; Tool Off

G0 Z0; move to z-safe height
G0 X1191.0000 Y468.6000
M3S0
G4 P0.5; Tool On
G1 F300 Z0.0000
G1 F15000 X9.0000 Y468.6000 Z0.0000
M3S245
G4 P0.5; Tool Off

G0 Z0; move to z-safe height
G0 X9.0000 Y486.6000
M3S0
G4 P0.5; Tool On
G1 F300 Z0.0000
G1 F15000 X1191.0000 Y486.6000 Z0.0000
M3S245
G4 P0.5; Tool Off

G0 Z0; move to z-safe height
G0 X1191.0000 Y504.6000
M3S0
G4 P0.5; Tool On
G1 F300 Z0.0000
G1 F15000 X9.0000 Y504.6000 Z0.0000
M3S245
G4 P0.5; Tool Off

G0 Z0; move to z-safe height
G0 X9.0000 Y522.6000
M3S0
G4 P0.5; Tool On
G1 F300 Z0.0000
G1 F15000 X1191.0000 Y522.6000 Z0.0000
M3S245
G4 P0.5; Tool Off

G0 Z0; move to z-safe height
G0 X1191.0000 Y540.6000
M3S0
G4 P0.5; Tool On
G1 F300 Z0.0000
G1 F15000 X9.0000 Y540.6000 Z0.0000
M3S245
G4 P0.5; Tool Off

G0 Z0; move to z-safe height
G0 X9.0000 Y558.6000
M3S0
G4 P0.5; Tool On
G1 F300 Z0.0000
G1 F15000 X1191.0000 Y558.6000 Z0.0000
M3S245
G4 P0.5; Tool Off

G0 Z0; move to z-safe height
G0 X1191.0000 Y576.6000
M3S0
G4 P0.5; Tool On
G1 F300 Z0.0000
G1 F15000 X9.0000 Y576.6000 Z0.0000
M3S245
G4 P0.5; Tool Off

G0 Z0; move to z-safe height
G0 X9.0000 Y594.6000
M3S0
G4 P0.5; Tool On
G1 F300 Z0.0000
G1 F15000 X1191.0000 Y594.6000 Z0.0000
M3S245
G4 P0.5; Tool Off

G0 Z0; move to z-safe height
G0 X1191.0000 Y612.6000
M3S0
G4 P0.5; Tool On
G1 F300 Z0.0000
G1 F15000 X9.0000 Y612.6000 Z0.0000
M3S245
G4 P0.5; Tool Off

G0 Z0; move to z-safe height
G0 X9.0000 Y630.6000
M3S0
G4 P0.5; Tool On
G1 F300 Z0.0000
G1 F15000 X1191.0000 Y630.6000 Z0.0000
M3S245
G4 P0.5; Tool Off

G0 Z0; move to z-safe height
G0 X1191.0000 Y648.6000
M3S0
G4 P0.5; Tool On
G1 F300 Z0.0000
G1 F15000 X9.0000 Y648.6000 Z0.0000
M3S245
G4 P0.5; Tool Off

G0 Z0; move to z-safe height
G0 X9.0000 Y666.6000
M3S0
G4 P0.5; Tool On
G1 F300 Z0.0000
G1 F15000 X1191.0000 Y666.6000 Z0.0000
M3S245
G4 P0.5; Tool Off

G0 Z0; move to z-safe height
G0 X1191.0000 Y684.6000
M3S0
G4 P0.5; Tool On
G1 F300 Z0.0000
G1 F15000 X9.0000 Y684.6000 Z0.0000
M3S245
G4 P0.5; Tool Off

G0 Z0; move to z-safe height
G0 X9.0000 Y702.6000
M3S0
G4 P0.5; Tool On
G1 F300 Z0.0000
G1 F15000 X1191.0000 Y702.6000 Z0.0000
M3S245
G4 P0.5; Tool Off

G0 Z0; move to z-safe height
G0 X1191.0000 Y720.6000
M3S0
G4 P0.5; Tool On
G1 F300 Z0.0000
G1 F15000 X9.0000 Y720.6000 Z0.0000
M3S245
G4 P0.5; Tool Off

G0 Z0; move to z-safe height
G0 X9.0000 Y738.6000
M3S0
G4 P0.5; Tool On
G1 F300 Z0.0000
G1 F15000 X1191.0000 Y738.6000 Z0.0000
M3S245
G4 P0.5; Tool Off

G0 Z0; move to z-safe height
G0 X1191.0000 Y756.6000
M3S0
G4 P0.5; Tool On
G1 F300 Z0.0000
G1 F15000 X9.0000 Y756.6000 Z0.0000
M3S245
G4 P0.5; Tool Off

G0 Z0; move to z-safe height
G0 X9.0000 Y774.6000
M3S0
G4 P0.5; Tool On
G1 F300 Z0.0000
G1 F15000 X1191.0000 Y774.6000 Z0.0000
M3S245
G4 P0.5; Tool Off

G0 Z0; move to z-safe height
G0 X1191.0000 Y792.6000
M3S0
G4 P0.5; Tool On
G1 F300 Z0.0000
G1 F15000 X9.0000 Y792.6000 Z0.0000
M3S245
G4 P0.5; Tool Off

G0 Z0; move to z-safe height
G0 X9.0000 Y810.6000
M3S0
G4 P0.5; Tool On
G1 F300 Z0.0000
G1 F15000 X1191.0000 Y810.6000 Z0.0000
M3S245
G4 P0.5; Tool Off

G0 Z0; move to z-safe height
G0 X1191.0000 Y828.6000
M3S0
G4 P0.5; Tool On
G1 F300 Z0.0000
G1 F15000 X9.0000 Y828.6000 Z0.0000
M3S245
G4 P0.5; Tool Off

G0 Z0; move to z-safe height
G0 X9.0000 Y846.6000
M3S0
G4 P0.5; Tool On
G1 F300 Z0.0000
G1 F15000 X1191.0000 Y846.6000 Z0.0000
M3S245
G4 P0.5; Tool Off

G0 Z0; move to z-safe height
G0 X1191.0000 Y864.6000
M3S0
G4 P0.5; Tool On
G1 F300 Z0.0000
G1 F15000 X9.0000 Y864.6000 Z0.0000
M3S245
G4 P0.5; Tool Off

G0 Z0; move to z-safe height
G0 X9.0000 Y882.6000
M3S0
G4 P0.5; Tool On
G1 F300 Z0.0000
G1 F15000 X1191.0000 Y882.6000 Z0.0000
M3S245
G4 P0.5; Tool Off
; retracting back to z-safe
G0 Z0

; Plotter Mode Complete
