; GCODE Generated by cam.openbuilds.com on 2023-04-09 
G21 ; mm-mode
G54; Work Coordinates
G21; mm-mode
G90; Absolute Positioning
; Plotter Mode Active

; Operation 0: Pen Plotter: (lines fill)
; Pen Diameter: 2

G0 Z0; move to z-safe height
G0 F1000 X1195.0000 Y7.0000
M3S0
G4 P0.5; Tool On
G1 F300 Z0.0000
G1 F15000 X5.0000 Y7.0000 Z0.0000
M3S245
G4 P0.5; Tool Off

G0 Z0; move to z-safe height
G0 X5.0000 Y17.0000
M3S0
G4 P0.5; Tool On
G1 F300 Z0.0000
G1 F15000 X1195.0000 Y17.0000 Z0.0000
M3S245
G4 P0.5; Tool Off

G0 Z0; move to z-safe height
G0 X1195.0000 Y27.0000
M3S0
G4 P0.5; Tool On
G1 F300 Z0.0000
G1 F15000 X5.0000 Y27.0000 Z0.0000
M3S245
G4 P0.5; Tool Off

G0 Z0; move to z-safe height
G0 X5.0000 Y37.0000
M3S0
G4 P0.5; Tool On
G1 F300 Z0.0000
G1 F15000 X1195.0000 Y37.0000 Z0.0000
M3S245
G4 P0.5; Tool Off

G0 Z0; move to z-safe height
G0 X1195.0000 Y47.0000
M3S0
G4 P0.5; Tool On
G1 F300 Z0.0000
G1 F15000 X5.0000 Y47.0000 Z0.0000
M3S245
G4 P0.5; Tool Off

G0 Z0; move to z-safe height
G0 X5.0000 Y57.0000
M3S0
G4 P0.5; Tool On
G1 F300 Z0.0000
G1 F15000 X1195.0000 Y57.0000 Z0.0000
M3S245
G4 P0.5; Tool Off

G0 Z0; move to z-safe height
G0 X1195.0000 Y67.0000
M3S0
G4 P0.5; Tool On
G1 F300 Z0.0000
G1 F15000 X5.0000 Y67.0000 Z0.0000
M3S245
G4 P0.5; Tool Off

G0 Z0; move to z-safe height
G0 X5.0000 Y77.0000
M3S0
G4 P0.5; Tool On
G1 F300 Z0.0000
G1 F15000 X1195.0000 Y77.0000 Z0.0000
M3S245
G4 P0.5; Tool Off

G0 Z0; move to z-safe height
G0 X1195.0000 Y87.0000
M3S0
G4 P0.5; Tool On
G1 F300 Z0.0000
G1 F15000 X5.0000 Y87.0000 Z0.0000
M3S245
G4 P0.5; Tool Off

G0 Z0; move to z-safe height
G0 X5.0000 Y97.0000
M3S0
G4 P0.5; Tool On
G1 F300 Z0.0000
G1 F15000 X1195.0000 Y97.0000 Z0.0000
M3S245
G4 P0.5; Tool Off

G0 Z0; move to z-safe height
G0 X1195.0000 Y107.0000
M3S0
G4 P0.5; Tool On
G1 F300 Z0.0000
G1 F15000 X5.0000 Y107.0000 Z0.0000
M3S245
G4 P0.5; Tool Off

G0 Z0; move to z-safe height
G0 X5.0000 Y117.0000
M3S0
G4 P0.5; Tool On
G1 F300 Z0.0000
G1 F15000 X1195.0000 Y117.0000 Z0.0000
M3S245
G4 P0.5; Tool Off

G0 Z0; move to z-safe height
G0 X1195.0000 Y127.0000
M3S0
G4 P0.5; Tool On
G1 F300 Z0.0000
G1 F15000 X5.0000 Y127.0000 Z0.0000
M3S245
G4 P0.5; Tool Off

G0 Z0; move to z-safe height
G0 X5.0000 Y137.0000
M3S0
G4 P0.5; Tool On
G1 F300 Z0.0000
G1 F15000 X1195.0000 Y137.0000 Z0.0000
M3S245
G4 P0.5; Tool Off

G0 Z0; move to z-safe height
G0 X1195.0000 Y147.0000
M3S0
G4 P0.5; Tool On
G1 F300 Z0.0000
G1 F15000 X5.0000 Y147.0000 Z0.0000
M3S245
G4 P0.5; Tool Off

G0 Z0; move to z-safe height
G0 X5.0000 Y157.0000
M3S0
G4 P0.5; Tool On
G1 F300 Z0.0000
G1 F15000 X1195.0000 Y157.0000 Z0.0000
M3S245
G4 P0.5; Tool Off

G0 Z0; move to z-safe height
G0 X1195.0000 Y167.0000
M3S0
G4 P0.5; Tool On
G1 F300 Z0.0000
G1 F15000 X5.0000 Y167.0000 Z0.0000
M3S245
G4 P0.5; Tool Off

G0 Z0; move to z-safe height
G0 X5.0000 Y177.0000
M3S0
G4 P0.5; Tool On
G1 F300 Z0.0000
G1 F15000 X1195.0000 Y177.0000 Z0.0000
M3S245
G4 P0.5; Tool Off

G0 Z0; move to z-safe height
G0 X1195.0000 Y187.0000
M3S0
G4 P0.5; Tool On
G1 F300 Z0.0000
G1 F15000 X5.0000 Y187.0000 Z0.0000
M3S245
G4 P0.5; Tool Off

G0 Z0; move to z-safe height
G0 X5.0000 Y197.0000
M3S0
G4 P0.5; Tool On
G1 F300 Z0.0000
G1 F15000 X1195.0000 Y197.0000 Z0.0000
M3S245
G4 P0.5; Tool Off

G0 Z0; move to z-safe height
G0 X1195.0000 Y207.0000
M3S0
G4 P0.5; Tool On
G1 F300 Z0.0000
G1 F15000 X5.0000 Y207.0000 Z0.0000
M3S245
G4 P0.5; Tool Off

G0 Z0; move to z-safe height
G0 X5.0000 Y217.0000
M3S0
G4 P0.5; Tool On
G1 F300 Z0.0000
G1 F15000 X1195.0000 Y217.0000 Z0.0000
M3S245
G4 P0.5; Tool Off

G0 Z0; move to z-safe height
G0 X1195.0000 Y227.0000
M3S0
G4 P0.5; Tool On
G1 F300 Z0.0000
G1 F15000 X5.0000 Y227.0000 Z0.0000
M3S245
G4 P0.5; Tool Off

G0 Z0; move to z-safe height
G0 X5.0000 Y237.0000
M3S0
G4 P0.5; Tool On
G1 F300 Z0.0000
G1 F15000 X1195.0000 Y237.0000 Z0.0000
M3S245
G4 P0.5; Tool Off

G0 Z0; move to z-safe height
G0 X1195.0000 Y247.0000
M3S0
G4 P0.5; Tool On
G1 F300 Z0.0000
G1 F15000 X5.0000 Y247.0000 Z0.0000
M3S245
G4 P0.5; Tool Off

G0 Z0; move to z-safe height
G0 X5.0000 Y257.0000
M3S0
G4 P0.5; Tool On
G1 F300 Z0.0000
G1 F15000 X1195.0000 Y257.0000 Z0.0000
M3S245
G4 P0.5; Tool Off

G0 Z0; move to z-safe height
G0 X1195.0000 Y267.0000
M3S0
G4 P0.5; Tool On
G1 F300 Z0.0000
G1 F15000 X5.0000 Y267.0000 Z0.0000
M3S245
G4 P0.5; Tool Off

G0 Z0; move to z-safe height
G0 X5.0000 Y277.0000
M3S0
G4 P0.5; Tool On
G1 F300 Z0.0000
G1 F15000 X1195.0000 Y277.0000 Z0.0000
M3S245
G4 P0.5; Tool Off

G0 Z0; move to z-safe height
G0 X1195.0000 Y287.0000
M3S0
G4 P0.5; Tool On
G1 F300 Z0.0000
G1 F15000 X5.0000 Y287.0000 Z0.0000
M3S245
G4 P0.5; Tool Off

G0 Z0; move to z-safe height
G0 X5.0000 Y297.0000
M3S0
G4 P0.5; Tool On
G1 F300 Z0.0000
G1 F15000 X1195.0000 Y297.0000 Z0.0000
M3S245
G4 P0.5; Tool Off

G0 Z0; move to z-safe height
G0 X1195.0000 Y307.0000
M3S0
G4 P0.5; Tool On
G1 F300 Z0.0000
G1 F15000 X5.0000 Y307.0000 Z0.0000
M3S245
G4 P0.5; Tool Off

G0 Z0; move to z-safe height
G0 X5.0000 Y317.0000
M3S0
G4 P0.5; Tool On
G1 F300 Z0.0000
G1 F15000 X1195.0000 Y317.0000 Z0.0000
M3S245
G4 P0.5; Tool Off

G0 Z0; move to z-safe height
G0 X1195.0000 Y327.0000
M3S0
G4 P0.5; Tool On
G1 F300 Z0.0000
G1 F15000 X5.0000 Y327.0000 Z0.0000
M3S245
G4 P0.5; Tool Off

G0 Z0; move to z-safe height
G0 X5.0000 Y337.0000
M3S0
G4 P0.5; Tool On
G1 F300 Z0.0000
G1 F15000 X1195.0000 Y337.0000 Z0.0000
M3S245
G4 P0.5; Tool Off

G0 Z0; move to z-safe height
G0 X1195.0000 Y347.0000
M3S0
G4 P0.5; Tool On
G1 F300 Z0.0000
G1 F15000 X5.0000 Y347.0000 Z0.0000
M3S245
G4 P0.5; Tool Off

G0 Z0; move to z-safe height
G0 X5.0000 Y357.0000
M3S0
G4 P0.5; Tool On
G1 F300 Z0.0000
G1 F15000 X1195.0000 Y357.0000 Z0.0000
M3S245
G4 P0.5; Tool Off

G0 Z0; move to z-safe height
G0 X1195.0000 Y367.0000
M3S0
G4 P0.5; Tool On
G1 F300 Z0.0000
G1 F15000 X5.0000 Y367.0000 Z0.0000
M3S245
G4 P0.5; Tool Off

G0 Z0; move to z-safe height
G0 X5.0000 Y377.0000
M3S0
G4 P0.5; Tool On
G1 F300 Z0.0000
G1 F15000 X1195.0000 Y377.0000 Z0.0000
M3S245
G4 P0.5; Tool Off

G0 Z0; move to z-safe height
G0 X1195.0000 Y387.0000
M3S0
G4 P0.5; Tool On
G1 F300 Z0.0000
G1 F15000 X5.0000 Y387.0000 Z0.0000
M3S245
G4 P0.5; Tool Off

G0 Z0; move to z-safe height
G0 X5.0000 Y397.0000
M3S0
G4 P0.5; Tool On
G1 F300 Z0.0000
G1 F15000 X1195.0000 Y397.0000 Z0.0000
M3S245
G4 P0.5; Tool Off

G0 Z0; move to z-safe height
G0 X1195.0000 Y407.0000
M3S0
G4 P0.5; Tool On
G1 F300 Z0.0000
G1 F15000 X5.0000 Y407.0000 Z0.0000
M3S245
G4 P0.5; Tool Off

G0 Z0; move to z-safe height
G0 X5.0000 Y417.0000
M3S0
G4 P0.5; Tool On
G1 F300 Z0.0000
G1 F15000 X1195.0000 Y417.0000 Z0.0000
M3S245
G4 P0.5; Tool Off

G0 Z0; move to z-safe height
G0 X1195.0000 Y427.0000
M3S0
G4 P0.5; Tool On
G1 F300 Z0.0000
G1 F15000 X5.0000 Y427.0000 Z0.0000
M3S245
G4 P0.5; Tool Off

G0 Z0; move to z-safe height
G0 X5.0000 Y437.0000
M3S0
G4 P0.5; Tool On
G1 F300 Z0.0000
G1 F15000 X1195.0000 Y437.0000 Z0.0000
M3S245
G4 P0.5; Tool Off

G0 Z0; move to z-safe height
G0 X1195.0000 Y447.0000
M3S0
G4 P0.5; Tool On
G1 F300 Z0.0000
G1 F15000 X5.0000 Y447.0000 Z0.0000
M3S245
G4 P0.5; Tool Off

G0 Z0; move to z-safe height
G0 X5.0000 Y457.0000
M3S0
G4 P0.5; Tool On
G1 F300 Z0.0000
G1 F15000 X1195.0000 Y457.0000 Z0.0000
M3S245
G4 P0.5; Tool Off

G0 Z0; move to z-safe height
G0 X1195.0000 Y467.0000
M3S0
G4 P0.5; Tool On
G1 F300 Z0.0000
G1 F15000 X5.0000 Y467.0000 Z0.0000
M3S245
G4 P0.5; Tool Off

G0 Z0; move to z-safe height
G0 X5.0000 Y477.0000
M3S0
G4 P0.5; Tool On
G1 F300 Z0.0000
G1 F15000 X1195.0000 Y477.0000 Z0.0000
M3S245
G4 P0.5; Tool Off

G0 Z0; move to z-safe height
G0 X1195.0000 Y487.0000
M3S0
G4 P0.5; Tool On
G1 F300 Z0.0000
G1 F15000 X5.0000 Y487.0000 Z0.0000
M3S245
G4 P0.5; Tool Off

G0 Z0; move to z-safe height
G0 X5.0000 Y497.0000
M3S0
G4 P0.5; Tool On
G1 F300 Z0.0000
G1 F15000 X1195.0000 Y497.0000 Z0.0000
M3S245
G4 P0.5; Tool Off

G0 Z0; move to z-safe height
G0 X1195.0000 Y507.0000
M3S0
G4 P0.5; Tool On
G1 F300 Z0.0000
G1 F15000 X5.0000 Y507.0000 Z0.0000
M3S245
G4 P0.5; Tool Off

G0 Z0; move to z-safe height
G0 X5.0000 Y517.0000
M3S0
G4 P0.5; Tool On
G1 F300 Z0.0000
G1 F15000 X1195.0000 Y517.0000 Z0.0000
M3S245
G4 P0.5; Tool Off

G0 Z0; move to z-safe height
G0 X1195.0000 Y527.0000
M3S0
G4 P0.5; Tool On
G1 F300 Z0.0000
G1 F15000 X5.0000 Y527.0000 Z0.0000
M3S245
G4 P0.5; Tool Off

G0 Z0; move to z-safe height
G0 X5.0000 Y537.0000
M3S0
G4 P0.5; Tool On
G1 F300 Z0.0000
G1 F15000 X1195.0000 Y537.0000 Z0.0000
M3S245
G4 P0.5; Tool Off

G0 Z0; move to z-safe height
G0 X1195.0000 Y547.0000
M3S0
G4 P0.5; Tool On
G1 F300 Z0.0000
G1 F15000 X5.0000 Y547.0000 Z0.0000
M3S245
G4 P0.5; Tool Off

G0 Z0; move to z-safe height
G0 X5.0000 Y557.0000
M3S0
G4 P0.5; Tool On
G1 F300 Z0.0000
G1 F15000 X1195.0000 Y557.0000 Z0.0000
M3S245
G4 P0.5; Tool Off

G0 Z0; move to z-safe height
G0 X1195.0000 Y567.0000
M3S0
G4 P0.5; Tool On
G1 F300 Z0.0000
G1 F15000 X5.0000 Y567.0000 Z0.0000
M3S245
G4 P0.5; Tool Off

G0 Z0; move to z-safe height
G0 X5.0000 Y577.0000
M3S0
G4 P0.5; Tool On
G1 F300 Z0.0000
G1 F15000 X1195.0000 Y577.0000 Z0.0000
M3S245
G4 P0.5; Tool Off

G0 Z0; move to z-safe height
G0 X1195.0000 Y587.0000
M3S0
G4 P0.5; Tool On
G1 F300 Z0.0000
G1 F15000 X5.0000 Y587.0000 Z0.0000
M3S245
G4 P0.5; Tool Off

G0 Z0; move to z-safe height
G0 X5.0000 Y597.0000
M3S0
G4 P0.5; Tool On
G1 F300 Z0.0000
G1 F15000 X1195.0000 Y597.0000 Z0.0000
M3S245
G4 P0.5; Tool Off

G0 Z0; move to z-safe height
G0 X1195.0000 Y607.0000
M3S0
G4 P0.5; Tool On
G1 F300 Z0.0000
G1 F15000 X5.0000 Y607.0000 Z0.0000
M3S245
G4 P0.5; Tool Off

G0 Z0; move to z-safe height
G0 X5.0000 Y617.0000
M3S0
G4 P0.5; Tool On
G1 F300 Z0.0000
G1 F15000 X1195.0000 Y617.0000 Z0.0000
M3S245
G4 P0.5; Tool Off

G0 Z0; move to z-safe height
G0 X1195.0000 Y627.0000
M3S0
G4 P0.5; Tool On
G1 F300 Z0.0000
G1 F15000 X5.0000 Y627.0000 Z0.0000
M3S245
G4 P0.5; Tool Off

G0 Z0; move to z-safe height
G0 X5.0000 Y637.0000
M3S0
G4 P0.5; Tool On
G1 F300 Z0.0000
G1 F15000 X1195.0000 Y637.0000 Z0.0000
M3S245
G4 P0.5; Tool Off

G0 Z0; move to z-safe height
G0 X1195.0000 Y647.0000
M3S0
G4 P0.5; Tool On
G1 F300 Z0.0000
G1 F15000 X5.0000 Y647.0000 Z0.0000
M3S245
G4 P0.5; Tool Off

G0 Z0; move to z-safe height
G0 X5.0000 Y657.0000
M3S0
G4 P0.5; Tool On
G1 F300 Z0.0000
G1 F15000 X1195.0000 Y657.0000 Z0.0000
M3S245
G4 P0.5; Tool Off

G0 Z0; move to z-safe height
G0 X1195.0000 Y667.0000
M3S0
G4 P0.5; Tool On
G1 F300 Z0.0000
G1 F15000 X5.0000 Y667.0000 Z0.0000
M3S245
G4 P0.5; Tool Off

G0 Z0; move to z-safe height
G0 X5.0000 Y677.0000
M3S0
G4 P0.5; Tool On
G1 F300 Z0.0000
G1 F15000 X1195.0000 Y677.0000 Z0.0000
M3S245
G4 P0.5; Tool Off

G0 Z0; move to z-safe height
G0 X1195.0000 Y687.0000
M3S0
G4 P0.5; Tool On
G1 F300 Z0.0000
G1 F15000 X5.0000 Y687.0000 Z0.0000
M3S245
G4 P0.5; Tool Off

G0 Z0; move to z-safe height
G0 X5.0000 Y697.0000
M3S0
G4 P0.5; Tool On
G1 F300 Z0.0000
G1 F15000 X1195.0000 Y697.0000 Z0.0000
M3S245
G4 P0.5; Tool Off

G0 Z0; move to z-safe height
G0 X1195.0000 Y707.0000
M3S0
G4 P0.5; Tool On
G1 F300 Z0.0000
G1 F15000 X5.0000 Y707.0000 Z0.0000
M3S245
G4 P0.5; Tool Off

G0 Z0; move to z-safe height
G0 X5.0000 Y717.0000
M3S0
G4 P0.5; Tool On
G1 F300 Z0.0000
G1 F15000 X1195.0000 Y717.0000 Z0.0000
M3S245
G4 P0.5; Tool Off

G0 Z0; move to z-safe height
G0 X1195.0000 Y727.0000
M3S0
G4 P0.5; Tool On
G1 F300 Z0.0000
G1 F15000 X5.0000 Y727.0000 Z0.0000
M3S245
G4 P0.5; Tool Off

G0 Z0; move to z-safe height
G0 X5.0000 Y737.0000
M3S0
G4 P0.5; Tool On
G1 F300 Z0.0000
G1 F15000 X1195.0000 Y737.0000 Z0.0000
M3S245
G4 P0.5; Tool Off

G0 Z0; move to z-safe height
G0 X1195.0000 Y747.0000
M3S0
G4 P0.5; Tool On
G1 F300 Z0.0000
G1 F15000 X5.0000 Y747.0000 Z0.0000
M3S245
G4 P0.5; Tool Off

G0 Z0; move to z-safe height
G0 X5.0000 Y757.0000
M3S0
G4 P0.5; Tool On
G1 F300 Z0.0000
G1 F15000 X1195.0000 Y757.0000 Z0.0000
M3S245
G4 P0.5; Tool Off

G0 Z0; move to z-safe height
G0 X1195.0000 Y767.0000
M3S0
G4 P0.5; Tool On
G1 F300 Z0.0000
G1 F15000 X5.0000 Y767.0000 Z0.0000
M3S245
G4 P0.5; Tool Off

G0 Z0; move to z-safe height
G0 X5.0000 Y777.0000
M3S0
G4 P0.5; Tool On
G1 F300 Z0.0000
G1 F15000 X1195.0000 Y777.0000 Z0.0000
M3S245
G4 P0.5; Tool Off

G0 Z0; move to z-safe height
G0 X1195.0000 Y787.0000
M3S0
G4 P0.5; Tool On
G1 F300 Z0.0000
G1 F15000 X5.0000 Y787.0000 Z0.0000
M3S245
G4 P0.5; Tool Off

G0 Z0; move to z-safe height
G0 X5.0000 Y797.0000
M3S0
G4 P0.5; Tool On
G1 F300 Z0.0000
G1 F15000 X1195.0000 Y797.0000 Z0.0000
M3S245
G4 P0.5; Tool Off

G0 Z0; move to z-safe height
G0 X1195.0000 Y807.0000
M3S0
G4 P0.5; Tool On
G1 F300 Z0.0000
G1 F15000 X5.0000 Y807.0000 Z0.0000
M3S245
G4 P0.5; Tool Off

G0 Z0; move to z-safe height
G0 X5.0000 Y817.0000
M3S0
G4 P0.5; Tool On
G1 F300 Z0.0000
G1 F15000 X1195.0000 Y817.0000 Z0.0000
M3S245
G4 P0.5; Tool Off

G0 Z0; move to z-safe height
G0 X1195.0000 Y827.0000
M3S0
G4 P0.5; Tool On
G1 F300 Z0.0000
G1 F15000 X5.0000 Y827.0000 Z0.0000
M3S245
G4 P0.5; Tool Off

G0 Z0; move to z-safe height
G0 X5.0000 Y837.0000
M3S0
G4 P0.5; Tool On
G1 F300 Z0.0000
G1 F15000 X1195.0000 Y837.0000 Z0.0000
M3S245
G4 P0.5; Tool Off

G0 Z0; move to z-safe height
G0 X1195.0000 Y847.0000
M3S0
G4 P0.5; Tool On
G1 F300 Z0.0000
G1 F15000 X5.0000 Y847.0000 Z0.0000
M3S245
G4 P0.5; Tool Off

G0 Z0; move to z-safe height
G0 X5.0000 Y857.0000
M3S0
G4 P0.5; Tool On
G1 F300 Z0.0000
G1 F15000 X1195.0000 Y857.0000 Z0.0000
M3S245
G4 P0.5; Tool Off

G0 Z0; move to z-safe height
G0 X1195.0000 Y867.0000
M3S0
G4 P0.5; Tool On
G1 F300 Z0.0000
G1 F15000 X5.0000 Y867.0000 Z0.0000
M3S245
G4 P0.5; Tool Off

G0 Z0; move to z-safe height
G0 X5.0000 Y877.0000
M3S0
G4 P0.5; Tool On
G1 F300 Z0.0000
G1 F15000 X1195.0000 Y877.0000 Z0.0000
M3S245
G4 P0.5; Tool Off

G0 Z0; move to z-safe height
G0 X1195.0000 Y887.0000
M3S0
G4 P0.5; Tool On
G1 F300 Z0.0000
G1 F15000 X5.0000 Y887.0000 Z0.0000
M3S245
G4 P0.5; Tool Off
; retracting back to z-safe
G0 Z0

; Plotter Mode Complete
