; GCODE Generated by cam.openbuilds.com on 2024-01-13 
G21 ; mm-mode
G54; Work Coordinates
G21; mm-mode
G90; Absolute Positioning
; Plotter Mode Active

; Operation 0: Pen Plotter: (no offset)
; Pen Diameter: 2

G0 Z0; move to z-safe height
G0 F1000 X347.6905 Y41.1104
M3S0
G4 P0.5; Tool On
G1 F300 Z-0.1000
G1 F15000 X288.1567 Y1.8026 Z-0.1000
M3S245
G4 P0.5; Tool Off

G0 Z0; move to z-safe height
G0 X278.6945 Y24.9867
M3S0
G4 P0.5; Tool On
G1 F300 Z-0.1000
G1 F15000 X18.7946 Y2.3754 Z-0.1000
M3S245
G4 P0.5; Tool Off

G0 Z0; move to z-safe height
G0 X231.4854 Y8.7849
M3S0
G4 P0.5; Tool On
G1 F300 Z-0.1000
G1 F15000 X52.4423 Y1.1500 Z-0.1000
M3S245
G4 P0.5; Tool Off

G0 Z0; move to z-safe height
G0 X284.7461 Y6.6399
M3S0
G4 P0.5; Tool On
G1 F300 Z-0.1000
G1 F15000 X177.0268 Y2.1753 Z-0.1000
M3S245
G4 P0.5; Tool Off

G0 Z0; move to z-safe height
G0 X119.0700 Y355.2706
M3S0
G4 P0.5; Tool On
G1 F300 Z-0.1000
G1 F15000 X17.3963 Y1.9079 Z-0.1000
M3S245
G4 P0.5; Tool Off

G0 Z0; move to z-safe height
G0 X63.3255 Y166.1396
M3S0
G4 P0.5; Tool On
G1 F300 Z-0.1000
G1 F15000 X36.6838 Y2.3833 Z-0.1000
M3S245
G4 P0.5; Tool Off

G0 Z0; move to z-safe height
G0 X20.9075 Y214.3176
M3S0
G4 P0.5; Tool On
G1 F300 Z-0.1000
G1 F15000 X11.0980 Y2.0365 Z-0.1000
M3S245
G4 P0.5; Tool Off

G0 Z0; move to z-safe height
G0 X14.7325 Y39.0976
M3S0
G4 P0.5; Tool On
G1 F300 Z-0.1000
G1 F15000 X60.4188 Y2.1353 Z-0.1000
M3S245
G4 P0.5; Tool Off

G0 Z0; move to z-safe height
G0 X74.8999 Y7.5437
M3S0
G4 P0.5; Tool On
G1 F300 Z-0.1000
G1 F15000 X257.4315 Y0.2142 Z-0.1000
M3S245
G4 P0.5; Tool Off

G0 Z0; move to z-safe height
G0 X169.1727 Y6.6382
M3S0
G4 P0.5; Tool On
G1 F300 Z-0.1000
G1 F15000 X378.5729 Y2.4060 Z-0.1000
M3S245
G4 P0.5; Tool Off

G0 Z0; move to z-safe height
G0 X166.9067 Y9.2507
M3S0
G4 P0.5; Tool On
G1 F300 Z-0.1000
G1 F15000 X203.6954 Y2.4488 Z-0.1000
M3S245
G4 P0.5; Tool Off

G0 Z0; move to z-safe height
G0 X355.9290 Y9.7655
M3S0
G4 P0.5; Tool On
G1 F300 Z-0.1000
G1 F15000 X245.0557 Y0.0610 Z-0.1000
M3S245
G4 P0.5; Tool Off

G0 Z0; move to z-safe height
G0 X3.8524 Y32.3786
M3S0
G4 P0.5; Tool On
G1 F300 Z-0.1000
G1 F15000 X116.5188 Y2.1044 Z-0.1000
M3S245
G4 P0.5; Tool Off

G0 Z0; move to z-safe height
G0 X64.2816 Y108.1913
M3S0
G4 P0.5; Tool On
G1 F300 Z-0.1000
G1 F15000 X268.3222 Y1.6571 Z-0.1000
M3S245
G4 P0.5; Tool Off

G0 Z0; move to z-safe height
G0 X251.0397 Y56.4440
M3S0
G4 P0.5; Tool On
G1 F300 Z-0.1000
G1 F15000 X58.8261 Y0.8563 Z-0.1000
M3S245
G4 P0.5; Tool Off

G0 Z0; move to z-safe height
G0 X206.4405 Y13.3732
M3S0
G4 P0.5; Tool On
G1 F300 Z-0.1000
G1 F15000 X227.2588 Y1.5162 Z-0.1000
M3S245
G4 P0.5; Tool Off

G0 Z0; move to z-safe height
G0 X334.2746 Y141.0138
M3S0
G4 P0.5; Tool On
G1 F300 Z-0.1000
G1 F15000 X23.4343 Y0.5856 Z-0.1000
M3S245
G4 P0.5; Tool Off

G0 Z0; move to z-safe height
G0 X444.8117 Y41.9675
M3S0
G4 P0.5; Tool On
G1 F300 Z-0.1000
G1 F15000 X429.2714 Y0.3677 Z-0.1000
M3S245
G4 P0.5; Tool Off

G0 Z0; move to z-safe height
G0 X31.7522 Y354.0020
M3S0
G4 P0.5; Tool On
G1 F300 Z-0.1000
G1 F15000 X63.5010 Y2.2880 Z-0.1000
M3S245
G4 P0.5; Tool Off

G0 Z0; move to z-safe height
G0 X228.9946 Y97.6410
M3S0
G4 P0.5; Tool On
G1 F300 Z-0.1000
G1 F15000 X72.5261 Y1.6507 Z-0.1000
M3S245
G4 P0.5; Tool Off

G0 Z0; move to z-safe height
G0 X344.3343 Y276.4055
M3S0
G4 P0.5; Tool On
G1 F300 Z-0.1000
G1 F15000 X27.7697 Y0.7256 Z-0.1000
M3S245
G4 P0.5; Tool Off

G0 Z0; move to z-safe height
G0 X383.6759 Y29.6246
M3S0
G4 P0.5; Tool On
G1 F300 Z-0.1000
G1 F15000 X419.2636 Y1.8317 Z-0.1000
M3S245
G4 P0.5; Tool Off

G0 Z0; move to z-safe height
G0 X202.7990 Y47.2453
M3S0
G4 P0.5; Tool On
G1 F300 Z-0.1000
G1 F15000 X449.7672 Y1.2923 Z-0.1000
M3S245
G4 P0.5; Tool Off

G0 Z0; move to z-safe height
G0 X303.0825 Y142.6841
M3S0
G4 P0.5; Tool On
G1 F300 Z-0.1000
G1 F15000 X178.7011 Y1.5853 Z-0.1000
M3S245
G4 P0.5; Tool Off

G0 Z0; move to z-safe height
G0 X352.5656 Y145.9161
M3S0
G4 P0.5; Tool On
G1 F300 Z-0.1000
G1 F15000 X102.6223 Y2.5201 Z-0.1000
M3S245
G4 P0.5; Tool Off

G0 Z0; move to z-safe height
G0 X229.5362 Y279.9880
M3S0
G4 P0.5; Tool On
G1 F300 Z-0.1000
G1 F15000 X181.2948 Y0.9358 Z-0.1000
M3S245
G4 P0.5; Tool Off

G0 Z0; move to z-safe height
G0 X244.3918 Y56.1970
M3S0
G4 P0.5; Tool On
G1 F300 Z-0.1000
G1 F15000 X400.1276 Y0.7697 Z-0.1000
M3S245
G4 P0.5; Tool Off

G0 Z0; move to z-safe height
G0 X12.9862 Y87.0768
M3S0
G4 P0.5; Tool On
G1 F300 Z-0.1000
G1 F15000 X291.9754 Y0.6283 Z-0.1000
M3S245
G4 P0.5; Tool Off

G0 Z0; move to z-safe height
G0 X321.2902 Y19.4322
M3S0
G4 P0.5; Tool On
G1 F300 Z-0.1000
G1 F15000 X423.8925 Y1.7775 Z-0.1000
M3S245
G4 P0.5; Tool Off

G0 Z0; move to z-safe height
G0 X300.4800 Y25.2960
M3S0
G4 P0.5; Tool On
G1 F300 Z-0.1000
G1 F15000 X322.8417 Y0.1142 Z-0.1000
M3S245
G4 P0.5; Tool Off

G0 Z0; move to z-safe height
G0 X306.4846 Y36.1643
M3S0
G4 P0.5; Tool On
G1 F300 Z-0.1000
G1 F15000 X309.0137 Y2.5618 Z-0.1000
M3S245
G4 P0.5; Tool Off

G0 Z0; move to z-safe height
G0 X147.3525 Y80.0110
M3S0
G4 P0.5; Tool On
G1 F300 Z-0.1000
G1 F15000 X134.9730 Y0.1964 Z-0.1000
M3S245
G4 P0.5; Tool Off

G0 Z0; move to z-safe height
G0 X365.4012 Y40.0040
M3S0
G4 P0.5; Tool On
G1 F300 Z-0.1000
G1 F15000 X221.8244 Y0.6990 Z-0.1000
M3S245
G4 P0.5; Tool Off

G0 Z0; move to z-safe height
G0 X279.1882 Y123.4945
M3S0
G4 P0.5; Tool On
G1 F300 Z-0.1000
G1 F15000 X91.2934 Y2.2403 Z-0.1000
M3S245
G4 P0.5; Tool Off

G0 Z0; move to z-safe height
G0 X386.4121 Y41.6078
M3S0
G4 P0.5; Tool On
G1 F300 Z-0.1000
G1 F15000 X280.0607 Y2.4509 Z-0.1000
M3S245
G4 P0.5; Tool Off

G0 Z0; move to z-safe height
G0 X418.0172 Y63.7291
M3S0
G4 P0.5; Tool On
G1 F300 Z-0.1000
G1 F15000 X156.4941 Y0.0411 Z-0.1000
M3S245
G4 P0.5; Tool Off

G0 Z0; move to z-safe height
G0 X190.0775 Y68.8197
M3S0
G4 P0.5; Tool On
G1 F300 Z-0.1000
G1 F15000 X152.2718 Y0.5342 Z-0.1000
M3S245
G4 P0.5; Tool Off

G0 Z0; move to z-safe height
G0 X118.0258 Y61.1959
M3S0
G4 P0.5; Tool On
G1 F300 Z-0.1000
G1 F15000 X438.0926 Y2.5535 Z-0.1000
M3S245
G4 P0.5; Tool Off

G0 Z0; move to z-safe height
G0 X426.1434 Y106.1723
M3S0
G4 P0.5; Tool On
G1 F300 Z-0.1000
G1 F15000 X190.1786 Y0.9290 Z-0.1000
M3S245
G4 P0.5; Tool Off

G0 Z0; move to z-safe height
G0 X438.7288 Y211.0452
M3S0
G4 P0.5; Tool On
G1 F300 Z-0.1000
G1 F15000 X53.1990 Y1.3654 Z-0.1000
M3S245
G4 P0.5; Tool Off

G0 Z0; move to z-safe height
G0 X247.4610 Y262.4656
M3S0
G4 P0.5; Tool On
G1 F300 Z-0.1000
G1 F15000 X190.2714 Y1.5589 Z-0.1000
M3S245
G4 P0.5; Tool Off

G0 Z0; move to z-safe height
G0 X196.3138 Y83.1906
M3S0
G4 P0.5; Tool On
G1 F300 Z-0.1000
G1 F15000 X238.3667 Y2.0504 Z-0.1000
M3S245
G4 P0.5; Tool Off

G0 Z0; move to z-safe height
G0 X24.9433 Y54.3659
M3S0
G4 P0.5; Tool On
G1 F300 Z-0.1000
G1 F15000 X385.4792 Y1.6243 Z-0.1000
M3S245
G4 P0.5; Tool Off

G0 Z0; move to z-safe height
G0 X224.0615 Y278.1647
M3S0
G4 P0.5; Tool On
G1 F300 Z-0.1000
G1 F15000 X214.7450 Y1.7358 Z-0.1000
M3S245
G4 P0.5; Tool Off

G0 Z0; move to z-safe height
G0 X64.9845 Y214.1576
M3S0
G4 P0.5; Tool On
G1 F300 Z-0.1000
G1 F15000 X418.3076 Y1.5378 Z-0.1000
M3S245
G4 P0.5; Tool Off

G0 Z0; move to z-safe height
G0 X227.5591 Y71.9239
M3S0
G4 P0.5; Tool On
G1 F300 Z-0.1000
G1 F15000 X202.7848 Y0.3520 Z-0.1000
M3S245
G4 P0.5; Tool Off

G0 Z0; move to z-safe height
G0 X45.8735 Y70.3503
M3S0
G4 P0.5; Tool On
G1 F300 Z-0.1000
G1 F15000 X374.3052 Y2.3075 Z-0.1000
M3S245
G4 P0.5; Tool Off

G0 Z0; move to z-safe height
G0 X255.4741 Y285.2720
M3S0
G4 P0.5; Tool On
G1 F300 Z-0.1000
G1 F15000 X57.0180 Y0.1837 Z-0.1000
M3S245
G4 P0.5; Tool Off

G0 Z0; move to z-safe height
G0 X221.1329 Y300.9191
M3S0
G4 P0.5; Tool On
G1 F300 Z-0.1000
G1 F15000 X211.0808 Y1.8435 Z-0.1000
M3S245
G4 P0.5; Tool Off

G0 Z0; move to z-safe height
G0 X213.6418 Y40.0826
M3S0
G4 P0.5; Tool On
G1 F300 Z-0.1000
G1 F15000 X413.4296 Y1.5787 Z-0.1000
M3S245
G4 P0.5; Tool Off

G0 Z0; move to z-safe height
G0 X405.0849 Y137.7762
M3S0
G4 P0.5; Tool On
G1 F300 Z-0.1000
G1 F15000 X192.8959 Y1.6840 Z-0.1000
M3S245
G4 P0.5; Tool Off

G0 Z0; move to z-safe height
G0 X298.0265 Y115.0049
M3S0
G4 P0.5; Tool On
G1 F300 Z-0.1000
G1 F15000 X373.5907 Y0.9353 Z-0.1000
M3S245
G4 P0.5; Tool Off

G0 Z0; move to z-safe height
G0 X407.5879 Y93.7870
M3S0
G4 P0.5; Tool On
G1 F300 Z-0.1000
G1 F15000 X318.8846 Y1.0221 Z-0.1000
M3S245
G4 P0.5; Tool Off

G0 Z0; move to z-safe height
G0 X215.8308 Y111.6068
M3S0
G4 P0.5; Tool On
G1 F300 Z-0.1000
G1 F15000 X275.2841 Y2.1038 Z-0.1000
M3S245
G4 P0.5; Tool Off

G0 Z0; move to z-safe height
G0 X24.5647 Y346.3025
M3S0
G4 P0.5; Tool On
G1 F300 Z-0.1000
G1 F15000 X82.1746 Y2.3875 Z-0.1000
M3S245
G4 P0.5; Tool Off

G0 Z0; move to z-safe height
G0 X226.4687 Y144.5164
M3S0
G4 P0.5; Tool On
G1 F300 Z-0.1000
G1 F15000 X291.2247 Y0.8350 Z-0.1000
M3S245
G4 P0.5; Tool Off

G0 Z0; move to z-safe height
G0 X64.3985 Y338.1182
M3S0
G4 P0.5; Tool On
G1 F300 Z-0.1000
G1 F15000 X85.8742 Y1.0413 Z-0.1000
M3S245
G4 P0.5; Tool Off

G0 Z0; move to z-safe height
G0 X389.7426 Y358.8348
M3S0
G4 P0.5; Tool On
G1 F300 Z-0.1000
G1 F15000 X234.2430 Y0.5268 Z-0.1000
M3S245
G4 P0.5; Tool Off

G0 Z0; move to z-safe height
G0 X434.9057 Y184.1727
M3S0
G4 P0.5; Tool On
G1 F300 Z-0.1000
G1 F15000 X428.5513 Y0.8683 Z-0.1000
M3S245
G4 P0.5; Tool Off

G0 Z0; move to z-safe height
G0 X167.6979 Y132.4833
M3S0
G4 P0.5; Tool On
G1 F300 Z-0.1000
G1 F15000 X449.3016 Y1.7093 Z-0.1000
M3S245
G4 P0.5; Tool Off

G0 Z0; move to z-safe height
G0 X461.8045 Y198.9458
M3S0
G4 P0.5; Tool On
G1 F300 Z-0.1000
G1 F15000 X127.0525 Y0.3252 Z-0.1000
M3S245
G4 P0.5; Tool Off

G0 Z0; move to z-safe height
G0 X81.5705 Y80.6332
M3S0
G4 P0.5; Tool On
G1 F300 Z-0.1000
G1 F15000 X362.4560 Y0.2258 Z-0.1000
M3S245
G4 P0.5; Tool Off

G0 Z0; move to z-safe height
G0 X428.4527 Y221.1374
M3S0
G4 P0.5; Tool On
G1 F300 Z-0.1000
G1 F15000 X118.4937 Y2.1101 Z-0.1000
M3S245
G4 P0.5; Tool Off

G0 Z0; move to z-safe height
G0 X413.8604 Y281.8746
M3S0
G4 P0.5; Tool On
G1 F300 Z-0.1000
G1 F15000 X435.0561 Y0.4160 Z-0.1000
M3S245
G4 P0.5; Tool Off

G0 Z0; move to z-safe height
G0 X371.1035 Y101.5098
M3S0
G4 P0.5; Tool On
G1 F300 Z-0.1000
G1 F15000 X192.5330 Y2.4586 Z-0.1000
M3S245
G4 P0.5; Tool Off

G0 Z0; move to z-safe height
G0 X400.2265 Y111.1022
M3S0
G4 P0.5; Tool On
G1 F300 Z-0.1000
G1 F15000 X446.4351 Y1.5749 Z-0.1000
M3S245
G4 P0.5; Tool Off

G0 Z0; move to z-safe height
G0 X247.4263 Y214.0783
M3S0
G4 P0.5; Tool On
G1 F300 Z-0.1000
G1 F15000 X178.1649 Y0.9654 Z-0.1000
M3S245
G4 P0.5; Tool Off

G0 Z0; move to z-safe height
G0 X413.0544 Y97.4539
M3S0
G4 P0.5; Tool On
G1 F300 Z-0.1000
G1 F15000 X263.1330 Y2.0561 Z-0.1000
M3S245
G4 P0.5; Tool Off

G0 Z0; move to z-safe height
G0 X134.3286 Y64.6161
M3S0
G4 P0.5; Tool On
G1 F300 Z-0.1000
G1 F15000 X301.5960 Y0.6497 Z-0.1000
M3S245
G4 P0.5; Tool Off

G0 Z0; move to z-safe height
G0 X150.0870 Y210.6188
M3S0
G4 P0.5; Tool On
G1 F300 Z-0.1000
G1 F15000 X210.2164 Y1.5235 Z-0.1000
M3S245
G4 P0.5; Tool Off

G0 Z0; move to z-safe height
G0 X252.4686 Y101.5849
M3S0
G4 P0.5; Tool On
G1 F300 Z-0.1000
G1 F15000 X426.9105 Y1.8215 Z-0.1000
M3S245
G4 P0.5; Tool Off

G0 Z0; move to z-safe height
G0 X231.2172 Y326.5017
M3S0
G4 P0.5; Tool On
G1 F300 Z-0.1000
G1 F15000 X402.6879 Y1.7397 Z-0.1000
M3S245
G4 P0.5; Tool Off

G0 Z0; move to z-safe height
G0 X282.5951 Y224.2145
M3S0
G4 P0.5; Tool On
G1 F300 Z-0.1000
G1 F15000 X151.4658 Y1.5081 Z-0.1000
M3S245
G4 P0.5; Tool Off

G0 Z0; move to z-safe height
G0 X437.9274 Y104.1875
M3S0
G4 P0.5; Tool On
G1 F300 Z-0.1000
G1 F15000 X441.1332 Y1.3558 Z-0.1000
M3S245
G4 P0.5; Tool Off

G0 Z0; move to z-safe height
G0 X35.9137 Y141.9767
M3S0
G4 P0.5; Tool On
G1 F300 Z-0.1000
G1 F15000 X250.2561 Y1.6126 Z-0.1000
M3S245
G4 P0.5; Tool Off

G0 Z0; move to z-safe height
G0 X457.4526 Y273.1371
M3S0
G4 P0.5; Tool On
G1 F300 Z-0.1000
G1 F15000 X132.2547 Y1.0395 Z-0.1000
M3S245
G4 P0.5; Tool Off

G0 Z0; move to z-safe height
G0 X145.5505 Y248.1350
M3S0
G4 P0.5; Tool On
G1 F300 Z-0.1000
G1 F15000 X272.4522 Y1.7280 Z-0.1000
M3S245
G4 P0.5; Tool Off

G0 Z0; move to z-safe height
G0 X156.5739 Y112.6727
M3S0
G4 P0.5; Tool On
G1 F300 Z-0.1000
G1 F15000 X339.9680 Y1.1231 Z-0.1000
M3S245
G4 P0.5; Tool Off

G0 Z0; move to z-safe height
G0 X310.9599 Y282.5355
M3S0
G4 P0.5; Tool On
G1 F300 Z-0.1000
G1 F15000 X200.6190 Y1.7533 Z-0.1000
M3S245
G4 P0.5; Tool Off

G0 Z0; move to z-safe height
G0 X19.9116 Y99.6595
M3S0
G4 P0.5; Tool On
G1 F300 Z-0.1000
G1 F15000 X361.1228 Y2.1022 Z-0.1000
M3S245
G4 P0.5; Tool Off

G0 Z0; move to z-safe height
G0 X348.6382 Y141.6664
M3S0
G4 P0.5; Tool On
G1 F300 Z-0.1000
G1 F15000 X366.7129 Y0.7365 Z-0.1000
M3S245
G4 P0.5; Tool Off

G0 Z0; move to z-safe height
G0 X118.1041 Y253.7561
M3S0
G4 P0.5; Tool On
G1 F300 Z-0.1000
G1 F15000 X150.0853 Y0.5114 Z-0.1000
M3S245
G4 P0.5; Tool Off

G0 Z0; move to z-safe height
G0 X221.5930 Y209.7391
M3S0
G4 P0.5; Tool On
G1 F300 Z-0.1000
G1 F15000 X282.4114 Y1.4547 Z-0.1000
M3S245
G4 P0.5; Tool Off

G0 Z0; move to z-safe height
G0 X4.2480 Y161.9550
M3S0
G4 P0.5; Tool On
G1 F300 Z-0.1000
G1 F15000 X340.7457 Y1.9904 Z-0.1000
M3S245
G4 P0.5; Tool Off

G0 Z0; move to z-safe height
G0 X177.4651 Y214.5429
M3S0
G4 P0.5; Tool On
G1 F300 Z-0.1000
G1 F15000 X189.4527 Y1.5399 Z-0.1000
M3S245
G4 P0.5; Tool Off

G0 Z0; move to z-safe height
G0 X27.6297 Y199.6879
M3S0
G4 P0.5; Tool On
G1 F300 Z-0.1000
G1 F15000 X184.5018 Y0.2994 Z-0.1000
M3S245
G4 P0.5; Tool Off

G0 Z0; move to z-safe height
G0 X22.3009 Y353.8738
M3S0
G4 P0.5; Tool On
G1 F300 Z-0.1000
G1 F15000 X349.5131 Y2.1135 Z-0.1000
M3S245
G4 P0.5; Tool Off

G0 Z0; move to z-safe height
G0 X447.7947 Y345.1689
M3S0
G4 P0.5; Tool On
G1 F300 Z-0.1000
G1 F15000 X371.0313 Y2.1607 Z-0.1000
M3S245
G4 P0.5; Tool Off

G0 Z0; move to z-safe height
G0 X92.1658 Y238.3895
M3S0
G4 P0.5; Tool On
G1 F300 Z-0.1000
G1 F15000 X151.0572 Y0.9070 Z-0.1000
M3S245
G4 P0.5; Tool Off

G0 Z0; move to z-safe height
G0 X103.8536 Y357.1528
M3S0
G4 P0.5; Tool On
G1 F300 Z-0.1000
G1 F15000 X332.8222 Y1.2389 Z-0.1000
M3S245
G4 P0.5; Tool Off

G0 Z0; move to z-safe height
G0 X18.7208 Y223.9597
M3S0
G4 P0.5; Tool On
G1 F300 Z-0.1000
G1 F15000 X288.0770 Y1.6960 Z-0.1000
M3S245
G4 P0.5; Tool Off

G0 Z0; move to z-safe height
G0 X292.3490 Y290.5975
M3S0
G4 P0.5; Tool On
G1 F300 Z-0.1000
G1 F15000 X460.3384 Y1.0734 Z-0.1000
M3S245
G4 P0.5; Tool Off

G0 Z0; move to z-safe height
G0 X440.9216 Y256.4466
M3S0
G4 P0.5; Tool On
G1 F300 Z-0.1000
G1 F15000 X369.6977 Y2.5059 Z-0.1000
M3S245
G4 P0.5; Tool Off

G0 Z0; move to z-safe height
G0 X5.2302 Y316.6505
M3S0
G4 P0.5; Tool On
G1 F300 Z-0.1000
G1 F15000 X363.9270 Y0.4088 Z-0.1000
M3S245
G4 P0.5; Tool Off

G0 Z0; move to z-safe height
G0 X87.1993 Y195.6236
M3S0
G4 P0.5; Tool On
G1 F300 Z-0.1000
G1 F15000 X439.4884 Y1.9247 Z-0.1000
M3S245
G4 P0.5; Tool Off

G0 Z0; move to z-safe height
G0 X149.9104 Y342.9071
M3S0
G4 P0.5; Tool On
G1 F300 Z-0.1000
G1 F15000 X332.0902 Y1.4490 Z-0.1000
M3S245
G4 P0.5; Tool Off

G0 Z0; move to z-safe height
G0 X24.5866 Y349.9615
M3S0
G4 P0.5; Tool On
G1 F300 Z-0.1000
G1 F15000 X331.6085 Y1.8351 Z-0.1000
M3S245
G4 P0.5; Tool Off

G0 Z0; move to z-safe height
G0 X416.5763 Y293.9617
M3S0
G4 P0.5; Tool On
G1 F300 Z-0.1000
G1 F15000 X252.1140 Y1.5613 Z-0.1000
M3S245
G4 P0.5; Tool Off

G0 Z0; move to z-safe height
G0 X408.6419 Y284.5835
M3S0
G4 P0.5; Tool On
G1 F300 Z-0.1000
G1 F15000 X440.4798 Y0.7890 Z-0.1000
M3S245
G4 P0.5; Tool Off

G0 Z0; move to z-safe height
G0 X273.0706 Y310.1654
M3S0
G4 P0.5; Tool On
G1 F300 Z-0.1000
G1 F15000 X418.9804 Y0.6191 Z-0.1000
M3S245
G4 P0.5; Tool Off
; retracting back to z-safe
G0 Z0

; Plotter Mode Complete
