; GCODE Generated by cam.openbuilds.com on 2024-01-15 
G21 ; mm-mode
G54; Work Coordinates
G21; mm-mode
G90; Absolute Positioning
; Plotter Mode Active

; Operation 0: Pen Plotter: (no offset)
; Pen Diameter: 2

G0 Z0; move to z-safe height
G0 F1000 X449.3896 Y52.2960
M3S0
G4 P0.5; Tool On
G1 F300 Z-0.1000
G1 F15000 X366.7804 Y22.8572 Z-0.1000
M3S245
G4 P0.5; Tool Off

G0 Z0; move to z-safe height
G0 X336.8599 Y190.6908
M3S0
G4 P0.5; Tool On
G1 F300 Z-0.1000
G1 F15000 X86.5936 Y8.6237 Z-0.1000
M3S245
G4 P0.5; Tool Off

G0 Z0; move to z-safe height
G0 X236.6873 Y185.0201
M3S0
G4 P0.5; Tool On
G1 F300 Z-0.1000
G1 F15000 X30.0995 Y18.6402 Z-0.1000
M3S245
G4 P0.5; Tool Off

G0 Z0; move to z-safe height
G0 X116.5196 Y104.7022
M3S0
G4 P0.5; Tool On
G1 F300 Z-0.1000
G1 F15000 X19.2099 Y7.1624 Z-0.1000
M3S245
G4 P0.5; Tool Off

G0 Z0; move to z-safe height
G0 X235.3983 Y97.1152
M3S0
G4 P0.5; Tool On
G1 F300 Z-0.1000
G1 F15000 X74.7565 Y23.9160 Z-0.1000
M3S245
G4 P0.5; Tool Off

G0 Z0; move to z-safe height
G0 X435.3017 Y67.4950
M3S0
G4 P0.5; Tool On
G1 F300 Z-0.1000
G1 F15000 X22.3569 Y3.5322 Z-0.1000
M3S245
G4 P0.5; Tool Off

G0 Z0; move to z-safe height
G0 X452.4365 Y62.2410
M3S0
G4 P0.5; Tool On
G1 F300 Z-0.1000
G1 F15000 X262.2612 Y18.6305 Z-0.1000
M3S245
G4 P0.5; Tool Off

G0 Z0; move to z-safe height
G0 X357.3719 Y41.3683
M3S0
G4 P0.5; Tool On
G1 F300 Z-0.1000
G1 F15000 X174.4174 Y17.1293 Z-0.1000
M3S245
G4 P0.5; Tool Off

G0 Z0; move to z-safe height
G0 X246.4028 Y154.8397
M3S0
G4 P0.5; Tool On
G1 F300 Z-0.1000
G1 F15000 X2.8949 Y6.7365 Z-0.1000
M3S245
G4 P0.5; Tool Off

G0 Z0; move to z-safe height
G0 X339.5224 Y254.2502
M3S0
G4 P0.5; Tool On
G1 F300 Z-0.1000
G1 F15000 X5.3331 Y24.5080 Z-0.1000
M3S245
G4 P0.5; Tool Off

G0 Z0; move to z-safe height
G0 X318.0599 Y261.5661
M3S0
G4 P0.5; Tool On
G1 F300 Z-0.1000
G1 F15000 X26.9885 Y9.2357 Z-0.1000
M3S245
G4 P0.5; Tool Off

G0 Z0; move to z-safe height
G0 X293.3027 Y191.7061
M3S0
G4 P0.5; Tool On
G1 F300 Z-0.1000
G1 F15000 X41.4219 Y6.3861 Z-0.1000
M3S245
G4 P0.5; Tool Off

G0 Z0; move to z-safe height
G0 X245.1540 Y52.1893
M3S0
G4 P0.5; Tool On
G1 F300 Z-0.1000
G1 F15000 X27.3484 Y20.1122 Z-0.1000
M3S245
G4 P0.5; Tool Off

G0 Z0; move to z-safe height
G0 X146.6917 Y48.5004
M3S0
G4 P0.5; Tool On
G1 F300 Z-0.1000
G1 F15000 X59.2236 Y10.9938 Z-0.1000
M3S245
G4 P0.5; Tool Off

G0 Z0; move to z-safe height
G0 X397.4709 Y350.6460
M3S0
G4 P0.5; Tool On
G1 F300 Z-0.1000
G1 F15000 X104.2153 Y17.0893 Z-0.1000
M3S245
G4 P0.5; Tool Off

G0 Z0; move to z-safe height
G0 X378.0888 Y221.2403
M3S0
G4 P0.5; Tool On
G1 F300 Z-0.1000
G1 F15000 X74.8317 Y19.7339 Z-0.1000
M3S245
G4 P0.5; Tool Off

G0 Z0; move to z-safe height
G0 X275.1376 Y47.9796
M3S0
G4 P0.5; Tool On
G1 F300 Z-0.1000
G1 F15000 X160.8353 Y20.0617 Z-0.1000
M3S245
G4 P0.5; Tool Off

G0 Z0; move to z-safe height
G0 X413.8771 Y64.3624
M3S0
G4 P0.5; Tool On
G1 F300 Z-0.1000
G1 F15000 X201.8742 Y4.5005 Z-0.1000
M3S245
G4 P0.5; Tool Off

G0 Z0; move to z-safe height
G0 X72.4939 Y4.8560
M3S0
G4 P0.5; Tool On
G1 F300 Z-0.1000
G1 F15000 X430.6214 Y16.3713 Z-0.1000
M3S245
G4 P0.5; Tool Off

G0 Z0; move to z-safe height
G0 X454.7224 Y8.0282
M3S0
G4 P0.5; Tool On
G1 F300 Z-0.1000
G1 F15000 X5.8776 Y1.4363 Z-0.1000
M3S245
G4 P0.5; Tool Off

G0 Z0; move to z-safe height
G0 X182.1629 Y333.0533
M3S0
G4 P0.5; Tool On
G1 F300 Z-0.1000
G1 F15000 X28.1690 Y25.2507 Z-0.1000
M3S245
G4 P0.5; Tool Off

G0 Z0; move to z-safe height
G0 X136.5902 Y185.5867
M3S0
G4 P0.5; Tool On
G1 F300 Z-0.1000
G1 F15000 X215.9140 Y4.8341 Z-0.1000
M3S245
G4 P0.5; Tool Off

G0 Z0; move to z-safe height
G0 X37.9581 Y329.3319
M3S0
G4 P0.5; Tool On
G1 F300 Z-0.1000
G1 F15000 X8.2761 Y19.4655 Z-0.1000
M3S245
G4 P0.5; Tool Off

G0 Z0; move to z-safe height
G0 X0.0352 Y48.9468
M3S0
G4 P0.5; Tool On
G1 F300 Z-0.1000
G1 F15000 X123.4183 Y11.2927 Z-0.1000
M3S245
G4 P0.5; Tool Off

G0 Z0; move to z-safe height
G0 X24.0534 Y93.4710
M3S0
G4 P0.5; Tool On
G1 F300 Z-0.1000
G1 F15000 X127.6445 Y23.9115 Z-0.1000
M3S245
G4 P0.5; Tool Off

G0 Z0; move to z-safe height
G0 X91.0460 Y221.1591
M3S0
G4 P0.5; Tool On
G1 F300 Z-0.1000
G1 F15000 X25.0046 Y17.5257 Z-0.1000
M3S245
G4 P0.5; Tool Off

G0 Z0; move to z-safe height
G0 X208.4203 Y363.5138
M3S0
G4 P0.5; Tool On
G1 F300 Z-0.1000
G1 F15000 X53.8674 Y4.3843 Z-0.1000
M3S245
G4 P0.5; Tool Off

G0 Z0; move to z-safe height
G0 X8.8752 Y178.0770
M3S0
G4 P0.5; Tool On
G1 F300 Z-0.1000
G1 F15000 X111.5670 Y4.0112 Z-0.1000
M3S245
G4 P0.5; Tool Off

G0 Z0; move to z-safe height
G0 X59.1537 Y156.6763
M3S0
G4 P0.5; Tool On
G1 F300 Z-0.1000
G1 F15000 X319.7609 Y15.0131 Z-0.1000
M3S245
G4 P0.5; Tool Off

G0 Z0; move to z-safe height
G0 X346.6214 Y229.6865
M3S0
G4 P0.5; Tool On
G1 F300 Z-0.1000
G1 F15000 X80.8312 Y15.8184 Z-0.1000
M3S245
G4 P0.5; Tool Off

G0 Z0; move to z-safe height
G0 X287.2563 Y82.9589
M3S0
G4 P0.5; Tool On
G1 F300 Z-0.1000
G1 F15000 X200.9734 Y18.2511 Z-0.1000
M3S245
G4 P0.5; Tool Off

G0 Z0; move to z-safe height
G0 X326.6875 Y90.9071
M3S0
G4 P0.5; Tool On
G1 F300 Z-0.1000
G1 F15000 X137.4778 Y12.7795 Z-0.1000
M3S245
G4 P0.5; Tool Off

G0 Z0; move to z-safe height
G0 X152.0542 Y296.7881
M3S0
G4 P0.5; Tool On
G1 F300 Z-0.1000
G1 F15000 X142.0172 Y19.1442 Z-0.1000
M3S245
G4 P0.5; Tool Off

G0 Z0; move to z-safe height
G0 X233.0884 Y296.5575
M3S0
G4 P0.5; Tool On
G1 F300 Z-0.1000
G1 F15000 X106.4258 Y10.7719 Z-0.1000
M3S245
G4 P0.5; Tool Off

G0 Z0; move to z-safe height
G0 X294.7841 Y342.3339
M3S0
G4 P0.5; Tool On
G1 F300 Z-0.1000
G1 F15000 X69.5264 Y19.9842 Z-0.1000
M3S245
G4 P0.5; Tool Off

G0 Z0; move to z-safe height
G0 X345.6129 Y221.8634
M3S0
G4 P0.5; Tool On
G1 F300 Z-0.1000
G1 F15000 X194.6747 Y13.0600 Z-0.1000
M3S245
G4 P0.5; Tool Off

G0 Z0; move to z-safe height
G0 X296.2538 Y209.3264
M3S0
G4 P0.5; Tool On
G1 F300 Z-0.1000
G1 F15000 X237.0914 Y19.0206 Z-0.1000
M3S245
G4 P0.5; Tool Off

G0 Z0; move to z-safe height
G0 X311.5826 Y142.5293
M3S0
G4 P0.5; Tool On
G1 F300 Z-0.1000
G1 F15000 X404.5300 Y2.5505 Z-0.1000
M3S245
G4 P0.5; Tool Off

G0 Z0; move to z-safe height
G0 X68.6954 Y161.6831
M3S0
G4 P0.5; Tool On
G1 F300 Z-0.1000
G1 F15000 X101.2555 Y20.9015 Z-0.1000
M3S245
G4 P0.5; Tool Off

G0 Z0; move to z-safe height
G0 X161.3727 Y40.6374
M3S0
G4 P0.5; Tool On
G1 F300 Z-0.1000
G1 F15000 X417.0754 Y15.9457 Z-0.1000
M3S245
G4 P0.5; Tool Off

G0 Z0; move to z-safe height
G0 X56.5375 Y272.1710
M3S0
G4 P0.5; Tool On
G1 F300 Z-0.1000
G1 F15000 X85.4305 Y17.2318 Z-0.1000
M3S245
G4 P0.5; Tool Off

G0 Z0; move to z-safe height
G0 X141.9533 Y310.2393
M3S0
G4 P0.5; Tool On
G1 F300 Z-0.1000
G1 F15000 X67.1732 Y9.1576 Z-0.1000
M3S245
G4 P0.5; Tool Off

G0 Z0; move to z-safe height
G0 X296.2541 Y285.5262
M3S0
G4 P0.5; Tool On
G1 F300 Z-0.1000
G1 F15000 X339.8505 Y19.8185 Z-0.1000
M3S245
G4 P0.5; Tool Off

G0 Z0; move to z-safe height
G0 X432.6542 Y342.2811
M3S0
G4 P0.5; Tool On
G1 F300 Z-0.1000
G1 F15000 X113.2948 Y18.6583 Z-0.1000
M3S245
G4 P0.5; Tool Off

G0 Z0; move to z-safe height
G0 X48.7283 Y117.4597
M3S0
G4 P0.5; Tool On
G1 F300 Z-0.1000
G1 F15000 X320.4505 Y23.3244 Z-0.1000
M3S245
G4 P0.5; Tool Off

G0 Z0; move to z-safe height
G0 X128.1961 Y223.0218
M3S0
G4 P0.5; Tool On
G1 F300 Z-0.1000
G1 F15000 X214.7238 Y15.6204 Z-0.1000
M3S245
G4 P0.5; Tool Off

G0 Z0; move to z-safe height
G0 X23.2155 Y268.4246
M3S0
G4 P0.5; Tool On
G1 F300 Z-0.1000
G1 F15000 X322.5922 Y18.4659 Z-0.1000
M3S245
G4 P0.5; Tool Off

G0 Z0; move to z-safe height
G0 X3.3973 Y220.9819
M3S0
G4 P0.5; Tool On
G1 F300 Z-0.1000
G1 F15000 X193.0620 Y10.4593 Z-0.1000
M3S245
G4 P0.5; Tool Off

G0 Z0; move to z-safe height
G0 X272.6463 Y220.3893
M3S0
G4 P0.5; Tool On
G1 F300 Z-0.1000
G1 F15000 X266.4537 Y7.2834 Z-0.1000
M3S245
G4 P0.5; Tool Off

G0 Z0; move to z-safe height
G0 X422.6485 Y149.9333
M3S0
G4 P0.5; Tool On
G1 F300 Z-0.1000
G1 F15000 X218.5367 Y4.9482 Z-0.1000
M3S245
G4 P0.5; Tool Off

G0 Z0; move to z-safe height
G0 X286.4679 Y244.2634
M3S0
G4 P0.5; Tool On
G1 F300 Z-0.1000
G1 F15000 X195.6322 Y0.5019 Z-0.1000
M3S245
G4 P0.5; Tool Off

G0 Z0; move to z-safe height
G0 X359.7702 Y190.3687
M3S0
G4 P0.5; Tool On
G1 F300 Z-0.1000
G1 F15000 X337.1699 Y12.6170 Z-0.1000
M3S245
G4 P0.5; Tool Off

G0 Z0; move to z-safe height
G0 X178.1938 Y254.0654
M3S0
G4 P0.5; Tool On
G1 F300 Z-0.1000
G1 F15000 X337.8708 Y13.9284 Z-0.1000
M3S245
G4 P0.5; Tool Off

G0 Z0; move to z-safe height
G0 X229.3017 Y188.8772
M3S0
G4 P0.5; Tool On
G1 F300 Z-0.1000
G1 F15000 X226.4857 Y17.3956 Z-0.1000
M3S245
G4 P0.5; Tool Off

G0 Z0; move to z-safe height
G0 X13.8621 Y159.7289
M3S0
G4 P0.5; Tool On
G1 F300 Z-0.1000
G1 F15000 X189.6750 Y21.8011 Z-0.1000
M3S245
G4 P0.5; Tool Off

G0 Z0; move to z-safe height
G0 X238.0184 Y328.2345
M3S0
G4 P0.5; Tool On
G1 F300 Z-0.1000
G1 F15000 X295.9094 Y6.2049 Z-0.1000
M3S245
G4 P0.5; Tool Off

G0 Z0; move to z-safe height
G0 X92.1052 Y193.3590
M3S0
G4 P0.5; Tool On
G1 F300 Z-0.1000
G1 F15000 X240.1046 Y2.5634 Z-0.1000
M3S245
G4 P0.5; Tool Off

G0 Z0; move to z-safe height
G0 X104.8181 Y228.6827
M3S0
G4 P0.5; Tool On
G1 F300 Z-0.1000
G1 F15000 X301.6145 Y10.6042 Z-0.1000
M3S245
G4 P0.5; Tool Off

G0 Z0; move to z-safe height
G0 X336.9532 Y134.8387
M3S0
G4 P0.5; Tool On
G1 F300 Z-0.1000
G1 F15000 X233.7564 Y0.0979 Z-0.1000
M3S245
G4 P0.5; Tool Off

G0 Z0; move to z-safe height
G0 X418.6315 Y261.4431
M3S0
G4 P0.5; Tool On
G1 F300 Z-0.1000
G1 F15000 X292.7637 Y23.8852 Z-0.1000
M3S245
G4 P0.5; Tool Off

G0 Z0; move to z-safe height
G0 X292.7824 Y293.1655
M3S0
G4 P0.5; Tool On
G1 F300 Z-0.1000
G1 F15000 X338.2699 Y17.6898 Z-0.1000
M3S245
G4 P0.5; Tool Off

G0 Z0; move to z-safe height
G0 X172.7471 Y159.9196
M3S0
G4 P0.5; Tool On
G1 F300 Z-0.1000
G1 F15000 X306.2861 Y19.9237 Z-0.1000
M3S245
G4 P0.5; Tool Off

G0 Z0; move to z-safe height
G0 X6.8085 Y259.6335
M3S0
G4 P0.5; Tool On
G1 F300 Z-0.1000
G1 F15000 X268.7158 Y0.1352 Z-0.1000
M3S245
G4 P0.5; Tool Off

G0 Z0; move to z-safe height
G0 X250.1027 Y235.6201
M3S0
G4 P0.5; Tool On
G1 F300 Z-0.1000
G1 F15000 X250.5121 Y0.8411 Z-0.1000
M3S245
G4 P0.5; Tool Off

G0 Z0; move to z-safe height
G0 X326.7929 Y211.0742
M3S0
G4 P0.5; Tool On
G1 F300 Z-0.1000
G1 F15000 X332.9728 Y6.0564 Z-0.1000
M3S245
G4 P0.5; Tool Off

G0 Z0; move to z-safe height
G0 X91.8781 Y151.8848
M3S0
G4 P0.5; Tool On
G1 F300 Z-0.1000
G1 F15000 X455.0030 Y5.6076 Z-0.1000
M3S245
G4 P0.5; Tool Off

G0 Z0; move to z-safe height
G0 X41.9535 Y220.1338
M3S0
G4 P0.5; Tool On
G1 F300 Z-0.1000
G1 F15000 X404.4679 Y10.6804 Z-0.1000
M3S245
G4 P0.5; Tool Off

G0 Z0; move to z-safe height
G0 X414.1390 Y310.1743
M3S0
G4 P0.5; Tool On
G1 F300 Z-0.1000
G1 F15000 X444.8219 Y0.0537 Z-0.1000
M3S245
G4 P0.5; Tool Off

G0 Z0; move to z-safe height
G0 X362.8034 Y336.0560
M3S0
G4 P0.5; Tool On
G1 F300 Z-0.1000
G1 F15000 X318.4968 Y4.6682 Z-0.1000
M3S245
G4 P0.5; Tool Off

G0 Z0; move to z-safe height
G0 X10.9567 Y320.0270
M3S0
G4 P0.5; Tool On
G1 F300 Z-0.1000
G1 F15000 X256.4696 Y13.3387 Z-0.1000
M3S245
G4 P0.5; Tool Off

G0 Z0; move to z-safe height
G0 X395.1087 Y220.2366
M3S0
G4 P0.5; Tool On
G1 F300 Z-0.1000
G1 F15000 X311.3029 Y3.9203 Z-0.1000
M3S245
G4 P0.5; Tool Off

G0 Z0; move to z-safe height
G0 X366.3668 Y254.6233
M3S0
G4 P0.5; Tool On
G1 F300 Z-0.1000
G1 F15000 X409.8530 Y3.0056 Z-0.1000
M3S245
G4 P0.5; Tool Off

G0 Z0; move to z-safe height
G0 X253.0691 Y341.9937
M3S0
G4 P0.5; Tool On
G1 F300 Z-0.1000
G1 F15000 X365.7590 Y7.7014 Z-0.1000
M3S245
G4 P0.5; Tool Off

G0 Z0; move to z-safe height
G0 X196.2863 Y326.1494
M3S0
G4 P0.5; Tool On
G1 F300 Z-0.1000
G1 F15000 X387.8640 Y14.0375 Z-0.1000
M3S245
G4 P0.5; Tool Off

G0 Z0; move to z-safe height
G0 X414.8357 Y328.3278
M3S0
G4 P0.5; Tool On
G1 F300 Z-0.1000
G1 F15000 X381.8342 Y2.3397 Z-0.1000
M3S245
G4 P0.5; Tool Off
; retracting back to z-safe
G0 Z0

; Plotter Mode Complete
