; GCODE Generated by cam.openbuilds.com on 2024-01-15 
G21 ; mm-mode
G54; Work Coordinates
G21; mm-mode
G90; Absolute Positioning
; Plotter Mode Active

; Operation 0: Pen Plotter: (no offset)
; Pen Diameter: 2

G0 Z0; move to z-safe height
G0 F1000 X390.1253 Y50.0442
M3S0
G4 P0.5; Tool On
G1 F300 Z-0.1000
G1 F15000 X158.2777 Y18.6331 Z-0.1000
M3S245
G4 P0.5; Tool Off

G0 Z0; move to z-safe height
G0 X439.4598 Y200.0323
M3S0
G4 P0.5; Tool On
G1 F300 Z-0.1000
G1 F15000 X115.4389 Y11.3238 Z-0.1000
M3S245
G4 P0.5; Tool Off

G0 Z0; move to z-safe height
G0 X381.8496 Y11.8174
M3S0
G4 P0.5; Tool On
G1 F300 Z-0.1000
G1 F15000 X64.8352 Y21.0719 Z-0.1000
M3S245
G4 P0.5; Tool Off

G0 Z0; move to z-safe height
G0 X283.8607 Y143.7102
M3S0
G4 P0.5; Tool On
G1 F300 Z-0.1000
G1 F15000 X22.5740 Y10.1166 Z-0.1000
M3S245
G4 P0.5; Tool Off

G0 Z0; move to z-safe height
G0 X62.8908 Y96.2252
M3S0
G4 P0.5; Tool On
G1 F300 Z-0.1000
G1 F15000 X0.6811 Y6.5828 Z-0.1000
M3S245
G4 P0.5; Tool Off

G0 Z0; move to z-safe height
G0 X364.8803 Y20.3976
M3S0
G4 P0.5; Tool On
G1 F300 Z-0.1000
G1 F15000 X98.4423 Y6.5559 Z-0.1000
M3S245
G4 P0.5; Tool Off

G0 Z0; move to z-safe height
G0 X264.2410 Y17.1223
M3S0
G4 P0.5; Tool On
G1 F300 Z-0.1000
G1 F15000 X5.3417 Y14.7364 Z-0.1000
M3S245
G4 P0.5; Tool Off

G0 Z0; move to z-safe height
G0 X276.1912 Y16.0511
M3S0
G4 P0.5; Tool On
G1 F300 Z-0.1000
G1 F15000 X424.3474 Y7.1778 Z-0.1000
M3S245
G4 P0.5; Tool Off

G0 Z0; move to z-safe height
G0 X323.3512 Y99.9589
M3S0
G4 P0.5; Tool On
G1 F300 Z-0.1000
G1 F15000 X156.7042 Y18.5703 Z-0.1000
M3S245
G4 P0.5; Tool Off

G0 Z0; move to z-safe height
G0 X126.5126 Y2.0138
M3S0
G4 P0.5; Tool On
G1 F300 Z-0.1000
G1 F15000 X48.2616 Y10.8109 Z-0.1000
M3S245
G4 P0.5; Tool Off

G0 Z0; move to z-safe height
G0 X98.2302 Y54.4980
M3S0
G4 P0.5; Tool On
G1 F300 Z-0.1000
G1 F15000 X6.1043 Y18.8000 Z-0.1000
M3S245
G4 P0.5; Tool Off

G0 Z0; move to z-safe height
G0 X437.4011 Y294.8117
M3S0
G4 P0.5; Tool On
G1 F300 Z-0.1000
G1 F15000 X21.3751 Y18.6529 Z-0.1000
M3S245
G4 P0.5; Tool Off

G0 Z0; move to z-safe height
G0 X212.4257 Y28.0584
M3S0
G4 P0.5; Tool On
G1 F300 Z-0.1000
G1 F15000 X93.2536 Y20.4166 Z-0.1000
M3S245
G4 P0.5; Tool Off

G0 Z0; move to z-safe height
G0 X272.6882 Y39.4357
M3S0
G4 P0.5; Tool On
G1 F300 Z-0.1000
G1 F15000 X32.9246 Y12.9797 Z-0.1000
M3S245
G4 P0.5; Tool Off

G0 Z0; move to z-safe height
G0 X149.7082 Y132.1835
M3S0
G4 P0.5; Tool On
G1 F300 Z-0.1000
G1 F15000 X361.6856 Y4.2234 Z-0.1000
M3S245
G4 P0.5; Tool Off

G0 Z0; move to z-safe height
G0 X415.9502 Y21.7395
M3S0
G4 P0.5; Tool On
G1 F300 Z-0.1000
G1 F15000 X42.0937 Y18.9037 Z-0.1000
M3S245
G4 P0.5; Tool Off

G0 Z0; move to z-safe height
G0 X322.9326 Y74.3703
M3S0
G4 P0.5; Tool On
G1 F300 Z-0.1000
G1 F15000 X22.5350 Y10.8574 Z-0.1000
M3S245
G4 P0.5; Tool Off

G0 Z0; move to z-safe height
G0 X226.4851 Y228.8670
M3S0
G4 P0.5; Tool On
G1 F300 Z-0.1000
G1 F15000 X222.9665 Y23.1238 Z-0.1000
M3S245
G4 P0.5; Tool Off

G0 Z0; move to z-safe height
G0 X337.9191 Y105.6676
M3S0
G4 P0.5; Tool On
G1 F300 Z-0.1000
G1 F15000 X301.1767 Y23.1952 Z-0.1000
M3S245
G4 P0.5; Tool Off

G0 Z0; move to z-safe height
G0 X256.0440 Y58.2299
M3S0
G4 P0.5; Tool On
G1 F300 Z-0.1000
G1 F15000 X134.8962 Y23.5643 Z-0.1000
M3S245
G4 P0.5; Tool Off

G0 Z0; move to z-safe height
G0 X228.1898 Y12.7915
M3S0
G4 P0.5; Tool On
G1 F300 Z-0.1000
G1 F15000 X62.1241 Y9.5526 Z-0.1000
M3S245
G4 P0.5; Tool Off

G0 Z0; move to z-safe height
G0 X260.7526 Y62.1708
M3S0
G4 P0.5; Tool On
G1 F300 Z-0.1000
G1 F15000 X82.4025 Y24.5549 Z-0.1000
M3S245
G4 P0.5; Tool Off

G0 Z0; move to z-safe height
G0 X409.9489 Y175.9786
M3S0
G4 P0.5; Tool On
G1 F300 Z-0.1000
G1 F15000 X283.5090 Y16.7498 Z-0.1000
M3S245
G4 P0.5; Tool Off

G0 Z0; move to z-safe height
G0 X214.1018 Y23.5582
M3S0
G4 P0.5; Tool On
G1 F300 Z-0.1000
G1 F15000 X251.8941 Y14.2351 Z-0.1000
M3S245
G4 P0.5; Tool Off

G0 Z0; move to z-safe height
G0 X185.0458 Y12.7266
M3S0
G4 P0.5; Tool On
G1 F300 Z-0.1000
G1 F15000 X147.2068 Y0.2968 Z-0.1000
M3S245
G4 P0.5; Tool Off

G0 Z0; move to z-safe height
G0 X15.3856 Y198.2165
M3S0
G4 P0.5; Tool On
G1 F300 Z-0.1000
G1 F15000 X14.0423 Y22.0432 Z-0.1000
M3S245
G4 P0.5; Tool Off

G0 Z0; move to z-safe height
G0 X275.0769 Y127.9304
M3S0
G4 P0.5; Tool On
G1 F300 Z-0.1000
G1 F15000 X44.9460 Y2.1362 Z-0.1000
M3S245
G4 P0.5; Tool Off

G0 Z0; move to z-safe height
G0 X6.0748 Y35.2502
M3S0
G4 P0.5; Tool On
G1 F300 Z-0.1000
G1 F15000 X54.4893 Y10.8107 Z-0.1000
M3S245
G4 P0.5; Tool Off

G0 Z0; move to z-safe height
G0 X49.3491 Y156.2703
M3S0
G4 P0.5; Tool On
G1 F300 Z-0.1000
G1 F15000 X69.1745 Y17.5623 Z-0.1000
M3S245
G4 P0.5; Tool Off

G0 Z0; move to z-safe height
G0 X117.7763 Y222.9183
M3S0
G4 P0.5; Tool On
G1 F300 Z-0.1000
G1 F15000 X60.7506 Y9.2072 Z-0.1000
M3S245
G4 P0.5; Tool Off

G0 Z0; move to z-safe height
G0 X101.8639 Y116.3131
M3S0
G4 P0.5; Tool On
G1 F300 Z-0.1000
G1 F15000 X27.6433 Y13.2846 Z-0.1000
M3S245
G4 P0.5; Tool Off

G0 Z0; move to z-safe height
G0 X276.6833 Y136.6285
M3S0
G4 P0.5; Tool On
G1 F300 Z-0.1000
G1 F15000 X23.7147 Y1.8121 Z-0.1000
M3S245
G4 P0.5; Tool Off

G0 Z0; move to z-safe height
G0 X10.1253 Y13.5259
M3S0
G4 P0.5; Tool On
G1 F300 Z-0.1000
G1 F15000 X313.4635 Y17.5261 Z-0.1000
M3S245
G4 P0.5; Tool Off

G0 Z0; move to z-safe height
G0 X111.5869 Y126.3967
M3S0
G4 P0.5; Tool On
G1 F300 Z-0.1000
G1 F15000 X97.8498 Y25.0508 Z-0.1000
M3S245
G4 P0.5; Tool Off

G0 Z0; move to z-safe height
G0 X92.4597 Y105.0110
M3S0
G4 P0.5; Tool On
G1 F300 Z-0.1000
G1 F15000 X60.5843 Y21.8574 Z-0.1000
M3S245
G4 P0.5; Tool Off

G0 Z0; move to z-safe height
G0 X202.6041 Y319.6930
M3S0
G4 P0.5; Tool On
G1 F300 Z-0.1000
G1 F15000 X381.1701 Y6.5800 Z-0.1000
M3S245
G4 P0.5; Tool Off

G0 Z0; move to z-safe height
G0 X149.4829 Y313.2068
M3S0
G4 P0.5; Tool On
G1 F300 Z-0.1000
G1 F15000 X41.1552 Y15.8163 Z-0.1000
M3S245
G4 P0.5; Tool Off

G0 Z0; move to z-safe height
G0 X199.1050 Y18.0433
M3S0
G4 P0.5; Tool On
G1 F300 Z-0.1000
G1 F15000 X367.5345 Y12.6308 Z-0.1000
M3S245
G4 P0.5; Tool Off

G0 Z0; move to z-safe height
G0 X145.3536 Y75.4368
M3S0
G4 P0.5; Tool On
G1 F300 Z-0.1000
G1 F15000 X454.6725 Y15.2244 Z-0.1000
M3S245
G4 P0.5; Tool Off

G0 Z0; move to z-safe height
G0 X41.8519 Y45.4275
M3S0
G4 P0.5; Tool On
G1 F300 Z-0.1000
G1 F15000 X393.0752 Y11.7188 Z-0.1000
M3S245
G4 P0.5; Tool Off

G0 Z0; move to z-safe height
G0 X301.8803 Y41.7466
M3S0
G4 P0.5; Tool On
G1 F300 Z-0.1000
G1 F15000 X228.8538 Y0.0106 Z-0.1000
M3S245
G4 P0.5; Tool Off

G0 Z0; move to z-safe height
G0 X39.8497 Y127.0949
M3S0
G4 P0.5; Tool On
G1 F300 Z-0.1000
G1 F15000 X236.9166 Y11.8146 Z-0.1000
M3S245
G4 P0.5; Tool Off

G0 Z0; move to z-safe height
G0 X380.5002 Y81.8316
M3S0
G4 P0.5; Tool On
G1 F300 Z-0.1000
G1 F15000 X253.9700 Y15.1671 Z-0.1000
M3S245
G4 P0.5; Tool Off

G0 Z0; move to z-safe height
G0 X233.5994 Y297.6283
M3S0
G4 P0.5; Tool On
G1 F300 Z-0.1000
G1 F15000 X178.7953 Y12.5815 Z-0.1000
M3S245
G4 P0.5; Tool Off

G0 Z0; move to z-safe height
G0 X163.8621 Y28.3102
M3S0
G4 P0.5; Tool On
G1 F300 Z-0.1000
G1 F15000 X325.7433 Y18.1485 Z-0.1000
M3S245
G4 P0.5; Tool Off

G0 Z0; move to z-safe height
G0 X432.0007 Y233.4201
M3S0
G4 P0.5; Tool On
G1 F300 Z-0.1000
G1 F15000 X45.0055 Y13.2276 Z-0.1000
M3S245
G4 P0.5; Tool Off

G0 Z0; move to z-safe height
G0 X190.4388 Y88.3265
M3S0
G4 P0.5; Tool On
G1 F300 Z-0.1000
G1 F15000 X251.2606 Y11.9344 Z-0.1000
M3S245
G4 P0.5; Tool Off

G0 Z0; move to z-safe height
G0 X153.2672 Y77.2169
M3S0
G4 P0.5; Tool On
G1 F300 Z-0.1000
G1 F15000 X233.8101 Y20.1856 Z-0.1000
M3S245
G4 P0.5; Tool Off

G0 Z0; move to z-safe height
G0 X149.8497 Y153.4801
M3S0
G4 P0.5; Tool On
G1 F300 Z-0.1000
G1 F15000 X214.1455 Y1.6131 Z-0.1000
M3S245
G4 P0.5; Tool Off

G0 Z0; move to z-safe height
G0 X334.2257 Y95.7603
M3S0
G4 P0.5; Tool On
G1 F300 Z-0.1000
G1 F15000 X276.1183 Y5.5034 Z-0.1000
M3S245
G4 P0.5; Tool Off

G0 Z0; move to z-safe height
G0 X334.6197 Y166.2009
M3S0
G4 P0.5; Tool On
G1 F300 Z-0.1000
G1 F15000 X322.8183 Y22.1900 Z-0.1000
M3S245
G4 P0.5; Tool Off

G0 Z0; move to z-safe height
G0 X455.6597 Y90.6456
M3S0
G4 P0.5; Tool On
G1 F300 Z-0.1000
G1 F15000 X362.3992 Y20.5298 Z-0.1000
M3S245
G4 P0.5; Tool Off

G0 Z0; move to z-safe height
G0 X342.5859 Y83.2341
M3S0
G4 P0.5; Tool On
G1 F300 Z-0.1000
G1 F15000 X337.8000 Y24.6434 Z-0.1000
M3S245
G4 P0.5; Tool Off

G0 Z0; move to z-safe height
G0 X331.6211 Y228.8031
M3S0
G4 P0.5; Tool On
G1 F300 Z-0.1000
G1 F15000 X182.4949 Y21.6302 Z-0.1000
M3S245
G4 P0.5; Tool Off

G0 Z0; move to z-safe height
G0 X164.7477 Y263.6206
M3S0
G4 P0.5; Tool On
G1 F300 Z-0.1000
G1 F15000 X316.5039 Y9.0857 Z-0.1000
M3S245
G4 P0.5; Tool Off

G0 Z0; move to z-safe height
G0 X227.5747 Y233.8438
M3S0
G4 P0.5; Tool On
G1 F300 Z-0.1000
G1 F15000 X124.0998 Y13.3924 Z-0.1000
M3S245
G4 P0.5; Tool Off

G0 Z0; move to z-safe height
G0 X374.7360 Y125.2868
M3S0
G4 P0.5; Tool On
G1 F300 Z-0.1000
G1 F15000 X161.2865 Y13.7335 Z-0.1000
M3S245
G4 P0.5; Tool Off

G0 Z0; move to z-safe height
G0 X286.3498 Y216.9840
M3S0
G4 P0.5; Tool On
G1 F300 Z-0.1000
G1 F15000 X182.8596 Y20.6019 Z-0.1000
M3S245
G4 P0.5; Tool Off

G0 Z0; move to z-safe height
G0 X262.3800 Y180.5496
M3S0
G4 P0.5; Tool On
G1 F300 Z-0.1000
G1 F15000 X171.2197 Y21.1941 Z-0.1000
M3S245
G4 P0.5; Tool Off

G0 Z0; move to z-safe height
G0 X447.8082 Y300.4328
M3S0
G4 P0.5; Tool On
G1 F300 Z-0.1000
G1 F15000 X212.6436 Y16.3843 Z-0.1000
M3S245
G4 P0.5; Tool Off

G0 Z0; move to z-safe height
G0 X377.9505 Y298.8458
M3S0
G4 P0.5; Tool On
G1 F300 Z-0.1000
G1 F15000 X126.9210 Y17.1808 Z-0.1000
M3S245
G4 P0.5; Tool Off

G0 Z0; move to z-safe height
G0 X55.4731 Y272.8913
M3S0
G4 P0.5; Tool On
G1 F300 Z-0.1000
G1 F15000 X124.6249 Y20.0326 Z-0.1000
M3S245
G4 P0.5; Tool Off

G0 Z0; move to z-safe height
G0 X27.2111 Y351.2285
M3S0
G4 P0.5; Tool On
G1 F300 Z-0.1000
G1 F15000 X92.7372 Y23.5523 Z-0.1000
M3S245
G4 P0.5; Tool Off

G0 Z0; move to z-safe height
G0 X299.1427 Y79.4809
M3S0
G4 P0.5; Tool On
G1 F300 Z-0.1000
G1 F15000 X401.5281 Y14.7369 Z-0.1000
M3S245
G4 P0.5; Tool Off

G0 Z0; move to z-safe height
G0 X427.0167 Y343.6419
M3S0
G4 P0.5; Tool On
G1 F300 Z-0.1000
G1 F15000 X188.5106 Y0.9491 Z-0.1000
M3S245
G4 P0.5; Tool Off

G0 Z0; move to z-safe height
G0 X189.6166 Y145.2343
M3S0
G4 P0.5; Tool On
G1 F300 Z-0.1000
G1 F15000 X260.2516 Y24.1516 Z-0.1000
M3S245
G4 P0.5; Tool Off

G0 Z0; move to z-safe height
G0 X418.6020 Y99.3894
M3S0
G4 P0.5; Tool On
G1 F300 Z-0.1000
G1 F15000 X447.2673 Y15.5522 Z-0.1000
M3S245
G4 P0.5; Tool Off

G0 Z0; move to z-safe height
G0 X378.4249 Y207.6861
M3S0
G4 P0.5; Tool On
G1 F300 Z-0.1000
G1 F15000 X153.9956 Y18.8880 Z-0.1000
M3S245
G4 P0.5; Tool Off

G0 Z0; move to z-safe height
G0 X244.7259 Y278.8862
M3S0
G4 P0.5; Tool On
G1 F300 Z-0.1000
G1 F15000 X383.9657 Y20.9928 Z-0.1000
M3S245
G4 P0.5; Tool Off

G0 Z0; move to z-safe height
G0 X247.1224 Y236.7190
M3S0
G4 P0.5; Tool On
G1 F300 Z-0.1000
G1 F15000 X224.4699 Y7.9001 Z-0.1000
M3S245
G4 P0.5; Tool Off

G0 Z0; move to z-safe height
G0 X454.5549 Y253.6294
M3S0
G4 P0.5; Tool On
G1 F300 Z-0.1000
G1 F15000 X406.3322 Y6.6698 Z-0.1000
M3S245
G4 P0.5; Tool Off

G0 Z0; move to z-safe height
G0 X14.0716 Y202.4184
M3S0
G4 P0.5; Tool On
G1 F300 Z-0.1000
G1 F15000 X417.6833 Y23.1701 Z-0.1000
M3S245
G4 P0.5; Tool Off

G0 Z0; move to z-safe height
G0 X165.6720 Y352.8230
M3S0
G4 P0.5; Tool On
G1 F300 Z-0.1000
G1 F15000 X139.6993 Y9.5819 Z-0.1000
M3S245
G4 P0.5; Tool Off

G0 Z0; move to z-safe height
G0 X290.7021 Y285.6960
M3S0
G4 P0.5; Tool On
G1 F300 Z-0.1000
G1 F15000 X446.4929 Y8.1550 Z-0.1000
M3S245
G4 P0.5; Tool Off

G0 Z0; move to z-safe height
G0 X232.6327 Y339.8705
M3S0
G4 P0.5; Tool On
G1 F300 Z-0.1000
G1 F15000 X388.9985 Y7.0410 Z-0.1000
M3S245
G4 P0.5; Tool Off
; retracting back to z-safe
G0 Z0

; Plotter Mode Complete
