; GCODE Generated by cam.openbuilds.com on 2024-01-15 
G21 ; mm-mode
G54; Work Coordinates
G21; mm-mode
G90; Absolute Positioning
; Plotter Mode Active

; Operation 0: Pen Plotter: (no offset)
; Pen Diameter: 2

G0 Z0; move to z-safe height
G0 F1000 X440.8317 Y84.7773
M3S0
G4 P0.5; Tool On
G1 F300 Z-0.1000
G1 F15000 X133.4638 Y17.5868 Z-0.1000
M3S245
G4 P0.5; Tool Off

G0 Z0; move to z-safe height
G0 X50.0262 Y8.5830
M3S0
G4 P0.5; Tool On
G1 F300 Z-0.1000
G1 F15000 X214.5024 Y16.6874 Z-0.1000
M3S245
G4 P0.5; Tool Off

G0 Z0; move to z-safe height
G0 X353.3518 Y181.7792
M3S0
G4 P0.5; Tool On
G1 F300 Z-0.1000
G1 F15000 X26.4107 Y12.0831 Z-0.1000
M3S245
G4 P0.5; Tool Off

G0 Z0; move to z-safe height
G0 X262.1774 Y317.0763
M3S0
G4 P0.5; Tool On
G1 F300 Z-0.1000
G1 F15000 X13.4336 Y19.4880 Z-0.1000
M3S245
G4 P0.5; Tool Off

G0 Z0; move to z-safe height
G0 X407.6090 Y79.4437
M3S0
G4 P0.5; Tool On
G1 F300 Z-0.1000
G1 F15000 X61.4698 Y11.9407 Z-0.1000
M3S245
G4 P0.5; Tool Off

G0 Z0; move to z-safe height
G0 X331.4799 Y10.6868
M3S0
G4 P0.5; Tool On
G1 F300 Z-0.1000
G1 F15000 X107.2853 Y12.5087 Z-0.1000
M3S245
G4 P0.5; Tool Off

G0 Z0; move to z-safe height
G0 X423.3761 Y40.6810
M3S0
G4 P0.5; Tool On
G1 F300 Z-0.1000
G1 F15000 X412.5074 Y10.7947 Z-0.1000
M3S245
G4 P0.5; Tool Off

G0 Z0; move to z-safe height
G0 X178.3762 Y45.9638
M3S0
G4 P0.5; Tool On
G1 F300 Z-0.1000
G1 F15000 X136.2278 Y14.0546 Z-0.1000
M3S245
G4 P0.5; Tool Off

G0 Z0; move to z-safe height
G0 X455.7245 Y27.6705
M3S0
G4 P0.5; Tool On
G1 F300 Z-0.1000
G1 F15000 X175.3611 Y14.6083 Z-0.1000
M3S245
G4 P0.5; Tool Off

G0 Z0; move to z-safe height
G0 X250.1759 Y48.0660
M3S0
G4 P0.5; Tool On
G1 F300 Z-0.1000
G1 F15000 X269.2843 Y14.9957 Z-0.1000
M3S245
G4 P0.5; Tool Off

G0 Z0; move to z-safe height
G0 X272.9192 Y358.8434
M3S0
G4 P0.5; Tool On
G1 F300 Z-0.1000
G1 F15000 X9.0360 Y11.4412 Z-0.1000
M3S245
G4 P0.5; Tool Off

G0 Z0; move to z-safe height
G0 X417.7476 Y158.2418
M3S0
G4 P0.5; Tool On
G1 F300 Z-0.1000
G1 F15000 X327.7607 Y20.7502 Z-0.1000
M3S245
G4 P0.5; Tool Off

G0 Z0; move to z-safe height
G0 X453.9556 Y42.3859
M3S0
G4 P0.5; Tool On
G1 F300 Z-0.1000
G1 F15000 X158.2719 Y24.7181 Z-0.1000
M3S245
G4 P0.5; Tool Off

G0 Z0; move to z-safe height
G0 X224.0907 Y51.4931
M3S0
G4 P0.5; Tool On
G1 F300 Z-0.1000
G1 F15000 X286.0200 Y25.6230 Z-0.1000
M3S245
G4 P0.5; Tool Off

G0 Z0; move to z-safe height
G0 X287.7137 Y53.5017
M3S0
G4 P0.5; Tool On
G1 F300 Z-0.1000
G1 F15000 X72.3348 Y13.1977 Z-0.1000
M3S245
G4 P0.5; Tool Off

G0 Z0; move to z-safe height
G0 X454.9802 Y40.1714
M3S0
G4 P0.5; Tool On
G1 F300 Z-0.1000
G1 F15000 X186.9764 Y3.6712 Z-0.1000
M3S245
G4 P0.5; Tool Off

G0 Z0; move to z-safe height
G0 X95.9474 Y67.2091
M3S0
G4 P0.5; Tool On
G1 F300 Z-0.1000
G1 F15000 X9.6577 Y5.2194 Z-0.1000
M3S245
G4 P0.5; Tool Off

G0 Z0; move to z-safe height
G0 X394.3609 Y287.6684
M3S0
G4 P0.5; Tool On
G1 F300 Z-0.1000
G1 F15000 X10.7656 Y6.1476 Z-0.1000
M3S245
G4 P0.5; Tool Off

G0 Z0; move to z-safe height
G0 X437.3060 Y110.4914
M3S0
G4 P0.5; Tool On
G1 F300 Z-0.1000
G1 F15000 X164.6473 Y7.4658 Z-0.1000
M3S245
G4 P0.5; Tool Off

G0 Z0; move to z-safe height
G0 X455.2110 Y130.0420
M3S0
G4 P0.5; Tool On
G1 F300 Z-0.1000
G1 F15000 X13.1453 Y11.7696 Z-0.1000
M3S245
G4 P0.5; Tool Off

G0 Z0; move to z-safe height
G0 X373.0157 Y114.2868
M3S0
G4 P0.5; Tool On
G1 F300 Z-0.1000
G1 F15000 X65.0964 Y16.3594 Z-0.1000
M3S245
G4 P0.5; Tool Off

G0 Z0; move to z-safe height
G0 X220.4621 Y115.7184
M3S0
G4 P0.5; Tool On
G1 F300 Z-0.1000
G1 F15000 X157.6884 Y4.1953 Z-0.1000
M3S245
G4 P0.5; Tool Off

G0 Z0; move to z-safe height
G0 X452.9683 Y76.7404
M3S0
G4 P0.5; Tool On
G1 F300 Z-0.1000
G1 F15000 X129.9261 Y0.9942 Z-0.1000
M3S245
G4 P0.5; Tool Off

G0 Z0; move to z-safe height
G0 X198.1560 Y52.3409
M3S0
G4 P0.5; Tool On
G1 F300 Z-0.1000
G1 F15000 X416.3723 Y11.8865 Z-0.1000
M3S245
G4 P0.5; Tool Off

G0 Z0; move to z-safe height
G0 X182.5575 Y293.9411
M3S0
G4 P0.5; Tool On
G1 F300 Z-0.1000
G1 F15000 X157.4273 Y15.9338 Z-0.1000
M3S245
G4 P0.5; Tool Off

G0 Z0; move to z-safe height
G0 X321.6896 Y262.0848
M3S0
G4 P0.5; Tool On
G1 F300 Z-0.1000
G1 F15000 X172.1878 Y0.9004 Z-0.1000
M3S245
G4 P0.5; Tool Off

G0 Z0; move to z-safe height
G0 X263.9170 Y161.8399
M3S0
G4 P0.5; Tool On
G1 F300 Z-0.1000
G1 F15000 X153.1230 Y2.0843 Z-0.1000
M3S245
G4 P0.5; Tool Off

G0 Z0; move to z-safe height
G0 X175.4804 Y213.1235
M3S0
G4 P0.5; Tool On
G1 F300 Z-0.1000
G1 F15000 X374.4680 Y20.7292 Z-0.1000
M3S245
G4 P0.5; Tool Off

G0 Z0; move to z-safe height
G0 X204.0090 Y179.9117
M3S0
G4 P0.5; Tool On
G1 F300 Z-0.1000
G1 F15000 X147.1935 Y21.9694 Z-0.1000
M3S245
G4 P0.5; Tool Off

G0 Z0; move to z-safe height
G0 X94.0665 Y137.7034
M3S0
G4 P0.5; Tool On
G1 F300 Z-0.1000
G1 F15000 X149.2062 Y11.3110 Z-0.1000
M3S245
G4 P0.5; Tool Off

G0 Z0; move to z-safe height
G0 X319.0375 Y225.8924
M3S0
G4 P0.5; Tool On
G1 F300 Z-0.1000
G1 F15000 X215.7548 Y1.5199 Z-0.1000
M3S245
G4 P0.5; Tool Off

G0 Z0; move to z-safe height
G0 X288.6909 Y118.4132
M3S0
G4 P0.5; Tool On
G1 F300 Z-0.1000
G1 F15000 X270.1235 Y4.1144 Z-0.1000
M3S245
G4 P0.5; Tool Off

G0 Z0; move to z-safe height
G0 X95.7846 Y82.3808
M3S0
G4 P0.5; Tool On
G1 F300 Z-0.1000
G1 F15000 X401.2453 Y9.8440 Z-0.1000
M3S245
G4 P0.5; Tool Off

G0 Z0; move to z-safe height
G0 X68.9824 Y106.1308
M3S0
G4 P0.5; Tool On
G1 F300 Z-0.1000
G1 F15000 X226.1888 Y8.6930 Z-0.1000
M3S245
G4 P0.5; Tool Off

G0 Z0; move to z-safe height
G0 X56.4342 Y183.9348
M3S0
G4 P0.5; Tool On
G1 F300 Z-0.1000
G1 F15000 X282.6047 Y17.0845 Z-0.1000
M3S245
G4 P0.5; Tool Off

G0 Z0; move to z-safe height
G0 X300.8597 Y89.6833
M3S0
G4 P0.5; Tool On
G1 F300 Z-0.1000
G1 F15000 X349.6707 Y1.3192 Z-0.1000
M3S245
G4 P0.5; Tool Off

G0 Z0; move to z-safe height
G0 X204.1621 Y119.6679
M3S0
G4 P0.5; Tool On
G1 F300 Z-0.1000
G1 F15000 X170.5037 Y18.7629 Z-0.1000
M3S245
G4 P0.5; Tool Off

G0 Z0; move to z-safe height
G0 X131.2205 Y122.3124
M3S0
G4 P0.5; Tool On
G1 F300 Z-0.1000
G1 F15000 X176.1651 Y15.0966 Z-0.1000
M3S245
G4 P0.5; Tool Off

G0 Z0; move to z-safe height
G0 X390.7431 Y106.4301
M3S0
G4 P0.5; Tool On
G1 F300 Z-0.1000
G1 F15000 X263.5734 Y19.5625 Z-0.1000
M3S245
G4 P0.5; Tool Off

G0 Z0; move to z-safe height
G0 X377.9224 Y200.5331
M3S0
G4 P0.5; Tool On
G1 F300 Z-0.1000
G1 F15000 X256.3998 Y16.9216 Z-0.1000
M3S245
G4 P0.5; Tool Off

G0 Z0; move to z-safe height
G0 X347.4197 Y192.6233
M3S0
G4 P0.5; Tool On
G1 F300 Z-0.1000
G1 F15000 X208.3732 Y13.3393 Z-0.1000
M3S245
G4 P0.5; Tool Off

G0 Z0; move to z-safe height
G0 X176.8484 Y74.8783
M3S0
G4 P0.5; Tool On
G1 F300 Z-0.1000
G1 F15000 X440.3434 Y15.9921 Z-0.1000
M3S245
G4 P0.5; Tool Off

G0 Z0; move to z-safe height
G0 X35.5418 Y161.6832
M3S0
G4 P0.5; Tool On
G1 F300 Z-0.1000
G1 F15000 X199.7657 Y8.6212 Z-0.1000
M3S245
G4 P0.5; Tool Off

G0 Z0; move to z-safe height
G0 X61.4078 Y257.2370
M3S0
G4 P0.5; Tool On
G1 F300 Z-0.1000
G1 F15000 X318.0225 Y15.0971 Z-0.1000
M3S245
G4 P0.5; Tool Off

G0 Z0; move to z-safe height
G0 X234.8448 Y131.4071
M3S0
G4 P0.5; Tool On
G1 F300 Z-0.1000
G1 F15000 X435.3049 Y4.4040 Z-0.1000
M3S245
G4 P0.5; Tool Off

G0 Z0; move to z-safe height
G0 X104.4356 Y140.8557
M3S0
G4 P0.5; Tool On
G1 F300 Z-0.1000
G1 F15000 X329.0146 Y23.1541 Z-0.1000
M3S245
G4 P0.5; Tool Off

G0 Z0; move to z-safe height
G0 X39.7916 Y352.9681
M3S0
G4 P0.5; Tool On
G1 F300 Z-0.1000
G1 F15000 X246.1839 Y7.3138 Z-0.1000
M3S245
G4 P0.5; Tool Off

G0 Z0; move to z-safe height
G0 X41.1251 Y242.4652
M3S0
G4 P0.5; Tool On
G1 F300 Z-0.1000
G1 F15000 X452.7162 Y17.6701 Z-0.1000
M3S245
G4 P0.5; Tool Off

G0 Z0; move to z-safe height
G0 X336.0549 Y184.5793
M3S0
G4 P0.5; Tool On
G1 F300 Z-0.1000
G1 F15000 X453.1848 Y5.8366 Z-0.1000
M3S245
G4 P0.5; Tool Off

G0 Z0; move to z-safe height
G0 X294.8827 Y290.7364
M3S0
G4 P0.5; Tool On
G1 F300 Z-0.1000
G1 F15000 X275.6430 Y7.0483 Z-0.1000
M3S245
G4 P0.5; Tool Off

G0 Z0; move to z-safe height
G0 X365.3009 Y318.4272
M3S0
G4 P0.5; Tool On
G1 F300 Z-0.1000
G1 F15000 X116.5400 Y4.7977 Z-0.1000
M3S245
G4 P0.5; Tool Off

G0 Z0; move to z-safe height
G0 X413.9877 Y153.0994
M3S0
G4 P0.5; Tool On
G1 F300 Z-0.1000
G1 F15000 X449.5935 Y1.7388 Z-0.1000
M3S245
G4 P0.5; Tool Off

G0 Z0; move to z-safe height
G0 X71.9624 Y176.6606
M3S0
G4 P0.5; Tool On
G1 F300 Z-0.1000
G1 F15000 X178.9216 Y3.6110 Z-0.1000
M3S245
G4 P0.5; Tool Off

G0 Z0; move to z-safe height
G0 X237.1558 Y333.0552
M3S0
G4 P0.5; Tool On
G1 F300 Z-0.1000
G1 F15000 X93.5916 Y0.3736 Z-0.1000
M3S245
G4 P0.5; Tool Off

G0 Z0; move to z-safe height
G0 X236.2226 Y327.8160
M3S0
G4 P0.5; Tool On
G1 F300 Z-0.1000
G1 F15000 X251.0870 Y5.9777 Z-0.1000
M3S245
G4 P0.5; Tool Off

G0 Z0; move to z-safe height
G0 X227.7581 Y149.3708
M3S0
G4 P0.5; Tool On
G1 F300 Z-0.1000
G1 F15000 X285.8543 Y9.7462 Z-0.1000
M3S245
G4 P0.5; Tool Off

G0 Z0; move to z-safe height
G0 X338.7751 Y258.7095
M3S0
G4 P0.5; Tool On
G1 F300 Z-0.1000
G1 F15000 X288.7381 Y20.2160 Z-0.1000
M3S245
G4 P0.5; Tool Off

G0 Z0; move to z-safe height
G0 X289.9757 Y332.2248
M3S0
G4 P0.5; Tool On
G1 F300 Z-0.1000
G1 F15000 X301.2427 Y21.1418 Z-0.1000
M3S245
G4 P0.5; Tool Off

G0 Z0; move to z-safe height
G0 X253.5727 Y361.3054
M3S0
G4 P0.5; Tool On
G1 F300 Z-0.1000
G1 F15000 X132.1551 Y21.1626 Z-0.1000
M3S245
G4 P0.5; Tool Off

G0 Z0; move to z-safe height
G0 X0.7346 Y205.6338
M3S0
G4 P0.5; Tool On
G1 F300 Z-0.1000
G1 F15000 X245.3709 Y11.5105 Z-0.1000
M3S245
G4 P0.5; Tool Off

G0 Z0; move to z-safe height
G0 X283.6525 Y191.0579
M3S0
G4 P0.5; Tool On
G1 F300 Z-0.1000
G1 F15000 X263.3931 Y7.8950 Z-0.1000
M3S245
G4 P0.5; Tool Off

G0 Z0; move to z-safe height
G0 X190.1626 Y314.1698
M3S0
G4 P0.5; Tool On
G1 F300 Z-0.1000
G1 F15000 X231.3048 Y0.0075 Z-0.1000
M3S245
G4 P0.5; Tool Off

G0 Z0; move to z-safe height
G0 X187.5822 Y353.0526
M3S0
G4 P0.5; Tool On
G1 F300 Z-0.1000
G1 F15000 X235.1067 Y16.6324 Z-0.1000
M3S245
G4 P0.5; Tool Off

G0 Z0; move to z-safe height
G0 X120.9511 Y271.6096
M3S0
G4 P0.5; Tool On
G1 F300 Z-0.1000
G1 F15000 X385.2801 Y15.2802 Z-0.1000
M3S245
G4 P0.5; Tool Off

G0 Z0; move to z-safe height
G0 X368.6342 Y324.3564
M3S0
G4 P0.5; Tool On
G1 F300 Z-0.1000
G1 F15000 X455.5396 Y13.9809 Z-0.1000
M3S245
G4 P0.5; Tool Off

G0 Z0; move to z-safe height
G0 X441.7780 Y318.8473
M3S0
G4 P0.5; Tool On
G1 F300 Z-0.1000
G1 F15000 X293.4615 Y15.9071 Z-0.1000
M3S245
G4 P0.5; Tool Off

G0 Z0; move to z-safe height
G0 X271.0732 Y172.5880
M3S0
G4 P0.5; Tool On
G1 F300 Z-0.1000
G1 F15000 X426.0810 Y2.9823 Z-0.1000
M3S245
G4 P0.5; Tool Off

G0 Z0; move to z-safe height
G0 X278.5139 Y293.5425
M3S0
G4 P0.5; Tool On
G1 F300 Z-0.1000
G1 F15000 X345.3906 Y19.8254 Z-0.1000
M3S245
G4 P0.5; Tool Off

G0 Z0; move to z-safe height
G0 X278.6662 Y311.4390
M3S0
G4 P0.5; Tool On
G1 F300 Z-0.1000
G1 F15000 X270.8191 Y11.5214 Z-0.1000
M3S245
G4 P0.5; Tool Off

G0 Z0; move to z-safe height
G0 X288.2708 Y316.0545
M3S0
G4 P0.5; Tool On
G1 F300 Z-0.1000
G1 F15000 X196.4584 Y11.3575 Z-0.1000
M3S245
G4 P0.5; Tool Off

G0 Z0; move to z-safe height
G0 X227.2627 Y185.0884
M3S0
G4 P0.5; Tool On
G1 F300 Z-0.1000
G1 F15000 X454.5523 Y7.1004 Z-0.1000
M3S245
G4 P0.5; Tool Off

G0 Z0; move to z-safe height
G0 X68.1037 Y338.7804
M3S0
G4 P0.5; Tool On
G1 F300 Z-0.1000
G1 F15000 X287.3408 Y9.9114 Z-0.1000
M3S245
G4 P0.5; Tool Off

G0 Z0; move to z-safe height
G0 X182.3283 Y308.1225
M3S0
G4 P0.5; Tool On
G1 F300 Z-0.1000
G1 F15000 X402.2923 Y3.3516 Z-0.1000
M3S245
G4 P0.5; Tool Off

G0 Z0; move to z-safe height
G0 X98.3334 Y357.1098
M3S0
G4 P0.5; Tool On
G1 F300 Z-0.1000
G1 F15000 X289.2086 Y14.8401 Z-0.1000
M3S245
G4 P0.5; Tool Off

G0 Z0; move to z-safe height
G0 X429.1868 Y337.7700
M3S0
G4 P0.5; Tool On
G1 F300 Z-0.1000
G1 F15000 X440.1802 Y9.8051 Z-0.1000
M3S245
G4 P0.5; Tool Off
; retracting back to z-safe
G0 Z0

; Plotter Mode Complete
