; GCODE Generated by cam.openbuilds.com on 2023-04-23 
G21 ; mm-mode
G54; Work Coordinates
G21; mm-mode
G90; Absolute Positioning
; Plotter Mode Active

; Operation 0: Pen Plotter: (lines fill)
; Pen Diameter: 2

G0 Z0; move to z-safe height
G0 F1000 X5.0000 Y12.8700
M3S0
G4 P0.5; Tool On
G1 F300 Z0.0000
G1 F15000 X755.0000 Y12.8700 Z0.0000
M3S245
G4 P0.5; Tool Off

G0 Z0; move to z-safe height
G0 X755.0000 Y22.8700
M3S0
G4 P0.5; Tool On
G1 F300 Z0.0000
G1 F15000 X5.0000 Y22.8700 Z0.0000
M3S245
G4 P0.5; Tool Off

G0 Z0; move to z-safe height
G0 X5.0000 Y32.8700
M3S0
G4 P0.5; Tool On
G1 F300 Z0.0000
G1 F15000 X755.0000 Y32.8700 Z0.0000
M3S245
G4 P0.5; Tool Off

G0 Z0; move to z-safe height
G0 X755.0000 Y42.8700
M3S0
G4 P0.5; Tool On
G1 F300 Z0.0000
G1 F15000 X5.0000 Y42.8700 Z0.0000
M3S245
G4 P0.5; Tool Off

G0 Z0; move to z-safe height
G0 X5.0000 Y52.8700
M3S0
G4 P0.5; Tool On
G1 F300 Z0.0000
G1 F15000 X755.0000 Y52.8700 Z0.0000
M3S245
G4 P0.5; Tool Off

G0 Z0; move to z-safe height
G0 X755.0000 Y62.8700
M3S0
G4 P0.5; Tool On
G1 F300 Z0.0000
G1 F15000 X5.0000 Y62.8700 Z0.0000
M3S245
G4 P0.5; Tool Off

G0 Z0; move to z-safe height
G0 X5.0000 Y72.8700
M3S0
G4 P0.5; Tool On
G1 F300 Z0.0000
G1 F15000 X755.0000 Y72.8700 Z0.0000
M3S245
G4 P0.5; Tool Off

G0 Z0; move to z-safe height
G0 X755.0000 Y82.8700
M3S0
G4 P0.5; Tool On
G1 F300 Z0.0000
G1 F15000 X5.0000 Y82.8700 Z0.0000
M3S245
G4 P0.5; Tool Off

G0 Z0; move to z-safe height
G0 X5.0000 Y92.8700
M3S0
G4 P0.5; Tool On
G1 F300 Z0.0000
G1 F15000 X755.0000 Y92.8700 Z0.0000
M3S245
G4 P0.5; Tool Off

G0 Z0; move to z-safe height
G0 X755.0000 Y102.8700
M3S0
G4 P0.5; Tool On
G1 F300 Z0.0000
G1 F15000 X5.0000 Y102.8700 Z0.0000
M3S245
G4 P0.5; Tool Off

G0 Z0; move to z-safe height
G0 X5.0000 Y112.8700
M3S0
G4 P0.5; Tool On
G1 F300 Z0.0000
G1 F15000 X755.0000 Y112.8700 Z0.0000
M3S245
G4 P0.5; Tool Off

G0 Z0; move to z-safe height
G0 X755.0000 Y122.8700
M3S0
G4 P0.5; Tool On
G1 F300 Z0.0000
G1 F15000 X5.0000 Y122.8700 Z0.0000
M3S245
G4 P0.5; Tool Off

G0 Z0; move to z-safe height
G0 X5.0000 Y132.8700
M3S0
G4 P0.5; Tool On
G1 F300 Z0.0000
G1 F15000 X755.0000 Y132.8700 Z0.0000
M3S245
G4 P0.5; Tool Off

G0 Z0; move to z-safe height
G0 X755.0000 Y142.8700
M3S0
G4 P0.5; Tool On
G1 F300 Z0.0000
G1 F15000 X5.0000 Y142.8700 Z0.0000
M3S245
G4 P0.5; Tool Off

G0 Z0; move to z-safe height
G0 X5.0000 Y152.8700
M3S0
G4 P0.5; Tool On
G1 F300 Z0.0000
G1 F15000 X755.0000 Y152.8700 Z0.0000
M3S245
G4 P0.5; Tool Off

G0 Z0; move to z-safe height
G0 X755.0000 Y162.8700
M3S0
G4 P0.5; Tool On
G1 F300 Z0.0000
G1 F15000 X5.0000 Y162.8700 Z0.0000
M3S245
G4 P0.5; Tool Off

G0 Z0; move to z-safe height
G0 X5.0000 Y172.8700
M3S0
G4 P0.5; Tool On
G1 F300 Z0.0000
G1 F15000 X755.0000 Y172.8700 Z0.0000
M3S245
G4 P0.5; Tool Off

G0 Z0; move to z-safe height
G0 X755.0000 Y182.8700
M3S0
G4 P0.5; Tool On
G1 F300 Z0.0000
G1 F15000 X5.0000 Y182.8700 Z0.0000
M3S245
G4 P0.5; Tool Off

G0 Z0; move to z-safe height
G0 X5.0000 Y192.8700
M3S0
G4 P0.5; Tool On
G1 F300 Z0.0000
G1 F15000 X755.0000 Y192.8700 Z0.0000
M3S245
G4 P0.5; Tool Off

G0 Z0; move to z-safe height
G0 X755.0000 Y202.8700
M3S0
G4 P0.5; Tool On
G1 F300 Z0.0000
G1 F15000 X5.0000 Y202.8700 Z0.0000
M3S245
G4 P0.5; Tool Off

G0 Z0; move to z-safe height
G0 X5.0000 Y212.8700
M3S0
G4 P0.5; Tool On
G1 F300 Z0.0000
G1 F15000 X755.0000 Y212.8700 Z0.0000
M3S245
G4 P0.5; Tool Off

G0 Z0; move to z-safe height
G0 X755.0000 Y222.8700
M3S0
G4 P0.5; Tool On
G1 F300 Z0.0000
G1 F15000 X5.0000 Y222.8700 Z0.0000
M3S245
G4 P0.5; Tool Off

G0 Z0; move to z-safe height
G0 X5.0000 Y232.8700
M3S0
G4 P0.5; Tool On
G1 F300 Z0.0000
G1 F15000 X755.0000 Y232.8700 Z0.0000
M3S245
G4 P0.5; Tool Off

G0 Z0; move to z-safe height
G0 X755.0000 Y242.8700
M3S0
G4 P0.5; Tool On
G1 F300 Z0.0000
G1 F15000 X5.0000 Y242.8700 Z0.0000
M3S245
G4 P0.5; Tool Off

G0 Z0; move to z-safe height
G0 X5.0000 Y252.8700
M3S0
G4 P0.5; Tool On
G1 F300 Z0.0000
G1 F15000 X755.0000 Y252.8700 Z0.0000
M3S245
G4 P0.5; Tool Off

G0 Z0; move to z-safe height
G0 X755.0000 Y262.8700
M3S0
G4 P0.5; Tool On
G1 F300 Z0.0000
G1 F15000 X5.0000 Y262.8700 Z0.0000
M3S245
G4 P0.5; Tool Off

G0 Z0; move to z-safe height
G0 X5.0000 Y272.8700
M3S0
G4 P0.5; Tool On
G1 F300 Z0.0000
G1 F15000 X755.0000 Y272.8700 Z0.0000
M3S245
G4 P0.5; Tool Off

G0 Z0; move to z-safe height
G0 X755.0000 Y282.8700
M3S0
G4 P0.5; Tool On
G1 F300 Z0.0000
G1 F15000 X5.0000 Y282.8700 Z0.0000
M3S245
G4 P0.5; Tool Off

G0 Z0; move to z-safe height
G0 X5.0000 Y292.8700
M3S0
G4 P0.5; Tool On
G1 F300 Z0.0000
G1 F15000 X755.0000 Y292.8700 Z0.0000
M3S245
G4 P0.5; Tool Off

G0 Z0; move to z-safe height
G0 X755.0000 Y302.8700
M3S0
G4 P0.5; Tool On
G1 F300 Z0.0000
G1 F15000 X5.0000 Y302.8700 Z0.0000
M3S245
G4 P0.5; Tool Off

G0 Z0; move to z-safe height
G0 X5.0000 Y312.8700
M3S0
G4 P0.5; Tool On
G1 F300 Z0.0000
G1 F15000 X755.0000 Y312.8700 Z0.0000
M3S245
G4 P0.5; Tool Off

G0 Z0; move to z-safe height
G0 X755.0000 Y322.8700
M3S0
G4 P0.5; Tool On
G1 F300 Z0.0000
G1 F15000 X5.0000 Y322.8700 Z0.0000
M3S245
G4 P0.5; Tool Off

G0 Z0; move to z-safe height
G0 X5.0000 Y332.8700
M3S0
G4 P0.5; Tool On
G1 F300 Z0.0000
G1 F15000 X755.0000 Y332.8700 Z0.0000
M3S245
G4 P0.5; Tool Off

G0 Z0; move to z-safe height
G0 X755.0000 Y342.8700
M3S0
G4 P0.5; Tool On
G1 F300 Z0.0000
G1 F15000 X5.0000 Y342.8700 Z0.0000
M3S245
G4 P0.5; Tool Off

G0 Z0; move to z-safe height
G0 X5.0000 Y352.8700
M3S0
G4 P0.5; Tool On
G1 F300 Z0.0000
G1 F15000 X755.0000 Y352.8700 Z0.0000
M3S245
G4 P0.5; Tool Off

G0 Z0; move to z-safe height
G0 X755.0000 Y362.8700
M3S0
G4 P0.5; Tool On
G1 F300 Z0.0000
G1 F15000 X5.0000 Y362.8700 Z0.0000
M3S245
G4 P0.5; Tool Off

G0 Z0; move to z-safe height
G0 X5.0000 Y372.8700
M3S0
G4 P0.5; Tool On
G1 F300 Z0.0000
G1 F15000 X755.0000 Y372.8700 Z0.0000
M3S245
G4 P0.5; Tool Off

G0 Z0; move to z-safe height
G0 X755.0000 Y382.8700
M3S0
G4 P0.5; Tool On
G1 F300 Z0.0000
G1 F15000 X5.0000 Y382.8700 Z0.0000
M3S245
G4 P0.5; Tool Off

G0 Z0; move to z-safe height
G0 X5.0000 Y392.8700
M3S0
G4 P0.5; Tool On
G1 F300 Z0.0000
G1 F15000 X755.0000 Y392.8700 Z0.0000
M3S245
G4 P0.5; Tool Off

G0 Z0; move to z-safe height
G0 X755.0000 Y402.8700
M3S0
G4 P0.5; Tool On
G1 F300 Z0.0000
G1 F15000 X5.0000 Y402.8700 Z0.0000
M3S245
G4 P0.5; Tool Off

G0 Z0; move to z-safe height
G0 X5.0000 Y412.8700
M3S0
G4 P0.5; Tool On
G1 F300 Z0.0000
G1 F15000 X755.0000 Y412.8700 Z0.0000
M3S245
G4 P0.5; Tool Off

G0 Z0; move to z-safe height
G0 X755.0000 Y422.8700
M3S0
G4 P0.5; Tool On
G1 F300 Z0.0000
G1 F15000 X5.0000 Y422.8700 Z0.0000
M3S245
G4 P0.5; Tool Off

G0 Z0; move to z-safe height
G0 X5.0000 Y432.8700
M3S0
G4 P0.5; Tool On
G1 F300 Z0.0000
G1 F15000 X755.0000 Y432.8700 Z0.0000
M3S245
G4 P0.5; Tool Off

G0 Z0; move to z-safe height
G0 X755.0000 Y442.8700
M3S0
G4 P0.5; Tool On
G1 F300 Z0.0000
G1 F15000 X5.0000 Y442.8700 Z0.0000
M3S245
G4 P0.5; Tool Off

G0 Z0; move to z-safe height
G0 X5.0000 Y452.8700
M3S0
G4 P0.5; Tool On
G1 F300 Z0.0000
G1 F15000 X755.0000 Y452.8700 Z0.0000
M3S245
G4 P0.5; Tool Off

G0 Z0; move to z-safe height
G0 X755.0000 Y462.8700
M3S0
G4 P0.5; Tool On
G1 F300 Z0.0000
G1 F15000 X5.0000 Y462.8700 Z0.0000
M3S245
G4 P0.5; Tool Off

G0 Z0; move to z-safe height
G0 X5.0000 Y472.8700
M3S0
G4 P0.5; Tool On
G1 F300 Z0.0000
G1 F15000 X755.0000 Y472.8700 Z0.0000
M3S245
G4 P0.5; Tool Off

G0 Z0; move to z-safe height
G0 X755.0000 Y482.8700
M3S0
G4 P0.5; Tool On
G1 F300 Z0.0000
G1 F15000 X5.0000 Y482.8700 Z0.0000
M3S245
G4 P0.5; Tool Off

G0 Z0; move to z-safe height
G0 X5.0000 Y492.8700
M3S0
G4 P0.5; Tool On
G1 F300 Z0.0000
G1 F15000 X755.0000 Y492.8700 Z0.0000
M3S245
G4 P0.5; Tool Off

G0 Z0; move to z-safe height
G0 X755.0000 Y502.8700
M3S0
G4 P0.5; Tool On
G1 F300 Z0.0000
G1 F15000 X5.0000 Y502.8700 Z0.0000
M3S245
G4 P0.5; Tool Off

G0 Z0; move to z-safe height
G0 X5.0000 Y512.8700
M3S0
G4 P0.5; Tool On
G1 F300 Z0.0000
G1 F15000 X755.0000 Y512.8700 Z0.0000
M3S245
G4 P0.5; Tool Off

G0 Z0; move to z-safe height
G0 X755.0000 Y522.8700
M3S0
G4 P0.5; Tool On
G1 F300 Z0.0000
G1 F15000 X5.0000 Y522.8700 Z0.0000
M3S245
G4 P0.5; Tool Off

G0 Z0; move to z-safe height
G0 X5.0000 Y532.8700
M3S0
G4 P0.5; Tool On
G1 F300 Z0.0000
G1 F15000 X755.0000 Y532.8700 Z0.0000
M3S245
G4 P0.5; Tool Off

G0 Z0; move to z-safe height
G0 X755.0000 Y542.8700
M3S0
G4 P0.5; Tool On
G1 F300 Z0.0000
G1 F15000 X5.0000 Y542.8700 Z0.0000
M3S245
G4 P0.5; Tool Off

G0 Z0; move to z-safe height
G0 X5.0000 Y552.8700
M3S0
G4 P0.5; Tool On
G1 F300 Z0.0000
G1 F15000 X755.0000 Y552.8700 Z0.0000
M3S245
G4 P0.5; Tool Off

G0 Z0; move to z-safe height
G0 X755.0000 Y562.8700
M3S0
G4 P0.5; Tool On
G1 F300 Z0.0000
G1 F15000 X5.0000 Y562.8700 Z0.0000
M3S245
G4 P0.5; Tool Off

G0 Z0; move to z-safe height
G0 X5.0000 Y572.8700
M3S0
G4 P0.5; Tool On
G1 F300 Z0.0000
G1 F15000 X755.0000 Y572.8700 Z0.0000
M3S245
G4 P0.5; Tool Off

G0 Z0; move to z-safe height
G0 X755.0000 Y582.8700
M3S0
G4 P0.5; Tool On
G1 F300 Z0.0000
G1 F15000 X5.0000 Y582.8700 Z0.0000
M3S245
G4 P0.5; Tool Off

G0 Z0; move to z-safe height
G0 X5.0000 Y592.8700
M3S0
G4 P0.5; Tool On
G1 F300 Z0.0000
G1 F15000 X755.0000 Y592.8700 Z0.0000
M3S245
G4 P0.5; Tool Off
; retracting back to z-safe
G0 Z0

; Plotter Mode Complete
