; GCODE Generated by cam.openbuilds.com on 2023-05-01 
G21 ; mm-mode
G54; Work Coordinates
G21; mm-mode
G90; Absolute Positioning
; Plotter Mode Active

; Operation 0: Pen Plotter: (lines fill)
; Pen Diameter: 2

G0 Z0; move to z-safe height
G0 F1000 X597.0000 Y6.9800
M3S0
G4 P0.5; Tool On
G1 F300 Z0.0000
G1 F15000 X3.0000 Y6.9800 Z0.0000
M3S245
G4 P0.5; Tool Off

G0 Z0; move to z-safe height
G0 X3.0000 Y12.9800
M3S0
G4 P0.5; Tool On
G1 F300 Z0.0000
G1 F15000 X597.0000 Y12.9800 Z0.0000
M3S245
G4 P0.5; Tool Off

G0 Z0; move to z-safe height
G0 X597.0000 Y18.9800
M3S0
G4 P0.5; Tool On
G1 F300 Z0.0000
G1 F15000 X3.0000 Y18.9800 Z0.0000
M3S245
G4 P0.5; Tool Off

G0 Z0; move to z-safe height
G0 X3.0000 Y24.9800
M3S0
G4 P0.5; Tool On
G1 F300 Z0.0000
G1 F15000 X597.0000 Y24.9800 Z0.0000
M3S245
G4 P0.5; Tool Off

G0 Z0; move to z-safe height
G0 X597.0000 Y30.9800
M3S0
G4 P0.5; Tool On
G1 F300 Z0.0000
G1 F15000 X3.0000 Y30.9800 Z0.0000
M3S245
G4 P0.5; Tool Off

G0 Z0; move to z-safe height
G0 X3.0000 Y36.9800
M3S0
G4 P0.5; Tool On
G1 F300 Z0.0000
G1 F15000 X597.0000 Y36.9800 Z0.0000
M3S245
G4 P0.5; Tool Off

G0 Z0; move to z-safe height
G0 X597.0000 Y42.9800
M3S0
G4 P0.5; Tool On
G1 F300 Z0.0000
G1 F15000 X3.0000 Y42.9800 Z0.0000
M3S245
G4 P0.5; Tool Off

G0 Z0; move to z-safe height
G0 X3.0000 Y48.9800
M3S0
G4 P0.5; Tool On
G1 F300 Z0.0000
G1 F15000 X597.0000 Y48.9800 Z0.0000
M3S245
G4 P0.5; Tool Off

G0 Z0; move to z-safe height
G0 X597.0000 Y54.9800
M3S0
G4 P0.5; Tool On
G1 F300 Z0.0000
G1 F15000 X3.0000 Y54.9800 Z0.0000
M3S245
G4 P0.5; Tool Off

G0 Z0; move to z-safe height
G0 X3.0000 Y60.9800
M3S0
G4 P0.5; Tool On
G1 F300 Z0.0000
G1 F15000 X597.0000 Y60.9800 Z0.0000
M3S245
G4 P0.5; Tool Off

G0 Z0; move to z-safe height
G0 X597.0000 Y66.9800
M3S0
G4 P0.5; Tool On
G1 F300 Z0.0000
G1 F15000 X3.0000 Y66.9800 Z0.0000
M3S245
G4 P0.5; Tool Off

G0 Z0; move to z-safe height
G0 X3.0000 Y72.9800
M3S0
G4 P0.5; Tool On
G1 F300 Z0.0000
G1 F15000 X597.0000 Y72.9800 Z0.0000
M3S245
G4 P0.5; Tool Off

G0 Z0; move to z-safe height
G0 X597.0000 Y78.9800
M3S0
G4 P0.5; Tool On
G1 F300 Z0.0000
G1 F15000 X3.0000 Y78.9800 Z0.0000
M3S245
G4 P0.5; Tool Off

G0 Z0; move to z-safe height
G0 X3.0000 Y84.9800
M3S0
G4 P0.5; Tool On
G1 F300 Z0.0000
G1 F15000 X597.0000 Y84.9800 Z0.0000
M3S245
G4 P0.5; Tool Off

G0 Z0; move to z-safe height
G0 X597.0000 Y90.9800
M3S0
G4 P0.5; Tool On
G1 F300 Z0.0000
G1 F15000 X3.0000 Y90.9800 Z0.0000
M3S245
G4 P0.5; Tool Off

G0 Z0; move to z-safe height
G0 X3.0000 Y96.9800
M3S0
G4 P0.5; Tool On
G1 F300 Z0.0000
G1 F15000 X597.0000 Y96.9800 Z0.0000
M3S245
G4 P0.5; Tool Off

G0 Z0; move to z-safe height
G0 X597.0000 Y102.9800
M3S0
G4 P0.5; Tool On
G1 F300 Z0.0000
G1 F15000 X3.0000 Y102.9800 Z0.0000
M3S245
G4 P0.5; Tool Off

G0 Z0; move to z-safe height
G0 X3.0000 Y108.9800
M3S0
G4 P0.5; Tool On
G1 F300 Z0.0000
G1 F15000 X597.0000 Y108.9800 Z0.0000
M3S245
G4 P0.5; Tool Off

G0 Z0; move to z-safe height
G0 X597.0000 Y114.9800
M3S0
G4 P0.5; Tool On
G1 F300 Z0.0000
G1 F15000 X3.0000 Y114.9800 Z0.0000
M3S245
G4 P0.5; Tool Off

G0 Z0; move to z-safe height
G0 X3.0000 Y120.9800
M3S0
G4 P0.5; Tool On
G1 F300 Z0.0000
G1 F15000 X597.0000 Y120.9800 Z0.0000
M3S245
G4 P0.5; Tool Off

G0 Z0; move to z-safe height
G0 X597.0000 Y126.9800
M3S0
G4 P0.5; Tool On
G1 F300 Z0.0000
G1 F15000 X3.0000 Y126.9800 Z0.0000
M3S245
G4 P0.5; Tool Off

G0 Z0; move to z-safe height
G0 X3.0000 Y132.9800
M3S0
G4 P0.5; Tool On
G1 F300 Z0.0000
G1 F15000 X597.0000 Y132.9800 Z0.0000
M3S245
G4 P0.5; Tool Off

G0 Z0; move to z-safe height
G0 X597.0000 Y138.9800
M3S0
G4 P0.5; Tool On
G1 F300 Z0.0000
G1 F15000 X3.0000 Y138.9800 Z0.0000
M3S245
G4 P0.5; Tool Off

G0 Z0; move to z-safe height
G0 X3.0000 Y144.9800
M3S0
G4 P0.5; Tool On
G1 F300 Z0.0000
G1 F15000 X597.0000 Y144.9800 Z0.0000
M3S245
G4 P0.5; Tool Off

G0 Z0; move to z-safe height
G0 X597.0000 Y150.9800
M3S0
G4 P0.5; Tool On
G1 F300 Z0.0000
G1 F15000 X3.0000 Y150.9800 Z0.0000
M3S245
G4 P0.5; Tool Off

G0 Z0; move to z-safe height
G0 X3.0000 Y156.9800
M3S0
G4 P0.5; Tool On
G1 F300 Z0.0000
G1 F15000 X597.0000 Y156.9800 Z0.0000
M3S245
G4 P0.5; Tool Off

G0 Z0; move to z-safe height
G0 X597.0000 Y162.9800
M3S0
G4 P0.5; Tool On
G1 F300 Z0.0000
G1 F15000 X3.0000 Y162.9800 Z0.0000
M3S245
G4 P0.5; Tool Off

G0 Z0; move to z-safe height
G0 X3.0000 Y168.9800
M3S0
G4 P0.5; Tool On
G1 F300 Z0.0000
G1 F15000 X597.0000 Y168.9800 Z0.0000
M3S245
G4 P0.5; Tool Off

G0 Z0; move to z-safe height
G0 X597.0000 Y174.9800
M3S0
G4 P0.5; Tool On
G1 F300 Z0.0000
G1 F15000 X3.0000 Y174.9800 Z0.0000
M3S245
G4 P0.5; Tool Off

G0 Z0; move to z-safe height
G0 X3.0000 Y180.9800
M3S0
G4 P0.5; Tool On
G1 F300 Z0.0000
G1 F15000 X597.0000 Y180.9800 Z0.0000
M3S245
G4 P0.5; Tool Off

G0 Z0; move to z-safe height
G0 X597.0000 Y186.9800
M3S0
G4 P0.5; Tool On
G1 F300 Z0.0000
G1 F15000 X3.0000 Y186.9800 Z0.0000
M3S245
G4 P0.5; Tool Off

G0 Z0; move to z-safe height
G0 X3.0000 Y192.9800
M3S0
G4 P0.5; Tool On
G1 F300 Z0.0000
G1 F15000 X597.0000 Y192.9800 Z0.0000
M3S245
G4 P0.5; Tool Off

G0 Z0; move to z-safe height
G0 X597.0000 Y198.9800
M3S0
G4 P0.5; Tool On
G1 F300 Z0.0000
G1 F15000 X3.0000 Y198.9800 Z0.0000
M3S245
G4 P0.5; Tool Off

G0 Z0; move to z-safe height
G0 X3.0000 Y204.9800
M3S0
G4 P0.5; Tool On
G1 F300 Z0.0000
G1 F15000 X597.0000 Y204.9800 Z0.0000
M3S245
G4 P0.5; Tool Off

G0 Z0; move to z-safe height
G0 X597.0000 Y210.9800
M3S0
G4 P0.5; Tool On
G1 F300 Z0.0000
G1 F15000 X3.0000 Y210.9800 Z0.0000
M3S245
G4 P0.5; Tool Off

G0 Z0; move to z-safe height
G0 X3.0000 Y216.9800
M3S0
G4 P0.5; Tool On
G1 F300 Z0.0000
G1 F15000 X597.0000 Y216.9800 Z0.0000
M3S245
G4 P0.5; Tool Off

G0 Z0; move to z-safe height
G0 X597.0000 Y222.9800
M3S0
G4 P0.5; Tool On
G1 F300 Z0.0000
G1 F15000 X3.0000 Y222.9800 Z0.0000
M3S245
G4 P0.5; Tool Off

G0 Z0; move to z-safe height
G0 X3.0000 Y228.9800
M3S0
G4 P0.5; Tool On
G1 F300 Z0.0000
G1 F15000 X597.0000 Y228.9800 Z0.0000
M3S245
G4 P0.5; Tool Off

G0 Z0; move to z-safe height
G0 X597.0000 Y234.9800
M3S0
G4 P0.5; Tool On
G1 F300 Z0.0000
G1 F15000 X3.0000 Y234.9800 Z0.0000
M3S245
G4 P0.5; Tool Off

G0 Z0; move to z-safe height
G0 X3.0000 Y240.9800
M3S0
G4 P0.5; Tool On
G1 F300 Z0.0000
G1 F15000 X597.0000 Y240.9800 Z0.0000
M3S245
G4 P0.5; Tool Off

G0 Z0; move to z-safe height
G0 X597.0000 Y246.9800
M3S0
G4 P0.5; Tool On
G1 F300 Z0.0000
G1 F15000 X3.0000 Y246.9800 Z0.0000
M3S245
G4 P0.5; Tool Off

G0 Z0; move to z-safe height
G0 X3.0000 Y252.9800
M3S0
G4 P0.5; Tool On
G1 F300 Z0.0000
G1 F15000 X597.0000 Y252.9800 Z0.0000
M3S245
G4 P0.5; Tool Off

G0 Z0; move to z-safe height
G0 X597.0000 Y258.9800
M3S0
G4 P0.5; Tool On
G1 F300 Z0.0000
G1 F15000 X3.0000 Y258.9800 Z0.0000
M3S245
G4 P0.5; Tool Off

G0 Z0; move to z-safe height
G0 X3.0000 Y264.9800
M3S0
G4 P0.5; Tool On
G1 F300 Z0.0000
G1 F15000 X597.0000 Y264.9800 Z0.0000
M3S245
G4 P0.5; Tool Off

G0 Z0; move to z-safe height
G0 X597.0000 Y270.9800
M3S0
G4 P0.5; Tool On
G1 F300 Z0.0000
G1 F15000 X3.0000 Y270.9800 Z0.0000
M3S245
G4 P0.5; Tool Off

G0 Z0; move to z-safe height
G0 X3.0000 Y276.9800
M3S0
G4 P0.5; Tool On
G1 F300 Z0.0000
G1 F15000 X597.0000 Y276.9800 Z0.0000
M3S245
G4 P0.5; Tool Off

G0 Z0; move to z-safe height
G0 X597.0000 Y282.9800
M3S0
G4 P0.5; Tool On
G1 F300 Z0.0000
G1 F15000 X3.0000 Y282.9800 Z0.0000
M3S245
G4 P0.5; Tool Off

G0 Z0; move to z-safe height
G0 X3.0000 Y288.9800
M3S0
G4 P0.5; Tool On
G1 F300 Z0.0000
G1 F15000 X597.0000 Y288.9800 Z0.0000
M3S245
G4 P0.5; Tool Off

G0 Z0; move to z-safe height
G0 X597.0000 Y294.9800
M3S0
G4 P0.5; Tool On
G1 F300 Z0.0000
G1 F15000 X3.0000 Y294.9800 Z0.0000
M3S245
G4 P0.5; Tool Off

G0 Z0; move to z-safe height
G0 X3.0000 Y300.9800
M3S0
G4 P0.5; Tool On
G1 F300 Z0.0000
G1 F15000 X597.0000 Y300.9800 Z0.0000
M3S245
G4 P0.5; Tool Off

G0 Z0; move to z-safe height
G0 X597.0000 Y306.9800
M3S0
G4 P0.5; Tool On
G1 F300 Z0.0000
G1 F15000 X3.0000 Y306.9800 Z0.0000
M3S245
G4 P0.5; Tool Off

G0 Z0; move to z-safe height
G0 X3.0000 Y312.9800
M3S0
G4 P0.5; Tool On
G1 F300 Z0.0000
G1 F15000 X597.0000 Y312.9800 Z0.0000
M3S245
G4 P0.5; Tool Off

G0 Z0; move to z-safe height
G0 X597.0000 Y318.9800
M3S0
G4 P0.5; Tool On
G1 F300 Z0.0000
G1 F15000 X3.0000 Y318.9800 Z0.0000
M3S245
G4 P0.5; Tool Off

G0 Z0; move to z-safe height
G0 X3.0000 Y324.9800
M3S0
G4 P0.5; Tool On
G1 F300 Z0.0000
G1 F15000 X597.0000 Y324.9800 Z0.0000
M3S245
G4 P0.5; Tool Off

G0 Z0; move to z-safe height
G0 X597.0000 Y330.9800
M3S0
G4 P0.5; Tool On
G1 F300 Z0.0000
G1 F15000 X3.0000 Y330.9800 Z0.0000
M3S245
G4 P0.5; Tool Off

G0 Z0; move to z-safe height
G0 X3.0000 Y336.9800
M3S0
G4 P0.5; Tool On
G1 F300 Z0.0000
G1 F15000 X597.0000 Y336.9800 Z0.0000
M3S245
G4 P0.5; Tool Off

G0 Z0; move to z-safe height
G0 X597.0000 Y342.9800
M3S0
G4 P0.5; Tool On
G1 F300 Z0.0000
G1 F15000 X3.0000 Y342.9800 Z0.0000
M3S245
G4 P0.5; Tool Off

G0 Z0; move to z-safe height
G0 X3.0000 Y348.9800
M3S0
G4 P0.5; Tool On
G1 F300 Z0.0000
G1 F15000 X597.0000 Y348.9800 Z0.0000
M3S245
G4 P0.5; Tool Off

G0 Z0; move to z-safe height
G0 X597.0000 Y354.9800
M3S0
G4 P0.5; Tool On
G1 F300 Z0.0000
G1 F15000 X3.0000 Y354.9800 Z0.0000
M3S245
G4 P0.5; Tool Off

G0 Z0; move to z-safe height
G0 X3.0000 Y360.9800
M3S0
G4 P0.5; Tool On
G1 F300 Z0.0000
G1 F15000 X597.0000 Y360.9800 Z0.0000
M3S245
G4 P0.5; Tool Off

G0 Z0; move to z-safe height
G0 X597.0000 Y366.9800
M3S0
G4 P0.5; Tool On
G1 F300 Z0.0000
G1 F15000 X3.0000 Y366.9800 Z0.0000
M3S245
G4 P0.5; Tool Off

G0 Z0; move to z-safe height
G0 X3.0000 Y372.9800
M3S0
G4 P0.5; Tool On
G1 F300 Z0.0000
G1 F15000 X597.0000 Y372.9800 Z0.0000
M3S245
G4 P0.5; Tool Off

G0 Z0; move to z-safe height
G0 X597.0000 Y378.9800
M3S0
G4 P0.5; Tool On
G1 F300 Z0.0000
G1 F15000 X3.0000 Y378.9800 Z0.0000
M3S245
G4 P0.5; Tool Off

G0 Z0; move to z-safe height
G0 X3.0000 Y384.9800
M3S0
G4 P0.5; Tool On
G1 F300 Z0.0000
G1 F15000 X597.0000 Y384.9800 Z0.0000
M3S245
G4 P0.5; Tool Off

G0 Z0; move to z-safe height
G0 X597.0000 Y390.9800
M3S0
G4 P0.5; Tool On
G1 F300 Z0.0000
G1 F15000 X3.0000 Y390.9800 Z0.0000
M3S245
G4 P0.5; Tool Off

G0 Z0; move to z-safe height
G0 X3.0000 Y396.9800
M3S0
G4 P0.5; Tool On
G1 F300 Z0.0000
G1 F15000 X597.0000 Y396.9800 Z0.0000
M3S245
G4 P0.5; Tool Off

G0 Z0; move to z-safe height
G0 X597.0000 Y402.9800
M3S0
G4 P0.5; Tool On
G1 F300 Z0.0000
G1 F15000 X3.0000 Y402.9800 Z0.0000
M3S245
G4 P0.5; Tool Off

G0 Z0; move to z-safe height
G0 X3.0000 Y408.9800
M3S0
G4 P0.5; Tool On
G1 F300 Z0.0000
G1 F15000 X597.0000 Y408.9800 Z0.0000
M3S245
G4 P0.5; Tool Off

G0 Z0; move to z-safe height
G0 X597.0000 Y414.9800
M3S0
G4 P0.5; Tool On
G1 F300 Z0.0000
G1 F15000 X3.0000 Y414.9800 Z0.0000
M3S245
G4 P0.5; Tool Off

G0 Z0; move to z-safe height
G0 X3.0000 Y420.9800
M3S0
G4 P0.5; Tool On
G1 F300 Z0.0000
G1 F15000 X597.0000 Y420.9800 Z0.0000
M3S245
G4 P0.5; Tool Off

G0 Z0; move to z-safe height
G0 X597.0000 Y426.9800
M3S0
G4 P0.5; Tool On
G1 F300 Z0.0000
G1 F15000 X3.0000 Y426.9800 Z0.0000
M3S245
G4 P0.5; Tool Off

G0 Z0; move to z-safe height
G0 X3.0000 Y432.9800
M3S0
G4 P0.5; Tool On
G1 F300 Z0.0000
G1 F15000 X597.0000 Y432.9800 Z0.0000
M3S245
G4 P0.5; Tool Off

G0 Z0; move to z-safe height
G0 X597.0000 Y438.9800
M3S0
G4 P0.5; Tool On
G1 F300 Z0.0000
G1 F15000 X3.0000 Y438.9800 Z0.0000
M3S245
G4 P0.5; Tool Off

G0 Z0; move to z-safe height
G0 X3.0000 Y444.9800
M3S0
G4 P0.5; Tool On
G1 F300 Z0.0000
G1 F15000 X597.0000 Y444.9800 Z0.0000
M3S245
G4 P0.5; Tool Off

G0 Z0; move to z-safe height
G0 X597.0000 Y450.9800
M3S0
G4 P0.5; Tool On
G1 F300 Z0.0000
G1 F15000 X3.0000 Y450.9800 Z0.0000
M3S245
G4 P0.5; Tool Off

G0 Z0; move to z-safe height
G0 X3.0000 Y456.9800
M3S0
G4 P0.5; Tool On
G1 F300 Z0.0000
G1 F15000 X597.0000 Y456.9800 Z0.0000
M3S245
G4 P0.5; Tool Off

G0 Z0; move to z-safe height
G0 X597.0000 Y462.9800
M3S0
G4 P0.5; Tool On
G1 F300 Z0.0000
G1 F15000 X3.0000 Y462.9800 Z0.0000
M3S245
G4 P0.5; Tool Off

G0 Z0; move to z-safe height
G0 X3.0000 Y468.9800
M3S0
G4 P0.5; Tool On
G1 F300 Z0.0000
G1 F15000 X597.0000 Y468.9800 Z0.0000
M3S245
G4 P0.5; Tool Off

G0 Z0; move to z-safe height
G0 X597.0000 Y474.9800
M3S0
G4 P0.5; Tool On
G1 F300 Z0.0000
G1 F15000 X3.0000 Y474.9800 Z0.0000
M3S245
G4 P0.5; Tool Off

G0 Z0; move to z-safe height
G0 X3.0000 Y480.9800
M3S0
G4 P0.5; Tool On
G1 F300 Z0.0000
G1 F15000 X597.0000 Y480.9800 Z0.0000
M3S245
G4 P0.5; Tool Off

G0 Z0; move to z-safe height
G0 X597.0000 Y486.9800
M3S0
G4 P0.5; Tool On
G1 F300 Z0.0000
G1 F15000 X3.0000 Y486.9800 Z0.0000
M3S245
G4 P0.5; Tool Off

G0 Z0; move to z-safe height
G0 X3.0000 Y492.9800
M3S0
G4 P0.5; Tool On
G1 F300 Z0.0000
G1 F15000 X597.0000 Y492.9800 Z0.0000
M3S245
G4 P0.5; Tool Off

G0 Z0; move to z-safe height
G0 X597.0000 Y498.9800
M3S0
G4 P0.5; Tool On
G1 F300 Z0.0000
G1 F15000 X3.0000 Y498.9800 Z0.0000
M3S245
G4 P0.5; Tool Off

G0 Z0; move to z-safe height
G0 X3.0000 Y504.9800
M3S0
G4 P0.5; Tool On
G1 F300 Z0.0000
G1 F15000 X597.0000 Y504.9800 Z0.0000
M3S245
G4 P0.5; Tool Off

G0 Z0; move to z-safe height
G0 X597.0000 Y510.9800
M3S0
G4 P0.5; Tool On
G1 F300 Z0.0000
G1 F15000 X3.0000 Y510.9800 Z0.0000
M3S245
G4 P0.5; Tool Off

G0 Z0; move to z-safe height
G0 X3.0000 Y516.9800
M3S0
G4 P0.5; Tool On
G1 F300 Z0.0000
G1 F15000 X597.0000 Y516.9800 Z0.0000
M3S245
G4 P0.5; Tool Off

G0 Z0; move to z-safe height
G0 X597.0000 Y522.9800
M3S0
G4 P0.5; Tool On
G1 F300 Z0.0000
G1 F15000 X3.0000 Y522.9800 Z0.0000
M3S245
G4 P0.5; Tool Off

G0 Z0; move to z-safe height
G0 X3.0000 Y528.9800
M3S0
G4 P0.5; Tool On
G1 F300 Z0.0000
G1 F15000 X597.0000 Y528.9800 Z0.0000
M3S245
G4 P0.5; Tool Off

G0 Z0; move to z-safe height
G0 X597.0000 Y534.9800
M3S0
G4 P0.5; Tool On
G1 F300 Z0.0000
G1 F15000 X3.0000 Y534.9800 Z0.0000
M3S245
G4 P0.5; Tool Off

G0 Z0; move to z-safe height
G0 X3.0000 Y540.9800
M3S0
G4 P0.5; Tool On
G1 F300 Z0.0000
G1 F15000 X597.0000 Y540.9800 Z0.0000
M3S245
G4 P0.5; Tool Off

G0 Z0; move to z-safe height
G0 X597.0000 Y546.9800
M3S0
G4 P0.5; Tool On
G1 F300 Z0.0000
G1 F15000 X3.0000 Y546.9800 Z0.0000
M3S245
G4 P0.5; Tool Off

G0 Z0; move to z-safe height
G0 X3.0000 Y552.9800
M3S0
G4 P0.5; Tool On
G1 F300 Z0.0000
G1 F15000 X597.0000 Y552.9800 Z0.0000
M3S245
G4 P0.5; Tool Off

G0 Z0; move to z-safe height
G0 X597.0000 Y558.9800
M3S0
G4 P0.5; Tool On
G1 F300 Z0.0000
G1 F15000 X3.0000 Y558.9800 Z0.0000
M3S245
G4 P0.5; Tool Off

G0 Z0; move to z-safe height
G0 X3.0000 Y564.9800
M3S0
G4 P0.5; Tool On
G1 F300 Z0.0000
G1 F15000 X597.0000 Y564.9800 Z0.0000
M3S245
G4 P0.5; Tool Off

G0 Z0; move to z-safe height
G0 X597.0000 Y570.9800
M3S0
G4 P0.5; Tool On
G1 F300 Z0.0000
G1 F15000 X3.0000 Y570.9800 Z0.0000
M3S245
G4 P0.5; Tool Off

G0 Z0; move to z-safe height
G0 X3.0000 Y576.9800
M3S0
G4 P0.5; Tool On
G1 F300 Z0.0000
G1 F15000 X597.0000 Y576.9800 Z0.0000
M3S245
G4 P0.5; Tool Off

G0 Z0; move to z-safe height
G0 X597.0000 Y582.9800
M3S0
G4 P0.5; Tool On
G1 F300 Z0.0000
G1 F15000 X3.0000 Y582.9800 Z0.0000
M3S245
G4 P0.5; Tool Off

G0 Z0; move to z-safe height
G0 X3.0000 Y588.9800
M3S0
G4 P0.5; Tool On
G1 F300 Z0.0000
G1 F15000 X597.0000 Y588.9800 Z0.0000
M3S245
G4 P0.5; Tool Off

G0 Z0; move to z-safe height
G0 X597.0000 Y594.9800
M3S0
G4 P0.5; Tool On
G1 F300 Z0.0000
G1 F15000 X3.0000 Y594.9800 Z0.0000
M3S245
G4 P0.5; Tool Off

G0 Z0; move to z-safe height
G0 X3.0000 Y600.9800
M3S0
G4 P0.5; Tool On
G1 F300 Z0.0000
G1 F15000 X597.0000 Y600.9800 Z0.0000
M3S245
G4 P0.5; Tool Off

G0 Z0; move to z-safe height
G0 X597.0000 Y606.9800
M3S0
G4 P0.5; Tool On
G1 F300 Z0.0000
G1 F15000 X3.0000 Y606.9800 Z0.0000
M3S245
G4 P0.5; Tool Off

G0 Z0; move to z-safe height
G0 X3.0000 Y612.9800
M3S0
G4 P0.5; Tool On
G1 F300 Z0.0000
G1 F15000 X597.0000 Y612.9800 Z0.0000
M3S245
G4 P0.5; Tool Off

G0 Z0; move to z-safe height
G0 X597.0000 Y618.9800
M3S0
G4 P0.5; Tool On
G1 F300 Z0.0000
G1 F15000 X3.0000 Y618.9800 Z0.0000
M3S245
G4 P0.5; Tool Off

G0 Z0; move to z-safe height
G0 X3.0000 Y624.9800
M3S0
G4 P0.5; Tool On
G1 F300 Z0.0000
G1 F15000 X597.0000 Y624.9800 Z0.0000
M3S245
G4 P0.5; Tool Off

G0 Z0; move to z-safe height
G0 X597.0000 Y630.9800
M3S0
G4 P0.5; Tool On
G1 F300 Z0.0000
G1 F15000 X3.0000 Y630.9800 Z0.0000
M3S245
G4 P0.5; Tool Off

G0 Z0; move to z-safe height
G0 X3.0000 Y636.9800
M3S0
G4 P0.5; Tool On
G1 F300 Z0.0000
G1 F15000 X597.0000 Y636.9800 Z0.0000
M3S245
G4 P0.5; Tool Off

G0 Z0; move to z-safe height
G0 X597.0000 Y642.9800
M3S0
G4 P0.5; Tool On
G1 F300 Z0.0000
G1 F15000 X3.0000 Y642.9800 Z0.0000
M3S245
G4 P0.5; Tool Off

G0 Z0; move to z-safe height
G0 X3.0000 Y648.9800
M3S0
G4 P0.5; Tool On
G1 F300 Z0.0000
G1 F15000 X597.0000 Y648.9800 Z0.0000
M3S245
G4 P0.5; Tool Off

G0 Z0; move to z-safe height
G0 X597.0000 Y654.9800
M3S0
G4 P0.5; Tool On
G1 F300 Z0.0000
G1 F15000 X3.0000 Y654.9800 Z0.0000
M3S245
G4 P0.5; Tool Off

G0 Z0; move to z-safe height
G0 X3.0000 Y660.9800
M3S0
G4 P0.5; Tool On
G1 F300 Z0.0000
G1 F15000 X597.0000 Y660.9800 Z0.0000
M3S245
G4 P0.5; Tool Off

G0 Z0; move to z-safe height
G0 X597.0000 Y666.9800
M3S0
G4 P0.5; Tool On
G1 F300 Z0.0000
G1 F15000 X3.0000 Y666.9800 Z0.0000
M3S245
G4 P0.5; Tool Off

G0 Z0; move to z-safe height
G0 X3.0000 Y672.9800
M3S0
G4 P0.5; Tool On
G1 F300 Z0.0000
G1 F15000 X597.0000 Y672.9800 Z0.0000
M3S245
G4 P0.5; Tool Off

G0 Z0; move to z-safe height
G0 X597.0000 Y678.9800
M3S0
G4 P0.5; Tool On
G1 F300 Z0.0000
G1 F15000 X3.0000 Y678.9800 Z0.0000
M3S245
G4 P0.5; Tool Off

G0 Z0; move to z-safe height
G0 X3.0000 Y684.9800
M3S0
G4 P0.5; Tool On
G1 F300 Z0.0000
G1 F15000 X597.0000 Y684.9800 Z0.0000
M3S245
G4 P0.5; Tool Off

G0 Z0; move to z-safe height
G0 X597.0000 Y690.9800
M3S0
G4 P0.5; Tool On
G1 F300 Z0.0000
G1 F15000 X3.0000 Y690.9800 Z0.0000
M3S245
G4 P0.5; Tool Off

G0 Z0; move to z-safe height
G0 X3.0000 Y696.9800
M3S0
G4 P0.5; Tool On
G1 F300 Z0.0000
G1 F15000 X597.0000 Y696.9800 Z0.0000
M3S245
G4 P0.5; Tool Off

G0 Z0; move to z-safe height
G0 X597.0000 Y702.9800
M3S0
G4 P0.5; Tool On
G1 F300 Z0.0000
G1 F15000 X3.0000 Y702.9800 Z0.0000
M3S245
G4 P0.5; Tool Off

G0 Z0; move to z-safe height
G0 X3.0000 Y708.9800
M3S0
G4 P0.5; Tool On
G1 F300 Z0.0000
G1 F15000 X597.0000 Y708.9800 Z0.0000
M3S245
G4 P0.5; Tool Off

G0 Z0; move to z-safe height
G0 X597.0000 Y714.9800
M3S0
G4 P0.5; Tool On
G1 F300 Z0.0000
G1 F15000 X3.0000 Y714.9800 Z0.0000
M3S245
G4 P0.5; Tool Off

G0 Z0; move to z-safe height
G0 X3.0000 Y720.9800
M3S0
G4 P0.5; Tool On
G1 F300 Z0.0000
G1 F15000 X597.0000 Y720.9800 Z0.0000
M3S245
G4 P0.5; Tool Off

G0 Z0; move to z-safe height
G0 X597.0000 Y726.9800
M3S0
G4 P0.5; Tool On
G1 F300 Z0.0000
G1 F15000 X3.0000 Y726.9800 Z0.0000
M3S245
G4 P0.5; Tool Off

G0 Z0; move to z-safe height
G0 X3.0000 Y732.9800
M3S0
G4 P0.5; Tool On
G1 F300 Z0.0000
G1 F15000 X597.0000 Y732.9800 Z0.0000
M3S245
G4 P0.5; Tool Off

G0 Z0; move to z-safe height
G0 X597.0000 Y738.9800
M3S0
G4 P0.5; Tool On
G1 F300 Z0.0000
G1 F15000 X3.0000 Y738.9800 Z0.0000
M3S245
G4 P0.5; Tool Off

G0 Z0; move to z-safe height
G0 X3.0000 Y744.9800
M3S0
G4 P0.5; Tool On
G1 F300 Z0.0000
G1 F15000 X597.0000 Y744.9800 Z0.0000
M3S245
G4 P0.5; Tool Off
; retracting back to z-safe
G0 Z0

; Plotter Mode Complete
