; GCODE Generated by cam.openbuilds.com on 2023-07-26 
G21 ; mm-mode
G54; Work Coordinates
G21; mm-mode
G90; Absolute Positioning
; Plotter Mode Active

; Operation 0: Pen Plotter: (lines fill)
; Pen Diameter: 2

G0 Z0; move to z-safe height
G0 F1000 X8.0000 Y18.0100
M3S0
G4 P0.5; Tool On
G1 F300 Z0.0000
G1 F15000 X592.0000 Y18.0100 Z0.0000
M3S245
G4 P0.5; Tool Off

G0 Z0; move to z-safe height
G0 X592.0000 Y34.0100
M3S0
G4 P0.5; Tool On
G1 F300 Z0.0000
G1 F15000 X8.0000 Y34.0100 Z0.0000
M3S245
G4 P0.5; Tool Off

G0 Z0; move to z-safe height
G0 X8.0000 Y50.0100
M3S0
G4 P0.5; Tool On
G1 F300 Z0.0000
G1 F15000 X592.0000 Y50.0100 Z0.0000
M3S245
G4 P0.5; Tool Off

G0 Z0; move to z-safe height
G0 X592.0000 Y66.0100
M3S0
G4 P0.5; Tool On
G1 F300 Z0.0000
G1 F15000 X8.0000 Y66.0100 Z0.0000
M3S245
G4 P0.5; Tool Off

G0 Z0; move to z-safe height
G0 X8.0000 Y82.0100
M3S0
G4 P0.5; Tool On
G1 F300 Z0.0000
G1 F15000 X592.0000 Y82.0100 Z0.0000
M3S245
G4 P0.5; Tool Off

G0 Z0; move to z-safe height
G0 X592.0000 Y98.0100
M3S0
G4 P0.5; Tool On
G1 F300 Z0.0000
G1 F15000 X8.0000 Y98.0100 Z0.0000
M3S245
G4 P0.5; Tool Off

G0 Z0; move to z-safe height
G0 X8.0000 Y114.0100
M3S0
G4 P0.5; Tool On
G1 F300 Z0.0000
G1 F15000 X592.0000 Y114.0100 Z0.0000
M3S245
G4 P0.5; Tool Off

G0 Z0; move to z-safe height
G0 X592.0000 Y130.0100
M3S0
G4 P0.5; Tool On
G1 F300 Z0.0000
G1 F15000 X8.0000 Y130.0100 Z0.0000
M3S245
G4 P0.5; Tool Off

G0 Z0; move to z-safe height
G0 X8.0000 Y146.0100
M3S0
G4 P0.5; Tool On
G1 F300 Z0.0000
G1 F15000 X592.0000 Y146.0100 Z0.0000
M3S245
G4 P0.5; Tool Off

G0 Z0; move to z-safe height
G0 X592.0000 Y162.0100
M3S0
G4 P0.5; Tool On
G1 F300 Z0.0000
G1 F15000 X8.0000 Y162.0100 Z0.0000
M3S245
G4 P0.5; Tool Off

G0 Z0; move to z-safe height
G0 X8.0000 Y178.0100
M3S0
G4 P0.5; Tool On
G1 F300 Z0.0000
G1 F15000 X592.0000 Y178.0100 Z0.0000
M3S245
G4 P0.5; Tool Off

G0 Z0; move to z-safe height
G0 X592.0000 Y194.0100
M3S0
G4 P0.5; Tool On
G1 F300 Z0.0000
G1 F15000 X8.0000 Y194.0100 Z0.0000
M3S245
G4 P0.5; Tool Off

G0 Z0; move to z-safe height
G0 X8.0000 Y210.0100
M3S0
G4 P0.5; Tool On
G1 F300 Z0.0000
G1 F15000 X592.0000 Y210.0100 Z0.0000
M3S245
G4 P0.5; Tool Off

G0 Z0; move to z-safe height
G0 X592.0000 Y226.0100
M3S0
G4 P0.5; Tool On
G1 F300 Z0.0000
G1 F15000 X8.0000 Y226.0100 Z0.0000
M3S245
G4 P0.5; Tool Off

G0 Z0; move to z-safe height
G0 X8.0000 Y242.0100
M3S0
G4 P0.5; Tool On
G1 F300 Z0.0000
G1 F15000 X592.0000 Y242.0100 Z0.0000
M3S245
G4 P0.5; Tool Off

G0 Z0; move to z-safe height
G0 X592.0000 Y258.0100
M3S0
G4 P0.5; Tool On
G1 F300 Z0.0000
G1 F15000 X8.0000 Y258.0100 Z0.0000
M3S245
G4 P0.5; Tool Off

G0 Z0; move to z-safe height
G0 X8.0000 Y274.0100
M3S0
G4 P0.5; Tool On
G1 F300 Z0.0000
G1 F15000 X592.0000 Y274.0100 Z0.0000
M3S245
G4 P0.5; Tool Off

G0 Z0; move to z-safe height
G0 X592.0000 Y290.0100
M3S0
G4 P0.5; Tool On
G1 F300 Z0.0000
G1 F15000 X8.0000 Y290.0100 Z0.0000
M3S245
G4 P0.5; Tool Off

G0 Z0; move to z-safe height
G0 X8.0000 Y306.0100
M3S0
G4 P0.5; Tool On
G1 F300 Z0.0000
G1 F15000 X592.0000 Y306.0100 Z0.0000
M3S245
G4 P0.5; Tool Off

G0 Z0; move to z-safe height
G0 X592.0000 Y322.0100
M3S0
G4 P0.5; Tool On
G1 F300 Z0.0000
G1 F15000 X8.0000 Y322.0100 Z0.0000
M3S245
G4 P0.5; Tool Off

G0 Z0; move to z-safe height
G0 X8.0000 Y338.0100
M3S0
G4 P0.5; Tool On
G1 F300 Z0.0000
G1 F15000 X592.0000 Y338.0100 Z0.0000
M3S245
G4 P0.5; Tool Off

G0 Z0; move to z-safe height
G0 X592.0000 Y354.0100
M3S0
G4 P0.5; Tool On
G1 F300 Z0.0000
G1 F15000 X8.0000 Y354.0100 Z0.0000
M3S245
G4 P0.5; Tool Off

G0 Z0; move to z-safe height
G0 X8.0000 Y370.0100
M3S0
G4 P0.5; Tool On
G1 F300 Z0.0000
G1 F15000 X592.0000 Y370.0100 Z0.0000
M3S245
G4 P0.5; Tool Off

G0 Z0; move to z-safe height
G0 X592.0000 Y386.0100
M3S0
G4 P0.5; Tool On
G1 F300 Z0.0000
G1 F15000 X8.0000 Y386.0100 Z0.0000
M3S245
G4 P0.5; Tool Off

G0 Z0; move to z-safe height
G0 X8.0000 Y402.0100
M3S0
G4 P0.5; Tool On
G1 F300 Z0.0000
G1 F15000 X592.0000 Y402.0100 Z0.0000
M3S245
G4 P0.5; Tool Off

G0 Z0; move to z-safe height
G0 X592.0000 Y418.0100
M3S0
G4 P0.5; Tool On
G1 F300 Z0.0000
G1 F15000 X8.0000 Y418.0100 Z0.0000
M3S245
G4 P0.5; Tool Off

G0 Z0; move to z-safe height
G0 X8.0000 Y434.0100
M3S0
G4 P0.5; Tool On
G1 F300 Z0.0000
G1 F15000 X592.0000 Y434.0100 Z0.0000
M3S245
G4 P0.5; Tool Off

G0 Z0; move to z-safe height
G0 X592.0000 Y450.0100
M3S0
G4 P0.5; Tool On
G1 F300 Z0.0000
G1 F15000 X8.0000 Y450.0100 Z0.0000
M3S245
G4 P0.5; Tool Off

G0 Z0; move to z-safe height
G0 X8.0000 Y466.0100
M3S0
G4 P0.5; Tool On
G1 F300 Z0.0000
G1 F15000 X592.0000 Y466.0100 Z0.0000
M3S245
G4 P0.5; Tool Off

G0 Z0; move to z-safe height
G0 X592.0000 Y482.0100
M3S0
G4 P0.5; Tool On
G1 F300 Z0.0000
G1 F15000 X8.0000 Y482.0100 Z0.0000
M3S245
G4 P0.5; Tool Off

G0 Z0; move to z-safe height
G0 X8.0000 Y498.0100
M3S0
G4 P0.5; Tool On
G1 F300 Z0.0000
G1 F15000 X592.0000 Y498.0100 Z0.0000
M3S245
G4 P0.5; Tool Off

G0 Z0; move to z-safe height
G0 X592.0000 Y514.0100
M3S0
G4 P0.5; Tool On
G1 F300 Z0.0000
G1 F15000 X8.0000 Y514.0100 Z0.0000
M3S245
G4 P0.5; Tool Off

G0 Z0; move to z-safe height
G0 X8.0000 Y530.0100
M3S0
G4 P0.5; Tool On
G1 F300 Z0.0000
G1 F15000 X592.0000 Y530.0100 Z0.0000
M3S245
G4 P0.5; Tool Off

G0 Z0; move to z-safe height
G0 X592.0000 Y546.0100
M3S0
G4 P0.5; Tool On
G1 F300 Z0.0000
G1 F15000 X8.0000 Y546.0100 Z0.0000
M3S245
G4 P0.5; Tool Off

G0 Z0; move to z-safe height
G0 X8.0000 Y562.0100
M3S0
G4 P0.5; Tool On
G1 F300 Z0.0000
G1 F15000 X592.0000 Y562.0100 Z0.0000
M3S245
G4 P0.5; Tool Off

G0 Z0; move to z-safe height
G0 X592.0000 Y578.0100
M3S0
G4 P0.5; Tool On
G1 F300 Z0.0000
G1 F15000 X8.0000 Y578.0100 Z0.0000
M3S245
G4 P0.5; Tool Off

G0 Z0; move to z-safe height
G0 X8.0000 Y594.0100
M3S0
G4 P0.5; Tool On
G1 F300 Z0.0000
G1 F15000 X592.0000 Y594.0100 Z0.0000
M3S245
G4 P0.5; Tool Off

G0 Z0; move to z-safe height
G0 X592.0000 Y610.0100
M3S0
G4 P0.5; Tool On
G1 F300 Z0.0000
G1 F15000 X8.0000 Y610.0100 Z0.0000
M3S245
G4 P0.5; Tool Off

G0 Z0; move to z-safe height
G0 X8.0000 Y626.0100
M3S0
G4 P0.5; Tool On
G1 F300 Z0.0000
G1 F15000 X592.0000 Y626.0100 Z0.0000
M3S245
G4 P0.5; Tool Off

G0 Z0; move to z-safe height
G0 X592.0000 Y642.0100
M3S0
G4 P0.5; Tool On
G1 F300 Z0.0000
G1 F15000 X8.0000 Y642.0100 Z0.0000
M3S245
G4 P0.5; Tool Off

G0 Z0; move to z-safe height
G0 X8.0000 Y658.0100
M3S0
G4 P0.5; Tool On
G1 F300 Z0.0000
G1 F15000 X592.0000 Y658.0100 Z0.0000
M3S245
G4 P0.5; Tool Off

G0 Z0; move to z-safe height
G0 X592.0000 Y674.0100
M3S0
G4 P0.5; Tool On
G1 F300 Z0.0000
G1 F15000 X8.0000 Y674.0100 Z0.0000
M3S245
G4 P0.5; Tool Off

G0 Z0; move to z-safe height
G0 X8.0000 Y690.0100
M3S0
G4 P0.5; Tool On
G1 F300 Z0.0000
G1 F15000 X592.0000 Y690.0100 Z0.0000
M3S245
G4 P0.5; Tool Off

G0 Z0; move to z-safe height
G0 X592.0000 Y706.0100
M3S0
G4 P0.5; Tool On
G1 F300 Z0.0000
G1 F15000 X8.0000 Y706.0100 Z0.0000
M3S245
G4 P0.5; Tool Off

G0 Z0; move to z-safe height
G0 X8.0000 Y722.0100
M3S0
G4 P0.5; Tool On
G1 F300 Z0.0000
G1 F15000 X592.0000 Y722.0100 Z0.0000
M3S245
G4 P0.5; Tool Off

G0 Z0; move to z-safe height
G0 X592.0000 Y738.0100
M3S0
G4 P0.5; Tool On
G1 F300 Z0.0000
G1 F15000 X8.0000 Y738.0100 Z0.0000
M3S245
G4 P0.5; Tool Off
; retracting back to z-safe
G0 Z0

; Plotter Mode Complete
