; GCODE Generated by cam.openbuilds.com on 2023-05-01 
G21 ; mm-mode
G54; Work Coordinates
G21; mm-mode
G90; Absolute Positioning
; Plotter Mode Active

; Operation 0: Pen Plotter: (lines fill)
; Pen Diameter: 2

G0 Z0; move to z-safe height
G0 F1000 X4.0000 Y4.3900
M3S0
G4 P0.5; Tool On
G1 F300 Z0.0000
G1 F15000 X596.0000 Y4.3900 Z0.0000
M3S245
G4 P0.5; Tool Off

G0 Z0; move to z-safe height
G0 X596.0000 Y12.3900
M3S0
G4 P0.5; Tool On
G1 F300 Z0.0000
G1 F15000 X4.0000 Y12.3900 Z0.0000
M3S245
G4 P0.5; Tool Off

G0 Z0; move to z-safe height
G0 X4.0000 Y20.3900
M3S0
G4 P0.5; Tool On
G1 F300 Z0.0000
G1 F15000 X596.0000 Y20.3900 Z0.0000
M3S245
G4 P0.5; Tool Off

G0 Z0; move to z-safe height
G0 X596.0000 Y28.3900
M3S0
G4 P0.5; Tool On
G1 F300 Z0.0000
G1 F15000 X4.0000 Y28.3900 Z0.0000
M3S245
G4 P0.5; Tool Off

G0 Z0; move to z-safe height
G0 X4.0000 Y36.3900
M3S0
G4 P0.5; Tool On
G1 F300 Z0.0000
G1 F15000 X596.0000 Y36.3900 Z0.0000
M3S245
G4 P0.5; Tool Off

G0 Z0; move to z-safe height
G0 X596.0000 Y44.3900
M3S0
G4 P0.5; Tool On
G1 F300 Z0.0000
G1 F15000 X4.0000 Y44.3900 Z0.0000
M3S245
G4 P0.5; Tool Off

G0 Z0; move to z-safe height
G0 X4.0000 Y52.3900
M3S0
G4 P0.5; Tool On
G1 F300 Z0.0000
G1 F15000 X596.0000 Y52.3900 Z0.0000
M3S245
G4 P0.5; Tool Off

G0 Z0; move to z-safe height
G0 X596.0000 Y60.3900
M3S0
G4 P0.5; Tool On
G1 F300 Z0.0000
G1 F15000 X4.0000 Y60.3900 Z0.0000
M3S245
G4 P0.5; Tool Off

G0 Z0; move to z-safe height
G0 X4.0000 Y68.3900
M3S0
G4 P0.5; Tool On
G1 F300 Z0.0000
G1 F15000 X596.0000 Y68.3900 Z0.0000
M3S245
G4 P0.5; Tool Off

G0 Z0; move to z-safe height
G0 X596.0000 Y76.3900
M3S0
G4 P0.5; Tool On
G1 F300 Z0.0000
G1 F15000 X4.0000 Y76.3900 Z0.0000
M3S245
G4 P0.5; Tool Off

G0 Z0; move to z-safe height
G0 X4.0000 Y84.3900
M3S0
G4 P0.5; Tool On
G1 F300 Z0.0000
G1 F15000 X596.0000 Y84.3900 Z0.0000
M3S245
G4 P0.5; Tool Off

G0 Z0; move to z-safe height
G0 X596.0000 Y92.3900
M3S0
G4 P0.5; Tool On
G1 F300 Z0.0000
G1 F15000 X4.0000 Y92.3900 Z0.0000
M3S245
G4 P0.5; Tool Off

G0 Z0; move to z-safe height
G0 X4.0000 Y100.3900
M3S0
G4 P0.5; Tool On
G1 F300 Z0.0000
G1 F15000 X596.0000 Y100.3900 Z0.0000
M3S245
G4 P0.5; Tool Off

G0 Z0; move to z-safe height
G0 X596.0000 Y108.3900
M3S0
G4 P0.5; Tool On
G1 F300 Z0.0000
G1 F15000 X4.0000 Y108.3900 Z0.0000
M3S245
G4 P0.5; Tool Off

G0 Z0; move to z-safe height
G0 X4.0000 Y116.3900
M3S0
G4 P0.5; Tool On
G1 F300 Z0.0000
G1 F15000 X596.0000 Y116.3900 Z0.0000
M3S245
G4 P0.5; Tool Off

G0 Z0; move to z-safe height
G0 X596.0000 Y124.3900
M3S0
G4 P0.5; Tool On
G1 F300 Z0.0000
G1 F15000 X4.0000 Y124.3900 Z0.0000
M3S245
G4 P0.5; Tool Off

G0 Z0; move to z-safe height
G0 X4.0000 Y132.3900
M3S0
G4 P0.5; Tool On
G1 F300 Z0.0000
G1 F15000 X596.0000 Y132.3900 Z0.0000
M3S245
G4 P0.5; Tool Off

G0 Z0; move to z-safe height
G0 X596.0000 Y140.3900
M3S0
G4 P0.5; Tool On
G1 F300 Z0.0000
G1 F15000 X4.0000 Y140.3900 Z0.0000
M3S245
G4 P0.5; Tool Off

G0 Z0; move to z-safe height
G0 X4.0000 Y148.3900
M3S0
G4 P0.5; Tool On
G1 F300 Z0.0000
G1 F15000 X596.0000 Y148.3900 Z0.0000
M3S245
G4 P0.5; Tool Off

G0 Z0; move to z-safe height
G0 X596.0000 Y156.3900
M3S0
G4 P0.5; Tool On
G1 F300 Z0.0000
G1 F15000 X4.0000 Y156.3900 Z0.0000
M3S245
G4 P0.5; Tool Off

G0 Z0; move to z-safe height
G0 X4.0000 Y164.3900
M3S0
G4 P0.5; Tool On
G1 F300 Z0.0000
G1 F15000 X596.0000 Y164.3900 Z0.0000
M3S245
G4 P0.5; Tool Off

G0 Z0; move to z-safe height
G0 X596.0000 Y172.3900
M3S0
G4 P0.5; Tool On
G1 F300 Z0.0000
G1 F15000 X4.0000 Y172.3900 Z0.0000
M3S245
G4 P0.5; Tool Off

G0 Z0; move to z-safe height
G0 X4.0000 Y180.3900
M3S0
G4 P0.5; Tool On
G1 F300 Z0.0000
G1 F15000 X596.0000 Y180.3900 Z0.0000
M3S245
G4 P0.5; Tool Off

G0 Z0; move to z-safe height
G0 X596.0000 Y188.3900
M3S0
G4 P0.5; Tool On
G1 F300 Z0.0000
G1 F15000 X4.0000 Y188.3900 Z0.0000
M3S245
G4 P0.5; Tool Off

G0 Z0; move to z-safe height
G0 X4.0000 Y196.3900
M3S0
G4 P0.5; Tool On
G1 F300 Z0.0000
G1 F15000 X596.0000 Y196.3900 Z0.0000
M3S245
G4 P0.5; Tool Off

G0 Z0; move to z-safe height
G0 X596.0000 Y204.3900
M3S0
G4 P0.5; Tool On
G1 F300 Z0.0000
G1 F15000 X4.0000 Y204.3900 Z0.0000
M3S245
G4 P0.5; Tool Off

G0 Z0; move to z-safe height
G0 X4.0000 Y212.3900
M3S0
G4 P0.5; Tool On
G1 F300 Z0.0000
G1 F15000 X596.0000 Y212.3900 Z0.0000
M3S245
G4 P0.5; Tool Off

G0 Z0; move to z-safe height
G0 X596.0000 Y220.3900
M3S0
G4 P0.5; Tool On
G1 F300 Z0.0000
G1 F15000 X4.0000 Y220.3900 Z0.0000
M3S245
G4 P0.5; Tool Off

G0 Z0; move to z-safe height
G0 X4.0000 Y228.3900
M3S0
G4 P0.5; Tool On
G1 F300 Z0.0000
G1 F15000 X596.0000 Y228.3900 Z0.0000
M3S245
G4 P0.5; Tool Off

G0 Z0; move to z-safe height
G0 X596.0000 Y236.3900
M3S0
G4 P0.5; Tool On
G1 F300 Z0.0000
G1 F15000 X4.0000 Y236.3900 Z0.0000
M3S245
G4 P0.5; Tool Off

G0 Z0; move to z-safe height
G0 X4.0000 Y244.3900
M3S0
G4 P0.5; Tool On
G1 F300 Z0.0000
G1 F15000 X596.0000 Y244.3900 Z0.0000
M3S245
G4 P0.5; Tool Off

G0 Z0; move to z-safe height
G0 X596.0000 Y252.3900
M3S0
G4 P0.5; Tool On
G1 F300 Z0.0000
G1 F15000 X4.0000 Y252.3900 Z0.0000
M3S245
G4 P0.5; Tool Off

G0 Z0; move to z-safe height
G0 X4.0000 Y260.3900
M3S0
G4 P0.5; Tool On
G1 F300 Z0.0000
G1 F15000 X596.0000 Y260.3900 Z0.0000
M3S245
G4 P0.5; Tool Off

G0 Z0; move to z-safe height
G0 X596.0000 Y268.3900
M3S0
G4 P0.5; Tool On
G1 F300 Z0.0000
G1 F15000 X4.0000 Y268.3900 Z0.0000
M3S245
G4 P0.5; Tool Off

G0 Z0; move to z-safe height
G0 X4.0000 Y276.3900
M3S0
G4 P0.5; Tool On
G1 F300 Z0.0000
G1 F15000 X596.0000 Y276.3900 Z0.0000
M3S245
G4 P0.5; Tool Off

G0 Z0; move to z-safe height
G0 X596.0000 Y284.3900
M3S0
G4 P0.5; Tool On
G1 F300 Z0.0000
G1 F15000 X4.0000 Y284.3900 Z0.0000
M3S245
G4 P0.5; Tool Off

G0 Z0; move to z-safe height
G0 X4.0000 Y292.3900
M3S0
G4 P0.5; Tool On
G1 F300 Z0.0000
G1 F15000 X596.0000 Y292.3900 Z0.0000
M3S245
G4 P0.5; Tool Off

G0 Z0; move to z-safe height
G0 X596.0000 Y300.3900
M3S0
G4 P0.5; Tool On
G1 F300 Z0.0000
G1 F15000 X4.0000 Y300.3900 Z0.0000
M3S245
G4 P0.5; Tool Off

G0 Z0; move to z-safe height
G0 X4.0000 Y308.3900
M3S0
G4 P0.5; Tool On
G1 F300 Z0.0000
G1 F15000 X596.0000 Y308.3900 Z0.0000
M3S245
G4 P0.5; Tool Off

G0 Z0; move to z-safe height
G0 X596.0000 Y316.3900
M3S0
G4 P0.5; Tool On
G1 F300 Z0.0000
G1 F15000 X4.0000 Y316.3900 Z0.0000
M3S245
G4 P0.5; Tool Off

G0 Z0; move to z-safe height
G0 X4.0000 Y324.3900
M3S0
G4 P0.5; Tool On
G1 F300 Z0.0000
G1 F15000 X596.0000 Y324.3900 Z0.0000
M3S245
G4 P0.5; Tool Off

G0 Z0; move to z-safe height
G0 X596.0000 Y332.3900
M3S0
G4 P0.5; Tool On
G1 F300 Z0.0000
G1 F15000 X4.0000 Y332.3900 Z0.0000
M3S245
G4 P0.5; Tool Off

G0 Z0; move to z-safe height
G0 X4.0000 Y340.3900
M3S0
G4 P0.5; Tool On
G1 F300 Z0.0000
G1 F15000 X596.0000 Y340.3900 Z0.0000
M3S245
G4 P0.5; Tool Off

G0 Z0; move to z-safe height
G0 X596.0000 Y348.3900
M3S0
G4 P0.5; Tool On
G1 F300 Z0.0000
G1 F15000 X4.0000 Y348.3900 Z0.0000
M3S245
G4 P0.5; Tool Off

G0 Z0; move to z-safe height
G0 X4.0000 Y356.3900
M3S0
G4 P0.5; Tool On
G1 F300 Z0.0000
G1 F15000 X596.0000 Y356.3900 Z0.0000
M3S245
G4 P0.5; Tool Off

G0 Z0; move to z-safe height
G0 X596.0000 Y364.3900
M3S0
G4 P0.5; Tool On
G1 F300 Z0.0000
G1 F15000 X4.0000 Y364.3900 Z0.0000
M3S245
G4 P0.5; Tool Off

G0 Z0; move to z-safe height
G0 X4.0000 Y372.3900
M3S0
G4 P0.5; Tool On
G1 F300 Z0.0000
G1 F15000 X596.0000 Y372.3900 Z0.0000
M3S245
G4 P0.5; Tool Off

G0 Z0; move to z-safe height
G0 X596.0000 Y380.3900
M3S0
G4 P0.5; Tool On
G1 F300 Z0.0000
G1 F15000 X4.0000 Y380.3900 Z0.0000
M3S245
G4 P0.5; Tool Off

G0 Z0; move to z-safe height
G0 X4.0000 Y388.3900
M3S0
G4 P0.5; Tool On
G1 F300 Z0.0000
G1 F15000 X596.0000 Y388.3900 Z0.0000
M3S245
G4 P0.5; Tool Off

G0 Z0; move to z-safe height
G0 X596.0000 Y396.3900
M3S0
G4 P0.5; Tool On
G1 F300 Z0.0000
G1 F15000 X4.0000 Y396.3900 Z0.0000
M3S245
G4 P0.5; Tool Off

G0 Z0; move to z-safe height
G0 X4.0000 Y404.3900
M3S0
G4 P0.5; Tool On
G1 F300 Z0.0000
G1 F15000 X596.0000 Y404.3900 Z0.0000
M3S245
G4 P0.5; Tool Off

G0 Z0; move to z-safe height
G0 X596.0000 Y412.3900
M3S0
G4 P0.5; Tool On
G1 F300 Z0.0000
G1 F15000 X4.0000 Y412.3900 Z0.0000
M3S245
G4 P0.5; Tool Off

G0 Z0; move to z-safe height
G0 X4.0000 Y420.3900
M3S0
G4 P0.5; Tool On
G1 F300 Z0.0000
G1 F15000 X596.0000 Y420.3900 Z0.0000
M3S245
G4 P0.5; Tool Off

G0 Z0; move to z-safe height
G0 X596.0000 Y428.3900
M3S0
G4 P0.5; Tool On
G1 F300 Z0.0000
G1 F15000 X4.0000 Y428.3900 Z0.0000
M3S245
G4 P0.5; Tool Off

G0 Z0; move to z-safe height
G0 X4.0000 Y436.3900
M3S0
G4 P0.5; Tool On
G1 F300 Z0.0000
G1 F15000 X596.0000 Y436.3900 Z0.0000
M3S245
G4 P0.5; Tool Off

G0 Z0; move to z-safe height
G0 X596.0000 Y444.3900
M3S0
G4 P0.5; Tool On
G1 F300 Z0.0000
G1 F15000 X4.0000 Y444.3900 Z0.0000
M3S245
G4 P0.5; Tool Off

G0 Z0; move to z-safe height
G0 X4.0000 Y452.3900
M3S0
G4 P0.5; Tool On
G1 F300 Z0.0000
G1 F15000 X596.0000 Y452.3900 Z0.0000
M3S245
G4 P0.5; Tool Off

G0 Z0; move to z-safe height
G0 X596.0000 Y460.3900
M3S0
G4 P0.5; Tool On
G1 F300 Z0.0000
G1 F15000 X4.0000 Y460.3900 Z0.0000
M3S245
G4 P0.5; Tool Off

G0 Z0; move to z-safe height
G0 X4.0000 Y468.3900
M3S0
G4 P0.5; Tool On
G1 F300 Z0.0000
G1 F15000 X596.0000 Y468.3900 Z0.0000
M3S245
G4 P0.5; Tool Off

G0 Z0; move to z-safe height
G0 X596.0000 Y476.3900
M3S0
G4 P0.5; Tool On
G1 F300 Z0.0000
G1 F15000 X4.0000 Y476.3900 Z0.0000
M3S245
G4 P0.5; Tool Off

G0 Z0; move to z-safe height
G0 X4.0000 Y484.3900
M3S0
G4 P0.5; Tool On
G1 F300 Z0.0000
G1 F15000 X596.0000 Y484.3900 Z0.0000
M3S245
G4 P0.5; Tool Off

G0 Z0; move to z-safe height
G0 X596.0000 Y492.3900
M3S0
G4 P0.5; Tool On
G1 F300 Z0.0000
G1 F15000 X4.0000 Y492.3900 Z0.0000
M3S245
G4 P0.5; Tool Off

G0 Z0; move to z-safe height
G0 X4.0000 Y500.3900
M3S0
G4 P0.5; Tool On
G1 F300 Z0.0000
G1 F15000 X596.0000 Y500.3900 Z0.0000
M3S245
G4 P0.5; Tool Off

G0 Z0; move to z-safe height
G0 X596.0000 Y508.3900
M3S0
G4 P0.5; Tool On
G1 F300 Z0.0000
G1 F15000 X4.0000 Y508.3900 Z0.0000
M3S245
G4 P0.5; Tool Off

G0 Z0; move to z-safe height
G0 X4.0000 Y516.3900
M3S0
G4 P0.5; Tool On
G1 F300 Z0.0000
G1 F15000 X596.0000 Y516.3900 Z0.0000
M3S245
G4 P0.5; Tool Off

G0 Z0; move to z-safe height
G0 X596.0000 Y524.3900
M3S0
G4 P0.5; Tool On
G1 F300 Z0.0000
G1 F15000 X4.0000 Y524.3900 Z0.0000
M3S245
G4 P0.5; Tool Off

G0 Z0; move to z-safe height
G0 X4.0000 Y532.3900
M3S0
G4 P0.5; Tool On
G1 F300 Z0.0000
G1 F15000 X596.0000 Y532.3900 Z0.0000
M3S245
G4 P0.5; Tool Off

G0 Z0; move to z-safe height
G0 X596.0000 Y540.3900
M3S0
G4 P0.5; Tool On
G1 F300 Z0.0000
G1 F15000 X4.0000 Y540.3900 Z0.0000
M3S245
G4 P0.5; Tool Off

G0 Z0; move to z-safe height
G0 X4.0000 Y548.3900
M3S0
G4 P0.5; Tool On
G1 F300 Z0.0000
G1 F15000 X596.0000 Y548.3900 Z0.0000
M3S245
G4 P0.5; Tool Off

G0 Z0; move to z-safe height
G0 X596.0000 Y556.3900
M3S0
G4 P0.5; Tool On
G1 F300 Z0.0000
G1 F15000 X4.0000 Y556.3900 Z0.0000
M3S245
G4 P0.5; Tool Off

G0 Z0; move to z-safe height
G0 X4.0000 Y564.3900
M3S0
G4 P0.5; Tool On
G1 F300 Z0.0000
G1 F15000 X596.0000 Y564.3900 Z0.0000
M3S245
G4 P0.5; Tool Off

G0 Z0; move to z-safe height
G0 X596.0000 Y572.3900
M3S0
G4 P0.5; Tool On
G1 F300 Z0.0000
G1 F15000 X4.0000 Y572.3900 Z0.0000
M3S245
G4 P0.5; Tool Off

G0 Z0; move to z-safe height
G0 X4.0000 Y580.3900
M3S0
G4 P0.5; Tool On
G1 F300 Z0.0000
G1 F15000 X596.0000 Y580.3900 Z0.0000
M3S245
G4 P0.5; Tool Off

G0 Z0; move to z-safe height
G0 X596.0000 Y588.3900
M3S0
G4 P0.5; Tool On
G1 F300 Z0.0000
G1 F15000 X4.0000 Y588.3900 Z0.0000
M3S245
G4 P0.5; Tool Off

G0 Z0; move to z-safe height
G0 X4.0000 Y596.3900
M3S0
G4 P0.5; Tool On
G1 F300 Z0.0000
G1 F15000 X596.0000 Y596.3900 Z0.0000
M3S245
G4 P0.5; Tool Off

G0 Z0; move to z-safe height
G0 X596.0000 Y604.3900
M3S0
G4 P0.5; Tool On
G1 F300 Z0.0000
G1 F15000 X4.0000 Y604.3900 Z0.0000
M3S245
G4 P0.5; Tool Off

G0 Z0; move to z-safe height
G0 X4.0000 Y612.3900
M3S0
G4 P0.5; Tool On
G1 F300 Z0.0000
G1 F15000 X596.0000 Y612.3900 Z0.0000
M3S245
G4 P0.5; Tool Off

G0 Z0; move to z-safe height
G0 X596.0000 Y620.3900
M3S0
G4 P0.5; Tool On
G1 F300 Z0.0000
G1 F15000 X4.0000 Y620.3900 Z0.0000
M3S245
G4 P0.5; Tool Off

G0 Z0; move to z-safe height
G0 X4.0000 Y628.3900
M3S0
G4 P0.5; Tool On
G1 F300 Z0.0000
G1 F15000 X596.0000 Y628.3900 Z0.0000
M3S245
G4 P0.5; Tool Off

G0 Z0; move to z-safe height
G0 X596.0000 Y636.3900
M3S0
G4 P0.5; Tool On
G1 F300 Z0.0000
G1 F15000 X4.0000 Y636.3900 Z0.0000
M3S245
G4 P0.5; Tool Off

G0 Z0; move to z-safe height
G0 X4.0000 Y644.3900
M3S0
G4 P0.5; Tool On
G1 F300 Z0.0000
G1 F15000 X596.0000 Y644.3900 Z0.0000
M3S245
G4 P0.5; Tool Off

G0 Z0; move to z-safe height
G0 X596.0000 Y652.3900
M3S0
G4 P0.5; Tool On
G1 F300 Z0.0000
G1 F15000 X4.0000 Y652.3900 Z0.0000
M3S245
G4 P0.5; Tool Off

G0 Z0; move to z-safe height
G0 X4.0000 Y660.3900
M3S0
G4 P0.5; Tool On
G1 F300 Z0.0000
G1 F15000 X596.0000 Y660.3900 Z0.0000
M3S245
G4 P0.5; Tool Off

G0 Z0; move to z-safe height
G0 X596.0000 Y668.3900
M3S0
G4 P0.5; Tool On
G1 F300 Z0.0000
G1 F15000 X4.0000 Y668.3900 Z0.0000
M3S245
G4 P0.5; Tool Off

G0 Z0; move to z-safe height
G0 X4.0000 Y676.3900
M3S0
G4 P0.5; Tool On
G1 F300 Z0.0000
G1 F15000 X596.0000 Y676.3900 Z0.0000
M3S245
G4 P0.5; Tool Off

G0 Z0; move to z-safe height
G0 X596.0000 Y684.3900
M3S0
G4 P0.5; Tool On
G1 F300 Z0.0000
G1 F15000 X4.0000 Y684.3900 Z0.0000
M3S245
G4 P0.5; Tool Off

G0 Z0; move to z-safe height
G0 X4.0000 Y692.3900
M3S0
G4 P0.5; Tool On
G1 F300 Z0.0000
G1 F15000 X596.0000 Y692.3900 Z0.0000
M3S245
G4 P0.5; Tool Off

G0 Z0; move to z-safe height
G0 X596.0000 Y700.3900
M3S0
G4 P0.5; Tool On
G1 F300 Z0.0000
G1 F15000 X4.0000 Y700.3900 Z0.0000
M3S245
G4 P0.5; Tool Off

G0 Z0; move to z-safe height
G0 X4.0000 Y708.3900
M3S0
G4 P0.5; Tool On
G1 F300 Z0.0000
G1 F15000 X596.0000 Y708.3900 Z0.0000
M3S245
G4 P0.5; Tool Off

G0 Z0; move to z-safe height
G0 X596.0000 Y716.3900
M3S0
G4 P0.5; Tool On
G1 F300 Z0.0000
G1 F15000 X4.0000 Y716.3900 Z0.0000
M3S245
G4 P0.5; Tool Off

G0 Z0; move to z-safe height
G0 X4.0000 Y724.3900
M3S0
G4 P0.5; Tool On
G1 F300 Z0.0000
G1 F15000 X596.0000 Y724.3900 Z0.0000
M3S245
G4 P0.5; Tool Off

G0 Z0; move to z-safe height
G0 X596.0000 Y732.3900
M3S0
G4 P0.5; Tool On
G1 F300 Z0.0000
G1 F15000 X4.0000 Y732.3900 Z0.0000
M3S245
G4 P0.5; Tool Off

G0 Z0; move to z-safe height
G0 X4.0000 Y740.3900
M3S0
G4 P0.5; Tool On
G1 F300 Z0.0000
G1 F15000 X596.0000 Y740.3900 Z0.0000
M3S245
G4 P0.5; Tool Off
; retracting back to z-safe
G0 Z0

; Plotter Mode Complete
