; GCODE Generated by cam.openbuilds.com on 2023-07-26 
G21 ; mm-mode
G54; Work Coordinates
G21; mm-mode
G90; Absolute Positioning
; Plotter Mode Active

; Operation 0: Pen Plotter: (lines fill)
; Pen Diameter: 2

G0 Z0; move to z-safe height
G0 F1000 X591.0000 Y15.4100
M3S0
G4 P0.5; Tool On
G1 F300 Z0.0000
G1 F15000 X9.0000 Y15.4100 Z0.0000
M3S245
G4 P0.5; Tool Off

G0 Z0; move to z-safe height
G0 X9.0000 Y33.4100
M3S0
G4 P0.5; Tool On
G1 F300 Z0.0000
G1 F15000 X591.0000 Y33.4100 Z0.0000
M3S245
G4 P0.5; Tool Off

G0 Z0; move to z-safe height
G0 X591.0000 Y51.4100
M3S0
G4 P0.5; Tool On
G1 F300 Z0.0000
G1 F15000 X9.0000 Y51.4100 Z0.0000
M3S245
G4 P0.5; Tool Off

G0 Z0; move to z-safe height
G0 X9.0000 Y69.4100
M3S0
G4 P0.5; Tool On
G1 F300 Z0.0000
G1 F15000 X591.0000 Y69.4100 Z0.0000
M3S245
G4 P0.5; Tool Off

G0 Z0; move to z-safe height
G0 X591.0000 Y87.4100
M3S0
G4 P0.5; Tool On
G1 F300 Z0.0000
G1 F15000 X9.0000 Y87.4100 Z0.0000
M3S245
G4 P0.5; Tool Off

G0 Z0; move to z-safe height
G0 X9.0000 Y105.4100
M3S0
G4 P0.5; Tool On
G1 F300 Z0.0000
G1 F15000 X591.0000 Y105.4100 Z0.0000
M3S245
G4 P0.5; Tool Off

G0 Z0; move to z-safe height
G0 X591.0000 Y123.4100
M3S0
G4 P0.5; Tool On
G1 F300 Z0.0000
G1 F15000 X9.0000 Y123.4100 Z0.0000
M3S245
G4 P0.5; Tool Off

G0 Z0; move to z-safe height
G0 X9.0000 Y141.4100
M3S0
G4 P0.5; Tool On
G1 F300 Z0.0000
G1 F15000 X591.0000 Y141.4100 Z0.0000
M3S245
G4 P0.5; Tool Off

G0 Z0; move to z-safe height
G0 X591.0000 Y159.4100
M3S0
G4 P0.5; Tool On
G1 F300 Z0.0000
G1 F15000 X9.0000 Y159.4100 Z0.0000
M3S245
G4 P0.5; Tool Off

G0 Z0; move to z-safe height
G0 X9.0000 Y177.4100
M3S0
G4 P0.5; Tool On
G1 F300 Z0.0000
G1 F15000 X591.0000 Y177.4100 Z0.0000
M3S245
G4 P0.5; Tool Off

G0 Z0; move to z-safe height
G0 X591.0000 Y195.4100
M3S0
G4 P0.5; Tool On
G1 F300 Z0.0000
G1 F15000 X9.0000 Y195.4100 Z0.0000
M3S245
G4 P0.5; Tool Off

G0 Z0; move to z-safe height
G0 X9.0000 Y213.4100
M3S0
G4 P0.5; Tool On
G1 F300 Z0.0000
G1 F15000 X591.0000 Y213.4100 Z0.0000
M3S245
G4 P0.5; Tool Off

G0 Z0; move to z-safe height
G0 X591.0000 Y231.4100
M3S0
G4 P0.5; Tool On
G1 F300 Z0.0000
G1 F15000 X9.0000 Y231.4100 Z0.0000
M3S245
G4 P0.5; Tool Off

G0 Z0; move to z-safe height
G0 X9.0000 Y249.4100
M3S0
G4 P0.5; Tool On
G1 F300 Z0.0000
G1 F15000 X591.0000 Y249.4100 Z0.0000
M3S245
G4 P0.5; Tool Off

G0 Z0; move to z-safe height
G0 X591.0000 Y267.4100
M3S0
G4 P0.5; Tool On
G1 F300 Z0.0000
G1 F15000 X9.0000 Y267.4100 Z0.0000
M3S245
G4 P0.5; Tool Off

G0 Z0; move to z-safe height
G0 X9.0000 Y285.4100
M3S0
G4 P0.5; Tool On
G1 F300 Z0.0000
G1 F15000 X591.0000 Y285.4100 Z0.0000
M3S245
G4 P0.5; Tool Off

G0 Z0; move to z-safe height
G0 X591.0000 Y303.4100
M3S0
G4 P0.5; Tool On
G1 F300 Z0.0000
G1 F15000 X9.0000 Y303.4100 Z0.0000
M3S245
G4 P0.5; Tool Off

G0 Z0; move to z-safe height
G0 X9.0000 Y321.4100
M3S0
G4 P0.5; Tool On
G1 F300 Z0.0000
G1 F15000 X591.0000 Y321.4100 Z0.0000
M3S245
G4 P0.5; Tool Off

G0 Z0; move to z-safe height
G0 X591.0000 Y339.4100
M3S0
G4 P0.5; Tool On
G1 F300 Z0.0000
G1 F15000 X9.0000 Y339.4100 Z0.0000
M3S245
G4 P0.5; Tool Off

G0 Z0; move to z-safe height
G0 X9.0000 Y357.4100
M3S0
G4 P0.5; Tool On
G1 F300 Z0.0000
G1 F15000 X591.0000 Y357.4100 Z0.0000
M3S245
G4 P0.5; Tool Off

G0 Z0; move to z-safe height
G0 X591.0000 Y375.4100
M3S0
G4 P0.5; Tool On
G1 F300 Z0.0000
G1 F15000 X9.0000 Y375.4100 Z0.0000
M3S245
G4 P0.5; Tool Off

G0 Z0; move to z-safe height
G0 X9.0000 Y393.4100
M3S0
G4 P0.5; Tool On
G1 F300 Z0.0000
G1 F15000 X591.0000 Y393.4100 Z0.0000
M3S245
G4 P0.5; Tool Off

G0 Z0; move to z-safe height
G0 X591.0000 Y411.4100
M3S0
G4 P0.5; Tool On
G1 F300 Z0.0000
G1 F15000 X9.0000 Y411.4100 Z0.0000
M3S245
G4 P0.5; Tool Off

G0 Z0; move to z-safe height
G0 X9.0000 Y429.4100
M3S0
G4 P0.5; Tool On
G1 F300 Z0.0000
G1 F15000 X591.0000 Y429.4100 Z0.0000
M3S245
G4 P0.5; Tool Off

G0 Z0; move to z-safe height
G0 X591.0000 Y447.4100
M3S0
G4 P0.5; Tool On
G1 F300 Z0.0000
G1 F15000 X9.0000 Y447.4100 Z0.0000
M3S245
G4 P0.5; Tool Off

G0 Z0; move to z-safe height
G0 X9.0000 Y465.4100
M3S0
G4 P0.5; Tool On
G1 F300 Z0.0000
G1 F15000 X591.0000 Y465.4100 Z0.0000
M3S245
G4 P0.5; Tool Off

G0 Z0; move to z-safe height
G0 X591.0000 Y483.4100
M3S0
G4 P0.5; Tool On
G1 F300 Z0.0000
G1 F15000 X9.0000 Y483.4100 Z0.0000
M3S245
G4 P0.5; Tool Off

G0 Z0; move to z-safe height
G0 X9.0000 Y501.4100
M3S0
G4 P0.5; Tool On
G1 F300 Z0.0000
G1 F15000 X591.0000 Y501.4100 Z0.0000
M3S245
G4 P0.5; Tool Off

G0 Z0; move to z-safe height
G0 X591.0000 Y519.4100
M3S0
G4 P0.5; Tool On
G1 F300 Z0.0000
G1 F15000 X9.0000 Y519.4100 Z0.0000
M3S245
G4 P0.5; Tool Off

G0 Z0; move to z-safe height
G0 X9.0000 Y537.4100
M3S0
G4 P0.5; Tool On
G1 F300 Z0.0000
G1 F15000 X591.0000 Y537.4100 Z0.0000
M3S245
G4 P0.5; Tool Off

G0 Z0; move to z-safe height
G0 X591.0000 Y555.4100
M3S0
G4 P0.5; Tool On
G1 F300 Z0.0000
G1 F15000 X9.0000 Y555.4100 Z0.0000
M3S245
G4 P0.5; Tool Off

G0 Z0; move to z-safe height
G0 X9.0000 Y573.4100
M3S0
G4 P0.5; Tool On
G1 F300 Z0.0000
G1 F15000 X591.0000 Y573.4100 Z0.0000
M3S245
G4 P0.5; Tool Off

G0 Z0; move to z-safe height
G0 X591.0000 Y591.4100
M3S0
G4 P0.5; Tool On
G1 F300 Z0.0000
G1 F15000 X9.0000 Y591.4100 Z0.0000
M3S245
G4 P0.5; Tool Off

G0 Z0; move to z-safe height
G0 X9.0000 Y609.4100
M3S0
G4 P0.5; Tool On
G1 F300 Z0.0000
G1 F15000 X591.0000 Y609.4100 Z0.0000
M3S245
G4 P0.5; Tool Off

G0 Z0; move to z-safe height
G0 X591.0000 Y627.4100
M3S0
G4 P0.5; Tool On
G1 F300 Z0.0000
G1 F15000 X9.0000 Y627.4100 Z0.0000
M3S245
G4 P0.5; Tool Off

G0 Z0; move to z-safe height
G0 X9.0000 Y645.4100
M3S0
G4 P0.5; Tool On
G1 F300 Z0.0000
G1 F15000 X591.0000 Y645.4100 Z0.0000
M3S245
G4 P0.5; Tool Off

G0 Z0; move to z-safe height
G0 X591.0000 Y663.4100
M3S0
G4 P0.5; Tool On
G1 F300 Z0.0000
G1 F15000 X9.0000 Y663.4100 Z0.0000
M3S245
G4 P0.5; Tool Off

G0 Z0; move to z-safe height
G0 X9.0000 Y681.4100
M3S0
G4 P0.5; Tool On
G1 F300 Z0.0000
G1 F15000 X591.0000 Y681.4100 Z0.0000
M3S245
G4 P0.5; Tool Off

G0 Z0; move to z-safe height
G0 X591.0000 Y699.4100
M3S0
G4 P0.5; Tool On
G1 F300 Z0.0000
G1 F15000 X9.0000 Y699.4100 Z0.0000
M3S245
G4 P0.5; Tool Off

G0 Z0; move to z-safe height
G0 X9.0000 Y717.4100
M3S0
G4 P0.5; Tool On
G1 F300 Z0.0000
G1 F15000 X591.0000 Y717.4100 Z0.0000
M3S245
G4 P0.5; Tool Off

G0 Z0; move to z-safe height
G0 X591.0000 Y735.4100
M3S0
G4 P0.5; Tool On
G1 F300 Z0.0000
G1 F15000 X9.0000 Y735.4100 Z0.0000
M3S245
G4 P0.5; Tool Off
; retracting back to z-safe
G0 Z0

; Plotter Mode Complete
