; GCODE Generated by cam.openbuilds.com on 2023-05-01 
G21 ; mm-mode
G54; Work Coordinates
G21; mm-mode
G90; Absolute Positioning
; Plotter Mode Active

; Operation 0: Pen Plotter: (lines fill)
; Pen Diameter: 2

G0 Z0; move to z-safe height
G0 F1000 X2.0000 Y5.5800
M3S0
G4 P0.5; Tool On
G1 F300 Z0.0000
G1 F15000 X598.0000 Y5.5800 Z0.0000
M3S245
G4 P0.5; Tool Off

G0 Z0; move to z-safe height
G0 X598.0000 Y9.5800
M3S0
G4 P0.5; Tool On
G1 F300 Z0.0000
G1 F15000 X2.0000 Y9.5800 Z0.0000
M3S245
G4 P0.5; Tool Off

G0 Z0; move to z-safe height
G0 X2.0000 Y13.5800
M3S0
G4 P0.5; Tool On
G1 F300 Z0.0000
G1 F15000 X598.0000 Y13.5800 Z0.0000
M3S245
G4 P0.5; Tool Off

G0 Z0; move to z-safe height
G0 X598.0000 Y17.5800
M3S0
G4 P0.5; Tool On
G1 F300 Z0.0000
G1 F15000 X2.0000 Y17.5800 Z0.0000
M3S245
G4 P0.5; Tool Off

G0 Z0; move to z-safe height
G0 X2.0000 Y21.5800
M3S0
G4 P0.5; Tool On
G1 F300 Z0.0000
G1 F15000 X598.0000 Y21.5800 Z0.0000
M3S245
G4 P0.5; Tool Off

G0 Z0; move to z-safe height
G0 X598.0000 Y25.5800
M3S0
G4 P0.5; Tool On
G1 F300 Z0.0000
G1 F15000 X2.0000 Y25.5800 Z0.0000
M3S245
G4 P0.5; Tool Off

G0 Z0; move to z-safe height
G0 X2.0000 Y29.5800
M3S0
G4 P0.5; Tool On
G1 F300 Z0.0000
G1 F15000 X598.0000 Y29.5800 Z0.0000
M3S245
G4 P0.5; Tool Off

G0 Z0; move to z-safe height
G0 X598.0000 Y33.5800
M3S0
G4 P0.5; Tool On
G1 F300 Z0.0000
G1 F15000 X2.0000 Y33.5800 Z0.0000
M3S245
G4 P0.5; Tool Off

G0 Z0; move to z-safe height
G0 X2.0000 Y37.5800
M3S0
G4 P0.5; Tool On
G1 F300 Z0.0000
G1 F15000 X598.0000 Y37.5800 Z0.0000
M3S245
G4 P0.5; Tool Off

G0 Z0; move to z-safe height
G0 X598.0000 Y41.5800
M3S0
G4 P0.5; Tool On
G1 F300 Z0.0000
G1 F15000 X2.0000 Y41.5800 Z0.0000
M3S245
G4 P0.5; Tool Off

G0 Z0; move to z-safe height
G0 X2.0000 Y45.5800
M3S0
G4 P0.5; Tool On
G1 F300 Z0.0000
G1 F15000 X598.0000 Y45.5800 Z0.0000
M3S245
G4 P0.5; Tool Off

G0 Z0; move to z-safe height
G0 X598.0000 Y49.5800
M3S0
G4 P0.5; Tool On
G1 F300 Z0.0000
G1 F15000 X2.0000 Y49.5800 Z0.0000
M3S245
G4 P0.5; Tool Off

G0 Z0; move to z-safe height
G0 X2.0000 Y53.5800
M3S0
G4 P0.5; Tool On
G1 F300 Z0.0000
G1 F15000 X598.0000 Y53.5800 Z0.0000
M3S245
G4 P0.5; Tool Off

G0 Z0; move to z-safe height
G0 X598.0000 Y57.5800
M3S0
G4 P0.5; Tool On
G1 F300 Z0.0000
G1 F15000 X2.0000 Y57.5800 Z0.0000
M3S245
G4 P0.5; Tool Off

G0 Z0; move to z-safe height
G0 X2.0000 Y61.5800
M3S0
G4 P0.5; Tool On
G1 F300 Z0.0000
G1 F15000 X598.0000 Y61.5800 Z0.0000
M3S245
G4 P0.5; Tool Off

G0 Z0; move to z-safe height
G0 X598.0000 Y65.5800
M3S0
G4 P0.5; Tool On
G1 F300 Z0.0000
G1 F15000 X2.0000 Y65.5800 Z0.0000
M3S245
G4 P0.5; Tool Off

G0 Z0; move to z-safe height
G0 X2.0000 Y69.5800
M3S0
G4 P0.5; Tool On
G1 F300 Z0.0000
G1 F15000 X598.0000 Y69.5800 Z0.0000
M3S245
G4 P0.5; Tool Off

G0 Z0; move to z-safe height
G0 X598.0000 Y73.5800
M3S0
G4 P0.5; Tool On
G1 F300 Z0.0000
G1 F15000 X2.0000 Y73.5800 Z0.0000
M3S245
G4 P0.5; Tool Off

G0 Z0; move to z-safe height
G0 X2.0000 Y77.5800
M3S0
G4 P0.5; Tool On
G1 F300 Z0.0000
G1 F15000 X598.0000 Y77.5800 Z0.0000
M3S245
G4 P0.5; Tool Off

G0 Z0; move to z-safe height
G0 X598.0000 Y81.5800
M3S0
G4 P0.5; Tool On
G1 F300 Z0.0000
G1 F15000 X2.0000 Y81.5800 Z0.0000
M3S245
G4 P0.5; Tool Off

G0 Z0; move to z-safe height
G0 X2.0000 Y85.5800
M3S0
G4 P0.5; Tool On
G1 F300 Z0.0000
G1 F15000 X598.0000 Y85.5800 Z0.0000
M3S245
G4 P0.5; Tool Off

G0 Z0; move to z-safe height
G0 X598.0000 Y89.5800
M3S0
G4 P0.5; Tool On
G1 F300 Z0.0000
G1 F15000 X2.0000 Y89.5800 Z0.0000
M3S245
G4 P0.5; Tool Off

G0 Z0; move to z-safe height
G0 X2.0000 Y93.5800
M3S0
G4 P0.5; Tool On
G1 F300 Z0.0000
G1 F15000 X598.0000 Y93.5800 Z0.0000
M3S245
G4 P0.5; Tool Off

G0 Z0; move to z-safe height
G0 X598.0000 Y97.5800
M3S0
G4 P0.5; Tool On
G1 F300 Z0.0000
G1 F15000 X2.0000 Y97.5800 Z0.0000
M3S245
G4 P0.5; Tool Off

G0 Z0; move to z-safe height
G0 X2.0000 Y101.5800
M3S0
G4 P0.5; Tool On
G1 F300 Z0.0000
G1 F15000 X598.0000 Y101.5800 Z0.0000
M3S245
G4 P0.5; Tool Off

G0 Z0; move to z-safe height
G0 X598.0000 Y105.5800
M3S0
G4 P0.5; Tool On
G1 F300 Z0.0000
G1 F15000 X2.0000 Y105.5800 Z0.0000
M3S245
G4 P0.5; Tool Off

G0 Z0; move to z-safe height
G0 X2.0000 Y109.5800
M3S0
G4 P0.5; Tool On
G1 F300 Z0.0000
G1 F15000 X598.0000 Y109.5800 Z0.0000
M3S245
G4 P0.5; Tool Off

G0 Z0; move to z-safe height
G0 X598.0000 Y113.5800
M3S0
G4 P0.5; Tool On
G1 F300 Z0.0000
G1 F15000 X2.0000 Y113.5800 Z0.0000
M3S245
G4 P0.5; Tool Off

G0 Z0; move to z-safe height
G0 X2.0000 Y117.5800
M3S0
G4 P0.5; Tool On
G1 F300 Z0.0000
G1 F15000 X598.0000 Y117.5800 Z0.0000
M3S245
G4 P0.5; Tool Off

G0 Z0; move to z-safe height
G0 X598.0000 Y121.5800
M3S0
G4 P0.5; Tool On
G1 F300 Z0.0000
G1 F15000 X2.0000 Y121.5800 Z0.0000
M3S245
G4 P0.5; Tool Off

G0 Z0; move to z-safe height
G0 X2.0000 Y125.5800
M3S0
G4 P0.5; Tool On
G1 F300 Z0.0000
G1 F15000 X598.0000 Y125.5800 Z0.0000
M3S245
G4 P0.5; Tool Off

G0 Z0; move to z-safe height
G0 X598.0000 Y129.5800
M3S0
G4 P0.5; Tool On
G1 F300 Z0.0000
G1 F15000 X2.0000 Y129.5800 Z0.0000
M3S245
G4 P0.5; Tool Off

G0 Z0; move to z-safe height
G0 X2.0000 Y133.5800
M3S0
G4 P0.5; Tool On
G1 F300 Z0.0000
G1 F15000 X598.0000 Y133.5800 Z0.0000
M3S245
G4 P0.5; Tool Off

G0 Z0; move to z-safe height
G0 X598.0000 Y137.5800
M3S0
G4 P0.5; Tool On
G1 F300 Z0.0000
G1 F15000 X2.0000 Y137.5800 Z0.0000
M3S245
G4 P0.5; Tool Off

G0 Z0; move to z-safe height
G0 X2.0000 Y141.5800
M3S0
G4 P0.5; Tool On
G1 F300 Z0.0000
G1 F15000 X598.0000 Y141.5800 Z0.0000
M3S245
G4 P0.5; Tool Off

G0 Z0; move to z-safe height
G0 X598.0000 Y145.5800
M3S0
G4 P0.5; Tool On
G1 F300 Z0.0000
G1 F15000 X2.0000 Y145.5800 Z0.0000
M3S245
G4 P0.5; Tool Off

G0 Z0; move to z-safe height
G0 X2.0000 Y149.5800
M3S0
G4 P0.5; Tool On
G1 F300 Z0.0000
G1 F15000 X598.0000 Y149.5800 Z0.0000
M3S245
G4 P0.5; Tool Off

G0 Z0; move to z-safe height
G0 X598.0000 Y153.5800
M3S0
G4 P0.5; Tool On
G1 F300 Z0.0000
G1 F15000 X2.0000 Y153.5800 Z0.0000
M3S245
G4 P0.5; Tool Off

G0 Z0; move to z-safe height
G0 X2.0000 Y157.5800
M3S0
G4 P0.5; Tool On
G1 F300 Z0.0000
G1 F15000 X598.0000 Y157.5800 Z0.0000
M3S245
G4 P0.5; Tool Off

G0 Z0; move to z-safe height
G0 X598.0000 Y161.5800
M3S0
G4 P0.5; Tool On
G1 F300 Z0.0000
G1 F15000 X2.0000 Y161.5800 Z0.0000
M3S245
G4 P0.5; Tool Off

G0 Z0; move to z-safe height
G0 X2.0000 Y165.5800
M3S0
G4 P0.5; Tool On
G1 F300 Z0.0000
G1 F15000 X598.0000 Y165.5800 Z0.0000
M3S245
G4 P0.5; Tool Off

G0 Z0; move to z-safe height
G0 X598.0000 Y169.5800
M3S0
G4 P0.5; Tool On
G1 F300 Z0.0000
G1 F15000 X2.0000 Y169.5800 Z0.0000
M3S245
G4 P0.5; Tool Off

G0 Z0; move to z-safe height
G0 X2.0000 Y173.5800
M3S0
G4 P0.5; Tool On
G1 F300 Z0.0000
G1 F15000 X598.0000 Y173.5800 Z0.0000
M3S245
G4 P0.5; Tool Off

G0 Z0; move to z-safe height
G0 X598.0000 Y177.5800
M3S0
G4 P0.5; Tool On
G1 F300 Z0.0000
G1 F15000 X2.0000 Y177.5800 Z0.0000
M3S245
G4 P0.5; Tool Off

G0 Z0; move to z-safe height
G0 X2.0000 Y181.5800
M3S0
G4 P0.5; Tool On
G1 F300 Z0.0000
G1 F15000 X598.0000 Y181.5800 Z0.0000
M3S245
G4 P0.5; Tool Off

G0 Z0; move to z-safe height
G0 X598.0000 Y185.5800
M3S0
G4 P0.5; Tool On
G1 F300 Z0.0000
G1 F15000 X2.0000 Y185.5800 Z0.0000
M3S245
G4 P0.5; Tool Off

G0 Z0; move to z-safe height
G0 X2.0000 Y189.5800
M3S0
G4 P0.5; Tool On
G1 F300 Z0.0000
G1 F15000 X598.0000 Y189.5800 Z0.0000
M3S245
G4 P0.5; Tool Off

G0 Z0; move to z-safe height
G0 X598.0000 Y193.5800
M3S0
G4 P0.5; Tool On
G1 F300 Z0.0000
G1 F15000 X2.0000 Y193.5800 Z0.0000
M3S245
G4 P0.5; Tool Off

G0 Z0; move to z-safe height
G0 X2.0000 Y197.5800
M3S0
G4 P0.5; Tool On
G1 F300 Z0.0000
G1 F15000 X598.0000 Y197.5800 Z0.0000
M3S245
G4 P0.5; Tool Off

G0 Z0; move to z-safe height
G0 X598.0000 Y201.5800
M3S0
G4 P0.5; Tool On
G1 F300 Z0.0000
G1 F15000 X2.0000 Y201.5800 Z0.0000
M3S245
G4 P0.5; Tool Off

G0 Z0; move to z-safe height
G0 X2.0000 Y205.5800
M3S0
G4 P0.5; Tool On
G1 F300 Z0.0000
G1 F15000 X598.0000 Y205.5800 Z0.0000
M3S245
G4 P0.5; Tool Off

G0 Z0; move to z-safe height
G0 X598.0000 Y209.5800
M3S0
G4 P0.5; Tool On
G1 F300 Z0.0000
G1 F15000 X2.0000 Y209.5800 Z0.0000
M3S245
G4 P0.5; Tool Off

G0 Z0; move to z-safe height
G0 X2.0000 Y213.5800
M3S0
G4 P0.5; Tool On
G1 F300 Z0.0000
G1 F15000 X598.0000 Y213.5800 Z0.0000
M3S245
G4 P0.5; Tool Off

G0 Z0; move to z-safe height
G0 X598.0000 Y217.5800
M3S0
G4 P0.5; Tool On
G1 F300 Z0.0000
G1 F15000 X2.0000 Y217.5800 Z0.0000
M3S245
G4 P0.5; Tool Off

G0 Z0; move to z-safe height
G0 X2.0000 Y221.5800
M3S0
G4 P0.5; Tool On
G1 F300 Z0.0000
G1 F15000 X598.0000 Y221.5800 Z0.0000
M3S245
G4 P0.5; Tool Off

G0 Z0; move to z-safe height
G0 X598.0000 Y225.5800
M3S0
G4 P0.5; Tool On
G1 F300 Z0.0000
G1 F15000 X2.0000 Y225.5800 Z0.0000
M3S245
G4 P0.5; Tool Off

G0 Z0; move to z-safe height
G0 X2.0000 Y229.5800
M3S0
G4 P0.5; Tool On
G1 F300 Z0.0000
G1 F15000 X598.0000 Y229.5800 Z0.0000
M3S245
G4 P0.5; Tool Off

G0 Z0; move to z-safe height
G0 X598.0000 Y233.5800
M3S0
G4 P0.5; Tool On
G1 F300 Z0.0000
G1 F15000 X2.0000 Y233.5800 Z0.0000
M3S245
G4 P0.5; Tool Off

G0 Z0; move to z-safe height
G0 X2.0000 Y237.5800
M3S0
G4 P0.5; Tool On
G1 F300 Z0.0000
G1 F15000 X598.0000 Y237.5800 Z0.0000
M3S245
G4 P0.5; Tool Off

G0 Z0; move to z-safe height
G0 X598.0000 Y241.5800
M3S0
G4 P0.5; Tool On
G1 F300 Z0.0000
G1 F15000 X2.0000 Y241.5800 Z0.0000
M3S245
G4 P0.5; Tool Off

G0 Z0; move to z-safe height
G0 X2.0000 Y245.5800
M3S0
G4 P0.5; Tool On
G1 F300 Z0.0000
G1 F15000 X598.0000 Y245.5800 Z0.0000
M3S245
G4 P0.5; Tool Off

G0 Z0; move to z-safe height
G0 X598.0000 Y249.5800
M3S0
G4 P0.5; Tool On
G1 F300 Z0.0000
G1 F15000 X2.0000 Y249.5800 Z0.0000
M3S245
G4 P0.5; Tool Off

G0 Z0; move to z-safe height
G0 X2.0000 Y253.5800
M3S0
G4 P0.5; Tool On
G1 F300 Z0.0000
G1 F15000 X598.0000 Y253.5800 Z0.0000
M3S245
G4 P0.5; Tool Off

G0 Z0; move to z-safe height
G0 X598.0000 Y257.5800
M3S0
G4 P0.5; Tool On
G1 F300 Z0.0000
G1 F15000 X2.0000 Y257.5800 Z0.0000
M3S245
G4 P0.5; Tool Off

G0 Z0; move to z-safe height
G0 X2.0000 Y261.5800
M3S0
G4 P0.5; Tool On
G1 F300 Z0.0000
G1 F15000 X598.0000 Y261.5800 Z0.0000
M3S245
G4 P0.5; Tool Off

G0 Z0; move to z-safe height
G0 X598.0000 Y265.5800
M3S0
G4 P0.5; Tool On
G1 F300 Z0.0000
G1 F15000 X2.0000 Y265.5800 Z0.0000
M3S245
G4 P0.5; Tool Off

G0 Z0; move to z-safe height
G0 X2.0000 Y269.5800
M3S0
G4 P0.5; Tool On
G1 F300 Z0.0000
G1 F15000 X598.0000 Y269.5800 Z0.0000
M3S245
G4 P0.5; Tool Off

G0 Z0; move to z-safe height
G0 X598.0000 Y273.5800
M3S0
G4 P0.5; Tool On
G1 F300 Z0.0000
G1 F15000 X2.0000 Y273.5800 Z0.0000
M3S245
G4 P0.5; Tool Off

G0 Z0; move to z-safe height
G0 X2.0000 Y277.5800
M3S0
G4 P0.5; Tool On
G1 F300 Z0.0000
G1 F15000 X598.0000 Y277.5800 Z0.0000
M3S245
G4 P0.5; Tool Off

G0 Z0; move to z-safe height
G0 X598.0000 Y281.5800
M3S0
G4 P0.5; Tool On
G1 F300 Z0.0000
G1 F15000 X2.0000 Y281.5800 Z0.0000
M3S245
G4 P0.5; Tool Off

G0 Z0; move to z-safe height
G0 X2.0000 Y285.5800
M3S0
G4 P0.5; Tool On
G1 F300 Z0.0000
G1 F15000 X598.0000 Y285.5800 Z0.0000
M3S245
G4 P0.5; Tool Off

G0 Z0; move to z-safe height
G0 X598.0000 Y289.5800
M3S0
G4 P0.5; Tool On
G1 F300 Z0.0000
G1 F15000 X2.0000 Y289.5800 Z0.0000
M3S245
G4 P0.5; Tool Off

G0 Z0; move to z-safe height
G0 X2.0000 Y293.5800
M3S0
G4 P0.5; Tool On
G1 F300 Z0.0000
G1 F15000 X598.0000 Y293.5800 Z0.0000
M3S245
G4 P0.5; Tool Off

G0 Z0; move to z-safe height
G0 X598.0000 Y297.5800
M3S0
G4 P0.5; Tool On
G1 F300 Z0.0000
G1 F15000 X2.0000 Y297.5800 Z0.0000
M3S245
G4 P0.5; Tool Off

G0 Z0; move to z-safe height
G0 X2.0000 Y301.5800
M3S0
G4 P0.5; Tool On
G1 F300 Z0.0000
G1 F15000 X598.0000 Y301.5800 Z0.0000
M3S245
G4 P0.5; Tool Off

G0 Z0; move to z-safe height
G0 X598.0000 Y305.5800
M3S0
G4 P0.5; Tool On
G1 F300 Z0.0000
G1 F15000 X2.0000 Y305.5800 Z0.0000
M3S245
G4 P0.5; Tool Off

G0 Z0; move to z-safe height
G0 X2.0000 Y309.5800
M3S0
G4 P0.5; Tool On
G1 F300 Z0.0000
G1 F15000 X598.0000 Y309.5800 Z0.0000
M3S245
G4 P0.5; Tool Off

G0 Z0; move to z-safe height
G0 X598.0000 Y313.5800
M3S0
G4 P0.5; Tool On
G1 F300 Z0.0000
G1 F15000 X2.0000 Y313.5800 Z0.0000
M3S245
G4 P0.5; Tool Off

G0 Z0; move to z-safe height
G0 X2.0000 Y317.5800
M3S0
G4 P0.5; Tool On
G1 F300 Z0.0000
G1 F15000 X598.0000 Y317.5800 Z0.0000
M3S245
G4 P0.5; Tool Off

G0 Z0; move to z-safe height
G0 X598.0000 Y321.5800
M3S0
G4 P0.5; Tool On
G1 F300 Z0.0000
G1 F15000 X2.0000 Y321.5800 Z0.0000
M3S245
G4 P0.5; Tool Off

G0 Z0; move to z-safe height
G0 X2.0000 Y325.5800
M3S0
G4 P0.5; Tool On
G1 F300 Z0.0000
G1 F15000 X598.0000 Y325.5800 Z0.0000
M3S245
G4 P0.5; Tool Off

G0 Z0; move to z-safe height
G0 X598.0000 Y329.5800
M3S0
G4 P0.5; Tool On
G1 F300 Z0.0000
G1 F15000 X2.0000 Y329.5800 Z0.0000
M3S245
G4 P0.5; Tool Off

G0 Z0; move to z-safe height
G0 X2.0000 Y333.5800
M3S0
G4 P0.5; Tool On
G1 F300 Z0.0000
G1 F15000 X598.0000 Y333.5800 Z0.0000
M3S245
G4 P0.5; Tool Off

G0 Z0; move to z-safe height
G0 X598.0000 Y337.5800
M3S0
G4 P0.5; Tool On
G1 F300 Z0.0000
G1 F15000 X2.0000 Y337.5800 Z0.0000
M3S245
G4 P0.5; Tool Off

G0 Z0; move to z-safe height
G0 X2.0000 Y341.5800
M3S0
G4 P0.5; Tool On
G1 F300 Z0.0000
G1 F15000 X598.0000 Y341.5800 Z0.0000
M3S245
G4 P0.5; Tool Off

G0 Z0; move to z-safe height
G0 X598.0000 Y345.5800
M3S0
G4 P0.5; Tool On
G1 F300 Z0.0000
G1 F15000 X2.0000 Y345.5800 Z0.0000
M3S245
G4 P0.5; Tool Off

G0 Z0; move to z-safe height
G0 X2.0000 Y349.5800
M3S0
G4 P0.5; Tool On
G1 F300 Z0.0000
G1 F15000 X598.0000 Y349.5800 Z0.0000
M3S245
G4 P0.5; Tool Off

G0 Z0; move to z-safe height
G0 X598.0000 Y353.5800
M3S0
G4 P0.5; Tool On
G1 F300 Z0.0000
G1 F15000 X2.0000 Y353.5800 Z0.0000
M3S245
G4 P0.5; Tool Off

G0 Z0; move to z-safe height
G0 X2.0000 Y357.5800
M3S0
G4 P0.5; Tool On
G1 F300 Z0.0000
G1 F15000 X598.0000 Y357.5800 Z0.0000
M3S245
G4 P0.5; Tool Off

G0 Z0; move to z-safe height
G0 X598.0000 Y361.5800
M3S0
G4 P0.5; Tool On
G1 F300 Z0.0000
G1 F15000 X2.0000 Y361.5800 Z0.0000
M3S245
G4 P0.5; Tool Off

G0 Z0; move to z-safe height
G0 X2.0000 Y365.5800
M3S0
G4 P0.5; Tool On
G1 F300 Z0.0000
G1 F15000 X598.0000 Y365.5800 Z0.0000
M3S245
G4 P0.5; Tool Off

G0 Z0; move to z-safe height
G0 X598.0000 Y369.5800
M3S0
G4 P0.5; Tool On
G1 F300 Z0.0000
G1 F15000 X2.0000 Y369.5800 Z0.0000
M3S245
G4 P0.5; Tool Off

G0 Z0; move to z-safe height
G0 X2.0000 Y373.5800
M3S0
G4 P0.5; Tool On
G1 F300 Z0.0000
G1 F15000 X598.0000 Y373.5800 Z0.0000
M3S245
G4 P0.5; Tool Off

G0 Z0; move to z-safe height
G0 X598.0000 Y377.5800
M3S0
G4 P0.5; Tool On
G1 F300 Z0.0000
G1 F15000 X2.0000 Y377.5800 Z0.0000
M3S245
G4 P0.5; Tool Off

G0 Z0; move to z-safe height
G0 X2.0000 Y381.5800
M3S0
G4 P0.5; Tool On
G1 F300 Z0.0000
G1 F15000 X598.0000 Y381.5800 Z0.0000
M3S245
G4 P0.5; Tool Off

G0 Z0; move to z-safe height
G0 X598.0000 Y385.5800
M3S0
G4 P0.5; Tool On
G1 F300 Z0.0000
G1 F15000 X2.0000 Y385.5800 Z0.0000
M3S245
G4 P0.5; Tool Off

G0 Z0; move to z-safe height
G0 X2.0000 Y389.5800
M3S0
G4 P0.5; Tool On
G1 F300 Z0.0000
G1 F15000 X598.0000 Y389.5800 Z0.0000
M3S245
G4 P0.5; Tool Off

G0 Z0; move to z-safe height
G0 X598.0000 Y393.5800
M3S0
G4 P0.5; Tool On
G1 F300 Z0.0000
G1 F15000 X2.0000 Y393.5800 Z0.0000
M3S245
G4 P0.5; Tool Off

G0 Z0; move to z-safe height
G0 X2.0000 Y397.5800
M3S0
G4 P0.5; Tool On
G1 F300 Z0.0000
G1 F15000 X598.0000 Y397.5800 Z0.0000
M3S245
G4 P0.5; Tool Off

G0 Z0; move to z-safe height
G0 X598.0000 Y401.5800
M3S0
G4 P0.5; Tool On
G1 F300 Z0.0000
G1 F15000 X2.0000 Y401.5800 Z0.0000
M3S245
G4 P0.5; Tool Off

G0 Z0; move to z-safe height
G0 X2.0000 Y405.5800
M3S0
G4 P0.5; Tool On
G1 F300 Z0.0000
G1 F15000 X598.0000 Y405.5800 Z0.0000
M3S245
G4 P0.5; Tool Off

G0 Z0; move to z-safe height
G0 X598.0000 Y409.5800
M3S0
G4 P0.5; Tool On
G1 F300 Z0.0000
G1 F15000 X2.0000 Y409.5800 Z0.0000
M3S245
G4 P0.5; Tool Off

G0 Z0; move to z-safe height
G0 X2.0000 Y413.5800
M3S0
G4 P0.5; Tool On
G1 F300 Z0.0000
G1 F15000 X598.0000 Y413.5800 Z0.0000
M3S245
G4 P0.5; Tool Off

G0 Z0; move to z-safe height
G0 X598.0000 Y417.5800
M3S0
G4 P0.5; Tool On
G1 F300 Z0.0000
G1 F15000 X2.0000 Y417.5800 Z0.0000
M3S245
G4 P0.5; Tool Off

G0 Z0; move to z-safe height
G0 X2.0000 Y421.5800
M3S0
G4 P0.5; Tool On
G1 F300 Z0.0000
G1 F15000 X598.0000 Y421.5800 Z0.0000
M3S245
G4 P0.5; Tool Off

G0 Z0; move to z-safe height
G0 X598.0000 Y425.5800
M3S0
G4 P0.5; Tool On
G1 F300 Z0.0000
G1 F15000 X2.0000 Y425.5800 Z0.0000
M3S245
G4 P0.5; Tool Off

G0 Z0; move to z-safe height
G0 X2.0000 Y429.5800
M3S0
G4 P0.5; Tool On
G1 F300 Z0.0000
G1 F15000 X598.0000 Y429.5800 Z0.0000
M3S245
G4 P0.5; Tool Off

G0 Z0; move to z-safe height
G0 X598.0000 Y433.5800
M3S0
G4 P0.5; Tool On
G1 F300 Z0.0000
G1 F15000 X2.0000 Y433.5800 Z0.0000
M3S245
G4 P0.5; Tool Off

G0 Z0; move to z-safe height
G0 X2.0000 Y437.5800
M3S0
G4 P0.5; Tool On
G1 F300 Z0.0000
G1 F15000 X598.0000 Y437.5800 Z0.0000
M3S245
G4 P0.5; Tool Off

G0 Z0; move to z-safe height
G0 X598.0000 Y441.5800
M3S0
G4 P0.5; Tool On
G1 F300 Z0.0000
G1 F15000 X2.0000 Y441.5800 Z0.0000
M3S245
G4 P0.5; Tool Off

G0 Z0; move to z-safe height
G0 X2.0000 Y445.5800
M3S0
G4 P0.5; Tool On
G1 F300 Z0.0000
G1 F15000 X598.0000 Y445.5800 Z0.0000
M3S245
G4 P0.5; Tool Off

G0 Z0; move to z-safe height
G0 X598.0000 Y449.5800
M3S0
G4 P0.5; Tool On
G1 F300 Z0.0000
G1 F15000 X2.0000 Y449.5800 Z0.0000
M3S245
G4 P0.5; Tool Off

G0 Z0; move to z-safe height
G0 X2.0000 Y453.5800
M3S0
G4 P0.5; Tool On
G1 F300 Z0.0000
G1 F15000 X598.0000 Y453.5800 Z0.0000
M3S245
G4 P0.5; Tool Off

G0 Z0; move to z-safe height
G0 X598.0000 Y457.5800
M3S0
G4 P0.5; Tool On
G1 F300 Z0.0000
G1 F15000 X2.0000 Y457.5800 Z0.0000
M3S245
G4 P0.5; Tool Off

G0 Z0; move to z-safe height
G0 X2.0000 Y461.5800
M3S0
G4 P0.5; Tool On
G1 F300 Z0.0000
G1 F15000 X598.0000 Y461.5800 Z0.0000
M3S245
G4 P0.5; Tool Off

G0 Z0; move to z-safe height
G0 X598.0000 Y465.5800
M3S0
G4 P0.5; Tool On
G1 F300 Z0.0000
G1 F15000 X2.0000 Y465.5800 Z0.0000
M3S245
G4 P0.5; Tool Off

G0 Z0; move to z-safe height
G0 X2.0000 Y469.5800
M3S0
G4 P0.5; Tool On
G1 F300 Z0.0000
G1 F15000 X598.0000 Y469.5800 Z0.0000
M3S245
G4 P0.5; Tool Off

G0 Z0; move to z-safe height
G0 X598.0000 Y473.5800
M3S0
G4 P0.5; Tool On
G1 F300 Z0.0000
G1 F15000 X2.0000 Y473.5800 Z0.0000
M3S245
G4 P0.5; Tool Off

G0 Z0; move to z-safe height
G0 X2.0000 Y477.5800
M3S0
G4 P0.5; Tool On
G1 F300 Z0.0000
G1 F15000 X598.0000 Y477.5800 Z0.0000
M3S245
G4 P0.5; Tool Off

G0 Z0; move to z-safe height
G0 X598.0000 Y481.5800
M3S0
G4 P0.5; Tool On
G1 F300 Z0.0000
G1 F15000 X2.0000 Y481.5800 Z0.0000
M3S245
G4 P0.5; Tool Off

G0 Z0; move to z-safe height
G0 X2.0000 Y485.5800
M3S0
G4 P0.5; Tool On
G1 F300 Z0.0000
G1 F15000 X598.0000 Y485.5800 Z0.0000
M3S245
G4 P0.5; Tool Off

G0 Z0; move to z-safe height
G0 X598.0000 Y489.5800
M3S0
G4 P0.5; Tool On
G1 F300 Z0.0000
G1 F15000 X2.0000 Y489.5800 Z0.0000
M3S245
G4 P0.5; Tool Off

G0 Z0; move to z-safe height
G0 X2.0000 Y493.5800
M3S0
G4 P0.5; Tool On
G1 F300 Z0.0000
G1 F15000 X598.0000 Y493.5800 Z0.0000
M3S245
G4 P0.5; Tool Off

G0 Z0; move to z-safe height
G0 X598.0000 Y497.5800
M3S0
G4 P0.5; Tool On
G1 F300 Z0.0000
G1 F15000 X2.0000 Y497.5800 Z0.0000
M3S245
G4 P0.5; Tool Off

G0 Z0; move to z-safe height
G0 X2.0000 Y501.5800
M3S0
G4 P0.5; Tool On
G1 F300 Z0.0000
G1 F15000 X598.0000 Y501.5800 Z0.0000
M3S245
G4 P0.5; Tool Off

G0 Z0; move to z-safe height
G0 X598.0000 Y505.5800
M3S0
G4 P0.5; Tool On
G1 F300 Z0.0000
G1 F15000 X2.0000 Y505.5800 Z0.0000
M3S245
G4 P0.5; Tool Off

G0 Z0; move to z-safe height
G0 X2.0000 Y509.5800
M3S0
G4 P0.5; Tool On
G1 F300 Z0.0000
G1 F15000 X598.0000 Y509.5800 Z0.0000
M3S245
G4 P0.5; Tool Off

G0 Z0; move to z-safe height
G0 X598.0000 Y513.5800
M3S0
G4 P0.5; Tool On
G1 F300 Z0.0000
G1 F15000 X2.0000 Y513.5800 Z0.0000
M3S245
G4 P0.5; Tool Off

G0 Z0; move to z-safe height
G0 X2.0000 Y517.5800
M3S0
G4 P0.5; Tool On
G1 F300 Z0.0000
G1 F15000 X598.0000 Y517.5800 Z0.0000
M3S245
G4 P0.5; Tool Off

G0 Z0; move to z-safe height
G0 X598.0000 Y521.5800
M3S0
G4 P0.5; Tool On
G1 F300 Z0.0000
G1 F15000 X2.0000 Y521.5800 Z0.0000
M3S245
G4 P0.5; Tool Off

G0 Z0; move to z-safe height
G0 X2.0000 Y525.5800
M3S0
G4 P0.5; Tool On
G1 F300 Z0.0000
G1 F15000 X598.0000 Y525.5800 Z0.0000
M3S245
G4 P0.5; Tool Off

G0 Z0; move to z-safe height
G0 X598.0000 Y529.5800
M3S0
G4 P0.5; Tool On
G1 F300 Z0.0000
G1 F15000 X2.0000 Y529.5800 Z0.0000
M3S245
G4 P0.5; Tool Off

G0 Z0; move to z-safe height
G0 X2.0000 Y533.5800
M3S0
G4 P0.5; Tool On
G1 F300 Z0.0000
G1 F15000 X598.0000 Y533.5800 Z0.0000
M3S245
G4 P0.5; Tool Off

G0 Z0; move to z-safe height
G0 X598.0000 Y537.5800
M3S0
G4 P0.5; Tool On
G1 F300 Z0.0000
G1 F15000 X2.0000 Y537.5800 Z0.0000
M3S245
G4 P0.5; Tool Off

G0 Z0; move to z-safe height
G0 X2.0000 Y541.5800
M3S0
G4 P0.5; Tool On
G1 F300 Z0.0000
G1 F15000 X598.0000 Y541.5800 Z0.0000
M3S245
G4 P0.5; Tool Off

G0 Z0; move to z-safe height
G0 X598.0000 Y545.5800
M3S0
G4 P0.5; Tool On
G1 F300 Z0.0000
G1 F15000 X2.0000 Y545.5800 Z0.0000
M3S245
G4 P0.5; Tool Off

G0 Z0; move to z-safe height
G0 X2.0000 Y549.5800
M3S0
G4 P0.5; Tool On
G1 F300 Z0.0000
G1 F15000 X598.0000 Y549.5800 Z0.0000
M3S245
G4 P0.5; Tool Off

G0 Z0; move to z-safe height
G0 X598.0000 Y553.5800
M3S0
G4 P0.5; Tool On
G1 F300 Z0.0000
G1 F15000 X2.0000 Y553.5800 Z0.0000
M3S245
G4 P0.5; Tool Off

G0 Z0; move to z-safe height
G0 X2.0000 Y557.5800
M3S0
G4 P0.5; Tool On
G1 F300 Z0.0000
G1 F15000 X598.0000 Y557.5800 Z0.0000
M3S245
G4 P0.5; Tool Off

G0 Z0; move to z-safe height
G0 X598.0000 Y561.5800
M3S0
G4 P0.5; Tool On
G1 F300 Z0.0000
G1 F15000 X2.0000 Y561.5800 Z0.0000
M3S245
G4 P0.5; Tool Off

G0 Z0; move to z-safe height
G0 X2.0000 Y565.5800
M3S0
G4 P0.5; Tool On
G1 F300 Z0.0000
G1 F15000 X598.0000 Y565.5800 Z0.0000
M3S245
G4 P0.5; Tool Off

G0 Z0; move to z-safe height
G0 X598.0000 Y569.5800
M3S0
G4 P0.5; Tool On
G1 F300 Z0.0000
G1 F15000 X2.0000 Y569.5800 Z0.0000
M3S245
G4 P0.5; Tool Off

G0 Z0; move to z-safe height
G0 X2.0000 Y573.5800
M3S0
G4 P0.5; Tool On
G1 F300 Z0.0000
G1 F15000 X598.0000 Y573.5800 Z0.0000
M3S245
G4 P0.5; Tool Off

G0 Z0; move to z-safe height
G0 X598.0000 Y577.5800
M3S0
G4 P0.5; Tool On
G1 F300 Z0.0000
G1 F15000 X2.0000 Y577.5800 Z0.0000
M3S245
G4 P0.5; Tool Off

G0 Z0; move to z-safe height
G0 X2.0000 Y581.5800
M3S0
G4 P0.5; Tool On
G1 F300 Z0.0000
G1 F15000 X598.0000 Y581.5800 Z0.0000
M3S245
G4 P0.5; Tool Off

G0 Z0; move to z-safe height
G0 X598.0000 Y585.5800
M3S0
G4 P0.5; Tool On
G1 F300 Z0.0000
G1 F15000 X2.0000 Y585.5800 Z0.0000
M3S245
G4 P0.5; Tool Off

G0 Z0; move to z-safe height
G0 X2.0000 Y589.5800
M3S0
G4 P0.5; Tool On
G1 F300 Z0.0000
G1 F15000 X598.0000 Y589.5800 Z0.0000
M3S245
G4 P0.5; Tool Off

G0 Z0; move to z-safe height
G0 X598.0000 Y593.5800
M3S0
G4 P0.5; Tool On
G1 F300 Z0.0000
G1 F15000 X2.0000 Y593.5800 Z0.0000
M3S245
G4 P0.5; Tool Off

G0 Z0; move to z-safe height
G0 X2.0000 Y597.5800
M3S0
G4 P0.5; Tool On
G1 F300 Z0.0000
G1 F15000 X598.0000 Y597.5800 Z0.0000
M3S245
G4 P0.5; Tool Off

G0 Z0; move to z-safe height
G0 X598.0000 Y601.5800
M3S0
G4 P0.5; Tool On
G1 F300 Z0.0000
G1 F15000 X2.0000 Y601.5800 Z0.0000
M3S245
G4 P0.5; Tool Off

G0 Z0; move to z-safe height
G0 X2.0000 Y605.5800
M3S0
G4 P0.5; Tool On
G1 F300 Z0.0000
G1 F15000 X598.0000 Y605.5800 Z0.0000
M3S245
G4 P0.5; Tool Off

G0 Z0; move to z-safe height
G0 X598.0000 Y609.5800
M3S0
G4 P0.5; Tool On
G1 F300 Z0.0000
G1 F15000 X2.0000 Y609.5800 Z0.0000
M3S245
G4 P0.5; Tool Off

G0 Z0; move to z-safe height
G0 X2.0000 Y613.5800
M3S0
G4 P0.5; Tool On
G1 F300 Z0.0000
G1 F15000 X598.0000 Y613.5800 Z0.0000
M3S245
G4 P0.5; Tool Off

G0 Z0; move to z-safe height
G0 X598.0000 Y617.5800
M3S0
G4 P0.5; Tool On
G1 F300 Z0.0000
G1 F15000 X2.0000 Y617.5800 Z0.0000
M3S245
G4 P0.5; Tool Off

G0 Z0; move to z-safe height
G0 X2.0000 Y621.5800
M3S0
G4 P0.5; Tool On
G1 F300 Z0.0000
G1 F15000 X598.0000 Y621.5800 Z0.0000
M3S245
G4 P0.5; Tool Off

G0 Z0; move to z-safe height
G0 X598.0000 Y625.5800
M3S0
G4 P0.5; Tool On
G1 F300 Z0.0000
G1 F15000 X2.0000 Y625.5800 Z0.0000
M3S245
G4 P0.5; Tool Off

G0 Z0; move to z-safe height
G0 X2.0000 Y629.5800
M3S0
G4 P0.5; Tool On
G1 F300 Z0.0000
G1 F15000 X598.0000 Y629.5800 Z0.0000
M3S245
G4 P0.5; Tool Off

G0 Z0; move to z-safe height
G0 X598.0000 Y633.5800
M3S0
G4 P0.5; Tool On
G1 F300 Z0.0000
G1 F15000 X2.0000 Y633.5800 Z0.0000
M3S245
G4 P0.5; Tool Off

G0 Z0; move to z-safe height
G0 X2.0000 Y637.5800
M3S0
G4 P0.5; Tool On
G1 F300 Z0.0000
G1 F15000 X598.0000 Y637.5800 Z0.0000
M3S245
G4 P0.5; Tool Off

G0 Z0; move to z-safe height
G0 X598.0000 Y641.5800
M3S0
G4 P0.5; Tool On
G1 F300 Z0.0000
G1 F15000 X2.0000 Y641.5800 Z0.0000
M3S245
G4 P0.5; Tool Off

G0 Z0; move to z-safe height
G0 X2.0000 Y645.5800
M3S0
G4 P0.5; Tool On
G1 F300 Z0.0000
G1 F15000 X598.0000 Y645.5800 Z0.0000
M3S245
G4 P0.5; Tool Off

G0 Z0; move to z-safe height
G0 X598.0000 Y649.5800
M3S0
G4 P0.5; Tool On
G1 F300 Z0.0000
G1 F15000 X2.0000 Y649.5800 Z0.0000
M3S245
G4 P0.5; Tool Off

G0 Z0; move to z-safe height
G0 X2.0000 Y653.5800
M3S0
G4 P0.5; Tool On
G1 F300 Z0.0000
G1 F15000 X598.0000 Y653.5800 Z0.0000
M3S245
G4 P0.5; Tool Off

G0 Z0; move to z-safe height
G0 X598.0000 Y657.5800
M3S0
G4 P0.5; Tool On
G1 F300 Z0.0000
G1 F15000 X2.0000 Y657.5800 Z0.0000
M3S245
G4 P0.5; Tool Off

G0 Z0; move to z-safe height
G0 X2.0000 Y661.5800
M3S0
G4 P0.5; Tool On
G1 F300 Z0.0000
G1 F15000 X598.0000 Y661.5800 Z0.0000
M3S245
G4 P0.5; Tool Off

G0 Z0; move to z-safe height
G0 X598.0000 Y665.5800
M3S0
G4 P0.5; Tool On
G1 F300 Z0.0000
G1 F15000 X2.0000 Y665.5800 Z0.0000
M3S245
G4 P0.5; Tool Off

G0 Z0; move to z-safe height
G0 X2.0000 Y669.5800
M3S0
G4 P0.5; Tool On
G1 F300 Z0.0000
G1 F15000 X598.0000 Y669.5800 Z0.0000
M3S245
G4 P0.5; Tool Off

G0 Z0; move to z-safe height
G0 X598.0000 Y673.5800
M3S0
G4 P0.5; Tool On
G1 F300 Z0.0000
G1 F15000 X2.0000 Y673.5800 Z0.0000
M3S245
G4 P0.5; Tool Off

G0 Z0; move to z-safe height
G0 X2.0000 Y677.5800
M3S0
G4 P0.5; Tool On
G1 F300 Z0.0000
G1 F15000 X598.0000 Y677.5800 Z0.0000
M3S245
G4 P0.5; Tool Off

G0 Z0; move to z-safe height
G0 X598.0000 Y681.5800
M3S0
G4 P0.5; Tool On
G1 F300 Z0.0000
G1 F15000 X2.0000 Y681.5800 Z0.0000
M3S245
G4 P0.5; Tool Off

G0 Z0; move to z-safe height
G0 X2.0000 Y685.5800
M3S0
G4 P0.5; Tool On
G1 F300 Z0.0000
G1 F15000 X598.0000 Y685.5800 Z0.0000
M3S245
G4 P0.5; Tool Off

G0 Z0; move to z-safe height
G0 X598.0000 Y689.5800
M3S0
G4 P0.5; Tool On
G1 F300 Z0.0000
G1 F15000 X2.0000 Y689.5800 Z0.0000
M3S245
G4 P0.5; Tool Off

G0 Z0; move to z-safe height
G0 X2.0000 Y693.5800
M3S0
G4 P0.5; Tool On
G1 F300 Z0.0000
G1 F15000 X598.0000 Y693.5800 Z0.0000
M3S245
G4 P0.5; Tool Off

G0 Z0; move to z-safe height
G0 X598.0000 Y697.5800
M3S0
G4 P0.5; Tool On
G1 F300 Z0.0000
G1 F15000 X2.0000 Y697.5800 Z0.0000
M3S245
G4 P0.5; Tool Off

G0 Z0; move to z-safe height
G0 X2.0000 Y701.5800
M3S0
G4 P0.5; Tool On
G1 F300 Z0.0000
G1 F15000 X598.0000 Y701.5800 Z0.0000
M3S245
G4 P0.5; Tool Off

G0 Z0; move to z-safe height
G0 X598.0000 Y705.5800
M3S0
G4 P0.5; Tool On
G1 F300 Z0.0000
G1 F15000 X2.0000 Y705.5800 Z0.0000
M3S245
G4 P0.5; Tool Off

G0 Z0; move to z-safe height
G0 X2.0000 Y709.5800
M3S0
G4 P0.5; Tool On
G1 F300 Z0.0000
G1 F15000 X598.0000 Y709.5800 Z0.0000
M3S245
G4 P0.5; Tool Off

G0 Z0; move to z-safe height
G0 X598.0000 Y713.5800
M3S0
G4 P0.5; Tool On
G1 F300 Z0.0000
G1 F15000 X2.0000 Y713.5800 Z0.0000
M3S245
G4 P0.5; Tool Off

G0 Z0; move to z-safe height
G0 X2.0000 Y717.5800
M3S0
G4 P0.5; Tool On
G1 F300 Z0.0000
G1 F15000 X598.0000 Y717.5800 Z0.0000
M3S245
G4 P0.5; Tool Off

G0 Z0; move to z-safe height
G0 X598.0000 Y721.5800
M3S0
G4 P0.5; Tool On
G1 F300 Z0.0000
G1 F15000 X2.0000 Y721.5800 Z0.0000
M3S245
G4 P0.5; Tool Off

G0 Z0; move to z-safe height
G0 X2.0000 Y725.5800
M3S0
G4 P0.5; Tool On
G1 F300 Z0.0000
G1 F15000 X598.0000 Y725.5800 Z0.0000
M3S245
G4 P0.5; Tool Off

G0 Z0; move to z-safe height
G0 X598.0000 Y729.5800
M3S0
G4 P0.5; Tool On
G1 F300 Z0.0000
G1 F15000 X2.0000 Y729.5800 Z0.0000
M3S245
G4 P0.5; Tool Off

G0 Z0; move to z-safe height
G0 X2.0000 Y733.5800
M3S0
G4 P0.5; Tool On
G1 F300 Z0.0000
G1 F15000 X598.0000 Y733.5800 Z0.0000
M3S245
G4 P0.5; Tool Off

G0 Z0; move to z-safe height
G0 X598.0000 Y737.5800
M3S0
G4 P0.5; Tool On
G1 F300 Z0.0000
G1 F15000 X2.0000 Y737.5800 Z0.0000
M3S245
G4 P0.5; Tool Off

G0 Z0; move to z-safe height
G0 X2.0000 Y741.5800
M3S0
G4 P0.5; Tool On
G1 F300 Z0.0000
G1 F15000 X598.0000 Y741.5800 Z0.0000
M3S245
G4 P0.5; Tool Off

G0 Z0; move to z-safe height
G0 X598.0000 Y745.5800
M3S0
G4 P0.5; Tool On
G1 F300 Z0.0000
G1 F15000 X2.0000 Y745.5800 Z0.0000
M3S245
G4 P0.5; Tool Off
; retracting back to z-safe
G0 Z0

; Plotter Mode Complete
