; GCODE Generated by cam.openbuilds.com on 2023-07-26 
G21 ; mm-mode
G54; Work Coordinates
G21; mm-mode
G90; Absolute Positioning
; Plotter Mode Active

; Operation 0: Pen Plotter: (lines fill)
; Pen Diameter: 2

G0 Z0; move to z-safe height
G0 F1000 X593.0000 Y16.6000
M3S0
G4 P0.5; Tool On
G1 F300 Z0.0000
G1 F15000 X7.0000 Y16.6000 Z0.0000
M3S245
G4 P0.5; Tool Off

G0 Z0; move to z-safe height
G0 X7.0000 Y30.6000
M3S0
G4 P0.5; Tool On
G1 F300 Z0.0000
G1 F15000 X593.0000 Y30.6000 Z0.0000
M3S245
G4 P0.5; Tool Off

G0 Z0; move to z-safe height
G0 X593.0000 Y44.6000
M3S0
G4 P0.5; Tool On
G1 F300 Z0.0000
G1 F15000 X7.0000 Y44.6000 Z0.0000
M3S245
G4 P0.5; Tool Off

G0 Z0; move to z-safe height
G0 X7.0000 Y58.6000
M3S0
G4 P0.5; Tool On
G1 F300 Z0.0000
G1 F15000 X593.0000 Y58.6000 Z0.0000
M3S245
G4 P0.5; Tool Off

G0 Z0; move to z-safe height
G0 X593.0000 Y72.6000
M3S0
G4 P0.5; Tool On
G1 F300 Z0.0000
G1 F15000 X7.0000 Y72.6000 Z0.0000
M3S245
G4 P0.5; Tool Off

G0 Z0; move to z-safe height
G0 X7.0000 Y86.6000
M3S0
G4 P0.5; Tool On
G1 F300 Z0.0000
G1 F15000 X593.0000 Y86.6000 Z0.0000
M3S245
G4 P0.5; Tool Off

G0 Z0; move to z-safe height
G0 X593.0000 Y100.6000
M3S0
G4 P0.5; Tool On
G1 F300 Z0.0000
G1 F15000 X7.0000 Y100.6000 Z0.0000
M3S245
G4 P0.5; Tool Off

G0 Z0; move to z-safe height
G0 X7.0000 Y114.6000
M3S0
G4 P0.5; Tool On
G1 F300 Z0.0000
G1 F15000 X593.0000 Y114.6000 Z0.0000
M3S245
G4 P0.5; Tool Off

G0 Z0; move to z-safe height
G0 X593.0000 Y128.6000
M3S0
G4 P0.5; Tool On
G1 F300 Z0.0000
G1 F15000 X7.0000 Y128.6000 Z0.0000
M3S245
G4 P0.5; Tool Off

G0 Z0; move to z-safe height
G0 X7.0000 Y142.6000
M3S0
G4 P0.5; Tool On
G1 F300 Z0.0000
G1 F15000 X593.0000 Y142.6000 Z0.0000
M3S245
G4 P0.5; Tool Off

G0 Z0; move to z-safe height
G0 X593.0000 Y156.6000
M3S0
G4 P0.5; Tool On
G1 F300 Z0.0000
G1 F15000 X7.0000 Y156.6000 Z0.0000
M3S245
G4 P0.5; Tool Off

G0 Z0; move to z-safe height
G0 X7.0000 Y170.6000
M3S0
G4 P0.5; Tool On
G1 F300 Z0.0000
G1 F15000 X593.0000 Y170.6000 Z0.0000
M3S245
G4 P0.5; Tool Off

G0 Z0; move to z-safe height
G0 X593.0000 Y184.6000
M3S0
G4 P0.5; Tool On
G1 F300 Z0.0000
G1 F15000 X7.0000 Y184.6000 Z0.0000
M3S245
G4 P0.5; Tool Off

G0 Z0; move to z-safe height
G0 X7.0000 Y198.6000
M3S0
G4 P0.5; Tool On
G1 F300 Z0.0000
G1 F15000 X593.0000 Y198.6000 Z0.0000
M3S245
G4 P0.5; Tool Off

G0 Z0; move to z-safe height
G0 X593.0000 Y212.6000
M3S0
G4 P0.5; Tool On
G1 F300 Z0.0000
G1 F15000 X7.0000 Y212.6000 Z0.0000
M3S245
G4 P0.5; Tool Off

G0 Z0; move to z-safe height
G0 X7.0000 Y226.6000
M3S0
G4 P0.5; Tool On
G1 F300 Z0.0000
G1 F15000 X593.0000 Y226.6000 Z0.0000
M3S245
G4 P0.5; Tool Off

G0 Z0; move to z-safe height
G0 X593.0000 Y240.6000
M3S0
G4 P0.5; Tool On
G1 F300 Z0.0000
G1 F15000 X7.0000 Y240.6000 Z0.0000
M3S245
G4 P0.5; Tool Off

G0 Z0; move to z-safe height
G0 X7.0000 Y254.6000
M3S0
G4 P0.5; Tool On
G1 F300 Z0.0000
G1 F15000 X593.0000 Y254.6000 Z0.0000
M3S245
G4 P0.5; Tool Off

G0 Z0; move to z-safe height
G0 X593.0000 Y268.6000
M3S0
G4 P0.5; Tool On
G1 F300 Z0.0000
G1 F15000 X7.0000 Y268.6000 Z0.0000
M3S245
G4 P0.5; Tool Off

G0 Z0; move to z-safe height
G0 X7.0000 Y282.6000
M3S0
G4 P0.5; Tool On
G1 F300 Z0.0000
G1 F15000 X593.0000 Y282.6000 Z0.0000
M3S245
G4 P0.5; Tool Off

G0 Z0; move to z-safe height
G0 X593.0000 Y296.6000
M3S0
G4 P0.5; Tool On
G1 F300 Z0.0000
G1 F15000 X7.0000 Y296.6000 Z0.0000
M3S245
G4 P0.5; Tool Off

G0 Z0; move to z-safe height
G0 X7.0000 Y310.6000
M3S0
G4 P0.5; Tool On
G1 F300 Z0.0000
G1 F15000 X593.0000 Y310.6000 Z0.0000
M3S245
G4 P0.5; Tool Off

G0 Z0; move to z-safe height
G0 X593.0000 Y324.6000
M3S0
G4 P0.5; Tool On
G1 F300 Z0.0000
G1 F15000 X7.0000 Y324.6000 Z0.0000
M3S245
G4 P0.5; Tool Off

G0 Z0; move to z-safe height
G0 X7.0000 Y338.6000
M3S0
G4 P0.5; Tool On
G1 F300 Z0.0000
G1 F15000 X593.0000 Y338.6000 Z0.0000
M3S245
G4 P0.5; Tool Off

G0 Z0; move to z-safe height
G0 X593.0000 Y352.6000
M3S0
G4 P0.5; Tool On
G1 F300 Z0.0000
G1 F15000 X7.0000 Y352.6000 Z0.0000
M3S245
G4 P0.5; Tool Off

G0 Z0; move to z-safe height
G0 X7.0000 Y366.6000
M3S0
G4 P0.5; Tool On
G1 F300 Z0.0000
G1 F15000 X593.0000 Y366.6000 Z0.0000
M3S245
G4 P0.5; Tool Off

G0 Z0; move to z-safe height
G0 X593.0000 Y380.6000
M3S0
G4 P0.5; Tool On
G1 F300 Z0.0000
G1 F15000 X7.0000 Y380.6000 Z0.0000
M3S245
G4 P0.5; Tool Off

G0 Z0; move to z-safe height
G0 X7.0000 Y394.6000
M3S0
G4 P0.5; Tool On
G1 F300 Z0.0000
G1 F15000 X593.0000 Y394.6000 Z0.0000
M3S245
G4 P0.5; Tool Off

G0 Z0; move to z-safe height
G0 X593.0000 Y408.6000
M3S0
G4 P0.5; Tool On
G1 F300 Z0.0000
G1 F15000 X7.0000 Y408.6000 Z0.0000
M3S245
G4 P0.5; Tool Off

G0 Z0; move to z-safe height
G0 X7.0000 Y422.6000
M3S0
G4 P0.5; Tool On
G1 F300 Z0.0000
G1 F15000 X593.0000 Y422.6000 Z0.0000
M3S245
G4 P0.5; Tool Off

G0 Z0; move to z-safe height
G0 X593.0000 Y436.6000
M3S0
G4 P0.5; Tool On
G1 F300 Z0.0000
G1 F15000 X7.0000 Y436.6000 Z0.0000
M3S245
G4 P0.5; Tool Off

G0 Z0; move to z-safe height
G0 X7.0000 Y450.6000
M3S0
G4 P0.5; Tool On
G1 F300 Z0.0000
G1 F15000 X593.0000 Y450.6000 Z0.0000
M3S245
G4 P0.5; Tool Off

G0 Z0; move to z-safe height
G0 X593.0000 Y464.6000
M3S0
G4 P0.5; Tool On
G1 F300 Z0.0000
G1 F15000 X7.0000 Y464.6000 Z0.0000
M3S245
G4 P0.5; Tool Off

G0 Z0; move to z-safe height
G0 X7.0000 Y478.6000
M3S0
G4 P0.5; Tool On
G1 F300 Z0.0000
G1 F15000 X593.0000 Y478.6000 Z0.0000
M3S245
G4 P0.5; Tool Off

G0 Z0; move to z-safe height
G0 X593.0000 Y492.6000
M3S0
G4 P0.5; Tool On
G1 F300 Z0.0000
G1 F15000 X7.0000 Y492.6000 Z0.0000
M3S245
G4 P0.5; Tool Off

G0 Z0; move to z-safe height
G0 X7.0000 Y506.6000
M3S0
G4 P0.5; Tool On
G1 F300 Z0.0000
G1 F15000 X593.0000 Y506.6000 Z0.0000
M3S245
G4 P0.5; Tool Off

G0 Z0; move to z-safe height
G0 X593.0000 Y520.6000
M3S0
G4 P0.5; Tool On
G1 F300 Z0.0000
G1 F15000 X7.0000 Y520.6000 Z0.0000
M3S245
G4 P0.5; Tool Off

G0 Z0; move to z-safe height
G0 X7.0000 Y534.6000
M3S0
G4 P0.5; Tool On
G1 F300 Z0.0000
G1 F15000 X593.0000 Y534.6000 Z0.0000
M3S245
G4 P0.5; Tool Off

G0 Z0; move to z-safe height
G0 X593.0000 Y548.6000
M3S0
G4 P0.5; Tool On
G1 F300 Z0.0000
G1 F15000 X7.0000 Y548.6000 Z0.0000
M3S245
G4 P0.5; Tool Off

G0 Z0; move to z-safe height
G0 X7.0000 Y562.6000
M3S0
G4 P0.5; Tool On
G1 F300 Z0.0000
G1 F15000 X593.0000 Y562.6000 Z0.0000
M3S245
G4 P0.5; Tool Off

G0 Z0; move to z-safe height
G0 X593.0000 Y576.6000
M3S0
G4 P0.5; Tool On
G1 F300 Z0.0000
G1 F15000 X7.0000 Y576.6000 Z0.0000
M3S245
G4 P0.5; Tool Off

G0 Z0; move to z-safe height
G0 X7.0000 Y590.6000
M3S0
G4 P0.5; Tool On
G1 F300 Z0.0000
G1 F15000 X593.0000 Y590.6000 Z0.0000
M3S245
G4 P0.5; Tool Off

G0 Z0; move to z-safe height
G0 X593.0000 Y604.6000
M3S0
G4 P0.5; Tool On
G1 F300 Z0.0000
G1 F15000 X7.0000 Y604.6000 Z0.0000
M3S245
G4 P0.5; Tool Off

G0 Z0; move to z-safe height
G0 X7.0000 Y618.6000
M3S0
G4 P0.5; Tool On
G1 F300 Z0.0000
G1 F15000 X593.0000 Y618.6000 Z0.0000
M3S245
G4 P0.5; Tool Off

G0 Z0; move to z-safe height
G0 X593.0000 Y632.6000
M3S0
G4 P0.5; Tool On
G1 F300 Z0.0000
G1 F15000 X7.0000 Y632.6000 Z0.0000
M3S245
G4 P0.5; Tool Off

G0 Z0; move to z-safe height
G0 X7.0000 Y646.6000
M3S0
G4 P0.5; Tool On
G1 F300 Z0.0000
G1 F15000 X593.0000 Y646.6000 Z0.0000
M3S245
G4 P0.5; Tool Off

G0 Z0; move to z-safe height
G0 X593.0000 Y660.6000
M3S0
G4 P0.5; Tool On
G1 F300 Z0.0000
G1 F15000 X7.0000 Y660.6000 Z0.0000
M3S245
G4 P0.5; Tool Off

G0 Z0; move to z-safe height
G0 X7.0000 Y674.6000
M3S0
G4 P0.5; Tool On
G1 F300 Z0.0000
G1 F15000 X593.0000 Y674.6000 Z0.0000
M3S245
G4 P0.5; Tool Off

G0 Z0; move to z-safe height
G0 X593.0000 Y688.6000
M3S0
G4 P0.5; Tool On
G1 F300 Z0.0000
G1 F15000 X7.0000 Y688.6000 Z0.0000
M3S245
G4 P0.5; Tool Off

G0 Z0; move to z-safe height
G0 X7.0000 Y702.6000
M3S0
G4 P0.5; Tool On
G1 F300 Z0.0000
G1 F15000 X593.0000 Y702.6000 Z0.0000
M3S245
G4 P0.5; Tool Off

G0 Z0; move to z-safe height
G0 X593.0000 Y716.6000
M3S0
G4 P0.5; Tool On
G1 F300 Z0.0000
G1 F15000 X7.0000 Y716.6000 Z0.0000
M3S245
G4 P0.5; Tool Off

G0 Z0; move to z-safe height
G0 X7.0000 Y730.6000
M3S0
G4 P0.5; Tool On
G1 F300 Z0.0000
G1 F15000 X593.0000 Y730.6000 Z0.0000
M3S245
G4 P0.5; Tool Off
; retracting back to z-safe
G0 Z0

; Plotter Mode Complete
