; GCODE Generated by cam.openbuilds.com on 2023-07-26 
G21 ; mm-mode
G54; Work Coordinates
G21; mm-mode
G90; Absolute Positioning
; Plotter Mode Active

; Operation 0: Pen Plotter: (lines fill)
; Pen Diameter: 2

G0 Z0; move to z-safe height
G0 F1000 X590.0000 Y28.8200
M3S0
G4 P0.5; Tool On
G1 F300 Z0.0000
G1 F15000 X10.0000 Y28.8200 Z0.0000
M3S245
G4 P0.5; Tool Off

G0 Z0; move to z-safe height
G0 X10.0000 Y48.8200
M3S0
G4 P0.5; Tool On
G1 F300 Z0.0000
G1 F15000 X590.0000 Y48.8200 Z0.0000
M3S245
G4 P0.5; Tool Off

G0 Z0; move to z-safe height
G0 X590.0000 Y68.8200
M3S0
G4 P0.5; Tool On
G1 F300 Z0.0000
G1 F15000 X10.0000 Y68.8200 Z0.0000
M3S245
G4 P0.5; Tool Off

G0 Z0; move to z-safe height
G0 X10.0000 Y88.8200
M3S0
G4 P0.5; Tool On
G1 F300 Z0.0000
G1 F15000 X590.0000 Y88.8200 Z0.0000
M3S245
G4 P0.5; Tool Off

G0 Z0; move to z-safe height
G0 X590.0000 Y108.8200
M3S0
G4 P0.5; Tool On
G1 F300 Z0.0000
G1 F15000 X10.0000 Y108.8200 Z0.0000
M3S245
G4 P0.5; Tool Off

G0 Z0; move to z-safe height
G0 X10.0000 Y128.8200
M3S0
G4 P0.5; Tool On
G1 F300 Z0.0000
G1 F15000 X590.0000 Y128.8200 Z0.0000
M3S245
G4 P0.5; Tool Off

G0 Z0; move to z-safe height
G0 X590.0000 Y148.8200
M3S0
G4 P0.5; Tool On
G1 F300 Z0.0000
G1 F15000 X10.0000 Y148.8200 Z0.0000
M3S245
G4 P0.5; Tool Off

G0 Z0; move to z-safe height
G0 X10.0000 Y168.8200
M3S0
G4 P0.5; Tool On
G1 F300 Z0.0000
G1 F15000 X590.0000 Y168.8200 Z0.0000
M3S245
G4 P0.5; Tool Off

G0 Z0; move to z-safe height
G0 X590.0000 Y188.8200
M3S0
G4 P0.5; Tool On
G1 F300 Z0.0000
G1 F15000 X10.0000 Y188.8200 Z0.0000
M3S245
G4 P0.5; Tool Off

G0 Z0; move to z-safe height
G0 X10.0000 Y208.8200
M3S0
G4 P0.5; Tool On
G1 F300 Z0.0000
G1 F15000 X590.0000 Y208.8200 Z0.0000
M3S245
G4 P0.5; Tool Off

G0 Z0; move to z-safe height
G0 X590.0000 Y228.8200
M3S0
G4 P0.5; Tool On
G1 F300 Z0.0000
G1 F15000 X10.0000 Y228.8200 Z0.0000
M3S245
G4 P0.5; Tool Off

G0 Z0; move to z-safe height
G0 X10.0000 Y248.8200
M3S0
G4 P0.5; Tool On
G1 F300 Z0.0000
G1 F15000 X590.0000 Y248.8200 Z0.0000
M3S245
G4 P0.5; Tool Off

G0 Z0; move to z-safe height
G0 X590.0000 Y268.8200
M3S0
G4 P0.5; Tool On
G1 F300 Z0.0000
G1 F15000 X10.0000 Y268.8200 Z0.0000
M3S245
G4 P0.5; Tool Off

G0 Z0; move to z-safe height
G0 X10.0000 Y288.8200
M3S0
G4 P0.5; Tool On
G1 F300 Z0.0000
G1 F15000 X590.0000 Y288.8200 Z0.0000
M3S245
G4 P0.5; Tool Off

G0 Z0; move to z-safe height
G0 X590.0000 Y308.8200
M3S0
G4 P0.5; Tool On
G1 F300 Z0.0000
G1 F15000 X10.0000 Y308.8200 Z0.0000
M3S245
G4 P0.5; Tool Off

G0 Z0; move to z-safe height
G0 X10.0000 Y328.8200
M3S0
G4 P0.5; Tool On
G1 F300 Z0.0000
G1 F15000 X590.0000 Y328.8200 Z0.0000
M3S245
G4 P0.5; Tool Off

G0 Z0; move to z-safe height
G0 X590.0000 Y348.8200
M3S0
G4 P0.5; Tool On
G1 F300 Z0.0000
G1 F15000 X10.0000 Y348.8200 Z0.0000
M3S245
G4 P0.5; Tool Off

G0 Z0; move to z-safe height
G0 X10.0000 Y368.8200
M3S0
G4 P0.5; Tool On
G1 F300 Z0.0000
G1 F15000 X590.0000 Y368.8200 Z0.0000
M3S245
G4 P0.5; Tool Off

G0 Z0; move to z-safe height
G0 X590.0000 Y388.8200
M3S0
G4 P0.5; Tool On
G1 F300 Z0.0000
G1 F15000 X10.0000 Y388.8200 Z0.0000
M3S245
G4 P0.5; Tool Off

G0 Z0; move to z-safe height
G0 X10.0000 Y408.8200
M3S0
G4 P0.5; Tool On
G1 F300 Z0.0000
G1 F15000 X590.0000 Y408.8200 Z0.0000
M3S245
G4 P0.5; Tool Off

G0 Z0; move to z-safe height
G0 X590.0000 Y428.8200
M3S0
G4 P0.5; Tool On
G1 F300 Z0.0000
G1 F15000 X10.0000 Y428.8200 Z0.0000
M3S245
G4 P0.5; Tool Off

G0 Z0; move to z-safe height
G0 X10.0000 Y448.8200
M3S0
G4 P0.5; Tool On
G1 F300 Z0.0000
G1 F15000 X590.0000 Y448.8200 Z0.0000
M3S245
G4 P0.5; Tool Off

G0 Z0; move to z-safe height
G0 X590.0000 Y468.8200
M3S0
G4 P0.5; Tool On
G1 F300 Z0.0000
G1 F15000 X10.0000 Y468.8200 Z0.0000
M3S245
G4 P0.5; Tool Off

G0 Z0; move to z-safe height
G0 X10.0000 Y488.8200
M3S0
G4 P0.5; Tool On
G1 F300 Z0.0000
G1 F15000 X590.0000 Y488.8200 Z0.0000
M3S245
G4 P0.5; Tool Off

G0 Z0; move to z-safe height
G0 X590.0000 Y508.8200
M3S0
G4 P0.5; Tool On
G1 F300 Z0.0000
G1 F15000 X10.0000 Y508.8200 Z0.0000
M3S245
G4 P0.5; Tool Off

G0 Z0; move to z-safe height
G0 X10.0000 Y528.8200
M3S0
G4 P0.5; Tool On
G1 F300 Z0.0000
G1 F15000 X590.0000 Y528.8200 Z0.0000
M3S245
G4 P0.5; Tool Off

G0 Z0; move to z-safe height
G0 X590.0000 Y548.8200
M3S0
G4 P0.5; Tool On
G1 F300 Z0.0000
G1 F15000 X10.0000 Y548.8200 Z0.0000
M3S245
G4 P0.5; Tool Off

G0 Z0; move to z-safe height
G0 X10.0000 Y568.8200
M3S0
G4 P0.5; Tool On
G1 F300 Z0.0000
G1 F15000 X590.0000 Y568.8200 Z0.0000
M3S245
G4 P0.5; Tool Off

G0 Z0; move to z-safe height
G0 X590.0000 Y588.8200
M3S0
G4 P0.5; Tool On
G1 F300 Z0.0000
G1 F15000 X10.0000 Y588.8200 Z0.0000
M3S245
G4 P0.5; Tool Off

G0 Z0; move to z-safe height
G0 X10.0000 Y608.8200
M3S0
G4 P0.5; Tool On
G1 F300 Z0.0000
G1 F15000 X590.0000 Y608.8200 Z0.0000
M3S245
G4 P0.5; Tool Off

G0 Z0; move to z-safe height
G0 X590.0000 Y628.8200
M3S0
G4 P0.5; Tool On
G1 F300 Z0.0000
G1 F15000 X10.0000 Y628.8200 Z0.0000
M3S245
G4 P0.5; Tool Off

G0 Z0; move to z-safe height
G0 X10.0000 Y648.8200
M3S0
G4 P0.5; Tool On
G1 F300 Z0.0000
G1 F15000 X590.0000 Y648.8200 Z0.0000
M3S245
G4 P0.5; Tool Off

G0 Z0; move to z-safe height
G0 X590.0000 Y668.8200
M3S0
G4 P0.5; Tool On
G1 F300 Z0.0000
G1 F15000 X10.0000 Y668.8200 Z0.0000
M3S245
G4 P0.5; Tool Off

G0 Z0; move to z-safe height
G0 X10.0000 Y688.8200
M3S0
G4 P0.5; Tool On
G1 F300 Z0.0000
G1 F15000 X590.0000 Y688.8200 Z0.0000
M3S245
G4 P0.5; Tool Off

G0 Z0; move to z-safe height
G0 X590.0000 Y708.8200
M3S0
G4 P0.5; Tool On
G1 F300 Z0.0000
G1 F15000 X10.0000 Y708.8200 Z0.0000
M3S245
G4 P0.5; Tool Off

G0 Z0; move to z-safe height
G0 X10.0000 Y728.8200
M3S0
G4 P0.5; Tool On
G1 F300 Z0.0000
G1 F15000 X590.0000 Y728.8200 Z0.0000
M3S245
G4 P0.5; Tool Off
; retracting back to z-safe
G0 Z0

; Plotter Mode Complete
