; GCODE Generated by cam.openbuilds.com on 2023-07-26 
G21 ; mm-mode
G54; Work Coordinates
G21; mm-mode
G90; Absolute Positioning
; Plotter Mode Active

; Operation 0: Pen Plotter: (lines fill)
; Pen Diameter: 2

G0 Z0; move to z-safe height
G0 F1000 X6.0000 Y11.2000
M3S0
G4 P0.5; Tool On
G1 F300 Z0.0000
G1 F15000 X594.0000 Y11.2000 Z0.0000
M3S245
G4 P0.5; Tool Off

G0 Z0; move to z-safe height
G0 X594.0000 Y23.2000
M3S0
G4 P0.5; Tool On
G1 F300 Z0.0000
G1 F15000 X6.0000 Y23.2000 Z0.0000
M3S245
G4 P0.5; Tool Off

G0 Z0; move to z-safe height
G0 X6.0000 Y35.2000
M3S0
G4 P0.5; Tool On
G1 F300 Z0.0000
G1 F15000 X594.0000 Y35.2000 Z0.0000
M3S245
G4 P0.5; Tool Off

G0 Z0; move to z-safe height
G0 X594.0000 Y47.2000
M3S0
G4 P0.5; Tool On
G1 F300 Z0.0000
G1 F15000 X6.0000 Y47.2000 Z0.0000
M3S245
G4 P0.5; Tool Off

G0 Z0; move to z-safe height
G0 X6.0000 Y59.2000
M3S0
G4 P0.5; Tool On
G1 F300 Z0.0000
G1 F15000 X594.0000 Y59.2000 Z0.0000
M3S245
G4 P0.5; Tool Off

G0 Z0; move to z-safe height
G0 X594.0000 Y71.2000
M3S0
G4 P0.5; Tool On
G1 F300 Z0.0000
G1 F15000 X6.0000 Y71.2000 Z0.0000
M3S245
G4 P0.5; Tool Off

G0 Z0; move to z-safe height
G0 X6.0000 Y83.2000
M3S0
G4 P0.5; Tool On
G1 F300 Z0.0000
G1 F15000 X594.0000 Y83.2000 Z0.0000
M3S245
G4 P0.5; Tool Off

G0 Z0; move to z-safe height
G0 X594.0000 Y95.2000
M3S0
G4 P0.5; Tool On
G1 F300 Z0.0000
G1 F15000 X6.0000 Y95.2000 Z0.0000
M3S245
G4 P0.5; Tool Off

G0 Z0; move to z-safe height
G0 X6.0000 Y107.2000
M3S0
G4 P0.5; Tool On
G1 F300 Z0.0000
G1 F15000 X594.0000 Y107.2000 Z0.0000
M3S245
G4 P0.5; Tool Off

G0 Z0; move to z-safe height
G0 X594.0000 Y119.2000
M3S0
G4 P0.5; Tool On
G1 F300 Z0.0000
G1 F15000 X6.0000 Y119.2000 Z0.0000
M3S245
G4 P0.5; Tool Off

G0 Z0; move to z-safe height
G0 X6.0000 Y131.2000
M3S0
G4 P0.5; Tool On
G1 F300 Z0.0000
G1 F15000 X594.0000 Y131.2000 Z0.0000
M3S245
G4 P0.5; Tool Off

G0 Z0; move to z-safe height
G0 X594.0000 Y143.2000
M3S0
G4 P0.5; Tool On
G1 F300 Z0.0000
G1 F15000 X6.0000 Y143.2000 Z0.0000
M3S245
G4 P0.5; Tool Off

G0 Z0; move to z-safe height
G0 X6.0000 Y155.2000
M3S0
G4 P0.5; Tool On
G1 F300 Z0.0000
G1 F15000 X594.0000 Y155.2000 Z0.0000
M3S245
G4 P0.5; Tool Off

G0 Z0; move to z-safe height
G0 X594.0000 Y167.2000
M3S0
G4 P0.5; Tool On
G1 F300 Z0.0000
G1 F15000 X6.0000 Y167.2000 Z0.0000
M3S245
G4 P0.5; Tool Off

G0 Z0; move to z-safe height
G0 X6.0000 Y179.2000
M3S0
G4 P0.5; Tool On
G1 F300 Z0.0000
G1 F15000 X594.0000 Y179.2000 Z0.0000
M3S245
G4 P0.5; Tool Off

G0 Z0; move to z-safe height
G0 X594.0000 Y191.2000
M3S0
G4 P0.5; Tool On
G1 F300 Z0.0000
G1 F15000 X6.0000 Y191.2000 Z0.0000
M3S245
G4 P0.5; Tool Off

G0 Z0; move to z-safe height
G0 X6.0000 Y203.2000
M3S0
G4 P0.5; Tool On
G1 F300 Z0.0000
G1 F15000 X594.0000 Y203.2000 Z0.0000
M3S245
G4 P0.5; Tool Off

G0 Z0; move to z-safe height
G0 X594.0000 Y215.2000
M3S0
G4 P0.5; Tool On
G1 F300 Z0.0000
G1 F15000 X6.0000 Y215.2000 Z0.0000
M3S245
G4 P0.5; Tool Off

G0 Z0; move to z-safe height
G0 X6.0000 Y227.2000
M3S0
G4 P0.5; Tool On
G1 F300 Z0.0000
G1 F15000 X594.0000 Y227.2000 Z0.0000
M3S245
G4 P0.5; Tool Off

G0 Z0; move to z-safe height
G0 X594.0000 Y239.2000
M3S0
G4 P0.5; Tool On
G1 F300 Z0.0000
G1 F15000 X6.0000 Y239.2000 Z0.0000
M3S245
G4 P0.5; Tool Off

G0 Z0; move to z-safe height
G0 X6.0000 Y251.2000
M3S0
G4 P0.5; Tool On
G1 F300 Z0.0000
G1 F15000 X594.0000 Y251.2000 Z0.0000
M3S245
G4 P0.5; Tool Off

G0 Z0; move to z-safe height
G0 X594.0000 Y263.2000
M3S0
G4 P0.5; Tool On
G1 F300 Z0.0000
G1 F15000 X6.0000 Y263.2000 Z0.0000
M3S245
G4 P0.5; Tool Off

G0 Z0; move to z-safe height
G0 X6.0000 Y275.2000
M3S0
G4 P0.5; Tool On
G1 F300 Z0.0000
G1 F15000 X594.0000 Y275.2000 Z0.0000
M3S245
G4 P0.5; Tool Off

G0 Z0; move to z-safe height
G0 X594.0000 Y287.2000
M3S0
G4 P0.5; Tool On
G1 F300 Z0.0000
G1 F15000 X6.0000 Y287.2000 Z0.0000
M3S245
G4 P0.5; Tool Off

G0 Z0; move to z-safe height
G0 X6.0000 Y299.2000
M3S0
G4 P0.5; Tool On
G1 F300 Z0.0000
G1 F15000 X594.0000 Y299.2000 Z0.0000
M3S245
G4 P0.5; Tool Off

G0 Z0; move to z-safe height
G0 X594.0000 Y311.2000
M3S0
G4 P0.5; Tool On
G1 F300 Z0.0000
G1 F15000 X6.0000 Y311.2000 Z0.0000
M3S245
G4 P0.5; Tool Off

G0 Z0; move to z-safe height
G0 X6.0000 Y323.2000
M3S0
G4 P0.5; Tool On
G1 F300 Z0.0000
G1 F15000 X594.0000 Y323.2000 Z0.0000
M3S245
G4 P0.5; Tool Off

G0 Z0; move to z-safe height
G0 X594.0000 Y335.2000
M3S0
G4 P0.5; Tool On
G1 F300 Z0.0000
G1 F15000 X6.0000 Y335.2000 Z0.0000
M3S245
G4 P0.5; Tool Off

G0 Z0; move to z-safe height
G0 X6.0000 Y347.2000
M3S0
G4 P0.5; Tool On
G1 F300 Z0.0000
G1 F15000 X594.0000 Y347.2000 Z0.0000
M3S245
G4 P0.5; Tool Off

G0 Z0; move to z-safe height
G0 X594.0000 Y359.2000
M3S0
G4 P0.5; Tool On
G1 F300 Z0.0000
G1 F15000 X6.0000 Y359.2000 Z0.0000
M3S245
G4 P0.5; Tool Off

G0 Z0; move to z-safe height
G0 X6.0000 Y371.2000
M3S0
G4 P0.5; Tool On
G1 F300 Z0.0000
G1 F15000 X594.0000 Y371.2000 Z0.0000
M3S245
G4 P0.5; Tool Off

G0 Z0; move to z-safe height
G0 X594.0000 Y383.2000
M3S0
G4 P0.5; Tool On
G1 F300 Z0.0000
G1 F15000 X6.0000 Y383.2000 Z0.0000
M3S245
G4 P0.5; Tool Off

G0 Z0; move to z-safe height
G0 X6.0000 Y395.2000
M3S0
G4 P0.5; Tool On
G1 F300 Z0.0000
G1 F15000 X594.0000 Y395.2000 Z0.0000
M3S245
G4 P0.5; Tool Off

G0 Z0; move to z-safe height
G0 X594.0000 Y407.2000
M3S0
G4 P0.5; Tool On
G1 F300 Z0.0000
G1 F15000 X6.0000 Y407.2000 Z0.0000
M3S245
G4 P0.5; Tool Off

G0 Z0; move to z-safe height
G0 X6.0000 Y419.2000
M3S0
G4 P0.5; Tool On
G1 F300 Z0.0000
G1 F15000 X594.0000 Y419.2000 Z0.0000
M3S245
G4 P0.5; Tool Off

G0 Z0; move to z-safe height
G0 X594.0000 Y431.2000
M3S0
G4 P0.5; Tool On
G1 F300 Z0.0000
G1 F15000 X6.0000 Y431.2000 Z0.0000
M3S245
G4 P0.5; Tool Off

G0 Z0; move to z-safe height
G0 X6.0000 Y443.2000
M3S0
G4 P0.5; Tool On
G1 F300 Z0.0000
G1 F15000 X594.0000 Y443.2000 Z0.0000
M3S245
G4 P0.5; Tool Off

G0 Z0; move to z-safe height
G0 X594.0000 Y455.2000
M3S0
G4 P0.5; Tool On
G1 F300 Z0.0000
G1 F15000 X6.0000 Y455.2000 Z0.0000
M3S245
G4 P0.5; Tool Off

G0 Z0; move to z-safe height
G0 X6.0000 Y467.2000
M3S0
G4 P0.5; Tool On
G1 F300 Z0.0000
G1 F15000 X594.0000 Y467.2000 Z0.0000
M3S245
G4 P0.5; Tool Off

G0 Z0; move to z-safe height
G0 X594.0000 Y479.2000
M3S0
G4 P0.5; Tool On
G1 F300 Z0.0000
G1 F15000 X6.0000 Y479.2000 Z0.0000
M3S245
G4 P0.5; Tool Off

G0 Z0; move to z-safe height
G0 X6.0000 Y491.2000
M3S0
G4 P0.5; Tool On
G1 F300 Z0.0000
G1 F15000 X594.0000 Y491.2000 Z0.0000
M3S245
G4 P0.5; Tool Off

G0 Z0; move to z-safe height
G0 X594.0000 Y503.2000
M3S0
G4 P0.5; Tool On
G1 F300 Z0.0000
G1 F15000 X6.0000 Y503.2000 Z0.0000
M3S245
G4 P0.5; Tool Off

G0 Z0; move to z-safe height
G0 X6.0000 Y515.2000
M3S0
G4 P0.5; Tool On
G1 F300 Z0.0000
G1 F15000 X594.0000 Y515.2000 Z0.0000
M3S245
G4 P0.5; Tool Off

G0 Z0; move to z-safe height
G0 X594.0000 Y527.2000
M3S0
G4 P0.5; Tool On
G1 F300 Z0.0000
G1 F15000 X6.0000 Y527.2000 Z0.0000
M3S245
G4 P0.5; Tool Off

G0 Z0; move to z-safe height
G0 X6.0000 Y539.2000
M3S0
G4 P0.5; Tool On
G1 F300 Z0.0000
G1 F15000 X594.0000 Y539.2000 Z0.0000
M3S245
G4 P0.5; Tool Off

G0 Z0; move to z-safe height
G0 X594.0000 Y551.2000
M3S0
G4 P0.5; Tool On
G1 F300 Z0.0000
G1 F15000 X6.0000 Y551.2000 Z0.0000
M3S245
G4 P0.5; Tool Off

G0 Z0; move to z-safe height
G0 X6.0000 Y563.2000
M3S0
G4 P0.5; Tool On
G1 F300 Z0.0000
G1 F15000 X594.0000 Y563.2000 Z0.0000
M3S245
G4 P0.5; Tool Off

G0 Z0; move to z-safe height
G0 X594.0000 Y575.2000
M3S0
G4 P0.5; Tool On
G1 F300 Z0.0000
G1 F15000 X6.0000 Y575.2000 Z0.0000
M3S245
G4 P0.5; Tool Off

G0 Z0; move to z-safe height
G0 X6.0000 Y587.2000
M3S0
G4 P0.5; Tool On
G1 F300 Z0.0000
G1 F15000 X594.0000 Y587.2000 Z0.0000
M3S245
G4 P0.5; Tool Off

G0 Z0; move to z-safe height
G0 X594.0000 Y599.2000
M3S0
G4 P0.5; Tool On
G1 F300 Z0.0000
G1 F15000 X6.0000 Y599.2000 Z0.0000
M3S245
G4 P0.5; Tool Off

G0 Z0; move to z-safe height
G0 X6.0000 Y611.2000
M3S0
G4 P0.5; Tool On
G1 F300 Z0.0000
G1 F15000 X594.0000 Y611.2000 Z0.0000
M3S245
G4 P0.5; Tool Off

G0 Z0; move to z-safe height
G0 X594.0000 Y623.2000
M3S0
G4 P0.5; Tool On
G1 F300 Z0.0000
G1 F15000 X6.0000 Y623.2000 Z0.0000
M3S245
G4 P0.5; Tool Off

G0 Z0; move to z-safe height
G0 X6.0000 Y635.2000
M3S0
G4 P0.5; Tool On
G1 F300 Z0.0000
G1 F15000 X594.0000 Y635.2000 Z0.0000
M3S245
G4 P0.5; Tool Off

G0 Z0; move to z-safe height
G0 X594.0000 Y647.2000
M3S0
G4 P0.5; Tool On
G1 F300 Z0.0000
G1 F15000 X6.0000 Y647.2000 Z0.0000
M3S245
G4 P0.5; Tool Off

G0 Z0; move to z-safe height
G0 X6.0000 Y659.2000
M3S0
G4 P0.5; Tool On
G1 F300 Z0.0000
G1 F15000 X594.0000 Y659.2000 Z0.0000
M3S245
G4 P0.5; Tool Off

G0 Z0; move to z-safe height
G0 X594.0000 Y671.2000
M3S0
G4 P0.5; Tool On
G1 F300 Z0.0000
G1 F15000 X6.0000 Y671.2000 Z0.0000
M3S245
G4 P0.5; Tool Off

G0 Z0; move to z-safe height
G0 X6.0000 Y683.2000
M3S0
G4 P0.5; Tool On
G1 F300 Z0.0000
G1 F15000 X594.0000 Y683.2000 Z0.0000
M3S245
G4 P0.5; Tool Off

G0 Z0; move to z-safe height
G0 X594.0000 Y695.2000
M3S0
G4 P0.5; Tool On
G1 F300 Z0.0000
G1 F15000 X6.0000 Y695.2000 Z0.0000
M3S245
G4 P0.5; Tool Off

G0 Z0; move to z-safe height
G0 X6.0000 Y707.2000
M3S0
G4 P0.5; Tool On
G1 F300 Z0.0000
G1 F15000 X594.0000 Y707.2000 Z0.0000
M3S245
G4 P0.5; Tool Off

G0 Z0; move to z-safe height
G0 X594.0000 Y719.2000
M3S0
G4 P0.5; Tool On
G1 F300 Z0.0000
G1 F15000 X6.0000 Y719.2000 Z0.0000
M3S245
G4 P0.5; Tool Off

G0 Z0; move to z-safe height
G0 X6.0000 Y731.2000
M3S0
G4 P0.5; Tool On
G1 F300 Z0.0000
G1 F15000 X594.0000 Y731.2000 Z0.0000
M3S245
G4 P0.5; Tool Off

G0 Z0; move to z-safe height
G0 X594.0000 Y743.2000
M3S0
G4 P0.5; Tool On
G1 F300 Z0.0000
G1 F15000 X6.0000 Y743.2000 Z0.0000
M3S245
G4 P0.5; Tool Off
; retracting back to z-safe
G0 Z0

; Plotter Mode Complete
