; GCODE Generated by cam.openbuilds.com on 2023-07-26 
G21 ; mm-mode
G54; Work Coordinates
G21; mm-mode
G90; Absolute Positioning
; Plotter Mode Active

; Operation 0: Pen Plotter: (lines fill)
; Pen Diameter: 2

G0 Z0; move to z-safe height
G0 F1000 X5.0000 Y11.7900
M3S0
G4 P0.5; Tool On
G1 F300 Z0.0000
G1 F15000 X595.0000 Y11.7900 Z0.0000
M3S245
G4 P0.5; Tool Off

G0 Z0; move to z-safe height
G0 X595.0000 Y21.7900
M3S0
G4 P0.5; Tool On
G1 F300 Z0.0000
G1 F15000 X5.0000 Y21.7900 Z0.0000
M3S245
G4 P0.5; Tool Off

G0 Z0; move to z-safe height
G0 X5.0000 Y31.7900
M3S0
G4 P0.5; Tool On
G1 F300 Z0.0000
G1 F15000 X595.0000 Y31.7900 Z0.0000
M3S245
G4 P0.5; Tool Off

G0 Z0; move to z-safe height
G0 X595.0000 Y41.7900
M3S0
G4 P0.5; Tool On
G1 F300 Z0.0000
G1 F15000 X5.0000 Y41.7900 Z0.0000
M3S245
G4 P0.5; Tool Off

G0 Z0; move to z-safe height
G0 X5.0000 Y51.7900
M3S0
G4 P0.5; Tool On
G1 F300 Z0.0000
G1 F15000 X595.0000 Y51.7900 Z0.0000
M3S245
G4 P0.5; Tool Off

G0 Z0; move to z-safe height
G0 X595.0000 Y61.7900
M3S0
G4 P0.5; Tool On
G1 F300 Z0.0000
G1 F15000 X5.0000 Y61.7900 Z0.0000
M3S245
G4 P0.5; Tool Off

G0 Z0; move to z-safe height
G0 X5.0000 Y71.7900
M3S0
G4 P0.5; Tool On
G1 F300 Z0.0000
G1 F15000 X595.0000 Y71.7900 Z0.0000
M3S245
G4 P0.5; Tool Off

G0 Z0; move to z-safe height
G0 X595.0000 Y81.7900
M3S0
G4 P0.5; Tool On
G1 F300 Z0.0000
G1 F15000 X5.0000 Y81.7900 Z0.0000
M3S245
G4 P0.5; Tool Off

G0 Z0; move to z-safe height
G0 X5.0000 Y91.7900
M3S0
G4 P0.5; Tool On
G1 F300 Z0.0000
G1 F15000 X595.0000 Y91.7900 Z0.0000
M3S245
G4 P0.5; Tool Off

G0 Z0; move to z-safe height
G0 X595.0000 Y101.7900
M3S0
G4 P0.5; Tool On
G1 F300 Z0.0000
G1 F15000 X5.0000 Y101.7900 Z0.0000
M3S245
G4 P0.5; Tool Off

G0 Z0; move to z-safe height
G0 X5.0000 Y111.7900
M3S0
G4 P0.5; Tool On
G1 F300 Z0.0000
G1 F15000 X595.0000 Y111.7900 Z0.0000
M3S245
G4 P0.5; Tool Off

G0 Z0; move to z-safe height
G0 X595.0000 Y121.7900
M3S0
G4 P0.5; Tool On
G1 F300 Z0.0000
G1 F15000 X5.0000 Y121.7900 Z0.0000
M3S245
G4 P0.5; Tool Off

G0 Z0; move to z-safe height
G0 X5.0000 Y131.7900
M3S0
G4 P0.5; Tool On
G1 F300 Z0.0000
G1 F15000 X595.0000 Y131.7900 Z0.0000
M3S245
G4 P0.5; Tool Off

G0 Z0; move to z-safe height
G0 X595.0000 Y141.7900
M3S0
G4 P0.5; Tool On
G1 F300 Z0.0000
G1 F15000 X5.0000 Y141.7900 Z0.0000
M3S245
G4 P0.5; Tool Off

G0 Z0; move to z-safe height
G0 X5.0000 Y151.7900
M3S0
G4 P0.5; Tool On
G1 F300 Z0.0000
G1 F15000 X595.0000 Y151.7900 Z0.0000
M3S245
G4 P0.5; Tool Off

G0 Z0; move to z-safe height
G0 X595.0000 Y161.7900
M3S0
G4 P0.5; Tool On
G1 F300 Z0.0000
G1 F15000 X5.0000 Y161.7900 Z0.0000
M3S245
G4 P0.5; Tool Off

G0 Z0; move to z-safe height
G0 X5.0000 Y171.7900
M3S0
G4 P0.5; Tool On
G1 F300 Z0.0000
G1 F15000 X595.0000 Y171.7900 Z0.0000
M3S245
G4 P0.5; Tool Off

G0 Z0; move to z-safe height
G0 X595.0000 Y181.7900
M3S0
G4 P0.5; Tool On
G1 F300 Z0.0000
G1 F15000 X5.0000 Y181.7900 Z0.0000
M3S245
G4 P0.5; Tool Off

G0 Z0; move to z-safe height
G0 X5.0000 Y191.7900
M3S0
G4 P0.5; Tool On
G1 F300 Z0.0000
G1 F15000 X595.0000 Y191.7900 Z0.0000
M3S245
G4 P0.5; Tool Off

G0 Z0; move to z-safe height
G0 X595.0000 Y201.7900
M3S0
G4 P0.5; Tool On
G1 F300 Z0.0000
G1 F15000 X5.0000 Y201.7900 Z0.0000
M3S245
G4 P0.5; Tool Off

G0 Z0; move to z-safe height
G0 X5.0000 Y211.7900
M3S0
G4 P0.5; Tool On
G1 F300 Z0.0000
G1 F15000 X595.0000 Y211.7900 Z0.0000
M3S245
G4 P0.5; Tool Off

G0 Z0; move to z-safe height
G0 X595.0000 Y221.7900
M3S0
G4 P0.5; Tool On
G1 F300 Z0.0000
G1 F15000 X5.0000 Y221.7900 Z0.0000
M3S245
G4 P0.5; Tool Off

G0 Z0; move to z-safe height
G0 X5.0000 Y231.7900
M3S0
G4 P0.5; Tool On
G1 F300 Z0.0000
G1 F15000 X595.0000 Y231.7900 Z0.0000
M3S245
G4 P0.5; Tool Off

G0 Z0; move to z-safe height
G0 X595.0000 Y241.7900
M3S0
G4 P0.5; Tool On
G1 F300 Z0.0000
G1 F15000 X5.0000 Y241.7900 Z0.0000
M3S245
G4 P0.5; Tool Off

G0 Z0; move to z-safe height
G0 X5.0000 Y251.7900
M3S0
G4 P0.5; Tool On
G1 F300 Z0.0000
G1 F15000 X595.0000 Y251.7900 Z0.0000
M3S245
G4 P0.5; Tool Off

G0 Z0; move to z-safe height
G0 X595.0000 Y261.7900
M3S0
G4 P0.5; Tool On
G1 F300 Z0.0000
G1 F15000 X5.0000 Y261.7900 Z0.0000
M3S245
G4 P0.5; Tool Off

G0 Z0; move to z-safe height
G0 X5.0000 Y271.7900
M3S0
G4 P0.5; Tool On
G1 F300 Z0.0000
G1 F15000 X595.0000 Y271.7900 Z0.0000
M3S245
G4 P0.5; Tool Off

G0 Z0; move to z-safe height
G0 X595.0000 Y281.7900
M3S0
G4 P0.5; Tool On
G1 F300 Z0.0000
G1 F15000 X5.0000 Y281.7900 Z0.0000
M3S245
G4 P0.5; Tool Off

G0 Z0; move to z-safe height
G0 X5.0000 Y291.7900
M3S0
G4 P0.5; Tool On
G1 F300 Z0.0000
G1 F15000 X595.0000 Y291.7900 Z0.0000
M3S245
G4 P0.5; Tool Off

G0 Z0; move to z-safe height
G0 X595.0000 Y301.7900
M3S0
G4 P0.5; Tool On
G1 F300 Z0.0000
G1 F15000 X5.0000 Y301.7900 Z0.0000
M3S245
G4 P0.5; Tool Off

G0 Z0; move to z-safe height
G0 X5.0000 Y311.7900
M3S0
G4 P0.5; Tool On
G1 F300 Z0.0000
G1 F15000 X595.0000 Y311.7900 Z0.0000
M3S245
G4 P0.5; Tool Off

G0 Z0; move to z-safe height
G0 X595.0000 Y321.7900
M3S0
G4 P0.5; Tool On
G1 F300 Z0.0000
G1 F15000 X5.0000 Y321.7900 Z0.0000
M3S245
G4 P0.5; Tool Off

G0 Z0; move to z-safe height
G0 X5.0000 Y331.7900
M3S0
G4 P0.5; Tool On
G1 F300 Z0.0000
G1 F15000 X595.0000 Y331.7900 Z0.0000
M3S245
G4 P0.5; Tool Off

G0 Z0; move to z-safe height
G0 X595.0000 Y341.7900
M3S0
G4 P0.5; Tool On
G1 F300 Z0.0000
G1 F15000 X5.0000 Y341.7900 Z0.0000
M3S245
G4 P0.5; Tool Off

G0 Z0; move to z-safe height
G0 X5.0000 Y351.7900
M3S0
G4 P0.5; Tool On
G1 F300 Z0.0000
G1 F15000 X595.0000 Y351.7900 Z0.0000
M3S245
G4 P0.5; Tool Off

G0 Z0; move to z-safe height
G0 X595.0000 Y361.7900
M3S0
G4 P0.5; Tool On
G1 F300 Z0.0000
G1 F15000 X5.0000 Y361.7900 Z0.0000
M3S245
G4 P0.5; Tool Off

G0 Z0; move to z-safe height
G0 X5.0000 Y371.7900
M3S0
G4 P0.5; Tool On
G1 F300 Z0.0000
G1 F15000 X595.0000 Y371.7900 Z0.0000
M3S245
G4 P0.5; Tool Off

G0 Z0; move to z-safe height
G0 X595.0000 Y381.7900
M3S0
G4 P0.5; Tool On
G1 F300 Z0.0000
G1 F15000 X5.0000 Y381.7900 Z0.0000
M3S245
G4 P0.5; Tool Off

G0 Z0; move to z-safe height
G0 X5.0000 Y391.7900
M3S0
G4 P0.5; Tool On
G1 F300 Z0.0000
G1 F15000 X595.0000 Y391.7900 Z0.0000
M3S245
G4 P0.5; Tool Off

G0 Z0; move to z-safe height
G0 X595.0000 Y401.7900
M3S0
G4 P0.5; Tool On
G1 F300 Z0.0000
G1 F15000 X5.0000 Y401.7900 Z0.0000
M3S245
G4 P0.5; Tool Off

G0 Z0; move to z-safe height
G0 X5.0000 Y411.7900
M3S0
G4 P0.5; Tool On
G1 F300 Z0.0000
G1 F15000 X595.0000 Y411.7900 Z0.0000
M3S245
G4 P0.5; Tool Off

G0 Z0; move to z-safe height
G0 X595.0000 Y421.7900
M3S0
G4 P0.5; Tool On
G1 F300 Z0.0000
G1 F15000 X5.0000 Y421.7900 Z0.0000
M3S245
G4 P0.5; Tool Off

G0 Z0; move to z-safe height
G0 X5.0000 Y431.7900
M3S0
G4 P0.5; Tool On
G1 F300 Z0.0000
G1 F15000 X595.0000 Y431.7900 Z0.0000
M3S245
G4 P0.5; Tool Off

G0 Z0; move to z-safe height
G0 X595.0000 Y441.7900
M3S0
G4 P0.5; Tool On
G1 F300 Z0.0000
G1 F15000 X5.0000 Y441.7900 Z0.0000
M3S245
G4 P0.5; Tool Off

G0 Z0; move to z-safe height
G0 X5.0000 Y451.7900
M3S0
G4 P0.5; Tool On
G1 F300 Z0.0000
G1 F15000 X595.0000 Y451.7900 Z0.0000
M3S245
G4 P0.5; Tool Off

G0 Z0; move to z-safe height
G0 X595.0000 Y461.7900
M3S0
G4 P0.5; Tool On
G1 F300 Z0.0000
G1 F15000 X5.0000 Y461.7900 Z0.0000
M3S245
G4 P0.5; Tool Off

G0 Z0; move to z-safe height
G0 X5.0000 Y471.7900
M3S0
G4 P0.5; Tool On
G1 F300 Z0.0000
G1 F15000 X595.0000 Y471.7900 Z0.0000
M3S245
G4 P0.5; Tool Off

G0 Z0; move to z-safe height
G0 X595.0000 Y481.7900
M3S0
G4 P0.5; Tool On
G1 F300 Z0.0000
G1 F15000 X5.0000 Y481.7900 Z0.0000
M3S245
G4 P0.5; Tool Off

G0 Z0; move to z-safe height
G0 X5.0000 Y491.7900
M3S0
G4 P0.5; Tool On
G1 F300 Z0.0000
G1 F15000 X595.0000 Y491.7900 Z0.0000
M3S245
G4 P0.5; Tool Off

G0 Z0; move to z-safe height
G0 X595.0000 Y501.7900
M3S0
G4 P0.5; Tool On
G1 F300 Z0.0000
G1 F15000 X5.0000 Y501.7900 Z0.0000
M3S245
G4 P0.5; Tool Off

G0 Z0; move to z-safe height
G0 X5.0000 Y511.7900
M3S0
G4 P0.5; Tool On
G1 F300 Z0.0000
G1 F15000 X595.0000 Y511.7900 Z0.0000
M3S245
G4 P0.5; Tool Off

G0 Z0; move to z-safe height
G0 X595.0000 Y521.7900
M3S0
G4 P0.5; Tool On
G1 F300 Z0.0000
G1 F15000 X5.0000 Y521.7900 Z0.0000
M3S245
G4 P0.5; Tool Off

G0 Z0; move to z-safe height
G0 X5.0000 Y531.7900
M3S0
G4 P0.5; Tool On
G1 F300 Z0.0000
G1 F15000 X595.0000 Y531.7900 Z0.0000
M3S245
G4 P0.5; Tool Off

G0 Z0; move to z-safe height
G0 X595.0000 Y541.7900
M3S0
G4 P0.5; Tool On
G1 F300 Z0.0000
G1 F15000 X5.0000 Y541.7900 Z0.0000
M3S245
G4 P0.5; Tool Off

G0 Z0; move to z-safe height
G0 X5.0000 Y551.7900
M3S0
G4 P0.5; Tool On
G1 F300 Z0.0000
G1 F15000 X595.0000 Y551.7900 Z0.0000
M3S245
G4 P0.5; Tool Off

G0 Z0; move to z-safe height
G0 X595.0000 Y561.7900
M3S0
G4 P0.5; Tool On
G1 F300 Z0.0000
G1 F15000 X5.0000 Y561.7900 Z0.0000
M3S245
G4 P0.5; Tool Off

G0 Z0; move to z-safe height
G0 X5.0000 Y571.7900
M3S0
G4 P0.5; Tool On
G1 F300 Z0.0000
G1 F15000 X595.0000 Y571.7900 Z0.0000
M3S245
G4 P0.5; Tool Off

G0 Z0; move to z-safe height
G0 X595.0000 Y581.7900
M3S0
G4 P0.5; Tool On
G1 F300 Z0.0000
G1 F15000 X5.0000 Y581.7900 Z0.0000
M3S245
G4 P0.5; Tool Off

G0 Z0; move to z-safe height
G0 X5.0000 Y591.7900
M3S0
G4 P0.5; Tool On
G1 F300 Z0.0000
G1 F15000 X595.0000 Y591.7900 Z0.0000
M3S245
G4 P0.5; Tool Off

G0 Z0; move to z-safe height
G0 X595.0000 Y601.7900
M3S0
G4 P0.5; Tool On
G1 F300 Z0.0000
G1 F15000 X5.0000 Y601.7900 Z0.0000
M3S245
G4 P0.5; Tool Off

G0 Z0; move to z-safe height
G0 X5.0000 Y611.7900
M3S0
G4 P0.5; Tool On
G1 F300 Z0.0000
G1 F15000 X595.0000 Y611.7900 Z0.0000
M3S245
G4 P0.5; Tool Off

G0 Z0; move to z-safe height
G0 X595.0000 Y621.7900
M3S0
G4 P0.5; Tool On
G1 F300 Z0.0000
G1 F15000 X5.0000 Y621.7900 Z0.0000
M3S245
G4 P0.5; Tool Off

G0 Z0; move to z-safe height
G0 X5.0000 Y631.7900
M3S0
G4 P0.5; Tool On
G1 F300 Z0.0000
G1 F15000 X595.0000 Y631.7900 Z0.0000
M3S245
G4 P0.5; Tool Off

G0 Z0; move to z-safe height
G0 X595.0000 Y641.7900
M3S0
G4 P0.5; Tool On
G1 F300 Z0.0000
G1 F15000 X5.0000 Y641.7900 Z0.0000
M3S245
G4 P0.5; Tool Off

G0 Z0; move to z-safe height
G0 X5.0000 Y651.7900
M3S0
G4 P0.5; Tool On
G1 F300 Z0.0000
G1 F15000 X595.0000 Y651.7900 Z0.0000
M3S245
G4 P0.5; Tool Off

G0 Z0; move to z-safe height
G0 X595.0000 Y661.7900
M3S0
G4 P0.5; Tool On
G1 F300 Z0.0000
G1 F15000 X5.0000 Y661.7900 Z0.0000
M3S245
G4 P0.5; Tool Off

G0 Z0; move to z-safe height
G0 X5.0000 Y671.7900
M3S0
G4 P0.5; Tool On
G1 F300 Z0.0000
G1 F15000 X595.0000 Y671.7900 Z0.0000
M3S245
G4 P0.5; Tool Off

G0 Z0; move to z-safe height
G0 X595.0000 Y681.7900
M3S0
G4 P0.5; Tool On
G1 F300 Z0.0000
G1 F15000 X5.0000 Y681.7900 Z0.0000
M3S245
G4 P0.5; Tool Off

G0 Z0; move to z-safe height
G0 X5.0000 Y691.7900
M3S0
G4 P0.5; Tool On
G1 F300 Z0.0000
G1 F15000 X595.0000 Y691.7900 Z0.0000
M3S245
G4 P0.5; Tool Off

G0 Z0; move to z-safe height
G0 X595.0000 Y701.7900
M3S0
G4 P0.5; Tool On
G1 F300 Z0.0000
G1 F15000 X5.0000 Y701.7900 Z0.0000
M3S245
G4 P0.5; Tool Off

G0 Z0; move to z-safe height
G0 X5.0000 Y711.7900
M3S0
G4 P0.5; Tool On
G1 F300 Z0.0000
G1 F15000 X595.0000 Y711.7900 Z0.0000
M3S245
G4 P0.5; Tool Off

G0 Z0; move to z-safe height
G0 X595.0000 Y721.7900
M3S0
G4 P0.5; Tool On
G1 F300 Z0.0000
G1 F15000 X5.0000 Y721.7900 Z0.0000
M3S245
G4 P0.5; Tool Off

G0 Z0; move to z-safe height
G0 X5.0000 Y731.7900
M3S0
G4 P0.5; Tool On
G1 F300 Z0.0000
G1 F15000 X595.0000 Y731.7900 Z0.0000
M3S245
G4 P0.5; Tool Off

G0 Z0; move to z-safe height
G0 X595.0000 Y741.7900
M3S0
G4 P0.5; Tool On
G1 F300 Z0.0000
G1 F15000 X5.0000 Y741.7900 Z0.0000
M3S245
G4 P0.5; Tool Off
; retracting back to z-safe
G0 Z0

; Plotter Mode Complete
