; GCODE Generated by cam.openbuilds.com on 2023-11-22 
G21 ; mm-mode
G54; Work Coordinates
G21; mm-mode
G90; Absolute Positioning
; Plotter Mode Active

; Operation 0: Pen Plotter: (lines fill)
; Pen Diameter: 2

G0 Z0; move to z-safe height
G0 F1000 X3.0000 Y5.0000
M3S0
G4 P0.5; Tool On
G1 F300 Z0.0000
G1 F15000 X1297.0000 Y5.0000 Z0.0000
M3S245
G4 P0.5; Tool Off

G0 Z0; move to z-safe height
G0 X1297.0000 Y11.0000
M3S0
G4 P0.5; Tool On
G1 F300 Z0.0000
G1 F15000 X3.0000 Y11.0000 Z0.0000
M3S245
G4 P0.5; Tool Off

G0 Z0; move to z-safe height
G0 X3.0000 Y17.0000
M3S0
G4 P0.5; Tool On
G1 F300 Z0.0000
G1 F15000 X1297.0000 Y17.0000 Z0.0000
M3S245
G4 P0.5; Tool Off

G0 Z0; move to z-safe height
G0 X1297.0000 Y23.0000
M3S0
G4 P0.5; Tool On
G1 F300 Z0.0000
G1 F15000 X3.0000 Y23.0000 Z0.0000
M3S245
G4 P0.5; Tool Off

G0 Z0; move to z-safe height
G0 X3.0000 Y29.0000
M3S0
G4 P0.5; Tool On
G1 F300 Z0.0000
G1 F15000 X1297.0000 Y29.0000 Z0.0000
M3S245
G4 P0.5; Tool Off

G0 Z0; move to z-safe height
G0 X1297.0000 Y35.0000
M3S0
G4 P0.5; Tool On
G1 F300 Z0.0000
G1 F15000 X3.0000 Y35.0000 Z0.0000
M3S245
G4 P0.5; Tool Off

G0 Z0; move to z-safe height
G0 X3.0000 Y41.0000
M3S0
G4 P0.5; Tool On
G1 F300 Z0.0000
G1 F15000 X1297.0000 Y41.0000 Z0.0000
M3S245
G4 P0.5; Tool Off

G0 Z0; move to z-safe height
G0 X1297.0000 Y47.0000
M3S0
G4 P0.5; Tool On
G1 F300 Z0.0000
G1 F15000 X3.0000 Y47.0000 Z0.0000
M3S245
G4 P0.5; Tool Off

G0 Z0; move to z-safe height
G0 X3.0000 Y53.0000
M3S0
G4 P0.5; Tool On
G1 F300 Z0.0000
G1 F15000 X1297.0000 Y53.0000 Z0.0000
M3S245
G4 P0.5; Tool Off

G0 Z0; move to z-safe height
G0 X1297.0000 Y59.0000
M3S0
G4 P0.5; Tool On
G1 F300 Z0.0000
G1 F15000 X3.0000 Y59.0000 Z0.0000
M3S245
G4 P0.5; Tool Off

G0 Z0; move to z-safe height
G0 X3.0000 Y65.0000
M3S0
G4 P0.5; Tool On
G1 F300 Z0.0000
G1 F15000 X1297.0000 Y65.0000 Z0.0000
M3S245
G4 P0.5; Tool Off

G0 Z0; move to z-safe height
G0 X1297.0000 Y71.0000
M3S0
G4 P0.5; Tool On
G1 F300 Z0.0000
G1 F15000 X3.0000 Y71.0000 Z0.0000
M3S245
G4 P0.5; Tool Off

G0 Z0; move to z-safe height
G0 X3.0000 Y77.0000
M3S0
G4 P0.5; Tool On
G1 F300 Z0.0000
G1 F15000 X1297.0000 Y77.0000 Z0.0000
M3S245
G4 P0.5; Tool Off

G0 Z0; move to z-safe height
G0 X1297.0000 Y83.0000
M3S0
G4 P0.5; Tool On
G1 F300 Z0.0000
G1 F15000 X3.0000 Y83.0000 Z0.0000
M3S245
G4 P0.5; Tool Off

G0 Z0; move to z-safe height
G0 X3.0000 Y89.0000
M3S0
G4 P0.5; Tool On
G1 F300 Z0.0000
G1 F15000 X1297.0000 Y89.0000 Z0.0000
M3S245
G4 P0.5; Tool Off

G0 Z0; move to z-safe height
G0 X1297.0000 Y95.0000
M3S0
G4 P0.5; Tool On
G1 F300 Z0.0000
G1 F15000 X3.0000 Y95.0000 Z0.0000
M3S245
G4 P0.5; Tool Off

G0 Z0; move to z-safe height
G0 X3.0000 Y101.0000
M3S0
G4 P0.5; Tool On
G1 F300 Z0.0000
G1 F15000 X1297.0000 Y101.0000 Z0.0000
M3S245
G4 P0.5; Tool Off

G0 Z0; move to z-safe height
G0 X1297.0000 Y107.0000
M3S0
G4 P0.5; Tool On
G1 F300 Z0.0000
G1 F15000 X3.0000 Y107.0000 Z0.0000
M3S245
G4 P0.5; Tool Off

G0 Z0; move to z-safe height
G0 X3.0000 Y113.0000
M3S0
G4 P0.5; Tool On
G1 F300 Z0.0000
G1 F15000 X1297.0000 Y113.0000 Z0.0000
M3S245
G4 P0.5; Tool Off

G0 Z0; move to z-safe height
G0 X1297.0000 Y119.0000
M3S0
G4 P0.5; Tool On
G1 F300 Z0.0000
G1 F15000 X3.0000 Y119.0000 Z0.0000
M3S245
G4 P0.5; Tool Off

G0 Z0; move to z-safe height
G0 X3.0000 Y125.0000
M3S0
G4 P0.5; Tool On
G1 F300 Z0.0000
G1 F15000 X1297.0000 Y125.0000 Z0.0000
M3S245
G4 P0.5; Tool Off

G0 Z0; move to z-safe height
G0 X1297.0000 Y131.0000
M3S0
G4 P0.5; Tool On
G1 F300 Z0.0000
G1 F15000 X3.0000 Y131.0000 Z0.0000
M3S245
G4 P0.5; Tool Off

G0 Z0; move to z-safe height
G0 X3.0000 Y137.0000
M3S0
G4 P0.5; Tool On
G1 F300 Z0.0000
G1 F15000 X1297.0000 Y137.0000 Z0.0000
M3S245
G4 P0.5; Tool Off

G0 Z0; move to z-safe height
G0 X1297.0000 Y143.0000
M3S0
G4 P0.5; Tool On
G1 F300 Z0.0000
G1 F15000 X3.0000 Y143.0000 Z0.0000
M3S245
G4 P0.5; Tool Off

G0 Z0; move to z-safe height
G0 X3.0000 Y149.0000
M3S0
G4 P0.5; Tool On
G1 F300 Z0.0000
G1 F15000 X1297.0000 Y149.0000 Z0.0000
M3S245
G4 P0.5; Tool Off

G0 Z0; move to z-safe height
G0 X1297.0000 Y155.0000
M3S0
G4 P0.5; Tool On
G1 F300 Z0.0000
G1 F15000 X3.0000 Y155.0000 Z0.0000
M3S245
G4 P0.5; Tool Off

G0 Z0; move to z-safe height
G0 X3.0000 Y161.0000
M3S0
G4 P0.5; Tool On
G1 F300 Z0.0000
G1 F15000 X1297.0000 Y161.0000 Z0.0000
M3S245
G4 P0.5; Tool Off

G0 Z0; move to z-safe height
G0 X1297.0000 Y167.0000
M3S0
G4 P0.5; Tool On
G1 F300 Z0.0000
G1 F15000 X3.0000 Y167.0000 Z0.0000
M3S245
G4 P0.5; Tool Off

G0 Z0; move to z-safe height
G0 X3.0000 Y173.0000
M3S0
G4 P0.5; Tool On
G1 F300 Z0.0000
G1 F15000 X1297.0000 Y173.0000 Z0.0000
M3S245
G4 P0.5; Tool Off

G0 Z0; move to z-safe height
G0 X1297.0000 Y179.0000
M3S0
G4 P0.5; Tool On
G1 F300 Z0.0000
G1 F15000 X3.0000 Y179.0000 Z0.0000
M3S245
G4 P0.5; Tool Off

G0 Z0; move to z-safe height
G0 X3.0000 Y185.0000
M3S0
G4 P0.5; Tool On
G1 F300 Z0.0000
G1 F15000 X1297.0000 Y185.0000 Z0.0000
M3S245
G4 P0.5; Tool Off

G0 Z0; move to z-safe height
G0 X1297.0000 Y191.0000
M3S0
G4 P0.5; Tool On
G1 F300 Z0.0000
G1 F15000 X3.0000 Y191.0000 Z0.0000
M3S245
G4 P0.5; Tool Off

G0 Z0; move to z-safe height
G0 X3.0000 Y197.0000
M3S0
G4 P0.5; Tool On
G1 F300 Z0.0000
G1 F15000 X1297.0000 Y197.0000 Z0.0000
M3S245
G4 P0.5; Tool Off

G0 Z0; move to z-safe height
G0 X1297.0000 Y203.0000
M3S0
G4 P0.5; Tool On
G1 F300 Z0.0000
G1 F15000 X3.0000 Y203.0000 Z0.0000
M3S245
G4 P0.5; Tool Off

G0 Z0; move to z-safe height
G0 X3.0000 Y209.0000
M3S0
G4 P0.5; Tool On
G1 F300 Z0.0000
G1 F15000 X1297.0000 Y209.0000 Z0.0000
M3S245
G4 P0.5; Tool Off

G0 Z0; move to z-safe height
G0 X1297.0000 Y215.0000
M3S0
G4 P0.5; Tool On
G1 F300 Z0.0000
G1 F15000 X3.0000 Y215.0000 Z0.0000
M3S245
G4 P0.5; Tool Off

G0 Z0; move to z-safe height
G0 X3.0000 Y221.0000
M3S0
G4 P0.5; Tool On
G1 F300 Z0.0000
G1 F15000 X1297.0000 Y221.0000 Z0.0000
M3S245
G4 P0.5; Tool Off

G0 Z0; move to z-safe height
G0 X1297.0000 Y227.0000
M3S0
G4 P0.5; Tool On
G1 F300 Z0.0000
G1 F15000 X3.0000 Y227.0000 Z0.0000
M3S245
G4 P0.5; Tool Off

G0 Z0; move to z-safe height
G0 X3.0000 Y233.0000
M3S0
G4 P0.5; Tool On
G1 F300 Z0.0000
G1 F15000 X1297.0000 Y233.0000 Z0.0000
M3S245
G4 P0.5; Tool Off

G0 Z0; move to z-safe height
G0 X1297.0000 Y239.0000
M3S0
G4 P0.5; Tool On
G1 F300 Z0.0000
G1 F15000 X3.0000 Y239.0000 Z0.0000
M3S245
G4 P0.5; Tool Off

G0 Z0; move to z-safe height
G0 X3.0000 Y245.0000
M3S0
G4 P0.5; Tool On
G1 F300 Z0.0000
G1 F15000 X1297.0000 Y245.0000 Z0.0000
M3S245
G4 P0.5; Tool Off

G0 Z0; move to z-safe height
G0 X1297.0000 Y251.0000
M3S0
G4 P0.5; Tool On
G1 F300 Z0.0000
G1 F15000 X3.0000 Y251.0000 Z0.0000
M3S245
G4 P0.5; Tool Off

G0 Z0; move to z-safe height
G0 X3.0000 Y257.0000
M3S0
G4 P0.5; Tool On
G1 F300 Z0.0000
G1 F15000 X1297.0000 Y257.0000 Z0.0000
M3S245
G4 P0.5; Tool Off

G0 Z0; move to z-safe height
G0 X1297.0000 Y263.0000
M3S0
G4 P0.5; Tool On
G1 F300 Z0.0000
G1 F15000 X3.0000 Y263.0000 Z0.0000
M3S245
G4 P0.5; Tool Off

G0 Z0; move to z-safe height
G0 X3.0000 Y269.0000
M3S0
G4 P0.5; Tool On
G1 F300 Z0.0000
G1 F15000 X1297.0000 Y269.0000 Z0.0000
M3S245
G4 P0.5; Tool Off

G0 Z0; move to z-safe height
G0 X1297.0000 Y275.0000
M3S0
G4 P0.5; Tool On
G1 F300 Z0.0000
G1 F15000 X3.0000 Y275.0000 Z0.0000
M3S245
G4 P0.5; Tool Off

G0 Z0; move to z-safe height
G0 X3.0000 Y281.0000
M3S0
G4 P0.5; Tool On
G1 F300 Z0.0000
G1 F15000 X1297.0000 Y281.0000 Z0.0000
M3S245
G4 P0.5; Tool Off

G0 Z0; move to z-safe height
G0 X1297.0000 Y287.0000
M3S0
G4 P0.5; Tool On
G1 F300 Z0.0000
G1 F15000 X3.0000 Y287.0000 Z0.0000
M3S245
G4 P0.5; Tool Off

G0 Z0; move to z-safe height
G0 X3.0000 Y293.0000
M3S0
G4 P0.5; Tool On
G1 F300 Z0.0000
G1 F15000 X1297.0000 Y293.0000 Z0.0000
M3S245
G4 P0.5; Tool Off

G0 Z0; move to z-safe height
G0 X1297.0000 Y299.0000
M3S0
G4 P0.5; Tool On
G1 F300 Z0.0000
G1 F15000 X3.0000 Y299.0000 Z0.0000
M3S245
G4 P0.5; Tool Off

G0 Z0; move to z-safe height
G0 X3.0000 Y305.0000
M3S0
G4 P0.5; Tool On
G1 F300 Z0.0000
G1 F15000 X1297.0000 Y305.0000 Z0.0000
M3S245
G4 P0.5; Tool Off

G0 Z0; move to z-safe height
G0 X1297.0000 Y311.0000
M3S0
G4 P0.5; Tool On
G1 F300 Z0.0000
G1 F15000 X3.0000 Y311.0000 Z0.0000
M3S245
G4 P0.5; Tool Off

G0 Z0; move to z-safe height
G0 X3.0000 Y317.0000
M3S0
G4 P0.5; Tool On
G1 F300 Z0.0000
G1 F15000 X1297.0000 Y317.0000 Z0.0000
M3S245
G4 P0.5; Tool Off

G0 Z0; move to z-safe height
G0 X1297.0000 Y323.0000
M3S0
G4 P0.5; Tool On
G1 F300 Z0.0000
G1 F15000 X3.0000 Y323.0000 Z0.0000
M3S245
G4 P0.5; Tool Off

G0 Z0; move to z-safe height
G0 X3.0000 Y329.0000
M3S0
G4 P0.5; Tool On
G1 F300 Z0.0000
G1 F15000 X1297.0000 Y329.0000 Z0.0000
M3S245
G4 P0.5; Tool Off

G0 Z0; move to z-safe height
G0 X1297.0000 Y335.0000
M3S0
G4 P0.5; Tool On
G1 F300 Z0.0000
G1 F15000 X3.0000 Y335.0000 Z0.0000
M3S245
G4 P0.5; Tool Off

G0 Z0; move to z-safe height
G0 X3.0000 Y341.0000
M3S0
G4 P0.5; Tool On
G1 F300 Z0.0000
G1 F15000 X1297.0000 Y341.0000 Z0.0000
M3S245
G4 P0.5; Tool Off

G0 Z0; move to z-safe height
G0 X1297.0000 Y347.0000
M3S0
G4 P0.5; Tool On
G1 F300 Z0.0000
G1 F15000 X3.0000 Y347.0000 Z0.0000
M3S245
G4 P0.5; Tool Off

G0 Z0; move to z-safe height
G0 X3.0000 Y353.0000
M3S0
G4 P0.5; Tool On
G1 F300 Z0.0000
G1 F15000 X1297.0000 Y353.0000 Z0.0000
M3S245
G4 P0.5; Tool Off

G0 Z0; move to z-safe height
G0 X1297.0000 Y359.0000
M3S0
G4 P0.5; Tool On
G1 F300 Z0.0000
G1 F15000 X3.0000 Y359.0000 Z0.0000
M3S245
G4 P0.5; Tool Off

G0 Z0; move to z-safe height
G0 X3.0000 Y365.0000
M3S0
G4 P0.5; Tool On
G1 F300 Z0.0000
G1 F15000 X1297.0000 Y365.0000 Z0.0000
M3S245
G4 P0.5; Tool Off

G0 Z0; move to z-safe height
G0 X1297.0000 Y371.0000
M3S0
G4 P0.5; Tool On
G1 F300 Z0.0000
G1 F15000 X3.0000 Y371.0000 Z0.0000
M3S245
G4 P0.5; Tool Off

G0 Z0; move to z-safe height
G0 X3.0000 Y377.0000
M3S0
G4 P0.5; Tool On
G1 F300 Z0.0000
G1 F15000 X1297.0000 Y377.0000 Z0.0000
M3S245
G4 P0.5; Tool Off

G0 Z0; move to z-safe height
G0 X1297.0000 Y383.0000
M3S0
G4 P0.5; Tool On
G1 F300 Z0.0000
G1 F15000 X3.0000 Y383.0000 Z0.0000
M3S245
G4 P0.5; Tool Off

G0 Z0; move to z-safe height
G0 X3.0000 Y389.0000
M3S0
G4 P0.5; Tool On
G1 F300 Z0.0000
G1 F15000 X1297.0000 Y389.0000 Z0.0000
M3S245
G4 P0.5; Tool Off

G0 Z0; move to z-safe height
G0 X1297.0000 Y395.0000
M3S0
G4 P0.5; Tool On
G1 F300 Z0.0000
G1 F15000 X3.0000 Y395.0000 Z0.0000
M3S245
G4 P0.5; Tool Off

G0 Z0; move to z-safe height
G0 X3.0000 Y401.0000
M3S0
G4 P0.5; Tool On
G1 F300 Z0.0000
G1 F15000 X1297.0000 Y401.0000 Z0.0000
M3S245
G4 P0.5; Tool Off

G0 Z0; move to z-safe height
G0 X1297.0000 Y407.0000
M3S0
G4 P0.5; Tool On
G1 F300 Z0.0000
G1 F15000 X3.0000 Y407.0000 Z0.0000
M3S245
G4 P0.5; Tool Off

G0 Z0; move to z-safe height
G0 X3.0000 Y413.0000
M3S0
G4 P0.5; Tool On
G1 F300 Z0.0000
G1 F15000 X1297.0000 Y413.0000 Z0.0000
M3S245
G4 P0.5; Tool Off

G0 Z0; move to z-safe height
G0 X1297.0000 Y419.0000
M3S0
G4 P0.5; Tool On
G1 F300 Z0.0000
G1 F15000 X3.0000 Y419.0000 Z0.0000
M3S245
G4 P0.5; Tool Off

G0 Z0; move to z-safe height
G0 X3.0000 Y425.0000
M3S0
G4 P0.5; Tool On
G1 F300 Z0.0000
G1 F15000 X1297.0000 Y425.0000 Z0.0000
M3S245
G4 P0.5; Tool Off

G0 Z0; move to z-safe height
G0 X1297.0000 Y431.0000
M3S0
G4 P0.5; Tool On
G1 F300 Z0.0000
G1 F15000 X3.0000 Y431.0000 Z0.0000
M3S245
G4 P0.5; Tool Off

G0 Z0; move to z-safe height
G0 X3.0000 Y437.0000
M3S0
G4 P0.5; Tool On
G1 F300 Z0.0000
G1 F15000 X1297.0000 Y437.0000 Z0.0000
M3S245
G4 P0.5; Tool Off

G0 Z0; move to z-safe height
G0 X1297.0000 Y443.0000
M3S0
G4 P0.5; Tool On
G1 F300 Z0.0000
G1 F15000 X3.0000 Y443.0000 Z0.0000
M3S245
G4 P0.5; Tool Off

G0 Z0; move to z-safe height
G0 X3.0000 Y449.0000
M3S0
G4 P0.5; Tool On
G1 F300 Z0.0000
G1 F15000 X1297.0000 Y449.0000 Z0.0000
M3S245
G4 P0.5; Tool Off

G0 Z0; move to z-safe height
G0 X1297.0000 Y455.0000
M3S0
G4 P0.5; Tool On
G1 F300 Z0.0000
G1 F15000 X3.0000 Y455.0000 Z0.0000
M3S245
G4 P0.5; Tool Off

G0 Z0; move to z-safe height
G0 X3.0000 Y461.0000
M3S0
G4 P0.5; Tool On
G1 F300 Z0.0000
G1 F15000 X1297.0000 Y461.0000 Z0.0000
M3S245
G4 P0.5; Tool Off

G0 Z0; move to z-safe height
G0 X1297.0000 Y467.0000
M3S0
G4 P0.5; Tool On
G1 F300 Z0.0000
G1 F15000 X3.0000 Y467.0000 Z0.0000
M3S245
G4 P0.5; Tool Off

G0 Z0; move to z-safe height
G0 X3.0000 Y473.0000
M3S0
G4 P0.5; Tool On
G1 F300 Z0.0000
G1 F15000 X1297.0000 Y473.0000 Z0.0000
M3S245
G4 P0.5; Tool Off

G0 Z0; move to z-safe height
G0 X1297.0000 Y479.0000
M3S0
G4 P0.5; Tool On
G1 F300 Z0.0000
G1 F15000 X3.0000 Y479.0000 Z0.0000
M3S245
G4 P0.5; Tool Off

G0 Z0; move to z-safe height
G0 X3.0000 Y485.0000
M3S0
G4 P0.5; Tool On
G1 F300 Z0.0000
G1 F15000 X1297.0000 Y485.0000 Z0.0000
M3S245
G4 P0.5; Tool Off

G0 Z0; move to z-safe height
G0 X1297.0000 Y491.0000
M3S0
G4 P0.5; Tool On
G1 F300 Z0.0000
G1 F15000 X3.0000 Y491.0000 Z0.0000
M3S245
G4 P0.5; Tool Off

G0 Z0; move to z-safe height
G0 X3.0000 Y497.0000
M3S0
G4 P0.5; Tool On
G1 F300 Z0.0000
G1 F15000 X1297.0000 Y497.0000 Z0.0000
M3S245
G4 P0.5; Tool Off

G0 Z0; move to z-safe height
G0 X1297.0000 Y503.0000
M3S0
G4 P0.5; Tool On
G1 F300 Z0.0000
G1 F15000 X3.0000 Y503.0000 Z0.0000
M3S245
G4 P0.5; Tool Off

G0 Z0; move to z-safe height
G0 X3.0000 Y509.0000
M3S0
G4 P0.5; Tool On
G1 F300 Z0.0000
G1 F15000 X1297.0000 Y509.0000 Z0.0000
M3S245
G4 P0.5; Tool Off

G0 Z0; move to z-safe height
G0 X1297.0000 Y515.0000
M3S0
G4 P0.5; Tool On
G1 F300 Z0.0000
G1 F15000 X3.0000 Y515.0000 Z0.0000
M3S245
G4 P0.5; Tool Off

G0 Z0; move to z-safe height
G0 X3.0000 Y521.0000
M3S0
G4 P0.5; Tool On
G1 F300 Z0.0000
G1 F15000 X1297.0000 Y521.0000 Z0.0000
M3S245
G4 P0.5; Tool Off

G0 Z0; move to z-safe height
G0 X1297.0000 Y527.0000
M3S0
G4 P0.5; Tool On
G1 F300 Z0.0000
G1 F15000 X3.0000 Y527.0000 Z0.0000
M3S245
G4 P0.5; Tool Off

G0 Z0; move to z-safe height
G0 X3.0000 Y533.0000
M3S0
G4 P0.5; Tool On
G1 F300 Z0.0000
G1 F15000 X1297.0000 Y533.0000 Z0.0000
M3S245
G4 P0.5; Tool Off

G0 Z0; move to z-safe height
G0 X1297.0000 Y539.0000
M3S0
G4 P0.5; Tool On
G1 F300 Z0.0000
G1 F15000 X3.0000 Y539.0000 Z0.0000
M3S245
G4 P0.5; Tool Off

G0 Z0; move to z-safe height
G0 X3.0000 Y545.0000
M3S0
G4 P0.5; Tool On
G1 F300 Z0.0000
G1 F15000 X1297.0000 Y545.0000 Z0.0000
M3S245
G4 P0.5; Tool Off

G0 Z0; move to z-safe height
G0 X1297.0000 Y551.0000
M3S0
G4 P0.5; Tool On
G1 F300 Z0.0000
G1 F15000 X3.0000 Y551.0000 Z0.0000
M3S245
G4 P0.5; Tool Off

G0 Z0; move to z-safe height
G0 X3.0000 Y557.0000
M3S0
G4 P0.5; Tool On
G1 F300 Z0.0000
G1 F15000 X1297.0000 Y557.0000 Z0.0000
M3S245
G4 P0.5; Tool Off

G0 Z0; move to z-safe height
G0 X1297.0000 Y563.0000
M3S0
G4 P0.5; Tool On
G1 F300 Z0.0000
G1 F15000 X3.0000 Y563.0000 Z0.0000
M3S245
G4 P0.5; Tool Off

G0 Z0; move to z-safe height
G0 X3.0000 Y569.0000
M3S0
G4 P0.5; Tool On
G1 F300 Z0.0000
G1 F15000 X1297.0000 Y569.0000 Z0.0000
M3S245
G4 P0.5; Tool Off

G0 Z0; move to z-safe height
G0 X1297.0000 Y575.0000
M3S0
G4 P0.5; Tool On
G1 F300 Z0.0000
G1 F15000 X3.0000 Y575.0000 Z0.0000
M3S245
G4 P0.5; Tool Off

G0 Z0; move to z-safe height
G0 X3.0000 Y581.0000
M3S0
G4 P0.5; Tool On
G1 F300 Z0.0000
G1 F15000 X1297.0000 Y581.0000 Z0.0000
M3S245
G4 P0.5; Tool Off

G0 Z0; move to z-safe height
G0 X1297.0000 Y587.0000
M3S0
G4 P0.5; Tool On
G1 F300 Z0.0000
G1 F15000 X3.0000 Y587.0000 Z0.0000
M3S245
G4 P0.5; Tool Off

G0 Z0; move to z-safe height
G0 X3.0000 Y593.0000
M3S0
G4 P0.5; Tool On
G1 F300 Z0.0000
G1 F15000 X1297.0000 Y593.0000 Z0.0000
M3S245
G4 P0.5; Tool Off

G0 Z0; move to z-safe height
G0 X1297.0000 Y599.0000
M3S0
G4 P0.5; Tool On
G1 F300 Z0.0000
G1 F15000 X3.0000 Y599.0000 Z0.0000
M3S245
G4 P0.5; Tool Off

G0 Z0; move to z-safe height
G0 X3.0000 Y605.0000
M3S0
G4 P0.5; Tool On
G1 F300 Z0.0000
G1 F15000 X1297.0000 Y605.0000 Z0.0000
M3S245
G4 P0.5; Tool Off

G0 Z0; move to z-safe height
G0 X1297.0000 Y611.0000
M3S0
G4 P0.5; Tool On
G1 F300 Z0.0000
G1 F15000 X3.0000 Y611.0000 Z0.0000
M3S245
G4 P0.5; Tool Off

G0 Z0; move to z-safe height
G0 X3.0000 Y617.0000
M3S0
G4 P0.5; Tool On
G1 F300 Z0.0000
G1 F15000 X1297.0000 Y617.0000 Z0.0000
M3S245
G4 P0.5; Tool Off

G0 Z0; move to z-safe height
G0 X1297.0000 Y623.0000
M3S0
G4 P0.5; Tool On
G1 F300 Z0.0000
G1 F15000 X3.0000 Y623.0000 Z0.0000
M3S245
G4 P0.5; Tool Off

G0 Z0; move to z-safe height
G0 X3.0000 Y629.0000
M3S0
G4 P0.5; Tool On
G1 F300 Z0.0000
G1 F15000 X1297.0000 Y629.0000 Z0.0000
M3S245
G4 P0.5; Tool Off

G0 Z0; move to z-safe height
G0 X1297.0000 Y635.0000
M3S0
G4 P0.5; Tool On
G1 F300 Z0.0000
G1 F15000 X3.0000 Y635.0000 Z0.0000
M3S245
G4 P0.5; Tool Off

G0 Z0; move to z-safe height
G0 X3.0000 Y641.0000
M3S0
G4 P0.5; Tool On
G1 F300 Z0.0000
G1 F15000 X1297.0000 Y641.0000 Z0.0000
M3S245
G4 P0.5; Tool Off

G0 Z0; move to z-safe height
G0 X1297.0000 Y647.0000
M3S0
G4 P0.5; Tool On
G1 F300 Z0.0000
G1 F15000 X3.0000 Y647.0000 Z0.0000
M3S245
G4 P0.5; Tool Off

G0 Z0; move to z-safe height
G0 X3.0000 Y653.0000
M3S0
G4 P0.5; Tool On
G1 F300 Z0.0000
G1 F15000 X1297.0000 Y653.0000 Z0.0000
M3S245
G4 P0.5; Tool Off

G0 Z0; move to z-safe height
G0 X1297.0000 Y659.0000
M3S0
G4 P0.5; Tool On
G1 F300 Z0.0000
G1 F15000 X3.0000 Y659.0000 Z0.0000
M3S245
G4 P0.5; Tool Off

G0 Z0; move to z-safe height
G0 X3.0000 Y665.0000
M3S0
G4 P0.5; Tool On
G1 F300 Z0.0000
G1 F15000 X1297.0000 Y665.0000 Z0.0000
M3S245
G4 P0.5; Tool Off

G0 Z0; move to z-safe height
G0 X1297.0000 Y671.0000
M3S0
G4 P0.5; Tool On
G1 F300 Z0.0000
G1 F15000 X3.0000 Y671.0000 Z0.0000
M3S245
G4 P0.5; Tool Off

G0 Z0; move to z-safe height
G0 X3.0000 Y677.0000
M3S0
G4 P0.5; Tool On
G1 F300 Z0.0000
G1 F15000 X1297.0000 Y677.0000 Z0.0000
M3S245
G4 P0.5; Tool Off

G0 Z0; move to z-safe height
G0 X1297.0000 Y683.0000
M3S0
G4 P0.5; Tool On
G1 F300 Z0.0000
G1 F15000 X3.0000 Y683.0000 Z0.0000
M3S245
G4 P0.5; Tool Off

G0 Z0; move to z-safe height
G0 X3.0000 Y689.0000
M3S0
G4 P0.5; Tool On
G1 F300 Z0.0000
G1 F15000 X1297.0000 Y689.0000 Z0.0000
M3S245
G4 P0.5; Tool Off

G0 Z0; move to z-safe height
G0 X1297.0000 Y695.0000
M3S0
G4 P0.5; Tool On
G1 F300 Z0.0000
G1 F15000 X3.0000 Y695.0000 Z0.0000
M3S245
G4 P0.5; Tool Off

G0 Z0; move to z-safe height
G0 X3.0000 Y701.0000
M3S0
G4 P0.5; Tool On
G1 F300 Z0.0000
G1 F15000 X1297.0000 Y701.0000 Z0.0000
M3S245
G4 P0.5; Tool Off

G0 Z0; move to z-safe height
G0 X1297.0000 Y707.0000
M3S0
G4 P0.5; Tool On
G1 F300 Z0.0000
G1 F15000 X3.0000 Y707.0000 Z0.0000
M3S245
G4 P0.5; Tool Off

G0 Z0; move to z-safe height
G0 X3.0000 Y713.0000
M3S0
G4 P0.5; Tool On
G1 F300 Z0.0000
G1 F15000 X1297.0000 Y713.0000 Z0.0000
M3S245
G4 P0.5; Tool Off

G0 Z0; move to z-safe height
G0 X1297.0000 Y719.0000
M3S0
G4 P0.5; Tool On
G1 F300 Z0.0000
G1 F15000 X3.0000 Y719.0000 Z0.0000
M3S245
G4 P0.5; Tool Off

G0 Z0; move to z-safe height
G0 X3.0000 Y725.0000
M3S0
G4 P0.5; Tool On
G1 F300 Z0.0000
G1 F15000 X1297.0000 Y725.0000 Z0.0000
M3S245
G4 P0.5; Tool Off

G0 Z0; move to z-safe height
G0 X1297.0000 Y731.0000
M3S0
G4 P0.5; Tool On
G1 F300 Z0.0000
G1 F15000 X3.0000 Y731.0000 Z0.0000
M3S245
G4 P0.5; Tool Off

G0 Z0; move to z-safe height
G0 X3.0000 Y737.0000
M3S0
G4 P0.5; Tool On
G1 F300 Z0.0000
G1 F15000 X1297.0000 Y737.0000 Z0.0000
M3S245
G4 P0.5; Tool Off

G0 Z0; move to z-safe height
G0 X1297.0000 Y743.0000
M3S0
G4 P0.5; Tool On
G1 F300 Z0.0000
G1 F15000 X3.0000 Y743.0000 Z0.0000
M3S245
G4 P0.5; Tool Off

G0 Z0; move to z-safe height
G0 X3.0000 Y749.0000
M3S0
G4 P0.5; Tool On
G1 F300 Z0.0000
G1 F15000 X1297.0000 Y749.0000 Z0.0000
M3S245
G4 P0.5; Tool Off

G0 Z0; move to z-safe height
G0 X1297.0000 Y755.0000
M3S0
G4 P0.5; Tool On
G1 F300 Z0.0000
G1 F15000 X3.0000 Y755.0000 Z0.0000
M3S245
G4 P0.5; Tool Off

G0 Z0; move to z-safe height
G0 X3.0000 Y761.0000
M3S0
G4 P0.5; Tool On
G1 F300 Z0.0000
G1 F15000 X1297.0000 Y761.0000 Z0.0000
M3S245
G4 P0.5; Tool Off

G0 Z0; move to z-safe height
G0 X1297.0000 Y767.0000
M3S0
G4 P0.5; Tool On
G1 F300 Z0.0000
G1 F15000 X3.0000 Y767.0000 Z0.0000
M3S245
G4 P0.5; Tool Off

G0 Z0; move to z-safe height
G0 X3.0000 Y773.0000
M3S0
G4 P0.5; Tool On
G1 F300 Z0.0000
G1 F15000 X1297.0000 Y773.0000 Z0.0000
M3S245
G4 P0.5; Tool Off

G0 Z0; move to z-safe height
G0 X1297.0000 Y779.0000
M3S0
G4 P0.5; Tool On
G1 F300 Z0.0000
G1 F15000 X3.0000 Y779.0000 Z0.0000
M3S245
G4 P0.5; Tool Off

G0 Z0; move to z-safe height
G0 X3.0000 Y785.0000
M3S0
G4 P0.5; Tool On
G1 F300 Z0.0000
G1 F15000 X1297.0000 Y785.0000 Z0.0000
M3S245
G4 P0.5; Tool Off

G0 Z0; move to z-safe height
G0 X1297.0000 Y791.0000
M3S0
G4 P0.5; Tool On
G1 F300 Z0.0000
G1 F15000 X3.0000 Y791.0000 Z0.0000
M3S245
G4 P0.5; Tool Off

G0 Z0; move to z-safe height
G0 X3.0000 Y797.0000
M3S0
G4 P0.5; Tool On
G1 F300 Z0.0000
G1 F15000 X1297.0000 Y797.0000 Z0.0000
M3S245
G4 P0.5; Tool Off

G0 Z0; move to z-safe height
G0 X1297.0000 Y803.0000
M3S0
G4 P0.5; Tool On
G1 F300 Z0.0000
G1 F15000 X3.0000 Y803.0000 Z0.0000
M3S245
G4 P0.5; Tool Off

G0 Z0; move to z-safe height
G0 X3.0000 Y809.0000
M3S0
G4 P0.5; Tool On
G1 F300 Z0.0000
G1 F15000 X1297.0000 Y809.0000 Z0.0000
M3S245
G4 P0.5; Tool Off

G0 Z0; move to z-safe height
G0 X1297.0000 Y815.0000
M3S0
G4 P0.5; Tool On
G1 F300 Z0.0000
G1 F15000 X3.0000 Y815.0000 Z0.0000
M3S245
G4 P0.5; Tool Off

G0 Z0; move to z-safe height
G0 X3.0000 Y821.0000
M3S0
G4 P0.5; Tool On
G1 F300 Z0.0000
G1 F15000 X1297.0000 Y821.0000 Z0.0000
M3S245
G4 P0.5; Tool Off

G0 Z0; move to z-safe height
G0 X1297.0000 Y827.0000
M3S0
G4 P0.5; Tool On
G1 F300 Z0.0000
G1 F15000 X3.0000 Y827.0000 Z0.0000
M3S245
G4 P0.5; Tool Off

G0 Z0; move to z-safe height
G0 X3.0000 Y833.0000
M3S0
G4 P0.5; Tool On
G1 F300 Z0.0000
G1 F15000 X1297.0000 Y833.0000 Z0.0000
M3S245
G4 P0.5; Tool Off

G0 Z0; move to z-safe height
G0 X1297.0000 Y839.0000
M3S0
G4 P0.5; Tool On
G1 F300 Z0.0000
G1 F15000 X3.0000 Y839.0000 Z0.0000
M3S245
G4 P0.5; Tool Off

G0 Z0; move to z-safe height
G0 X3.0000 Y845.0000
M3S0
G4 P0.5; Tool On
G1 F300 Z0.0000
G1 F15000 X1297.0000 Y845.0000 Z0.0000
M3S245
G4 P0.5; Tool Off

G0 Z0; move to z-safe height
G0 X1297.0000 Y851.0000
M3S0
G4 P0.5; Tool On
G1 F300 Z0.0000
G1 F15000 X3.0000 Y851.0000 Z0.0000
M3S245
G4 P0.5; Tool Off

G0 Z0; move to z-safe height
G0 X3.0000 Y857.0000
M3S0
G4 P0.5; Tool On
G1 F300 Z0.0000
G1 F15000 X1297.0000 Y857.0000 Z0.0000
M3S245
G4 P0.5; Tool Off

G0 Z0; move to z-safe height
G0 X1297.0000 Y863.0000
M3S0
G4 P0.5; Tool On
G1 F300 Z0.0000
G1 F15000 X3.0000 Y863.0000 Z0.0000
M3S245
G4 P0.5; Tool Off

G0 Z0; move to z-safe height
G0 X3.0000 Y869.0000
M3S0
G4 P0.5; Tool On
G1 F300 Z0.0000
G1 F15000 X1297.0000 Y869.0000 Z0.0000
M3S245
G4 P0.5; Tool Off

G0 Z0; move to z-safe height
G0 X1297.0000 Y875.0000
M3S0
G4 P0.5; Tool On
G1 F300 Z0.0000
G1 F15000 X3.0000 Y875.0000 Z0.0000
M3S245
G4 P0.5; Tool Off

G0 Z0; move to z-safe height
G0 X3.0000 Y881.0000
M3S0
G4 P0.5; Tool On
G1 F300 Z0.0000
G1 F15000 X1297.0000 Y881.0000 Z0.0000
M3S245
G4 P0.5; Tool Off

G0 Z0; move to z-safe height
G0 X1297.0000 Y887.0000
M3S0
G4 P0.5; Tool On
G1 F300 Z0.0000
G1 F15000 X3.0000 Y887.0000 Z0.0000
M3S245
G4 P0.5; Tool Off

G0 Z0; move to z-safe height
G0 X3.0000 Y893.0000
M3S0
G4 P0.5; Tool On
G1 F300 Z0.0000
G1 F15000 X1297.0000 Y893.0000 Z0.0000
M3S245
G4 P0.5; Tool Off

G0 Z0; move to z-safe height
G0 X1297.0000 Y899.0000
M3S0
G4 P0.5; Tool On
G1 F300 Z0.0000
G1 F15000 X3.0000 Y899.0000 Z0.0000
M3S245
G4 P0.5; Tool Off

G0 Z0; move to z-safe height
G0 X3.0000 Y905.0000
M3S0
G4 P0.5; Tool On
G1 F300 Z0.0000
G1 F15000 X1297.0000 Y905.0000 Z0.0000
M3S245
G4 P0.5; Tool Off

G0 Z0; move to z-safe height
G0 X1297.0000 Y911.0000
M3S0
G4 P0.5; Tool On
G1 F300 Z0.0000
G1 F15000 X3.0000 Y911.0000 Z0.0000
M3S245
G4 P0.5; Tool Off

G0 Z0; move to z-safe height
G0 X3.0000 Y917.0000
M3S0
G4 P0.5; Tool On
G1 F300 Z0.0000
G1 F15000 X1297.0000 Y917.0000 Z0.0000
M3S245
G4 P0.5; Tool Off

G0 Z0; move to z-safe height
G0 X1297.0000 Y923.0000
M3S0
G4 P0.5; Tool On
G1 F300 Z0.0000
G1 F15000 X3.0000 Y923.0000 Z0.0000
M3S245
G4 P0.5; Tool Off

G0 Z0; move to z-safe height
G0 X3.0000 Y929.0000
M3S0
G4 P0.5; Tool On
G1 F300 Z0.0000
G1 F15000 X1297.0000 Y929.0000 Z0.0000
M3S245
G4 P0.5; Tool Off

G0 Z0; move to z-safe height
G0 X1297.0000 Y935.0000
M3S0
G4 P0.5; Tool On
G1 F300 Z0.0000
G1 F15000 X3.0000 Y935.0000 Z0.0000
M3S245
G4 P0.5; Tool Off

G0 Z0; move to z-safe height
G0 X3.0000 Y941.0000
M3S0
G4 P0.5; Tool On
G1 F300 Z0.0000
G1 F15000 X1297.0000 Y941.0000 Z0.0000
M3S245
G4 P0.5; Tool Off

G0 Z0; move to z-safe height
G0 X1297.0000 Y947.0000
M3S0
G4 P0.5; Tool On
G1 F300 Z0.0000
G1 F15000 X3.0000 Y947.0000 Z0.0000
M3S245
G4 P0.5; Tool Off

G0 Z0; move to z-safe height
G0 X3.0000 Y953.0000
M3S0
G4 P0.5; Tool On
G1 F300 Z0.0000
G1 F15000 X1297.0000 Y953.0000 Z0.0000
M3S245
G4 P0.5; Tool Off

G0 Z0; move to z-safe height
G0 X1297.0000 Y959.0000
M3S0
G4 P0.5; Tool On
G1 F300 Z0.0000
G1 F15000 X3.0000 Y959.0000 Z0.0000
M3S245
G4 P0.5; Tool Off

G0 Z0; move to z-safe height
G0 X3.0000 Y965.0000
M3S0
G4 P0.5; Tool On
G1 F300 Z0.0000
G1 F15000 X1297.0000 Y965.0000 Z0.0000
M3S245
G4 P0.5; Tool Off

G0 Z0; move to z-safe height
G0 X1297.0000 Y971.0000
M3S0
G4 P0.5; Tool On
G1 F300 Z0.0000
G1 F15000 X3.0000 Y971.0000 Z0.0000
M3S245
G4 P0.5; Tool Off

G0 Z0; move to z-safe height
G0 X3.0000 Y977.0000
M3S0
G4 P0.5; Tool On
G1 F300 Z0.0000
G1 F15000 X1297.0000 Y977.0000 Z0.0000
M3S245
G4 P0.5; Tool Off

G0 Z0; move to z-safe height
G0 X1297.0000 Y983.0000
M3S0
G4 P0.5; Tool On
G1 F300 Z0.0000
G1 F15000 X3.0000 Y983.0000 Z0.0000
M3S245
G4 P0.5; Tool Off

G0 Z0; move to z-safe height
G0 X3.0000 Y989.0000
M3S0
G4 P0.5; Tool On
G1 F300 Z0.0000
G1 F15000 X1297.0000 Y989.0000 Z0.0000
M3S245
G4 P0.5; Tool Off

G0 Z0; move to z-safe height
G0 X1297.0000 Y995.0000
M3S0
G4 P0.5; Tool On
G1 F300 Z0.0000
G1 F15000 X3.0000 Y995.0000 Z0.0000
M3S245
G4 P0.5; Tool Off

G0 Z0; move to z-safe height
G0 X3.0000 Y1001.0000
M3S0
G4 P0.5; Tool On
G1 F300 Z0.0000
G1 F15000 X1297.0000 Y1001.0000 Z0.0000
M3S245
G4 P0.5; Tool Off

G0 Z0; move to z-safe height
G0 X1297.0000 Y1007.0000
M3S0
G4 P0.5; Tool On
G1 F300 Z0.0000
G1 F15000 X3.0000 Y1007.0000 Z0.0000
M3S245
G4 P0.5; Tool Off

G0 Z0; move to z-safe height
G0 X3.0000 Y1013.0000
M3S0
G4 P0.5; Tool On
G1 F300 Z0.0000
G1 F15000 X1297.0000 Y1013.0000 Z0.0000
M3S245
G4 P0.5; Tool Off

G0 Z0; move to z-safe height
G0 X1297.0000 Y1019.0000
M3S0
G4 P0.5; Tool On
G1 F300 Z0.0000
G1 F15000 X3.0000 Y1019.0000 Z0.0000
M3S245
G4 P0.5; Tool Off

G0 Z0; move to z-safe height
G0 X3.0000 Y1025.0000
M3S0
G4 P0.5; Tool On
G1 F300 Z0.0000
G1 F15000 X1297.0000 Y1025.0000 Z0.0000
M3S245
G4 P0.5; Tool Off

G0 Z0; move to z-safe height
G0 X1297.0000 Y1031.0000
M3S0
G4 P0.5; Tool On
G1 F300 Z0.0000
G1 F15000 X3.0000 Y1031.0000 Z0.0000
M3S245
G4 P0.5; Tool Off

G0 Z0; move to z-safe height
G0 X3.0000 Y1037.0000
M3S0
G4 P0.5; Tool On
G1 F300 Z0.0000
G1 F15000 X1297.0000 Y1037.0000 Z0.0000
M3S245
G4 P0.5; Tool Off

G0 Z0; move to z-safe height
G0 X1297.0000 Y1043.0000
M3S0
G4 P0.5; Tool On
G1 F300 Z0.0000
G1 F15000 X3.0000 Y1043.0000 Z0.0000
M3S245
G4 P0.5; Tool Off

G0 Z0; move to z-safe height
G0 X3.0000 Y1049.0000
M3S0
G4 P0.5; Tool On
G1 F300 Z0.0000
G1 F15000 X1297.0000 Y1049.0000 Z0.0000
M3S245
G4 P0.5; Tool Off

G0 Z0; move to z-safe height
G0 X1297.0000 Y1055.0000
M3S0
G4 P0.5; Tool On
G1 F300 Z0.0000
G1 F15000 X3.0000 Y1055.0000 Z0.0000
M3S245
G4 P0.5; Tool Off

G0 Z0; move to z-safe height
G0 X3.0000 Y1061.0000
M3S0
G4 P0.5; Tool On
G1 F300 Z0.0000
G1 F15000 X1297.0000 Y1061.0000 Z0.0000
M3S245
G4 P0.5; Tool Off

G0 Z0; move to z-safe height
G0 X1297.0000 Y1067.0000
M3S0
G4 P0.5; Tool On
G1 F300 Z0.0000
G1 F15000 X3.0000 Y1067.0000 Z0.0000
M3S245
G4 P0.5; Tool Off

G0 Z0; move to z-safe height
G0 X3.0000 Y1073.0000
M3S0
G4 P0.5; Tool On
G1 F300 Z0.0000
G1 F15000 X1297.0000 Y1073.0000 Z0.0000
M3S245
G4 P0.5; Tool Off

G0 Z0; move to z-safe height
G0 X1297.0000 Y1079.0000
M3S0
G4 P0.5; Tool On
G1 F300 Z0.0000
G1 F15000 X3.0000 Y1079.0000 Z0.0000
M3S245
G4 P0.5; Tool Off

G0 Z0; move to z-safe height
G0 X3.0000 Y1085.0000
M3S0
G4 P0.5; Tool On
G1 F300 Z0.0000
G1 F15000 X1297.0000 Y1085.0000 Z0.0000
M3S245
G4 P0.5; Tool Off

G0 Z0; move to z-safe height
G0 X1297.0000 Y1091.0000
M3S0
G4 P0.5; Tool On
G1 F300 Z0.0000
G1 F15000 X3.0000 Y1091.0000 Z0.0000
M3S245
G4 P0.5; Tool Off

G0 Z0; move to z-safe height
G0 X3.0000 Y1097.0000
M3S0
G4 P0.5; Tool On
G1 F300 Z0.0000
G1 F15000 X1297.0000 Y1097.0000 Z0.0000
M3S245
G4 P0.5; Tool Off

G0 Z0; move to z-safe height
G0 X1297.0000 Y1103.0000
M3S0
G4 P0.5; Tool On
G1 F300 Z0.0000
G1 F15000 X3.0000 Y1103.0000 Z0.0000
M3S245
G4 P0.5; Tool Off

G0 Z0; move to z-safe height
G0 X3.0000 Y1109.0000
M3S0
G4 P0.5; Tool On
G1 F300 Z0.0000
G1 F15000 X1297.0000 Y1109.0000 Z0.0000
M3S245
G4 P0.5; Tool Off

G0 Z0; move to z-safe height
G0 X1297.0000 Y1115.0000
M3S0
G4 P0.5; Tool On
G1 F300 Z0.0000
G1 F15000 X3.0000 Y1115.0000 Z0.0000
M3S245
G4 P0.5; Tool Off

G0 Z0; move to z-safe height
G0 X3.0000 Y1121.0000
M3S0
G4 P0.5; Tool On
G1 F300 Z0.0000
G1 F15000 X1297.0000 Y1121.0000 Z0.0000
M3S245
G4 P0.5; Tool Off

G0 Z0; move to z-safe height
G0 X1297.0000 Y1127.0000
M3S0
G4 P0.5; Tool On
G1 F300 Z0.0000
G1 F15000 X3.0000 Y1127.0000 Z0.0000
M3S245
G4 P0.5; Tool Off

G0 Z0; move to z-safe height
G0 X3.0000 Y1133.0000
M3S0
G4 P0.5; Tool On
G1 F300 Z0.0000
G1 F15000 X1297.0000 Y1133.0000 Z0.0000
M3S245
G4 P0.5; Tool Off

G0 Z0; move to z-safe height
G0 X1297.0000 Y1139.0000
M3S0
G4 P0.5; Tool On
G1 F300 Z0.0000
G1 F15000 X3.0000 Y1139.0000 Z0.0000
M3S245
G4 P0.5; Tool Off

G0 Z0; move to z-safe height
G0 X3.0000 Y1145.0000
M3S0
G4 P0.5; Tool On
G1 F300 Z0.0000
G1 F15000 X1297.0000 Y1145.0000 Z0.0000
M3S245
G4 P0.5; Tool Off

G0 Z0; move to z-safe height
G0 X1297.0000 Y1151.0000
M3S0
G4 P0.5; Tool On
G1 F300 Z0.0000
G1 F15000 X3.0000 Y1151.0000 Z0.0000
M3S245
G4 P0.5; Tool Off

G0 Z0; move to z-safe height
G0 X3.0000 Y1157.0000
M3S0
G4 P0.5; Tool On
G1 F300 Z0.0000
G1 F15000 X1297.0000 Y1157.0000 Z0.0000
M3S245
G4 P0.5; Tool Off

G0 Z0; move to z-safe height
G0 X1297.0000 Y1163.0000
M3S0
G4 P0.5; Tool On
G1 F300 Z0.0000
G1 F15000 X3.0000 Y1163.0000 Z0.0000
M3S245
G4 P0.5; Tool Off

G0 Z0; move to z-safe height
G0 X3.0000 Y1169.0000
M3S0
G4 P0.5; Tool On
G1 F300 Z0.0000
G1 F15000 X1297.0000 Y1169.0000 Z0.0000
M3S245
G4 P0.5; Tool Off

G0 Z0; move to z-safe height
G0 X1297.0000 Y1175.0000
M3S0
G4 P0.5; Tool On
G1 F300 Z0.0000
G1 F15000 X3.0000 Y1175.0000 Z0.0000
M3S245
G4 P0.5; Tool Off

G0 Z0; move to z-safe height
G0 X3.0000 Y1181.0000
M3S0
G4 P0.5; Tool On
G1 F300 Z0.0000
G1 F15000 X1297.0000 Y1181.0000 Z0.0000
M3S245
G4 P0.5; Tool Off

G0 Z0; move to z-safe height
G0 X1297.0000 Y1187.0000
M3S0
G4 P0.5; Tool On
G1 F300 Z0.0000
G1 F15000 X3.0000 Y1187.0000 Z0.0000
M3S245
G4 P0.5; Tool Off

G0 Z0; move to z-safe height
G0 X3.0000 Y1193.0000
M3S0
G4 P0.5; Tool On
G1 F300 Z0.0000
G1 F15000 X1297.0000 Y1193.0000 Z0.0000
M3S245
G4 P0.5; Tool Off

G0 Z0; move to z-safe height
G0 X1297.0000 Y1199.0000
M3S0
G4 P0.5; Tool On
G1 F300 Z0.0000
G1 F15000 X3.0000 Y1199.0000 Z0.0000
M3S245
G4 P0.5; Tool Off

G0 Z0; move to z-safe height
G0 X3.0000 Y1205.0000
M3S0
G4 P0.5; Tool On
G1 F300 Z0.0000
G1 F15000 X1297.0000 Y1205.0000 Z0.0000
M3S245
G4 P0.5; Tool Off

G0 Z0; move to z-safe height
G0 X1297.0000 Y1211.0000
M3S0
G4 P0.5; Tool On
G1 F300 Z0.0000
G1 F15000 X3.0000 Y1211.0000 Z0.0000
M3S245
G4 P0.5; Tool Off

G0 Z0; move to z-safe height
G0 X3.0000 Y1217.0000
M3S0
G4 P0.5; Tool On
G1 F300 Z0.0000
G1 F15000 X1297.0000 Y1217.0000 Z0.0000
M3S245
G4 P0.5; Tool Off

G0 Z0; move to z-safe height
G0 X1297.0000 Y1223.0000
M3S0
G4 P0.5; Tool On
G1 F300 Z0.0000
G1 F15000 X3.0000 Y1223.0000 Z0.0000
M3S245
G4 P0.5; Tool Off

G0 Z0; move to z-safe height
G0 X3.0000 Y1229.0000
M3S0
G4 P0.5; Tool On
G1 F300 Z0.0000
G1 F15000 X1297.0000 Y1229.0000 Z0.0000
M3S245
G4 P0.5; Tool Off

G0 Z0; move to z-safe height
G0 X1297.0000 Y1235.0000
M3S0
G4 P0.5; Tool On
G1 F300 Z0.0000
G1 F15000 X3.0000 Y1235.0000 Z0.0000
M3S245
G4 P0.5; Tool Off

G0 Z0; move to z-safe height
G0 X3.0000 Y1241.0000
M3S0
G4 P0.5; Tool On
G1 F300 Z0.0000
G1 F15000 X1297.0000 Y1241.0000 Z0.0000
M3S245
G4 P0.5; Tool Off

G0 Z0; move to z-safe height
G0 X1297.0000 Y1247.0000
M3S0
G4 P0.5; Tool On
G1 F300 Z0.0000
G1 F15000 X3.0000 Y1247.0000 Z0.0000
M3S245
G4 P0.5; Tool Off

G0 Z0; move to z-safe height
G0 X3.0000 Y1253.0000
M3S0
G4 P0.5; Tool On
G1 F300 Z0.0000
G1 F15000 X1297.0000 Y1253.0000 Z0.0000
M3S245
G4 P0.5; Tool Off

G0 Z0; move to z-safe height
G0 X1297.0000 Y1259.0000
M3S0
G4 P0.5; Tool On
G1 F300 Z0.0000
G1 F15000 X3.0000 Y1259.0000 Z0.0000
M3S245
G4 P0.5; Tool Off

G0 Z0; move to z-safe height
G0 X3.0000 Y1265.0000
M3S0
G4 P0.5; Tool On
G1 F300 Z0.0000
G1 F15000 X1297.0000 Y1265.0000 Z0.0000
M3S245
G4 P0.5; Tool Off

G0 Z0; move to z-safe height
G0 X1297.0000 Y1271.0000
M3S0
G4 P0.5; Tool On
G1 F300 Z0.0000
G1 F15000 X3.0000 Y1271.0000 Z0.0000
M3S245
G4 P0.5; Tool Off

G0 Z0; move to z-safe height
G0 X3.0000 Y1277.0000
M3S0
G4 P0.5; Tool On
G1 F300 Z0.0000
G1 F15000 X1297.0000 Y1277.0000 Z0.0000
M3S245
G4 P0.5; Tool Off

G0 Z0; move to z-safe height
G0 X1297.0000 Y1283.0000
M3S0
G4 P0.5; Tool On
G1 F300 Z0.0000
G1 F15000 X3.0000 Y1283.0000 Z0.0000
M3S245
G4 P0.5; Tool Off

G0 Z0; move to z-safe height
G0 X3.0000 Y1289.0000
M3S0
G4 P0.5; Tool On
G1 F300 Z0.0000
G1 F15000 X1297.0000 Y1289.0000 Z0.0000
M3S245
G4 P0.5; Tool Off

G0 Z0; move to z-safe height
G0 X1297.0000 Y1295.0000
M3S0
G4 P0.5; Tool On
G1 F300 Z0.0000
G1 F15000 X3.0000 Y1295.0000 Z0.0000
M3S245
G4 P0.5; Tool Off
; retracting back to z-safe
G0 Z0

; Plotter Mode Complete
