; GCODE Generated by cam.openbuilds.com on 2023-11-22 
G21 ; mm-mode
G54; Work Coordinates
G21; mm-mode
G90; Absolute Positioning
; Plotter Mode Active

; Operation 0: Pen Plotter: (lines fill)
; Pen Diameter: 2

G0 Z0; move to z-safe height
G0 F1000 X1.0000 Y2.1800
M3S0
G4 P0.5; Tool On
G1 F300 Z0.0000
G1 F15000 X1299.0000 Y2.1800 Z0.0000
M3S245
G4 P0.5; Tool Off

G0 Z0; move to z-safe height
G0 X1299.0000 Y4.1800
M3S0
G4 P0.5; Tool On
G1 F300 Z0.0000
G1 F15000 X1.0000 Y4.1800 Z0.0000
M3S245
G4 P0.5; Tool Off

G0 Z0; move to z-safe height
G0 X1.0000 Y6.1800
M3S0
G4 P0.5; Tool On
G1 F300 Z0.0000
G1 F15000 X1299.0000 Y6.1800 Z0.0000
M3S245
G4 P0.5; Tool Off

G0 Z0; move to z-safe height
G0 X1299.0000 Y8.1800
M3S0
G4 P0.5; Tool On
G1 F300 Z0.0000
G1 F15000 X1.0000 Y8.1800 Z0.0000
M3S245
G4 P0.5; Tool Off

G0 Z0; move to z-safe height
G0 X1.0000 Y10.1800
M3S0
G4 P0.5; Tool On
G1 F300 Z0.0000
G1 F15000 X1299.0000 Y10.1800 Z0.0000
M3S245
G4 P0.5; Tool Off

G0 Z0; move to z-safe height
G0 X1299.0000 Y12.1800
M3S0
G4 P0.5; Tool On
G1 F300 Z0.0000
G1 F15000 X1.0000 Y12.1800 Z0.0000
M3S245
G4 P0.5; Tool Off

G0 Z0; move to z-safe height
G0 X1.0000 Y14.1800
M3S0
G4 P0.5; Tool On
G1 F300 Z0.0000
G1 F15000 X1299.0000 Y14.1800 Z0.0000
M3S245
G4 P0.5; Tool Off

G0 Z0; move to z-safe height
G0 X1299.0000 Y16.1800
M3S0
G4 P0.5; Tool On
G1 F300 Z0.0000
G1 F15000 X1.0000 Y16.1800 Z0.0000
M3S245
G4 P0.5; Tool Off

G0 Z0; move to z-safe height
G0 X1.0000 Y18.1800
M3S0
G4 P0.5; Tool On
G1 F300 Z0.0000
G1 F15000 X1299.0000 Y18.1800 Z0.0000
M3S245
G4 P0.5; Tool Off

G0 Z0; move to z-safe height
G0 X1299.0000 Y20.1800
M3S0
G4 P0.5; Tool On
G1 F300 Z0.0000
G1 F15000 X1.0000 Y20.1800 Z0.0000
M3S245
G4 P0.5; Tool Off

G0 Z0; move to z-safe height
G0 X1.0000 Y22.1800
M3S0
G4 P0.5; Tool On
G1 F300 Z0.0000
G1 F15000 X1299.0000 Y22.1800 Z0.0000
M3S245
G4 P0.5; Tool Off

G0 Z0; move to z-safe height
G0 X1299.0000 Y24.1800
M3S0
G4 P0.5; Tool On
G1 F300 Z0.0000
G1 F15000 X1.0000 Y24.1800 Z0.0000
M3S245
G4 P0.5; Tool Off

G0 Z0; move to z-safe height
G0 X1.0000 Y26.1800
M3S0
G4 P0.5; Tool On
G1 F300 Z0.0000
G1 F15000 X1299.0000 Y26.1800 Z0.0000
M3S245
G4 P0.5; Tool Off

G0 Z0; move to z-safe height
G0 X1299.0000 Y28.1800
M3S0
G4 P0.5; Tool On
G1 F300 Z0.0000
G1 F15000 X1.0000 Y28.1800 Z0.0000
M3S245
G4 P0.5; Tool Off

G0 Z0; move to z-safe height
G0 X1.0000 Y30.1800
M3S0
G4 P0.5; Tool On
G1 F300 Z0.0000
G1 F15000 X1299.0000 Y30.1800 Z0.0000
M3S245
G4 P0.5; Tool Off

G0 Z0; move to z-safe height
G0 X1299.0000 Y32.1800
M3S0
G4 P0.5; Tool On
G1 F300 Z0.0000
G1 F15000 X1.0000 Y32.1800 Z0.0000
M3S245
G4 P0.5; Tool Off

G0 Z0; move to z-safe height
G0 X1.0000 Y34.1800
M3S0
G4 P0.5; Tool On
G1 F300 Z0.0000
G1 F15000 X1299.0000 Y34.1800 Z0.0000
M3S245
G4 P0.5; Tool Off

G0 Z0; move to z-safe height
G0 X1299.0000 Y36.1800
M3S0
G4 P0.5; Tool On
G1 F300 Z0.0000
G1 F15000 X1.0000 Y36.1800 Z0.0000
M3S245
G4 P0.5; Tool Off

G0 Z0; move to z-safe height
G0 X1.0000 Y38.1800
M3S0
G4 P0.5; Tool On
G1 F300 Z0.0000
G1 F15000 X1299.0000 Y38.1800 Z0.0000
M3S245
G4 P0.5; Tool Off

G0 Z0; move to z-safe height
G0 X1299.0000 Y40.1800
M3S0
G4 P0.5; Tool On
G1 F300 Z0.0000
G1 F15000 X1.0000 Y40.1800 Z0.0000
M3S245
G4 P0.5; Tool Off

G0 Z0; move to z-safe height
G0 X1.0000 Y42.1800
M3S0
G4 P0.5; Tool On
G1 F300 Z0.0000
G1 F15000 X1299.0000 Y42.1800 Z0.0000
M3S245
G4 P0.5; Tool Off

G0 Z0; move to z-safe height
G0 X1299.0000 Y44.1800
M3S0
G4 P0.5; Tool On
G1 F300 Z0.0000
G1 F15000 X1.0000 Y44.1800 Z0.0000
M3S245
G4 P0.5; Tool Off

G0 Z0; move to z-safe height
G0 X1.0000 Y46.1800
M3S0
G4 P0.5; Tool On
G1 F300 Z0.0000
G1 F15000 X1299.0000 Y46.1800 Z0.0000
M3S245
G4 P0.5; Tool Off

G0 Z0; move to z-safe height
G0 X1299.0000 Y48.1800
M3S0
G4 P0.5; Tool On
G1 F300 Z0.0000
G1 F15000 X1.0000 Y48.1800 Z0.0000
M3S245
G4 P0.5; Tool Off

G0 Z0; move to z-safe height
G0 X1.0000 Y50.1800
M3S0
G4 P0.5; Tool On
G1 F300 Z0.0000
G1 F15000 X1299.0000 Y50.1800 Z0.0000
M3S245
G4 P0.5; Tool Off

G0 Z0; move to z-safe height
G0 X1299.0000 Y52.1800
M3S0
G4 P0.5; Tool On
G1 F300 Z0.0000
G1 F15000 X1.0000 Y52.1800 Z0.0000
M3S245
G4 P0.5; Tool Off

G0 Z0; move to z-safe height
G0 X1.0000 Y54.1800
M3S0
G4 P0.5; Tool On
G1 F300 Z0.0000
G1 F15000 X1299.0000 Y54.1800 Z0.0000
M3S245
G4 P0.5; Tool Off

G0 Z0; move to z-safe height
G0 X1299.0000 Y56.1800
M3S0
G4 P0.5; Tool On
G1 F300 Z0.0000
G1 F15000 X1.0000 Y56.1800 Z0.0000
M3S245
G4 P0.5; Tool Off

G0 Z0; move to z-safe height
G0 X1.0000 Y58.1800
M3S0
G4 P0.5; Tool On
G1 F300 Z0.0000
G1 F15000 X1299.0000 Y58.1800 Z0.0000
M3S245
G4 P0.5; Tool Off

G0 Z0; move to z-safe height
G0 X1299.0000 Y60.1800
M3S0
G4 P0.5; Tool On
G1 F300 Z0.0000
G1 F15000 X1.0000 Y60.1800 Z0.0000
M3S245
G4 P0.5; Tool Off

G0 Z0; move to z-safe height
G0 X1.0000 Y62.1800
M3S0
G4 P0.5; Tool On
G1 F300 Z0.0000
G1 F15000 X1299.0000 Y62.1800 Z0.0000
M3S245
G4 P0.5; Tool Off

G0 Z0; move to z-safe height
G0 X1299.0000 Y64.1800
M3S0
G4 P0.5; Tool On
G1 F300 Z0.0000
G1 F15000 X1.0000 Y64.1800 Z0.0000
M3S245
G4 P0.5; Tool Off

G0 Z0; move to z-safe height
G0 X1.0000 Y66.1800
M3S0
G4 P0.5; Tool On
G1 F300 Z0.0000
G1 F15000 X1299.0000 Y66.1800 Z0.0000
M3S245
G4 P0.5; Tool Off

G0 Z0; move to z-safe height
G0 X1299.0000 Y68.1800
M3S0
G4 P0.5; Tool On
G1 F300 Z0.0000
G1 F15000 X1.0000 Y68.1800 Z0.0000
M3S245
G4 P0.5; Tool Off

G0 Z0; move to z-safe height
G0 X1.0000 Y70.1800
M3S0
G4 P0.5; Tool On
G1 F300 Z0.0000
G1 F15000 X1299.0000 Y70.1800 Z0.0000
M3S245
G4 P0.5; Tool Off

G0 Z0; move to z-safe height
G0 X1299.0000 Y72.1800
M3S0
G4 P0.5; Tool On
G1 F300 Z0.0000
G1 F15000 X1.0000 Y72.1800 Z0.0000
M3S245
G4 P0.5; Tool Off

G0 Z0; move to z-safe height
G0 X1.0000 Y74.1800
M3S0
G4 P0.5; Tool On
G1 F300 Z0.0000
G1 F15000 X1299.0000 Y74.1800 Z0.0000
M3S245
G4 P0.5; Tool Off

G0 Z0; move to z-safe height
G0 X1299.0000 Y76.1800
M3S0
G4 P0.5; Tool On
G1 F300 Z0.0000
G1 F15000 X1.0000 Y76.1800 Z0.0000
M3S245
G4 P0.5; Tool Off

G0 Z0; move to z-safe height
G0 X1.0000 Y78.1800
M3S0
G4 P0.5; Tool On
G1 F300 Z0.0000
G1 F15000 X1299.0000 Y78.1800 Z0.0000
M3S245
G4 P0.5; Tool Off

G0 Z0; move to z-safe height
G0 X1299.0000 Y80.1800
M3S0
G4 P0.5; Tool On
G1 F300 Z0.0000
G1 F15000 X1.0000 Y80.1800 Z0.0000
M3S245
G4 P0.5; Tool Off

G0 Z0; move to z-safe height
G0 X1.0000 Y82.1800
M3S0
G4 P0.5; Tool On
G1 F300 Z0.0000
G1 F15000 X1299.0000 Y82.1800 Z0.0000
M3S245
G4 P0.5; Tool Off

G0 Z0; move to z-safe height
G0 X1299.0000 Y84.1800
M3S0
G4 P0.5; Tool On
G1 F300 Z0.0000
G1 F15000 X1.0000 Y84.1800 Z0.0000
M3S245
G4 P0.5; Tool Off

G0 Z0; move to z-safe height
G0 X1.0000 Y86.1800
M3S0
G4 P0.5; Tool On
G1 F300 Z0.0000
G1 F15000 X1299.0000 Y86.1800 Z0.0000
M3S245
G4 P0.5; Tool Off

G0 Z0; move to z-safe height
G0 X1299.0000 Y88.1800
M3S0
G4 P0.5; Tool On
G1 F300 Z0.0000
G1 F15000 X1.0000 Y88.1800 Z0.0000
M3S245
G4 P0.5; Tool Off

G0 Z0; move to z-safe height
G0 X1.0000 Y90.1800
M3S0
G4 P0.5; Tool On
G1 F300 Z0.0000
G1 F15000 X1299.0000 Y90.1800 Z0.0000
M3S245
G4 P0.5; Tool Off

G0 Z0; move to z-safe height
G0 X1299.0000 Y92.1800
M3S0
G4 P0.5; Tool On
G1 F300 Z0.0000
G1 F15000 X1.0000 Y92.1800 Z0.0000
M3S245
G4 P0.5; Tool Off

G0 Z0; move to z-safe height
G0 X1.0000 Y94.1800
M3S0
G4 P0.5; Tool On
G1 F300 Z0.0000
G1 F15000 X1299.0000 Y94.1800 Z0.0000
M3S245
G4 P0.5; Tool Off

G0 Z0; move to z-safe height
G0 X1299.0000 Y96.1800
M3S0
G4 P0.5; Tool On
G1 F300 Z0.0000
G1 F15000 X1.0000 Y96.1800 Z0.0000
M3S245
G4 P0.5; Tool Off

G0 Z0; move to z-safe height
G0 X1.0000 Y98.1800
M3S0
G4 P0.5; Tool On
G1 F300 Z0.0000
G1 F15000 X1299.0000 Y98.1800 Z0.0000
M3S245
G4 P0.5; Tool Off

G0 Z0; move to z-safe height
G0 X1299.0000 Y100.1800
M3S0
G4 P0.5; Tool On
G1 F300 Z0.0000
G1 F15000 X1.0000 Y100.1800 Z0.0000
M3S245
G4 P0.5; Tool Off

G0 Z0; move to z-safe height
G0 X1.0000 Y102.1800
M3S0
G4 P0.5; Tool On
G1 F300 Z0.0000
G1 F15000 X1299.0000 Y102.1800 Z0.0000
M3S245
G4 P0.5; Tool Off

G0 Z0; move to z-safe height
G0 X1299.0000 Y104.1800
M3S0
G4 P0.5; Tool On
G1 F300 Z0.0000
G1 F15000 X1.0000 Y104.1800 Z0.0000
M3S245
G4 P0.5; Tool Off

G0 Z0; move to z-safe height
G0 X1.0000 Y106.1800
M3S0
G4 P0.5; Tool On
G1 F300 Z0.0000
G1 F15000 X1299.0000 Y106.1800 Z0.0000
M3S245
G4 P0.5; Tool Off

G0 Z0; move to z-safe height
G0 X1299.0000 Y108.1800
M3S0
G4 P0.5; Tool On
G1 F300 Z0.0000
G1 F15000 X1.0000 Y108.1800 Z0.0000
M3S245
G4 P0.5; Tool Off

G0 Z0; move to z-safe height
G0 X1.0000 Y110.1800
M3S0
G4 P0.5; Tool On
G1 F300 Z0.0000
G1 F15000 X1299.0000 Y110.1800 Z0.0000
M3S245
G4 P0.5; Tool Off

G0 Z0; move to z-safe height
G0 X1299.0000 Y112.1800
M3S0
G4 P0.5; Tool On
G1 F300 Z0.0000
G1 F15000 X1.0000 Y112.1800 Z0.0000
M3S245
G4 P0.5; Tool Off

G0 Z0; move to z-safe height
G0 X1.0000 Y114.1800
M3S0
G4 P0.5; Tool On
G1 F300 Z0.0000
G1 F15000 X1299.0000 Y114.1800 Z0.0000
M3S245
G4 P0.5; Tool Off

G0 Z0; move to z-safe height
G0 X1299.0000 Y116.1800
M3S0
G4 P0.5; Tool On
G1 F300 Z0.0000
G1 F15000 X1.0000 Y116.1800 Z0.0000
M3S245
G4 P0.5; Tool Off

G0 Z0; move to z-safe height
G0 X1.0000 Y118.1800
M3S0
G4 P0.5; Tool On
G1 F300 Z0.0000
G1 F15000 X1299.0000 Y118.1800 Z0.0000
M3S245
G4 P0.5; Tool Off

G0 Z0; move to z-safe height
G0 X1299.0000 Y120.1800
M3S0
G4 P0.5; Tool On
G1 F300 Z0.0000
G1 F15000 X1.0000 Y120.1800 Z0.0000
M3S245
G4 P0.5; Tool Off

G0 Z0; move to z-safe height
G0 X1.0000 Y122.1800
M3S0
G4 P0.5; Tool On
G1 F300 Z0.0000
G1 F15000 X1299.0000 Y122.1800 Z0.0000
M3S245
G4 P0.5; Tool Off

G0 Z0; move to z-safe height
G0 X1299.0000 Y124.1800
M3S0
G4 P0.5; Tool On
G1 F300 Z0.0000
G1 F15000 X1.0000 Y124.1800 Z0.0000
M3S245
G4 P0.5; Tool Off

G0 Z0; move to z-safe height
G0 X1.0000 Y126.1800
M3S0
G4 P0.5; Tool On
G1 F300 Z0.0000
G1 F15000 X1299.0000 Y126.1800 Z0.0000
M3S245
G4 P0.5; Tool Off

G0 Z0; move to z-safe height
G0 X1299.0000 Y128.1800
M3S0
G4 P0.5; Tool On
G1 F300 Z0.0000
G1 F15000 X1.0000 Y128.1800 Z0.0000
M3S245
G4 P0.5; Tool Off

G0 Z0; move to z-safe height
G0 X1.0000 Y130.1800
M3S0
G4 P0.5; Tool On
G1 F300 Z0.0000
G1 F15000 X1299.0000 Y130.1800 Z0.0000
M3S245
G4 P0.5; Tool Off

G0 Z0; move to z-safe height
G0 X1299.0000 Y132.1800
M3S0
G4 P0.5; Tool On
G1 F300 Z0.0000
G1 F15000 X1.0000 Y132.1800 Z0.0000
M3S245
G4 P0.5; Tool Off

G0 Z0; move to z-safe height
G0 X1.0000 Y134.1800
M3S0
G4 P0.5; Tool On
G1 F300 Z0.0000
G1 F15000 X1299.0000 Y134.1800 Z0.0000
M3S245
G4 P0.5; Tool Off

G0 Z0; move to z-safe height
G0 X1299.0000 Y136.1800
M3S0
G4 P0.5; Tool On
G1 F300 Z0.0000
G1 F15000 X1.0000 Y136.1800 Z0.0000
M3S245
G4 P0.5; Tool Off

G0 Z0; move to z-safe height
G0 X1.0000 Y138.1800
M3S0
G4 P0.5; Tool On
G1 F300 Z0.0000
G1 F15000 X1299.0000 Y138.1800 Z0.0000
M3S245
G4 P0.5; Tool Off

G0 Z0; move to z-safe height
G0 X1299.0000 Y140.1800
M3S0
G4 P0.5; Tool On
G1 F300 Z0.0000
G1 F15000 X1.0000 Y140.1800 Z0.0000
M3S245
G4 P0.5; Tool Off

G0 Z0; move to z-safe height
G0 X1.0000 Y142.1800
M3S0
G4 P0.5; Tool On
G1 F300 Z0.0000
G1 F15000 X1299.0000 Y142.1800 Z0.0000
M3S245
G4 P0.5; Tool Off

G0 Z0; move to z-safe height
G0 X1299.0000 Y144.1800
M3S0
G4 P0.5; Tool On
G1 F300 Z0.0000
G1 F15000 X1.0000 Y144.1800 Z0.0000
M3S245
G4 P0.5; Tool Off

G0 Z0; move to z-safe height
G0 X1.0000 Y146.1800
M3S0
G4 P0.5; Tool On
G1 F300 Z0.0000
G1 F15000 X1299.0000 Y146.1800 Z0.0000
M3S245
G4 P0.5; Tool Off

G0 Z0; move to z-safe height
G0 X1299.0000 Y148.1800
M3S0
G4 P0.5; Tool On
G1 F300 Z0.0000
G1 F15000 X1.0000 Y148.1800 Z0.0000
M3S245
G4 P0.5; Tool Off

G0 Z0; move to z-safe height
G0 X1.0000 Y150.1800
M3S0
G4 P0.5; Tool On
G1 F300 Z0.0000
G1 F15000 X1299.0000 Y150.1800 Z0.0000
M3S245
G4 P0.5; Tool Off

G0 Z0; move to z-safe height
G0 X1299.0000 Y152.1800
M3S0
G4 P0.5; Tool On
G1 F300 Z0.0000
G1 F15000 X1.0000 Y152.1800 Z0.0000
M3S245
G4 P0.5; Tool Off

G0 Z0; move to z-safe height
G0 X1.0000 Y154.1800
M3S0
G4 P0.5; Tool On
G1 F300 Z0.0000
G1 F15000 X1299.0000 Y154.1800 Z0.0000
M3S245
G4 P0.5; Tool Off

G0 Z0; move to z-safe height
G0 X1299.0000 Y156.1800
M3S0
G4 P0.5; Tool On
G1 F300 Z0.0000
G1 F15000 X1.0000 Y156.1800 Z0.0000
M3S245
G4 P0.5; Tool Off

G0 Z0; move to z-safe height
G0 X1.0000 Y158.1800
M3S0
G4 P0.5; Tool On
G1 F300 Z0.0000
G1 F15000 X1299.0000 Y158.1800 Z0.0000
M3S245
G4 P0.5; Tool Off

G0 Z0; move to z-safe height
G0 X1299.0000 Y160.1800
M3S0
G4 P0.5; Tool On
G1 F300 Z0.0000
G1 F15000 X1.0000 Y160.1800 Z0.0000
M3S245
G4 P0.5; Tool Off

G0 Z0; move to z-safe height
G0 X1.0000 Y162.1800
M3S0
G4 P0.5; Tool On
G1 F300 Z0.0000
G1 F15000 X1299.0000 Y162.1800 Z0.0000
M3S245
G4 P0.5; Tool Off

G0 Z0; move to z-safe height
G0 X1299.0000 Y164.1800
M3S0
G4 P0.5; Tool On
G1 F300 Z0.0000
G1 F15000 X1.0000 Y164.1800 Z0.0000
M3S245
G4 P0.5; Tool Off

G0 Z0; move to z-safe height
G0 X1.0000 Y166.1800
M3S0
G4 P0.5; Tool On
G1 F300 Z0.0000
G1 F15000 X1299.0000 Y166.1800 Z0.0000
M3S245
G4 P0.5; Tool Off

G0 Z0; move to z-safe height
G0 X1299.0000 Y168.1800
M3S0
G4 P0.5; Tool On
G1 F300 Z0.0000
G1 F15000 X1.0000 Y168.1800 Z0.0000
M3S245
G4 P0.5; Tool Off

G0 Z0; move to z-safe height
G0 X1.0000 Y170.1800
M3S0
G4 P0.5; Tool On
G1 F300 Z0.0000
G1 F15000 X1299.0000 Y170.1800 Z0.0000
M3S245
G4 P0.5; Tool Off

G0 Z0; move to z-safe height
G0 X1299.0000 Y172.1800
M3S0
G4 P0.5; Tool On
G1 F300 Z0.0000
G1 F15000 X1.0000 Y172.1800 Z0.0000
M3S245
G4 P0.5; Tool Off

G0 Z0; move to z-safe height
G0 X1.0000 Y174.1800
M3S0
G4 P0.5; Tool On
G1 F300 Z0.0000
G1 F15000 X1299.0000 Y174.1800 Z0.0000
M3S245
G4 P0.5; Tool Off

G0 Z0; move to z-safe height
G0 X1299.0000 Y176.1800
M3S0
G4 P0.5; Tool On
G1 F300 Z0.0000
G1 F15000 X1.0000 Y176.1800 Z0.0000
M3S245
G4 P0.5; Tool Off

G0 Z0; move to z-safe height
G0 X1.0000 Y178.1800
M3S0
G4 P0.5; Tool On
G1 F300 Z0.0000
G1 F15000 X1299.0000 Y178.1800 Z0.0000
M3S245
G4 P0.5; Tool Off

G0 Z0; move to z-safe height
G0 X1299.0000 Y180.1800
M3S0
G4 P0.5; Tool On
G1 F300 Z0.0000
G1 F15000 X1.0000 Y180.1800 Z0.0000
M3S245
G4 P0.5; Tool Off

G0 Z0; move to z-safe height
G0 X1.0000 Y182.1800
M3S0
G4 P0.5; Tool On
G1 F300 Z0.0000
G1 F15000 X1299.0000 Y182.1800 Z0.0000
M3S245
G4 P0.5; Tool Off

G0 Z0; move to z-safe height
G0 X1299.0000 Y184.1800
M3S0
G4 P0.5; Tool On
G1 F300 Z0.0000
G1 F15000 X1.0000 Y184.1800 Z0.0000
M3S245
G4 P0.5; Tool Off

G0 Z0; move to z-safe height
G0 X1.0000 Y186.1800
M3S0
G4 P0.5; Tool On
G1 F300 Z0.0000
G1 F15000 X1299.0000 Y186.1800 Z0.0000
M3S245
G4 P0.5; Tool Off

G0 Z0; move to z-safe height
G0 X1299.0000 Y188.1800
M3S0
G4 P0.5; Tool On
G1 F300 Z0.0000
G1 F15000 X1.0000 Y188.1800 Z0.0000
M3S245
G4 P0.5; Tool Off

G0 Z0; move to z-safe height
G0 X1.0000 Y190.1800
M3S0
G4 P0.5; Tool On
G1 F300 Z0.0000
G1 F15000 X1299.0000 Y190.1800 Z0.0000
M3S245
G4 P0.5; Tool Off

G0 Z0; move to z-safe height
G0 X1299.0000 Y192.1800
M3S0
G4 P0.5; Tool On
G1 F300 Z0.0000
G1 F15000 X1.0000 Y192.1800 Z0.0000
M3S245
G4 P0.5; Tool Off

G0 Z0; move to z-safe height
G0 X1.0000 Y194.1800
M3S0
G4 P0.5; Tool On
G1 F300 Z0.0000
G1 F15000 X1299.0000 Y194.1800 Z0.0000
M3S245
G4 P0.5; Tool Off

G0 Z0; move to z-safe height
G0 X1299.0000 Y196.1800
M3S0
G4 P0.5; Tool On
G1 F300 Z0.0000
G1 F15000 X1.0000 Y196.1800 Z0.0000
M3S245
G4 P0.5; Tool Off

G0 Z0; move to z-safe height
G0 X1.0000 Y198.1800
M3S0
G4 P0.5; Tool On
G1 F300 Z0.0000
G1 F15000 X1299.0000 Y198.1800 Z0.0000
M3S245
G4 P0.5; Tool Off

G0 Z0; move to z-safe height
G0 X1299.0000 Y200.1800
M3S0
G4 P0.5; Tool On
G1 F300 Z0.0000
G1 F15000 X1.0000 Y200.1800 Z0.0000
M3S245
G4 P0.5; Tool Off

G0 Z0; move to z-safe height
G0 X1.0000 Y202.1800
M3S0
G4 P0.5; Tool On
G1 F300 Z0.0000
G1 F15000 X1299.0000 Y202.1800 Z0.0000
M3S245
G4 P0.5; Tool Off

G0 Z0; move to z-safe height
G0 X1299.0000 Y204.1800
M3S0
G4 P0.5; Tool On
G1 F300 Z0.0000
G1 F15000 X1.0000 Y204.1800 Z0.0000
M3S245
G4 P0.5; Tool Off

G0 Z0; move to z-safe height
G0 X1.0000 Y206.1800
M3S0
G4 P0.5; Tool On
G1 F300 Z0.0000
G1 F15000 X1299.0000 Y206.1800 Z0.0000
M3S245
G4 P0.5; Tool Off

G0 Z0; move to z-safe height
G0 X1299.0000 Y208.1800
M3S0
G4 P0.5; Tool On
G1 F300 Z0.0000
G1 F15000 X1.0000 Y208.1800 Z0.0000
M3S245
G4 P0.5; Tool Off

G0 Z0; move to z-safe height
G0 X1.0000 Y210.1800
M3S0
G4 P0.5; Tool On
G1 F300 Z0.0000
G1 F15000 X1299.0000 Y210.1800 Z0.0000
M3S245
G4 P0.5; Tool Off

G0 Z0; move to z-safe height
G0 X1299.0000 Y212.1800
M3S0
G4 P0.5; Tool On
G1 F300 Z0.0000
G1 F15000 X1.0000 Y212.1800 Z0.0000
M3S245
G4 P0.5; Tool Off

G0 Z0; move to z-safe height
G0 X1.0000 Y214.1800
M3S0
G4 P0.5; Tool On
G1 F300 Z0.0000
G1 F15000 X1299.0000 Y214.1800 Z0.0000
M3S245
G4 P0.5; Tool Off

G0 Z0; move to z-safe height
G0 X1299.0000 Y216.1800
M3S0
G4 P0.5; Tool On
G1 F300 Z0.0000
G1 F15000 X1.0000 Y216.1800 Z0.0000
M3S245
G4 P0.5; Tool Off

G0 Z0; move to z-safe height
G0 X1.0000 Y218.1800
M3S0
G4 P0.5; Tool On
G1 F300 Z0.0000
G1 F15000 X1299.0000 Y218.1800 Z0.0000
M3S245
G4 P0.5; Tool Off

G0 Z0; move to z-safe height
G0 X1299.0000 Y220.1800
M3S0
G4 P0.5; Tool On
G1 F300 Z0.0000
G1 F15000 X1.0000 Y220.1800 Z0.0000
M3S245
G4 P0.5; Tool Off

G0 Z0; move to z-safe height
G0 X1.0000 Y222.1800
M3S0
G4 P0.5; Tool On
G1 F300 Z0.0000
G1 F15000 X1299.0000 Y222.1800 Z0.0000
M3S245
G4 P0.5; Tool Off

G0 Z0; move to z-safe height
G0 X1299.0000 Y224.1800
M3S0
G4 P0.5; Tool On
G1 F300 Z0.0000
G1 F15000 X1.0000 Y224.1800 Z0.0000
M3S245
G4 P0.5; Tool Off

G0 Z0; move to z-safe height
G0 X1.0000 Y226.1800
M3S0
G4 P0.5; Tool On
G1 F300 Z0.0000
G1 F15000 X1299.0000 Y226.1800 Z0.0000
M3S245
G4 P0.5; Tool Off

G0 Z0; move to z-safe height
G0 X1299.0000 Y228.1800
M3S0
G4 P0.5; Tool On
G1 F300 Z0.0000
G1 F15000 X1.0000 Y228.1800 Z0.0000
M3S245
G4 P0.5; Tool Off

G0 Z0; move to z-safe height
G0 X1.0000 Y230.1800
M3S0
G4 P0.5; Tool On
G1 F300 Z0.0000
G1 F15000 X1299.0000 Y230.1800 Z0.0000
M3S245
G4 P0.5; Tool Off

G0 Z0; move to z-safe height
G0 X1299.0000 Y232.1800
M3S0
G4 P0.5; Tool On
G1 F300 Z0.0000
G1 F15000 X1.0000 Y232.1800 Z0.0000
M3S245
G4 P0.5; Tool Off

G0 Z0; move to z-safe height
G0 X1.0000 Y234.1800
M3S0
G4 P0.5; Tool On
G1 F300 Z0.0000
G1 F15000 X1299.0000 Y234.1800 Z0.0000
M3S245
G4 P0.5; Tool Off

G0 Z0; move to z-safe height
G0 X1299.0000 Y236.1800
M3S0
G4 P0.5; Tool On
G1 F300 Z0.0000
G1 F15000 X1.0000 Y236.1800 Z0.0000
M3S245
G4 P0.5; Tool Off

G0 Z0; move to z-safe height
G0 X1.0000 Y238.1800
M3S0
G4 P0.5; Tool On
G1 F300 Z0.0000
G1 F15000 X1299.0000 Y238.1800 Z0.0000
M3S245
G4 P0.5; Tool Off

G0 Z0; move to z-safe height
G0 X1299.0000 Y240.1800
M3S0
G4 P0.5; Tool On
G1 F300 Z0.0000
G1 F15000 X1.0000 Y240.1800 Z0.0000
M3S245
G4 P0.5; Tool Off

G0 Z0; move to z-safe height
G0 X1.0000 Y242.1800
M3S0
G4 P0.5; Tool On
G1 F300 Z0.0000
G1 F15000 X1299.0000 Y242.1800 Z0.0000
M3S245
G4 P0.5; Tool Off

G0 Z0; move to z-safe height
G0 X1299.0000 Y244.1800
M3S0
G4 P0.5; Tool On
G1 F300 Z0.0000
G1 F15000 X1.0000 Y244.1800 Z0.0000
M3S245
G4 P0.5; Tool Off

G0 Z0; move to z-safe height
G0 X1.0000 Y246.1800
M3S0
G4 P0.5; Tool On
G1 F300 Z0.0000
G1 F15000 X1299.0000 Y246.1800 Z0.0000
M3S245
G4 P0.5; Tool Off

G0 Z0; move to z-safe height
G0 X1299.0000 Y248.1800
M3S0
G4 P0.5; Tool On
G1 F300 Z0.0000
G1 F15000 X1.0000 Y248.1800 Z0.0000
M3S245
G4 P0.5; Tool Off

G0 Z0; move to z-safe height
G0 X1.0000 Y250.1800
M3S0
G4 P0.5; Tool On
G1 F300 Z0.0000
G1 F15000 X1299.0000 Y250.1800 Z0.0000
M3S245
G4 P0.5; Tool Off

G0 Z0; move to z-safe height
G0 X1299.0000 Y252.1800
M3S0
G4 P0.5; Tool On
G1 F300 Z0.0000
G1 F15000 X1.0000 Y252.1800 Z0.0000
M3S245
G4 P0.5; Tool Off

G0 Z0; move to z-safe height
G0 X1.0000 Y254.1800
M3S0
G4 P0.5; Tool On
G1 F300 Z0.0000
G1 F15000 X1299.0000 Y254.1800 Z0.0000
M3S245
G4 P0.5; Tool Off

G0 Z0; move to z-safe height
G0 X1299.0000 Y256.1800
M3S0
G4 P0.5; Tool On
G1 F300 Z0.0000
G1 F15000 X1.0000 Y256.1800 Z0.0000
M3S245
G4 P0.5; Tool Off

G0 Z0; move to z-safe height
G0 X1.0000 Y258.1800
M3S0
G4 P0.5; Tool On
G1 F300 Z0.0000
G1 F15000 X1299.0000 Y258.1800 Z0.0000
M3S245
G4 P0.5; Tool Off

G0 Z0; move to z-safe height
G0 X1299.0000 Y260.1800
M3S0
G4 P0.5; Tool On
G1 F300 Z0.0000
G1 F15000 X1.0000 Y260.1800 Z0.0000
M3S245
G4 P0.5; Tool Off

G0 Z0; move to z-safe height
G0 X1.0000 Y262.1800
M3S0
G4 P0.5; Tool On
G1 F300 Z0.0000
G1 F15000 X1299.0000 Y262.1800 Z0.0000
M3S245
G4 P0.5; Tool Off

G0 Z0; move to z-safe height
G0 X1299.0000 Y264.1800
M3S0
G4 P0.5; Tool On
G1 F300 Z0.0000
G1 F15000 X1.0000 Y264.1800 Z0.0000
M3S245
G4 P0.5; Tool Off

G0 Z0; move to z-safe height
G0 X1.0000 Y266.1800
M3S0
G4 P0.5; Tool On
G1 F300 Z0.0000
G1 F15000 X1299.0000 Y266.1800 Z0.0000
M3S245
G4 P0.5; Tool Off

G0 Z0; move to z-safe height
G0 X1299.0000 Y268.1800
M3S0
G4 P0.5; Tool On
G1 F300 Z0.0000
G1 F15000 X1.0000 Y268.1800 Z0.0000
M3S245
G4 P0.5; Tool Off

G0 Z0; move to z-safe height
G0 X1.0000 Y270.1800
M3S0
G4 P0.5; Tool On
G1 F300 Z0.0000
G1 F15000 X1299.0000 Y270.1800 Z0.0000
M3S245
G4 P0.5; Tool Off

G0 Z0; move to z-safe height
G0 X1299.0000 Y272.1800
M3S0
G4 P0.5; Tool On
G1 F300 Z0.0000
G1 F15000 X1.0000 Y272.1800 Z0.0000
M3S245
G4 P0.5; Tool Off

G0 Z0; move to z-safe height
G0 X1.0000 Y274.1800
M3S0
G4 P0.5; Tool On
G1 F300 Z0.0000
G1 F15000 X1299.0000 Y274.1800 Z0.0000
M3S245
G4 P0.5; Tool Off

G0 Z0; move to z-safe height
G0 X1299.0000 Y276.1800
M3S0
G4 P0.5; Tool On
G1 F300 Z0.0000
G1 F15000 X1.0000 Y276.1800 Z0.0000
M3S245
G4 P0.5; Tool Off

G0 Z0; move to z-safe height
G0 X1.0000 Y278.1800
M3S0
G4 P0.5; Tool On
G1 F300 Z0.0000
G1 F15000 X1299.0000 Y278.1800 Z0.0000
M3S245
G4 P0.5; Tool Off

G0 Z0; move to z-safe height
G0 X1299.0000 Y280.1800
M3S0
G4 P0.5; Tool On
G1 F300 Z0.0000
G1 F15000 X1.0000 Y280.1800 Z0.0000
M3S245
G4 P0.5; Tool Off

G0 Z0; move to z-safe height
G0 X1.0000 Y282.1800
M3S0
G4 P0.5; Tool On
G1 F300 Z0.0000
G1 F15000 X1299.0000 Y282.1800 Z0.0000
M3S245
G4 P0.5; Tool Off

G0 Z0; move to z-safe height
G0 X1299.0000 Y284.1800
M3S0
G4 P0.5; Tool On
G1 F300 Z0.0000
G1 F15000 X1.0000 Y284.1800 Z0.0000
M3S245
G4 P0.5; Tool Off

G0 Z0; move to z-safe height
G0 X1.0000 Y286.1800
M3S0
G4 P0.5; Tool On
G1 F300 Z0.0000
G1 F15000 X1299.0000 Y286.1800 Z0.0000
M3S245
G4 P0.5; Tool Off

G0 Z0; move to z-safe height
G0 X1299.0000 Y288.1800
M3S0
G4 P0.5; Tool On
G1 F300 Z0.0000
G1 F15000 X1.0000 Y288.1800 Z0.0000
M3S245
G4 P0.5; Tool Off

G0 Z0; move to z-safe height
G0 X1.0000 Y290.1800
M3S0
G4 P0.5; Tool On
G1 F300 Z0.0000
G1 F15000 X1299.0000 Y290.1800 Z0.0000
M3S245
G4 P0.5; Tool Off

G0 Z0; move to z-safe height
G0 X1299.0000 Y292.1800
M3S0
G4 P0.5; Tool On
G1 F300 Z0.0000
G1 F15000 X1.0000 Y292.1800 Z0.0000
M3S245
G4 P0.5; Tool Off

G0 Z0; move to z-safe height
G0 X1.0000 Y294.1800
M3S0
G4 P0.5; Tool On
G1 F300 Z0.0000
G1 F15000 X1299.0000 Y294.1800 Z0.0000
M3S245
G4 P0.5; Tool Off

G0 Z0; move to z-safe height
G0 X1299.0000 Y296.1800
M3S0
G4 P0.5; Tool On
G1 F300 Z0.0000
G1 F15000 X1.0000 Y296.1800 Z0.0000
M3S245
G4 P0.5; Tool Off

G0 Z0; move to z-safe height
G0 X1.0000 Y298.1800
M3S0
G4 P0.5; Tool On
G1 F300 Z0.0000
G1 F15000 X1299.0000 Y298.1800 Z0.0000
M3S245
G4 P0.5; Tool Off

G0 Z0; move to z-safe height
G0 X1299.0000 Y300.1800
M3S0
G4 P0.5; Tool On
G1 F300 Z0.0000
G1 F15000 X1.0000 Y300.1800 Z0.0000
M3S245
G4 P0.5; Tool Off

G0 Z0; move to z-safe height
G0 X1.0000 Y302.1800
M3S0
G4 P0.5; Tool On
G1 F300 Z0.0000
G1 F15000 X1299.0000 Y302.1800 Z0.0000
M3S245
G4 P0.5; Tool Off

G0 Z0; move to z-safe height
G0 X1299.0000 Y304.1800
M3S0
G4 P0.5; Tool On
G1 F300 Z0.0000
G1 F15000 X1.0000 Y304.1800 Z0.0000
M3S245
G4 P0.5; Tool Off

G0 Z0; move to z-safe height
G0 X1.0000 Y306.1800
M3S0
G4 P0.5; Tool On
G1 F300 Z0.0000
G1 F15000 X1299.0000 Y306.1800 Z0.0000
M3S245
G4 P0.5; Tool Off

G0 Z0; move to z-safe height
G0 X1299.0000 Y308.1800
M3S0
G4 P0.5; Tool On
G1 F300 Z0.0000
G1 F15000 X1.0000 Y308.1800 Z0.0000
M3S245
G4 P0.5; Tool Off

G0 Z0; move to z-safe height
G0 X1.0000 Y310.1800
M3S0
G4 P0.5; Tool On
G1 F300 Z0.0000
G1 F15000 X1299.0000 Y310.1800 Z0.0000
M3S245
G4 P0.5; Tool Off

G0 Z0; move to z-safe height
G0 X1299.0000 Y312.1800
M3S0
G4 P0.5; Tool On
G1 F300 Z0.0000
G1 F15000 X1.0000 Y312.1800 Z0.0000
M3S245
G4 P0.5; Tool Off

G0 Z0; move to z-safe height
G0 X1.0000 Y314.1800
M3S0
G4 P0.5; Tool On
G1 F300 Z0.0000
G1 F15000 X1299.0000 Y314.1800 Z0.0000
M3S245
G4 P0.5; Tool Off

G0 Z0; move to z-safe height
G0 X1299.0000 Y316.1800
M3S0
G4 P0.5; Tool On
G1 F300 Z0.0000
G1 F15000 X1.0000 Y316.1800 Z0.0000
M3S245
G4 P0.5; Tool Off

G0 Z0; move to z-safe height
G0 X1.0000 Y318.1800
M3S0
G4 P0.5; Tool On
G1 F300 Z0.0000
G1 F15000 X1299.0000 Y318.1800 Z0.0000
M3S245
G4 P0.5; Tool Off

G0 Z0; move to z-safe height
G0 X1299.0000 Y320.1800
M3S0
G4 P0.5; Tool On
G1 F300 Z0.0000
G1 F15000 X1.0000 Y320.1800 Z0.0000
M3S245
G4 P0.5; Tool Off

G0 Z0; move to z-safe height
G0 X1.0000 Y322.1800
M3S0
G4 P0.5; Tool On
G1 F300 Z0.0000
G1 F15000 X1299.0000 Y322.1800 Z0.0000
M3S245
G4 P0.5; Tool Off

G0 Z0; move to z-safe height
G0 X1299.0000 Y324.1800
M3S0
G4 P0.5; Tool On
G1 F300 Z0.0000
G1 F15000 X1.0000 Y324.1800 Z0.0000
M3S245
G4 P0.5; Tool Off

G0 Z0; move to z-safe height
G0 X1.0000 Y326.1800
M3S0
G4 P0.5; Tool On
G1 F300 Z0.0000
G1 F15000 X1299.0000 Y326.1800 Z0.0000
M3S245
G4 P0.5; Tool Off

G0 Z0; move to z-safe height
G0 X1299.0000 Y328.1800
M3S0
G4 P0.5; Tool On
G1 F300 Z0.0000
G1 F15000 X1.0000 Y328.1800 Z0.0000
M3S245
G4 P0.5; Tool Off

G0 Z0; move to z-safe height
G0 X1.0000 Y330.1800
M3S0
G4 P0.5; Tool On
G1 F300 Z0.0000
G1 F15000 X1299.0000 Y330.1800 Z0.0000
M3S245
G4 P0.5; Tool Off

G0 Z0; move to z-safe height
G0 X1299.0000 Y332.1800
M3S0
G4 P0.5; Tool On
G1 F300 Z0.0000
G1 F15000 X1.0000 Y332.1800 Z0.0000
M3S245
G4 P0.5; Tool Off

G0 Z0; move to z-safe height
G0 X1.0000 Y334.1800
M3S0
G4 P0.5; Tool On
G1 F300 Z0.0000
G1 F15000 X1299.0000 Y334.1800 Z0.0000
M3S245
G4 P0.5; Tool Off

G0 Z0; move to z-safe height
G0 X1299.0000 Y336.1800
M3S0
G4 P0.5; Tool On
G1 F300 Z0.0000
G1 F15000 X1.0000 Y336.1800 Z0.0000
M3S245
G4 P0.5; Tool Off

G0 Z0; move to z-safe height
G0 X1.0000 Y338.1800
M3S0
G4 P0.5; Tool On
G1 F300 Z0.0000
G1 F15000 X1299.0000 Y338.1800 Z0.0000
M3S245
G4 P0.5; Tool Off

G0 Z0; move to z-safe height
G0 X1299.0000 Y340.1800
M3S0
G4 P0.5; Tool On
G1 F300 Z0.0000
G1 F15000 X1.0000 Y340.1800 Z0.0000
M3S245
G4 P0.5; Tool Off

G0 Z0; move to z-safe height
G0 X1.0000 Y342.1800
M3S0
G4 P0.5; Tool On
G1 F300 Z0.0000
G1 F15000 X1299.0000 Y342.1800 Z0.0000
M3S245
G4 P0.5; Tool Off

G0 Z0; move to z-safe height
G0 X1299.0000 Y344.1800
M3S0
G4 P0.5; Tool On
G1 F300 Z0.0000
G1 F15000 X1.0000 Y344.1800 Z0.0000
M3S245
G4 P0.5; Tool Off

G0 Z0; move to z-safe height
G0 X1.0000 Y346.1800
M3S0
G4 P0.5; Tool On
G1 F300 Z0.0000
G1 F15000 X1299.0000 Y346.1800 Z0.0000
M3S245
G4 P0.5; Tool Off

G0 Z0; move to z-safe height
G0 X1299.0000 Y348.1800
M3S0
G4 P0.5; Tool On
G1 F300 Z0.0000
G1 F15000 X1.0000 Y348.1800 Z0.0000
M3S245
G4 P0.5; Tool Off

G0 Z0; move to z-safe height
G0 X1.0000 Y350.1800
M3S0
G4 P0.5; Tool On
G1 F300 Z0.0000
G1 F15000 X1299.0000 Y350.1800 Z0.0000
M3S245
G4 P0.5; Tool Off

G0 Z0; move to z-safe height
G0 X1299.0000 Y352.1800
M3S0
G4 P0.5; Tool On
G1 F300 Z0.0000
G1 F15000 X1.0000 Y352.1800 Z0.0000
M3S245
G4 P0.5; Tool Off

G0 Z0; move to z-safe height
G0 X1.0000 Y354.1800
M3S0
G4 P0.5; Tool On
G1 F300 Z0.0000
G1 F15000 X1299.0000 Y354.1800 Z0.0000
M3S245
G4 P0.5; Tool Off

G0 Z0; move to z-safe height
G0 X1299.0000 Y356.1800
M3S0
G4 P0.5; Tool On
G1 F300 Z0.0000
G1 F15000 X1.0000 Y356.1800 Z0.0000
M3S245
G4 P0.5; Tool Off

G0 Z0; move to z-safe height
G0 X1.0000 Y358.1800
M3S0
G4 P0.5; Tool On
G1 F300 Z0.0000
G1 F15000 X1299.0000 Y358.1800 Z0.0000
M3S245
G4 P0.5; Tool Off

G0 Z0; move to z-safe height
G0 X1299.0000 Y360.1800
M3S0
G4 P0.5; Tool On
G1 F300 Z0.0000
G1 F15000 X1.0000 Y360.1800 Z0.0000
M3S245
G4 P0.5; Tool Off

G0 Z0; move to z-safe height
G0 X1.0000 Y362.1800
M3S0
G4 P0.5; Tool On
G1 F300 Z0.0000
G1 F15000 X1299.0000 Y362.1800 Z0.0000
M3S245
G4 P0.5; Tool Off

G0 Z0; move to z-safe height
G0 X1299.0000 Y364.1800
M3S0
G4 P0.5; Tool On
G1 F300 Z0.0000
G1 F15000 X1.0000 Y364.1800 Z0.0000
M3S245
G4 P0.5; Tool Off

G0 Z0; move to z-safe height
G0 X1.0000 Y366.1800
M3S0
G4 P0.5; Tool On
G1 F300 Z0.0000
G1 F15000 X1299.0000 Y366.1800 Z0.0000
M3S245
G4 P0.5; Tool Off

G0 Z0; move to z-safe height
G0 X1299.0000 Y368.1800
M3S0
G4 P0.5; Tool On
G1 F300 Z0.0000
G1 F15000 X1.0000 Y368.1800 Z0.0000
M3S245
G4 P0.5; Tool Off

G0 Z0; move to z-safe height
G0 X1.0000 Y370.1800
M3S0
G4 P0.5; Tool On
G1 F300 Z0.0000
G1 F15000 X1299.0000 Y370.1800 Z0.0000
M3S245
G4 P0.5; Tool Off

G0 Z0; move to z-safe height
G0 X1299.0000 Y372.1800
M3S0
G4 P0.5; Tool On
G1 F300 Z0.0000
G1 F15000 X1.0000 Y372.1800 Z0.0000
M3S245
G4 P0.5; Tool Off

G0 Z0; move to z-safe height
G0 X1.0000 Y374.1800
M3S0
G4 P0.5; Tool On
G1 F300 Z0.0000
G1 F15000 X1299.0000 Y374.1800 Z0.0000
M3S245
G4 P0.5; Tool Off

G0 Z0; move to z-safe height
G0 X1299.0000 Y376.1800
M3S0
G4 P0.5; Tool On
G1 F300 Z0.0000
G1 F15000 X1.0000 Y376.1800 Z0.0000
M3S245
G4 P0.5; Tool Off

G0 Z0; move to z-safe height
G0 X1.0000 Y378.1800
M3S0
G4 P0.5; Tool On
G1 F300 Z0.0000
G1 F15000 X1299.0000 Y378.1800 Z0.0000
M3S245
G4 P0.5; Tool Off

G0 Z0; move to z-safe height
G0 X1299.0000 Y380.1800
M3S0
G4 P0.5; Tool On
G1 F300 Z0.0000
G1 F15000 X1.0000 Y380.1800 Z0.0000
M3S245
G4 P0.5; Tool Off

G0 Z0; move to z-safe height
G0 X1.0000 Y382.1800
M3S0
G4 P0.5; Tool On
G1 F300 Z0.0000
G1 F15000 X1299.0000 Y382.1800 Z0.0000
M3S245
G4 P0.5; Tool Off

G0 Z0; move to z-safe height
G0 X1299.0000 Y384.1800
M3S0
G4 P0.5; Tool On
G1 F300 Z0.0000
G1 F15000 X1.0000 Y384.1800 Z0.0000
M3S245
G4 P0.5; Tool Off

G0 Z0; move to z-safe height
G0 X1.0000 Y386.1800
M3S0
G4 P0.5; Tool On
G1 F300 Z0.0000
G1 F15000 X1299.0000 Y386.1800 Z0.0000
M3S245
G4 P0.5; Tool Off

G0 Z0; move to z-safe height
G0 X1299.0000 Y388.1800
M3S0
G4 P0.5; Tool On
G1 F300 Z0.0000
G1 F15000 X1.0000 Y388.1800 Z0.0000
M3S245
G4 P0.5; Tool Off

G0 Z0; move to z-safe height
G0 X1.0000 Y390.1800
M3S0
G4 P0.5; Tool On
G1 F300 Z0.0000
G1 F15000 X1299.0000 Y390.1800 Z0.0000
M3S245
G4 P0.5; Tool Off

G0 Z0; move to z-safe height
G0 X1299.0000 Y392.1800
M3S0
G4 P0.5; Tool On
G1 F300 Z0.0000
G1 F15000 X1.0000 Y392.1800 Z0.0000
M3S245
G4 P0.5; Tool Off

G0 Z0; move to z-safe height
G0 X1.0000 Y394.1800
M3S0
G4 P0.5; Tool On
G1 F300 Z0.0000
G1 F15000 X1299.0000 Y394.1800 Z0.0000
M3S245
G4 P0.5; Tool Off

G0 Z0; move to z-safe height
G0 X1299.0000 Y396.1800
M3S0
G4 P0.5; Tool On
G1 F300 Z0.0000
G1 F15000 X1.0000 Y396.1800 Z0.0000
M3S245
G4 P0.5; Tool Off

G0 Z0; move to z-safe height
G0 X1.0000 Y398.1800
M3S0
G4 P0.5; Tool On
G1 F300 Z0.0000
G1 F15000 X1299.0000 Y398.1800 Z0.0000
M3S245
G4 P0.5; Tool Off

G0 Z0; move to z-safe height
G0 X1299.0000 Y400.1800
M3S0
G4 P0.5; Tool On
G1 F300 Z0.0000
G1 F15000 X1.0000 Y400.1800 Z0.0000
M3S245
G4 P0.5; Tool Off

G0 Z0; move to z-safe height
G0 X1.0000 Y402.1800
M3S0
G4 P0.5; Tool On
G1 F300 Z0.0000
G1 F15000 X1299.0000 Y402.1800 Z0.0000
M3S245
G4 P0.5; Tool Off

G0 Z0; move to z-safe height
G0 X1299.0000 Y404.1800
M3S0
G4 P0.5; Tool On
G1 F300 Z0.0000
G1 F15000 X1.0000 Y404.1800 Z0.0000
M3S245
G4 P0.5; Tool Off

G0 Z0; move to z-safe height
G0 X1.0000 Y406.1800
M3S0
G4 P0.5; Tool On
G1 F300 Z0.0000
G1 F15000 X1299.0000 Y406.1800 Z0.0000
M3S245
G4 P0.5; Tool Off

G0 Z0; move to z-safe height
G0 X1299.0000 Y408.1800
M3S0
G4 P0.5; Tool On
G1 F300 Z0.0000
G1 F15000 X1.0000 Y408.1800 Z0.0000
M3S245
G4 P0.5; Tool Off

G0 Z0; move to z-safe height
G0 X1.0000 Y410.1800
M3S0
G4 P0.5; Tool On
G1 F300 Z0.0000
G1 F15000 X1299.0000 Y410.1800 Z0.0000
M3S245
G4 P0.5; Tool Off

G0 Z0; move to z-safe height
G0 X1299.0000 Y412.1800
M3S0
G4 P0.5; Tool On
G1 F300 Z0.0000
G1 F15000 X1.0000 Y412.1800 Z0.0000
M3S245
G4 P0.5; Tool Off

G0 Z0; move to z-safe height
G0 X1.0000 Y414.1800
M3S0
G4 P0.5; Tool On
G1 F300 Z0.0000
G1 F15000 X1299.0000 Y414.1800 Z0.0000
M3S245
G4 P0.5; Tool Off

G0 Z0; move to z-safe height
G0 X1299.0000 Y416.1800
M3S0
G4 P0.5; Tool On
G1 F300 Z0.0000
G1 F15000 X1.0000 Y416.1800 Z0.0000
M3S245
G4 P0.5; Tool Off

G0 Z0; move to z-safe height
G0 X1.0000 Y418.1800
M3S0
G4 P0.5; Tool On
G1 F300 Z0.0000
G1 F15000 X1299.0000 Y418.1800 Z0.0000
M3S245
G4 P0.5; Tool Off

G0 Z0; move to z-safe height
G0 X1299.0000 Y420.1800
M3S0
G4 P0.5; Tool On
G1 F300 Z0.0000
G1 F15000 X1.0000 Y420.1800 Z0.0000
M3S245
G4 P0.5; Tool Off

G0 Z0; move to z-safe height
G0 X1.0000 Y422.1800
M3S0
G4 P0.5; Tool On
G1 F300 Z0.0000
G1 F15000 X1299.0000 Y422.1800 Z0.0000
M3S245
G4 P0.5; Tool Off

G0 Z0; move to z-safe height
G0 X1299.0000 Y424.1800
M3S0
G4 P0.5; Tool On
G1 F300 Z0.0000
G1 F15000 X1.0000 Y424.1800 Z0.0000
M3S245
G4 P0.5; Tool Off

G0 Z0; move to z-safe height
G0 X1.0000 Y426.1800
M3S0
G4 P0.5; Tool On
G1 F300 Z0.0000
G1 F15000 X1299.0000 Y426.1800 Z0.0000
M3S245
G4 P0.5; Tool Off

G0 Z0; move to z-safe height
G0 X1299.0000 Y428.1800
M3S0
G4 P0.5; Tool On
G1 F300 Z0.0000
G1 F15000 X1.0000 Y428.1800 Z0.0000
M3S245
G4 P0.5; Tool Off

G0 Z0; move to z-safe height
G0 X1.0000 Y430.1800
M3S0
G4 P0.5; Tool On
G1 F300 Z0.0000
G1 F15000 X1299.0000 Y430.1800 Z0.0000
M3S245
G4 P0.5; Tool Off

G0 Z0; move to z-safe height
G0 X1299.0000 Y432.1800
M3S0
G4 P0.5; Tool On
G1 F300 Z0.0000
G1 F15000 X1.0000 Y432.1800 Z0.0000
M3S245
G4 P0.5; Tool Off

G0 Z0; move to z-safe height
G0 X1.0000 Y434.1800
M3S0
G4 P0.5; Tool On
G1 F300 Z0.0000
G1 F15000 X1299.0000 Y434.1800 Z0.0000
M3S245
G4 P0.5; Tool Off

G0 Z0; move to z-safe height
G0 X1299.0000 Y436.1800
M3S0
G4 P0.5; Tool On
G1 F300 Z0.0000
G1 F15000 X1.0000 Y436.1800 Z0.0000
M3S245
G4 P0.5; Tool Off

G0 Z0; move to z-safe height
G0 X1.0000 Y438.1800
M3S0
G4 P0.5; Tool On
G1 F300 Z0.0000
G1 F15000 X1299.0000 Y438.1800 Z0.0000
M3S245
G4 P0.5; Tool Off

G0 Z0; move to z-safe height
G0 X1299.0000 Y440.1800
M3S0
G4 P0.5; Tool On
G1 F300 Z0.0000
G1 F15000 X1.0000 Y440.1800 Z0.0000
M3S245
G4 P0.5; Tool Off

G0 Z0; move to z-safe height
G0 X1.0000 Y442.1800
M3S0
G4 P0.5; Tool On
G1 F300 Z0.0000
G1 F15000 X1299.0000 Y442.1800 Z0.0000
M3S245
G4 P0.5; Tool Off

G0 Z0; move to z-safe height
G0 X1299.0000 Y444.1800
M3S0
G4 P0.5; Tool On
G1 F300 Z0.0000
G1 F15000 X1.0000 Y444.1800 Z0.0000
M3S245
G4 P0.5; Tool Off

G0 Z0; move to z-safe height
G0 X1.0000 Y446.1800
M3S0
G4 P0.5; Tool On
G1 F300 Z0.0000
G1 F15000 X1299.0000 Y446.1800 Z0.0000
M3S245
G4 P0.5; Tool Off

G0 Z0; move to z-safe height
G0 X1299.0000 Y448.1800
M3S0
G4 P0.5; Tool On
G1 F300 Z0.0000
G1 F15000 X1.0000 Y448.1800 Z0.0000
M3S245
G4 P0.5; Tool Off

G0 Z0; move to z-safe height
G0 X1.0000 Y450.1800
M3S0
G4 P0.5; Tool On
G1 F300 Z0.0000
G1 F15000 X1299.0000 Y450.1800 Z0.0000
M3S245
G4 P0.5; Tool Off

G0 Z0; move to z-safe height
G0 X1299.0000 Y452.1800
M3S0
G4 P0.5; Tool On
G1 F300 Z0.0000
G1 F15000 X1.0000 Y452.1800 Z0.0000
M3S245
G4 P0.5; Tool Off

G0 Z0; move to z-safe height
G0 X1.0000 Y454.1800
M3S0
G4 P0.5; Tool On
G1 F300 Z0.0000
G1 F15000 X1299.0000 Y454.1800 Z0.0000
M3S245
G4 P0.5; Tool Off

G0 Z0; move to z-safe height
G0 X1299.0000 Y456.1800
M3S0
G4 P0.5; Tool On
G1 F300 Z0.0000
G1 F15000 X1.0000 Y456.1800 Z0.0000
M3S245
G4 P0.5; Tool Off

G0 Z0; move to z-safe height
G0 X1.0000 Y458.1800
M3S0
G4 P0.5; Tool On
G1 F300 Z0.0000
G1 F15000 X1299.0000 Y458.1800 Z0.0000
M3S245
G4 P0.5; Tool Off

G0 Z0; move to z-safe height
G0 X1299.0000 Y460.1800
M3S0
G4 P0.5; Tool On
G1 F300 Z0.0000
G1 F15000 X1.0000 Y460.1800 Z0.0000
M3S245
G4 P0.5; Tool Off

G0 Z0; move to z-safe height
G0 X1.0000 Y462.1800
M3S0
G4 P0.5; Tool On
G1 F300 Z0.0000
G1 F15000 X1299.0000 Y462.1800 Z0.0000
M3S245
G4 P0.5; Tool Off

G0 Z0; move to z-safe height
G0 X1299.0000 Y464.1800
M3S0
G4 P0.5; Tool On
G1 F300 Z0.0000
G1 F15000 X1.0000 Y464.1800 Z0.0000
M3S245
G4 P0.5; Tool Off

G0 Z0; move to z-safe height
G0 X1.0000 Y466.1800
M3S0
G4 P0.5; Tool On
G1 F300 Z0.0000
G1 F15000 X1299.0000 Y466.1800 Z0.0000
M3S245
G4 P0.5; Tool Off

G0 Z0; move to z-safe height
G0 X1299.0000 Y468.1800
M3S0
G4 P0.5; Tool On
G1 F300 Z0.0000
G1 F15000 X1.0000 Y468.1800 Z0.0000
M3S245
G4 P0.5; Tool Off

G0 Z0; move to z-safe height
G0 X1.0000 Y470.1800
M3S0
G4 P0.5; Tool On
G1 F300 Z0.0000
G1 F15000 X1299.0000 Y470.1800 Z0.0000
M3S245
G4 P0.5; Tool Off

G0 Z0; move to z-safe height
G0 X1299.0000 Y472.1800
M3S0
G4 P0.5; Tool On
G1 F300 Z0.0000
G1 F15000 X1.0000 Y472.1800 Z0.0000
M3S245
G4 P0.5; Tool Off

G0 Z0; move to z-safe height
G0 X1.0000 Y474.1800
M3S0
G4 P0.5; Tool On
G1 F300 Z0.0000
G1 F15000 X1299.0000 Y474.1800 Z0.0000
M3S245
G4 P0.5; Tool Off

G0 Z0; move to z-safe height
G0 X1299.0000 Y476.1800
M3S0
G4 P0.5; Tool On
G1 F300 Z0.0000
G1 F15000 X1.0000 Y476.1800 Z0.0000
M3S245
G4 P0.5; Tool Off

G0 Z0; move to z-safe height
G0 X1.0000 Y478.1800
M3S0
G4 P0.5; Tool On
G1 F300 Z0.0000
G1 F15000 X1299.0000 Y478.1800 Z0.0000
M3S245
G4 P0.5; Tool Off

G0 Z0; move to z-safe height
G0 X1299.0000 Y480.1800
M3S0
G4 P0.5; Tool On
G1 F300 Z0.0000
G1 F15000 X1.0000 Y480.1800 Z0.0000
M3S245
G4 P0.5; Tool Off

G0 Z0; move to z-safe height
G0 X1.0000 Y482.1800
M3S0
G4 P0.5; Tool On
G1 F300 Z0.0000
G1 F15000 X1299.0000 Y482.1800 Z0.0000
M3S245
G4 P0.5; Tool Off

G0 Z0; move to z-safe height
G0 X1299.0000 Y484.1800
M3S0
G4 P0.5; Tool On
G1 F300 Z0.0000
G1 F15000 X1.0000 Y484.1800 Z0.0000
M3S245
G4 P0.5; Tool Off

G0 Z0; move to z-safe height
G0 X1.0000 Y486.1800
M3S0
G4 P0.5; Tool On
G1 F300 Z0.0000
G1 F15000 X1299.0000 Y486.1800 Z0.0000
M3S245
G4 P0.5; Tool Off

G0 Z0; move to z-safe height
G0 X1299.0000 Y488.1800
M3S0
G4 P0.5; Tool On
G1 F300 Z0.0000
G1 F15000 X1.0000 Y488.1800 Z0.0000
M3S245
G4 P0.5; Tool Off

G0 Z0; move to z-safe height
G0 X1.0000 Y490.1800
M3S0
G4 P0.5; Tool On
G1 F300 Z0.0000
G1 F15000 X1299.0000 Y490.1800 Z0.0000
M3S245
G4 P0.5; Tool Off

G0 Z0; move to z-safe height
G0 X1299.0000 Y492.1800
M3S0
G4 P0.5; Tool On
G1 F300 Z0.0000
G1 F15000 X1.0000 Y492.1800 Z0.0000
M3S245
G4 P0.5; Tool Off

G0 Z0; move to z-safe height
G0 X1.0000 Y494.1800
M3S0
G4 P0.5; Tool On
G1 F300 Z0.0000
G1 F15000 X1299.0000 Y494.1800 Z0.0000
M3S245
G4 P0.5; Tool Off

G0 Z0; move to z-safe height
G0 X1299.0000 Y496.1800
M3S0
G4 P0.5; Tool On
G1 F300 Z0.0000
G1 F15000 X1.0000 Y496.1800 Z0.0000
M3S245
G4 P0.5; Tool Off

G0 Z0; move to z-safe height
G0 X1.0000 Y498.1800
M3S0
G4 P0.5; Tool On
G1 F300 Z0.0000
G1 F15000 X1299.0000 Y498.1800 Z0.0000
M3S245
G4 P0.5; Tool Off

G0 Z0; move to z-safe height
G0 X1299.0000 Y500.1800
M3S0
G4 P0.5; Tool On
G1 F300 Z0.0000
G1 F15000 X1.0000 Y500.1800 Z0.0000
M3S245
G4 P0.5; Tool Off

G0 Z0; move to z-safe height
G0 X1.0000 Y502.1800
M3S0
G4 P0.5; Tool On
G1 F300 Z0.0000
G1 F15000 X1299.0000 Y502.1800 Z0.0000
M3S245
G4 P0.5; Tool Off

G0 Z0; move to z-safe height
G0 X1299.0000 Y504.1800
M3S0
G4 P0.5; Tool On
G1 F300 Z0.0000
G1 F15000 X1.0000 Y504.1800 Z0.0000
M3S245
G4 P0.5; Tool Off

G0 Z0; move to z-safe height
G0 X1.0000 Y506.1800
M3S0
G4 P0.5; Tool On
G1 F300 Z0.0000
G1 F15000 X1299.0000 Y506.1800 Z0.0000
M3S245
G4 P0.5; Tool Off

G0 Z0; move to z-safe height
G0 X1299.0000 Y508.1800
M3S0
G4 P0.5; Tool On
G1 F300 Z0.0000
G1 F15000 X1.0000 Y508.1800 Z0.0000
M3S245
G4 P0.5; Tool Off

G0 Z0; move to z-safe height
G0 X1.0000 Y510.1800
M3S0
G4 P0.5; Tool On
G1 F300 Z0.0000
G1 F15000 X1299.0000 Y510.1800 Z0.0000
M3S245
G4 P0.5; Tool Off

G0 Z0; move to z-safe height
G0 X1299.0000 Y512.1800
M3S0
G4 P0.5; Tool On
G1 F300 Z0.0000
G1 F15000 X1.0000 Y512.1800 Z0.0000
M3S245
G4 P0.5; Tool Off

G0 Z0; move to z-safe height
G0 X1.0000 Y514.1800
M3S0
G4 P0.5; Tool On
G1 F300 Z0.0000
G1 F15000 X1299.0000 Y514.1800 Z0.0000
M3S245
G4 P0.5; Tool Off

G0 Z0; move to z-safe height
G0 X1299.0000 Y516.1800
M3S0
G4 P0.5; Tool On
G1 F300 Z0.0000
G1 F15000 X1.0000 Y516.1800 Z0.0000
M3S245
G4 P0.5; Tool Off

G0 Z0; move to z-safe height
G0 X1.0000 Y518.1800
M3S0
G4 P0.5; Tool On
G1 F300 Z0.0000
G1 F15000 X1299.0000 Y518.1800 Z0.0000
M3S245
G4 P0.5; Tool Off

G0 Z0; move to z-safe height
G0 X1299.0000 Y520.1800
M3S0
G4 P0.5; Tool On
G1 F300 Z0.0000
G1 F15000 X1.0000 Y520.1800 Z0.0000
M3S245
G4 P0.5; Tool Off

G0 Z0; move to z-safe height
G0 X1.0000 Y522.1800
M3S0
G4 P0.5; Tool On
G1 F300 Z0.0000
G1 F15000 X1299.0000 Y522.1800 Z0.0000
M3S245
G4 P0.5; Tool Off

G0 Z0; move to z-safe height
G0 X1299.0000 Y524.1800
M3S0
G4 P0.5; Tool On
G1 F300 Z0.0000
G1 F15000 X1.0000 Y524.1800 Z0.0000
M3S245
G4 P0.5; Tool Off

G0 Z0; move to z-safe height
G0 X1.0000 Y526.1800
M3S0
G4 P0.5; Tool On
G1 F300 Z0.0000
G1 F15000 X1299.0000 Y526.1800 Z0.0000
M3S245
G4 P0.5; Tool Off

G0 Z0; move to z-safe height
G0 X1299.0000 Y528.1800
M3S0
G4 P0.5; Tool On
G1 F300 Z0.0000
G1 F15000 X1.0000 Y528.1800 Z0.0000
M3S245
G4 P0.5; Tool Off

G0 Z0; move to z-safe height
G0 X1.0000 Y530.1800
M3S0
G4 P0.5; Tool On
G1 F300 Z0.0000
G1 F15000 X1299.0000 Y530.1800 Z0.0000
M3S245
G4 P0.5; Tool Off

G0 Z0; move to z-safe height
G0 X1299.0000 Y532.1800
M3S0
G4 P0.5; Tool On
G1 F300 Z0.0000
G1 F15000 X1.0000 Y532.1800 Z0.0000
M3S245
G4 P0.5; Tool Off

G0 Z0; move to z-safe height
G0 X1.0000 Y534.1800
M3S0
G4 P0.5; Tool On
G1 F300 Z0.0000
G1 F15000 X1299.0000 Y534.1800 Z0.0000
M3S245
G4 P0.5; Tool Off

G0 Z0; move to z-safe height
G0 X1299.0000 Y536.1800
M3S0
G4 P0.5; Tool On
G1 F300 Z0.0000
G1 F15000 X1.0000 Y536.1800 Z0.0000
M3S245
G4 P0.5; Tool Off

G0 Z0; move to z-safe height
G0 X1.0000 Y538.1800
M3S0
G4 P0.5; Tool On
G1 F300 Z0.0000
G1 F15000 X1299.0000 Y538.1800 Z0.0000
M3S245
G4 P0.5; Tool Off

G0 Z0; move to z-safe height
G0 X1299.0000 Y540.1800
M3S0
G4 P0.5; Tool On
G1 F300 Z0.0000
G1 F15000 X1.0000 Y540.1800 Z0.0000
M3S245
G4 P0.5; Tool Off

G0 Z0; move to z-safe height
G0 X1.0000 Y542.1800
M3S0
G4 P0.5; Tool On
G1 F300 Z0.0000
G1 F15000 X1299.0000 Y542.1800 Z0.0000
M3S245
G4 P0.5; Tool Off

G0 Z0; move to z-safe height
G0 X1299.0000 Y544.1800
M3S0
G4 P0.5; Tool On
G1 F300 Z0.0000
G1 F15000 X1.0000 Y544.1800 Z0.0000
M3S245
G4 P0.5; Tool Off

G0 Z0; move to z-safe height
G0 X1.0000 Y546.1800
M3S0
G4 P0.5; Tool On
G1 F300 Z0.0000
G1 F15000 X1299.0000 Y546.1800 Z0.0000
M3S245
G4 P0.5; Tool Off

G0 Z0; move to z-safe height
G0 X1299.0000 Y548.1800
M3S0
G4 P0.5; Tool On
G1 F300 Z0.0000
G1 F15000 X1.0000 Y548.1800 Z0.0000
M3S245
G4 P0.5; Tool Off

G0 Z0; move to z-safe height
G0 X1.0000 Y550.1800
M3S0
G4 P0.5; Tool On
G1 F300 Z0.0000
G1 F15000 X1299.0000 Y550.1800 Z0.0000
M3S245
G4 P0.5; Tool Off

G0 Z0; move to z-safe height
G0 X1299.0000 Y552.1800
M3S0
G4 P0.5; Tool On
G1 F300 Z0.0000
G1 F15000 X1.0000 Y552.1800 Z0.0000
M3S245
G4 P0.5; Tool Off

G0 Z0; move to z-safe height
G0 X1.0000 Y554.1800
M3S0
G4 P0.5; Tool On
G1 F300 Z0.0000
G1 F15000 X1299.0000 Y554.1800 Z0.0000
M3S245
G4 P0.5; Tool Off

G0 Z0; move to z-safe height
G0 X1299.0000 Y556.1800
M3S0
G4 P0.5; Tool On
G1 F300 Z0.0000
G1 F15000 X1.0000 Y556.1800 Z0.0000
M3S245
G4 P0.5; Tool Off

G0 Z0; move to z-safe height
G0 X1.0000 Y558.1800
M3S0
G4 P0.5; Tool On
G1 F300 Z0.0000
G1 F15000 X1299.0000 Y558.1800 Z0.0000
M3S245
G4 P0.5; Tool Off

G0 Z0; move to z-safe height
G0 X1299.0000 Y560.1800
M3S0
G4 P0.5; Tool On
G1 F300 Z0.0000
G1 F15000 X1.0000 Y560.1800 Z0.0000
M3S245
G4 P0.5; Tool Off

G0 Z0; move to z-safe height
G0 X1.0000 Y562.1800
M3S0
G4 P0.5; Tool On
G1 F300 Z0.0000
G1 F15000 X1299.0000 Y562.1800 Z0.0000
M3S245
G4 P0.5; Tool Off

G0 Z0; move to z-safe height
G0 X1299.0000 Y564.1800
M3S0
G4 P0.5; Tool On
G1 F300 Z0.0000
G1 F15000 X1.0000 Y564.1800 Z0.0000
M3S245
G4 P0.5; Tool Off

G0 Z0; move to z-safe height
G0 X1.0000 Y566.1800
M3S0
G4 P0.5; Tool On
G1 F300 Z0.0000
G1 F15000 X1299.0000 Y566.1800 Z0.0000
M3S245
G4 P0.5; Tool Off

G0 Z0; move to z-safe height
G0 X1299.0000 Y568.1800
M3S0
G4 P0.5; Tool On
G1 F300 Z0.0000
G1 F15000 X1.0000 Y568.1800 Z0.0000
M3S245
G4 P0.5; Tool Off

G0 Z0; move to z-safe height
G0 X1.0000 Y570.1800
M3S0
G4 P0.5; Tool On
G1 F300 Z0.0000
G1 F15000 X1299.0000 Y570.1800 Z0.0000
M3S245
G4 P0.5; Tool Off

G0 Z0; move to z-safe height
G0 X1299.0000 Y572.1800
M3S0
G4 P0.5; Tool On
G1 F300 Z0.0000
G1 F15000 X1.0000 Y572.1800 Z0.0000
M3S245
G4 P0.5; Tool Off

G0 Z0; move to z-safe height
G0 X1.0000 Y574.1800
M3S0
G4 P0.5; Tool On
G1 F300 Z0.0000
G1 F15000 X1299.0000 Y574.1800 Z0.0000
M3S245
G4 P0.5; Tool Off

G0 Z0; move to z-safe height
G0 X1299.0000 Y576.1800
M3S0
G4 P0.5; Tool On
G1 F300 Z0.0000
G1 F15000 X1.0000 Y576.1800 Z0.0000
M3S245
G4 P0.5; Tool Off

G0 Z0; move to z-safe height
G0 X1.0000 Y578.1800
M3S0
G4 P0.5; Tool On
G1 F300 Z0.0000
G1 F15000 X1299.0000 Y578.1800 Z0.0000
M3S245
G4 P0.5; Tool Off

G0 Z0; move to z-safe height
G0 X1299.0000 Y580.1800
M3S0
G4 P0.5; Tool On
G1 F300 Z0.0000
G1 F15000 X1.0000 Y580.1800 Z0.0000
M3S245
G4 P0.5; Tool Off

G0 Z0; move to z-safe height
G0 X1.0000 Y582.1800
M3S0
G4 P0.5; Tool On
G1 F300 Z0.0000
G1 F15000 X1299.0000 Y582.1800 Z0.0000
M3S245
G4 P0.5; Tool Off

G0 Z0; move to z-safe height
G0 X1299.0000 Y584.1800
M3S0
G4 P0.5; Tool On
G1 F300 Z0.0000
G1 F15000 X1.0000 Y584.1800 Z0.0000
M3S245
G4 P0.5; Tool Off

G0 Z0; move to z-safe height
G0 X1.0000 Y586.1800
M3S0
G4 P0.5; Tool On
G1 F300 Z0.0000
G1 F15000 X1299.0000 Y586.1800 Z0.0000
M3S245
G4 P0.5; Tool Off

G0 Z0; move to z-safe height
G0 X1299.0000 Y588.1800
M3S0
G4 P0.5; Tool On
G1 F300 Z0.0000
G1 F15000 X1.0000 Y588.1800 Z0.0000
M3S245
G4 P0.5; Tool Off

G0 Z0; move to z-safe height
G0 X1.0000 Y590.1800
M3S0
G4 P0.5; Tool On
G1 F300 Z0.0000
G1 F15000 X1299.0000 Y590.1800 Z0.0000
M3S245
G4 P0.5; Tool Off

G0 Z0; move to z-safe height
G0 X1299.0000 Y592.1800
M3S0
G4 P0.5; Tool On
G1 F300 Z0.0000
G1 F15000 X1.0000 Y592.1800 Z0.0000
M3S245
G4 P0.5; Tool Off

G0 Z0; move to z-safe height
G0 X1.0000 Y594.1800
M3S0
G4 P0.5; Tool On
G1 F300 Z0.0000
G1 F15000 X1299.0000 Y594.1800 Z0.0000
M3S245
G4 P0.5; Tool Off

G0 Z0; move to z-safe height
G0 X1299.0000 Y596.1800
M3S0
G4 P0.5; Tool On
G1 F300 Z0.0000
G1 F15000 X1.0000 Y596.1800 Z0.0000
M3S245
G4 P0.5; Tool Off

G0 Z0; move to z-safe height
G0 X1.0000 Y598.1800
M3S0
G4 P0.5; Tool On
G1 F300 Z0.0000
G1 F15000 X1299.0000 Y598.1800 Z0.0000
M3S245
G4 P0.5; Tool Off

G0 Z0; move to z-safe height
G0 X1299.0000 Y600.1800
M3S0
G4 P0.5; Tool On
G1 F300 Z0.0000
G1 F15000 X1.0000 Y600.1800 Z0.0000
M3S245
G4 P0.5; Tool Off

G0 Z0; move to z-safe height
G0 X1.0000 Y602.1800
M3S0
G4 P0.5; Tool On
G1 F300 Z0.0000
G1 F15000 X1299.0000 Y602.1800 Z0.0000
M3S245
G4 P0.5; Tool Off

G0 Z0; move to z-safe height
G0 X1299.0000 Y604.1800
M3S0
G4 P0.5; Tool On
G1 F300 Z0.0000
G1 F15000 X1.0000 Y604.1800 Z0.0000
M3S245
G4 P0.5; Tool Off

G0 Z0; move to z-safe height
G0 X1.0000 Y606.1800
M3S0
G4 P0.5; Tool On
G1 F300 Z0.0000
G1 F15000 X1299.0000 Y606.1800 Z0.0000
M3S245
G4 P0.5; Tool Off

G0 Z0; move to z-safe height
G0 X1299.0000 Y608.1800
M3S0
G4 P0.5; Tool On
G1 F300 Z0.0000
G1 F15000 X1.0000 Y608.1800 Z0.0000
M3S245
G4 P0.5; Tool Off

G0 Z0; move to z-safe height
G0 X1.0000 Y610.1800
M3S0
G4 P0.5; Tool On
G1 F300 Z0.0000
G1 F15000 X1299.0000 Y610.1800 Z0.0000
M3S245
G4 P0.5; Tool Off

G0 Z0; move to z-safe height
G0 X1299.0000 Y612.1800
M3S0
G4 P0.5; Tool On
G1 F300 Z0.0000
G1 F15000 X1.0000 Y612.1800 Z0.0000
M3S245
G4 P0.5; Tool Off

G0 Z0; move to z-safe height
G0 X1.0000 Y614.1800
M3S0
G4 P0.5; Tool On
G1 F300 Z0.0000
G1 F15000 X1299.0000 Y614.1800 Z0.0000
M3S245
G4 P0.5; Tool Off

G0 Z0; move to z-safe height
G0 X1299.0000 Y616.1800
M3S0
G4 P0.5; Tool On
G1 F300 Z0.0000
G1 F15000 X1.0000 Y616.1800 Z0.0000
M3S245
G4 P0.5; Tool Off

G0 Z0; move to z-safe height
G0 X1.0000 Y618.1800
M3S0
G4 P0.5; Tool On
G1 F300 Z0.0000
G1 F15000 X1299.0000 Y618.1800 Z0.0000
M3S245
G4 P0.5; Tool Off

G0 Z0; move to z-safe height
G0 X1299.0000 Y620.1800
M3S0
G4 P0.5; Tool On
G1 F300 Z0.0000
G1 F15000 X1.0000 Y620.1800 Z0.0000
M3S245
G4 P0.5; Tool Off

G0 Z0; move to z-safe height
G0 X1.0000 Y622.1800
M3S0
G4 P0.5; Tool On
G1 F300 Z0.0000
G1 F15000 X1299.0000 Y622.1800 Z0.0000
M3S245
G4 P0.5; Tool Off

G0 Z0; move to z-safe height
G0 X1299.0000 Y624.1800
M3S0
G4 P0.5; Tool On
G1 F300 Z0.0000
G1 F15000 X1.0000 Y624.1800 Z0.0000
M3S245
G4 P0.5; Tool Off

G0 Z0; move to z-safe height
G0 X1.0000 Y626.1800
M3S0
G4 P0.5; Tool On
G1 F300 Z0.0000
G1 F15000 X1299.0000 Y626.1800 Z0.0000
M3S245
G4 P0.5; Tool Off

G0 Z0; move to z-safe height
G0 X1299.0000 Y628.1800
M3S0
G4 P0.5; Tool On
G1 F300 Z0.0000
G1 F15000 X1.0000 Y628.1800 Z0.0000
M3S245
G4 P0.5; Tool Off

G0 Z0; move to z-safe height
G0 X1.0000 Y630.1800
M3S0
G4 P0.5; Tool On
G1 F300 Z0.0000
G1 F15000 X1299.0000 Y630.1800 Z0.0000
M3S245
G4 P0.5; Tool Off

G0 Z0; move to z-safe height
G0 X1299.0000 Y632.1800
M3S0
G4 P0.5; Tool On
G1 F300 Z0.0000
G1 F15000 X1.0000 Y632.1800 Z0.0000
M3S245
G4 P0.5; Tool Off

G0 Z0; move to z-safe height
G0 X1.0000 Y634.1800
M3S0
G4 P0.5; Tool On
G1 F300 Z0.0000
G1 F15000 X1299.0000 Y634.1800 Z0.0000
M3S245
G4 P0.5; Tool Off

G0 Z0; move to z-safe height
G0 X1299.0000 Y636.1800
M3S0
G4 P0.5; Tool On
G1 F300 Z0.0000
G1 F15000 X1.0000 Y636.1800 Z0.0000
M3S245
G4 P0.5; Tool Off

G0 Z0; move to z-safe height
G0 X1.0000 Y638.1800
M3S0
G4 P0.5; Tool On
G1 F300 Z0.0000
G1 F15000 X1299.0000 Y638.1800 Z0.0000
M3S245
G4 P0.5; Tool Off

G0 Z0; move to z-safe height
G0 X1299.0000 Y640.1800
M3S0
G4 P0.5; Tool On
G1 F300 Z0.0000
G1 F15000 X1.0000 Y640.1800 Z0.0000
M3S245
G4 P0.5; Tool Off

G0 Z0; move to z-safe height
G0 X1.0000 Y642.1800
M3S0
G4 P0.5; Tool On
G1 F300 Z0.0000
G1 F15000 X1299.0000 Y642.1800 Z0.0000
M3S245
G4 P0.5; Tool Off

G0 Z0; move to z-safe height
G0 X1299.0000 Y644.1800
M3S0
G4 P0.5; Tool On
G1 F300 Z0.0000
G1 F15000 X1.0000 Y644.1800 Z0.0000
M3S245
G4 P0.5; Tool Off

G0 Z0; move to z-safe height
G0 X1.0000 Y646.1800
M3S0
G4 P0.5; Tool On
G1 F300 Z0.0000
G1 F15000 X1299.0000 Y646.1800 Z0.0000
M3S245
G4 P0.5; Tool Off

G0 Z0; move to z-safe height
G0 X1299.0000 Y648.1800
M3S0
G4 P0.5; Tool On
G1 F300 Z0.0000
G1 F15000 X1.0000 Y648.1800 Z0.0000
M3S245
G4 P0.5; Tool Off

G0 Z0; move to z-safe height
G0 X1.0000 Y650.1800
M3S0
G4 P0.5; Tool On
G1 F300 Z0.0000
G1 F15000 X1299.0000 Y650.1800 Z0.0000
M3S245
G4 P0.5; Tool Off

G0 Z0; move to z-safe height
G0 X1299.0000 Y652.1800
M3S0
G4 P0.5; Tool On
G1 F300 Z0.0000
G1 F15000 X1.0000 Y652.1800 Z0.0000
M3S245
G4 P0.5; Tool Off

G0 Z0; move to z-safe height
G0 X1.0000 Y654.1800
M3S0
G4 P0.5; Tool On
G1 F300 Z0.0000
G1 F15000 X1299.0000 Y654.1800 Z0.0000
M3S245
G4 P0.5; Tool Off

G0 Z0; move to z-safe height
G0 X1299.0000 Y656.1800
M3S0
G4 P0.5; Tool On
G1 F300 Z0.0000
G1 F15000 X1.0000 Y656.1800 Z0.0000
M3S245
G4 P0.5; Tool Off

G0 Z0; move to z-safe height
G0 X1.0000 Y658.1800
M3S0
G4 P0.5; Tool On
G1 F300 Z0.0000
G1 F15000 X1299.0000 Y658.1800 Z0.0000
M3S245
G4 P0.5; Tool Off

G0 Z0; move to z-safe height
G0 X1299.0000 Y660.1800
M3S0
G4 P0.5; Tool On
G1 F300 Z0.0000
G1 F15000 X1.0000 Y660.1800 Z0.0000
M3S245
G4 P0.5; Tool Off

G0 Z0; move to z-safe height
G0 X1.0000 Y662.1800
M3S0
G4 P0.5; Tool On
G1 F300 Z0.0000
G1 F15000 X1299.0000 Y662.1800 Z0.0000
M3S245
G4 P0.5; Tool Off

G0 Z0; move to z-safe height
G0 X1299.0000 Y664.1800
M3S0
G4 P0.5; Tool On
G1 F300 Z0.0000
G1 F15000 X1.0000 Y664.1800 Z0.0000
M3S245
G4 P0.5; Tool Off

G0 Z0; move to z-safe height
G0 X1.0000 Y666.1800
M3S0
G4 P0.5; Tool On
G1 F300 Z0.0000
G1 F15000 X1299.0000 Y666.1800 Z0.0000
M3S245
G4 P0.5; Tool Off

G0 Z0; move to z-safe height
G0 X1299.0000 Y668.1800
M3S0
G4 P0.5; Tool On
G1 F300 Z0.0000
G1 F15000 X1.0000 Y668.1800 Z0.0000
M3S245
G4 P0.5; Tool Off

G0 Z0; move to z-safe height
G0 X1.0000 Y670.1800
M3S0
G4 P0.5; Tool On
G1 F300 Z0.0000
G1 F15000 X1299.0000 Y670.1800 Z0.0000
M3S245
G4 P0.5; Tool Off

G0 Z0; move to z-safe height
G0 X1299.0000 Y672.1800
M3S0
G4 P0.5; Tool On
G1 F300 Z0.0000
G1 F15000 X1.0000 Y672.1800 Z0.0000
M3S245
G4 P0.5; Tool Off

G0 Z0; move to z-safe height
G0 X1.0000 Y674.1800
M3S0
G4 P0.5; Tool On
G1 F300 Z0.0000
G1 F15000 X1299.0000 Y674.1800 Z0.0000
M3S245
G4 P0.5; Tool Off

G0 Z0; move to z-safe height
G0 X1299.0000 Y676.1800
M3S0
G4 P0.5; Tool On
G1 F300 Z0.0000
G1 F15000 X1.0000 Y676.1800 Z0.0000
M3S245
G4 P0.5; Tool Off

G0 Z0; move to z-safe height
G0 X1.0000 Y678.1800
M3S0
G4 P0.5; Tool On
G1 F300 Z0.0000
G1 F15000 X1299.0000 Y678.1800 Z0.0000
M3S245
G4 P0.5; Tool Off

G0 Z0; move to z-safe height
G0 X1299.0000 Y680.1800
M3S0
G4 P0.5; Tool On
G1 F300 Z0.0000
G1 F15000 X1.0000 Y680.1800 Z0.0000
M3S245
G4 P0.5; Tool Off

G0 Z0; move to z-safe height
G0 X1.0000 Y682.1800
M3S0
G4 P0.5; Tool On
G1 F300 Z0.0000
G1 F15000 X1299.0000 Y682.1800 Z0.0000
M3S245
G4 P0.5; Tool Off

G0 Z0; move to z-safe height
G0 X1299.0000 Y684.1800
M3S0
G4 P0.5; Tool On
G1 F300 Z0.0000
G1 F15000 X1.0000 Y684.1800 Z0.0000
M3S245
G4 P0.5; Tool Off

G0 Z0; move to z-safe height
G0 X1.0000 Y686.1800
M3S0
G4 P0.5; Tool On
G1 F300 Z0.0000
G1 F15000 X1299.0000 Y686.1800 Z0.0000
M3S245
G4 P0.5; Tool Off

G0 Z0; move to z-safe height
G0 X1299.0000 Y688.1800
M3S0
G4 P0.5; Tool On
G1 F300 Z0.0000
G1 F15000 X1.0000 Y688.1800 Z0.0000
M3S245
G4 P0.5; Tool Off

G0 Z0; move to z-safe height
G0 X1.0000 Y690.1800
M3S0
G4 P0.5; Tool On
G1 F300 Z0.0000
G1 F15000 X1299.0000 Y690.1800 Z0.0000
M3S245
G4 P0.5; Tool Off

G0 Z0; move to z-safe height
G0 X1299.0000 Y692.1800
M3S0
G4 P0.5; Tool On
G1 F300 Z0.0000
G1 F15000 X1.0000 Y692.1800 Z0.0000
M3S245
G4 P0.5; Tool Off

G0 Z0; move to z-safe height
G0 X1.0000 Y694.1800
M3S0
G4 P0.5; Tool On
G1 F300 Z0.0000
G1 F15000 X1299.0000 Y694.1800 Z0.0000
M3S245
G4 P0.5; Tool Off

G0 Z0; move to z-safe height
G0 X1299.0000 Y696.1800
M3S0
G4 P0.5; Tool On
G1 F300 Z0.0000
G1 F15000 X1.0000 Y696.1800 Z0.0000
M3S245
G4 P0.5; Tool Off

G0 Z0; move to z-safe height
G0 X1.0000 Y698.1800
M3S0
G4 P0.5; Tool On
G1 F300 Z0.0000
G1 F15000 X1299.0000 Y698.1800 Z0.0000
M3S245
G4 P0.5; Tool Off

G0 Z0; move to z-safe height
G0 X1299.0000 Y700.1800
M3S0
G4 P0.5; Tool On
G1 F300 Z0.0000
G1 F15000 X1.0000 Y700.1800 Z0.0000
M3S245
G4 P0.5; Tool Off

G0 Z0; move to z-safe height
G0 X1.0000 Y702.1800
M3S0
G4 P0.5; Tool On
G1 F300 Z0.0000
G1 F15000 X1299.0000 Y702.1800 Z0.0000
M3S245
G4 P0.5; Tool Off

G0 Z0; move to z-safe height
G0 X1299.0000 Y704.1800
M3S0
G4 P0.5; Tool On
G1 F300 Z0.0000
G1 F15000 X1.0000 Y704.1800 Z0.0000
M3S245
G4 P0.5; Tool Off

G0 Z0; move to z-safe height
G0 X1.0000 Y706.1800
M3S0
G4 P0.5; Tool On
G1 F300 Z0.0000
G1 F15000 X1299.0000 Y706.1800 Z0.0000
M3S245
G4 P0.5; Tool Off

G0 Z0; move to z-safe height
G0 X1299.0000 Y708.1800
M3S0
G4 P0.5; Tool On
G1 F300 Z0.0000
G1 F15000 X1.0000 Y708.1800 Z0.0000
M3S245
G4 P0.5; Tool Off

G0 Z0; move to z-safe height
G0 X1.0000 Y710.1800
M3S0
G4 P0.5; Tool On
G1 F300 Z0.0000
G1 F15000 X1299.0000 Y710.1800 Z0.0000
M3S245
G4 P0.5; Tool Off

G0 Z0; move to z-safe height
G0 X1299.0000 Y712.1800
M3S0
G4 P0.5; Tool On
G1 F300 Z0.0000
G1 F15000 X1.0000 Y712.1800 Z0.0000
M3S245
G4 P0.5; Tool Off

G0 Z0; move to z-safe height
G0 X1.0000 Y714.1800
M3S0
G4 P0.5; Tool On
G1 F300 Z0.0000
G1 F15000 X1299.0000 Y714.1800 Z0.0000
M3S245
G4 P0.5; Tool Off

G0 Z0; move to z-safe height
G0 X1299.0000 Y716.1800
M3S0
G4 P0.5; Tool On
G1 F300 Z0.0000
G1 F15000 X1.0000 Y716.1800 Z0.0000
M3S245
G4 P0.5; Tool Off

G0 Z0; move to z-safe height
G0 X1.0000 Y718.1800
M3S0
G4 P0.5; Tool On
G1 F300 Z0.0000
G1 F15000 X1299.0000 Y718.1800 Z0.0000
M3S245
G4 P0.5; Tool Off

G0 Z0; move to z-safe height
G0 X1299.0000 Y720.1800
M3S0
G4 P0.5; Tool On
G1 F300 Z0.0000
G1 F15000 X1.0000 Y720.1800 Z0.0000
M3S245
G4 P0.5; Tool Off

G0 Z0; move to z-safe height
G0 X1.0000 Y722.1800
M3S0
G4 P0.5; Tool On
G1 F300 Z0.0000
G1 F15000 X1299.0000 Y722.1800 Z0.0000
M3S245
G4 P0.5; Tool Off

G0 Z0; move to z-safe height
G0 X1299.0000 Y724.1800
M3S0
G4 P0.5; Tool On
G1 F300 Z0.0000
G1 F15000 X1.0000 Y724.1800 Z0.0000
M3S245
G4 P0.5; Tool Off

G0 Z0; move to z-safe height
G0 X1.0000 Y726.1800
M3S0
G4 P0.5; Tool On
G1 F300 Z0.0000
G1 F15000 X1299.0000 Y726.1800 Z0.0000
M3S245
G4 P0.5; Tool Off

G0 Z0; move to z-safe height
G0 X1299.0000 Y728.1800
M3S0
G4 P0.5; Tool On
G1 F300 Z0.0000
G1 F15000 X1.0000 Y728.1800 Z0.0000
M3S245
G4 P0.5; Tool Off

G0 Z0; move to z-safe height
G0 X1.0000 Y730.1800
M3S0
G4 P0.5; Tool On
G1 F300 Z0.0000
G1 F15000 X1299.0000 Y730.1800 Z0.0000
M3S245
G4 P0.5; Tool Off

G0 Z0; move to z-safe height
G0 X1299.0000 Y732.1800
M3S0
G4 P0.5; Tool On
G1 F300 Z0.0000
G1 F15000 X1.0000 Y732.1800 Z0.0000
M3S245
G4 P0.5; Tool Off

G0 Z0; move to z-safe height
G0 X1.0000 Y734.1800
M3S0
G4 P0.5; Tool On
G1 F300 Z0.0000
G1 F15000 X1299.0000 Y734.1800 Z0.0000
M3S245
G4 P0.5; Tool Off

G0 Z0; move to z-safe height
G0 X1299.0000 Y736.1800
M3S0
G4 P0.5; Tool On
G1 F300 Z0.0000
G1 F15000 X1.0000 Y736.1800 Z0.0000
M3S245
G4 P0.5; Tool Off

G0 Z0; move to z-safe height
G0 X1.0000 Y738.1800
M3S0
G4 P0.5; Tool On
G1 F300 Z0.0000
G1 F15000 X1299.0000 Y738.1800 Z0.0000
M3S245
G4 P0.5; Tool Off

G0 Z0; move to z-safe height
G0 X1299.0000 Y740.1800
M3S0
G4 P0.5; Tool On
G1 F300 Z0.0000
G1 F15000 X1.0000 Y740.1800 Z0.0000
M3S245
G4 P0.5; Tool Off

G0 Z0; move to z-safe height
G0 X1.0000 Y742.1800
M3S0
G4 P0.5; Tool On
G1 F300 Z0.0000
G1 F15000 X1299.0000 Y742.1800 Z0.0000
M3S245
G4 P0.5; Tool Off

G0 Z0; move to z-safe height
G0 X1299.0000 Y744.1800
M3S0
G4 P0.5; Tool On
G1 F300 Z0.0000
G1 F15000 X1.0000 Y744.1800 Z0.0000
M3S245
G4 P0.5; Tool Off

G0 Z0; move to z-safe height
G0 X1.0000 Y746.1800
M3S0
G4 P0.5; Tool On
G1 F300 Z0.0000
G1 F15000 X1299.0000 Y746.1800 Z0.0000
M3S245
G4 P0.5; Tool Off

G0 Z0; move to z-safe height
G0 X1299.0000 Y748.1800
M3S0
G4 P0.5; Tool On
G1 F300 Z0.0000
G1 F15000 X1.0000 Y748.1800 Z0.0000
M3S245
G4 P0.5; Tool Off

G0 Z0; move to z-safe height
G0 X1.0000 Y750.1800
M3S0
G4 P0.5; Tool On
G1 F300 Z0.0000
G1 F15000 X1299.0000 Y750.1800 Z0.0000
M3S245
G4 P0.5; Tool Off

G0 Z0; move to z-safe height
G0 X1299.0000 Y752.1800
M3S0
G4 P0.5; Tool On
G1 F300 Z0.0000
G1 F15000 X1.0000 Y752.1800 Z0.0000
M3S245
G4 P0.5; Tool Off

G0 Z0; move to z-safe height
G0 X1.0000 Y754.1800
M3S0
G4 P0.5; Tool On
G1 F300 Z0.0000
G1 F15000 X1299.0000 Y754.1800 Z0.0000
M3S245
G4 P0.5; Tool Off

G0 Z0; move to z-safe height
G0 X1299.0000 Y756.1800
M3S0
G4 P0.5; Tool On
G1 F300 Z0.0000
G1 F15000 X1.0000 Y756.1800 Z0.0000
M3S245
G4 P0.5; Tool Off

G0 Z0; move to z-safe height
G0 X1.0000 Y758.1800
M3S0
G4 P0.5; Tool On
G1 F300 Z0.0000
G1 F15000 X1299.0000 Y758.1800 Z0.0000
M3S245
G4 P0.5; Tool Off

G0 Z0; move to z-safe height
G0 X1299.0000 Y760.1800
M3S0
G4 P0.5; Tool On
G1 F300 Z0.0000
G1 F15000 X1.0000 Y760.1800 Z0.0000
M3S245
G4 P0.5; Tool Off

G0 Z0; move to z-safe height
G0 X1.0000 Y762.1800
M3S0
G4 P0.5; Tool On
G1 F300 Z0.0000
G1 F15000 X1299.0000 Y762.1800 Z0.0000
M3S245
G4 P0.5; Tool Off

G0 Z0; move to z-safe height
G0 X1299.0000 Y764.1800
M3S0
G4 P0.5; Tool On
G1 F300 Z0.0000
G1 F15000 X1.0000 Y764.1800 Z0.0000
M3S245
G4 P0.5; Tool Off

G0 Z0; move to z-safe height
G0 X1.0000 Y766.1800
M3S0
G4 P0.5; Tool On
G1 F300 Z0.0000
G1 F15000 X1299.0000 Y766.1800 Z0.0000
M3S245
G4 P0.5; Tool Off

G0 Z0; move to z-safe height
G0 X1299.0000 Y768.1800
M3S0
G4 P0.5; Tool On
G1 F300 Z0.0000
G1 F15000 X1.0000 Y768.1800 Z0.0000
M3S245
G4 P0.5; Tool Off

G0 Z0; move to z-safe height
G0 X1.0000 Y770.1800
M3S0
G4 P0.5; Tool On
G1 F300 Z0.0000
G1 F15000 X1299.0000 Y770.1800 Z0.0000
M3S245
G4 P0.5; Tool Off

G0 Z0; move to z-safe height
G0 X1299.0000 Y772.1800
M3S0
G4 P0.5; Tool On
G1 F300 Z0.0000
G1 F15000 X1.0000 Y772.1800 Z0.0000
M3S245
G4 P0.5; Tool Off

G0 Z0; move to z-safe height
G0 X1.0000 Y774.1800
M3S0
G4 P0.5; Tool On
G1 F300 Z0.0000
G1 F15000 X1299.0000 Y774.1800 Z0.0000
M3S245
G4 P0.5; Tool Off

G0 Z0; move to z-safe height
G0 X1299.0000 Y776.1800
M3S0
G4 P0.5; Tool On
G1 F300 Z0.0000
G1 F15000 X1.0000 Y776.1800 Z0.0000
M3S245
G4 P0.5; Tool Off

G0 Z0; move to z-safe height
G0 X1.0000 Y778.1800
M3S0
G4 P0.5; Tool On
G1 F300 Z0.0000
G1 F15000 X1299.0000 Y778.1800 Z0.0000
M3S245
G4 P0.5; Tool Off

G0 Z0; move to z-safe height
G0 X1299.0000 Y780.1800
M3S0
G4 P0.5; Tool On
G1 F300 Z0.0000
G1 F15000 X1.0000 Y780.1800 Z0.0000
M3S245
G4 P0.5; Tool Off

G0 Z0; move to z-safe height
G0 X1.0000 Y782.1800
M3S0
G4 P0.5; Tool On
G1 F300 Z0.0000
G1 F15000 X1299.0000 Y782.1800 Z0.0000
M3S245
G4 P0.5; Tool Off

G0 Z0; move to z-safe height
G0 X1299.0000 Y784.1800
M3S0
G4 P0.5; Tool On
G1 F300 Z0.0000
G1 F15000 X1.0000 Y784.1800 Z0.0000
M3S245
G4 P0.5; Tool Off

G0 Z0; move to z-safe height
G0 X1.0000 Y786.1800
M3S0
G4 P0.5; Tool On
G1 F300 Z0.0000
G1 F15000 X1299.0000 Y786.1800 Z0.0000
M3S245
G4 P0.5; Tool Off

G0 Z0; move to z-safe height
G0 X1299.0000 Y788.1800
M3S0
G4 P0.5; Tool On
G1 F300 Z0.0000
G1 F15000 X1.0000 Y788.1800 Z0.0000
M3S245
G4 P0.5; Tool Off

G0 Z0; move to z-safe height
G0 X1.0000 Y790.1800
M3S0
G4 P0.5; Tool On
G1 F300 Z0.0000
G1 F15000 X1299.0000 Y790.1800 Z0.0000
M3S245
G4 P0.5; Tool Off

G0 Z0; move to z-safe height
G0 X1299.0000 Y792.1800
M3S0
G4 P0.5; Tool On
G1 F300 Z0.0000
G1 F15000 X1.0000 Y792.1800 Z0.0000
M3S245
G4 P0.5; Tool Off

G0 Z0; move to z-safe height
G0 X1.0000 Y794.1800
M3S0
G4 P0.5; Tool On
G1 F300 Z0.0000
G1 F15000 X1299.0000 Y794.1800 Z0.0000
M3S245
G4 P0.5; Tool Off

G0 Z0; move to z-safe height
G0 X1299.0000 Y796.1800
M3S0
G4 P0.5; Tool On
G1 F300 Z0.0000
G1 F15000 X1.0000 Y796.1800 Z0.0000
M3S245
G4 P0.5; Tool Off

G0 Z0; move to z-safe height
G0 X1.0000 Y798.1800
M3S0
G4 P0.5; Tool On
G1 F300 Z0.0000
G1 F15000 X1299.0000 Y798.1800 Z0.0000
M3S245
G4 P0.5; Tool Off

G0 Z0; move to z-safe height
G0 X1299.0000 Y800.1800
M3S0
G4 P0.5; Tool On
G1 F300 Z0.0000
G1 F15000 X1.0000 Y800.1800 Z0.0000
M3S245
G4 P0.5; Tool Off

G0 Z0; move to z-safe height
G0 X1.0000 Y802.1800
M3S0
G4 P0.5; Tool On
G1 F300 Z0.0000
G1 F15000 X1299.0000 Y802.1800 Z0.0000
M3S245
G4 P0.5; Tool Off

G0 Z0; move to z-safe height
G0 X1299.0000 Y804.1800
M3S0
G4 P0.5; Tool On
G1 F300 Z0.0000
G1 F15000 X1.0000 Y804.1800 Z0.0000
M3S245
G4 P0.5; Tool Off

G0 Z0; move to z-safe height
G0 X1.0000 Y806.1800
M3S0
G4 P0.5; Tool On
G1 F300 Z0.0000
G1 F15000 X1299.0000 Y806.1800 Z0.0000
M3S245
G4 P0.5; Tool Off

G0 Z0; move to z-safe height
G0 X1299.0000 Y808.1800
M3S0
G4 P0.5; Tool On
G1 F300 Z0.0000
G1 F15000 X1.0000 Y808.1800 Z0.0000
M3S245
G4 P0.5; Tool Off

G0 Z0; move to z-safe height
G0 X1.0000 Y810.1800
M3S0
G4 P0.5; Tool On
G1 F300 Z0.0000
G1 F15000 X1299.0000 Y810.1800 Z0.0000
M3S245
G4 P0.5; Tool Off

G0 Z0; move to z-safe height
G0 X1299.0000 Y812.1800
M3S0
G4 P0.5; Tool On
G1 F300 Z0.0000
G1 F15000 X1.0000 Y812.1800 Z0.0000
M3S245
G4 P0.5; Tool Off

G0 Z0; move to z-safe height
G0 X1.0000 Y814.1800
M3S0
G4 P0.5; Tool On
G1 F300 Z0.0000
G1 F15000 X1299.0000 Y814.1800 Z0.0000
M3S245
G4 P0.5; Tool Off

G0 Z0; move to z-safe height
G0 X1299.0000 Y816.1800
M3S0
G4 P0.5; Tool On
G1 F300 Z0.0000
G1 F15000 X1.0000 Y816.1800 Z0.0000
M3S245
G4 P0.5; Tool Off

G0 Z0; move to z-safe height
G0 X1.0000 Y818.1800
M3S0
G4 P0.5; Tool On
G1 F300 Z0.0000
G1 F15000 X1299.0000 Y818.1800 Z0.0000
M3S245
G4 P0.5; Tool Off

G0 Z0; move to z-safe height
G0 X1299.0000 Y820.1800
M3S0
G4 P0.5; Tool On
G1 F300 Z0.0000
G1 F15000 X1.0000 Y820.1800 Z0.0000
M3S245
G4 P0.5; Tool Off

G0 Z0; move to z-safe height
G0 X1.0000 Y822.1800
M3S0
G4 P0.5; Tool On
G1 F300 Z0.0000
G1 F15000 X1299.0000 Y822.1800 Z0.0000
M3S245
G4 P0.5; Tool Off

G0 Z0; move to z-safe height
G0 X1299.0000 Y824.1800
M3S0
G4 P0.5; Tool On
G1 F300 Z0.0000
G1 F15000 X1.0000 Y824.1800 Z0.0000
M3S245
G4 P0.5; Tool Off

G0 Z0; move to z-safe height
G0 X1.0000 Y826.1800
M3S0
G4 P0.5; Tool On
G1 F300 Z0.0000
G1 F15000 X1299.0000 Y826.1800 Z0.0000
M3S245
G4 P0.5; Tool Off

G0 Z0; move to z-safe height
G0 X1299.0000 Y828.1800
M3S0
G4 P0.5; Tool On
G1 F300 Z0.0000
G1 F15000 X1.0000 Y828.1800 Z0.0000
M3S245
G4 P0.5; Tool Off

G0 Z0; move to z-safe height
G0 X1.0000 Y830.1800
M3S0
G4 P0.5; Tool On
G1 F300 Z0.0000
G1 F15000 X1299.0000 Y830.1800 Z0.0000
M3S245
G4 P0.5; Tool Off

G0 Z0; move to z-safe height
G0 X1299.0000 Y832.1800
M3S0
G4 P0.5; Tool On
G1 F300 Z0.0000
G1 F15000 X1.0000 Y832.1800 Z0.0000
M3S245
G4 P0.5; Tool Off

G0 Z0; move to z-safe height
G0 X1.0000 Y834.1800
M3S0
G4 P0.5; Tool On
G1 F300 Z0.0000
G1 F15000 X1299.0000 Y834.1800 Z0.0000
M3S245
G4 P0.5; Tool Off

G0 Z0; move to z-safe height
G0 X1299.0000 Y836.1800
M3S0
G4 P0.5; Tool On
G1 F300 Z0.0000
G1 F15000 X1.0000 Y836.1800 Z0.0000
M3S245
G4 P0.5; Tool Off

G0 Z0; move to z-safe height
G0 X1.0000 Y838.1800
M3S0
G4 P0.5; Tool On
G1 F300 Z0.0000
G1 F15000 X1299.0000 Y838.1800 Z0.0000
M3S245
G4 P0.5; Tool Off

G0 Z0; move to z-safe height
G0 X1299.0000 Y840.1800
M3S0
G4 P0.5; Tool On
G1 F300 Z0.0000
G1 F15000 X1.0000 Y840.1800 Z0.0000
M3S245
G4 P0.5; Tool Off

G0 Z0; move to z-safe height
G0 X1.0000 Y842.1800
M3S0
G4 P0.5; Tool On
G1 F300 Z0.0000
G1 F15000 X1299.0000 Y842.1800 Z0.0000
M3S245
G4 P0.5; Tool Off

G0 Z0; move to z-safe height
G0 X1299.0000 Y844.1800
M3S0
G4 P0.5; Tool On
G1 F300 Z0.0000
G1 F15000 X1.0000 Y844.1800 Z0.0000
M3S245
G4 P0.5; Tool Off

G0 Z0; move to z-safe height
G0 X1.0000 Y846.1800
M3S0
G4 P0.5; Tool On
G1 F300 Z0.0000
G1 F15000 X1299.0000 Y846.1800 Z0.0000
M3S245
G4 P0.5; Tool Off

G0 Z0; move to z-safe height
G0 X1299.0000 Y848.1800
M3S0
G4 P0.5; Tool On
G1 F300 Z0.0000
G1 F15000 X1.0000 Y848.1800 Z0.0000
M3S245
G4 P0.5; Tool Off

G0 Z0; move to z-safe height
G0 X1.0000 Y850.1800
M3S0
G4 P0.5; Tool On
G1 F300 Z0.0000
G1 F15000 X1299.0000 Y850.1800 Z0.0000
M3S245
G4 P0.5; Tool Off

G0 Z0; move to z-safe height
G0 X1299.0000 Y852.1800
M3S0
G4 P0.5; Tool On
G1 F300 Z0.0000
G1 F15000 X1.0000 Y852.1800 Z0.0000
M3S245
G4 P0.5; Tool Off

G0 Z0; move to z-safe height
G0 X1.0000 Y854.1800
M3S0
G4 P0.5; Tool On
G1 F300 Z0.0000
G1 F15000 X1299.0000 Y854.1800 Z0.0000
M3S245
G4 P0.5; Tool Off

G0 Z0; move to z-safe height
G0 X1299.0000 Y856.1800
M3S0
G4 P0.5; Tool On
G1 F300 Z0.0000
G1 F15000 X1.0000 Y856.1800 Z0.0000
M3S245
G4 P0.5; Tool Off

G0 Z0; move to z-safe height
G0 X1.0000 Y858.1800
M3S0
G4 P0.5; Tool On
G1 F300 Z0.0000
G1 F15000 X1299.0000 Y858.1800 Z0.0000
M3S245
G4 P0.5; Tool Off

G0 Z0; move to z-safe height
G0 X1299.0000 Y860.1800
M3S0
G4 P0.5; Tool On
G1 F300 Z0.0000
G1 F15000 X1.0000 Y860.1800 Z0.0000
M3S245
G4 P0.5; Tool Off

G0 Z0; move to z-safe height
G0 X1.0000 Y862.1800
M3S0
G4 P0.5; Tool On
G1 F300 Z0.0000
G1 F15000 X1299.0000 Y862.1800 Z0.0000
M3S245
G4 P0.5; Tool Off

G0 Z0; move to z-safe height
G0 X1299.0000 Y864.1800
M3S0
G4 P0.5; Tool On
G1 F300 Z0.0000
G1 F15000 X1.0000 Y864.1800 Z0.0000
M3S245
G4 P0.5; Tool Off

G0 Z0; move to z-safe height
G0 X1.0000 Y866.1800
M3S0
G4 P0.5; Tool On
G1 F300 Z0.0000
G1 F15000 X1299.0000 Y866.1800 Z0.0000
M3S245
G4 P0.5; Tool Off

G0 Z0; move to z-safe height
G0 X1299.0000 Y868.1800
M3S0
G4 P0.5; Tool On
G1 F300 Z0.0000
G1 F15000 X1.0000 Y868.1800 Z0.0000
M3S245
G4 P0.5; Tool Off

G0 Z0; move to z-safe height
G0 X1.0000 Y870.1800
M3S0
G4 P0.5; Tool On
G1 F300 Z0.0000
G1 F15000 X1299.0000 Y870.1800 Z0.0000
M3S245
G4 P0.5; Tool Off

G0 Z0; move to z-safe height
G0 X1299.0000 Y872.1800
M3S0
G4 P0.5; Tool On
G1 F300 Z0.0000
G1 F15000 X1.0000 Y872.1800 Z0.0000
M3S245
G4 P0.5; Tool Off

G0 Z0; move to z-safe height
G0 X1.0000 Y874.1800
M3S0
G4 P0.5; Tool On
G1 F300 Z0.0000
G1 F15000 X1299.0000 Y874.1800 Z0.0000
M3S245
G4 P0.5; Tool Off

G0 Z0; move to z-safe height
G0 X1299.0000 Y876.1800
M3S0
G4 P0.5; Tool On
G1 F300 Z0.0000
G1 F15000 X1.0000 Y876.1800 Z0.0000
M3S245
G4 P0.5; Tool Off

G0 Z0; move to z-safe height
G0 X1.0000 Y878.1800
M3S0
G4 P0.5; Tool On
G1 F300 Z0.0000
G1 F15000 X1299.0000 Y878.1800 Z0.0000
M3S245
G4 P0.5; Tool Off

G0 Z0; move to z-safe height
G0 X1299.0000 Y880.1800
M3S0
G4 P0.5; Tool On
G1 F300 Z0.0000
G1 F15000 X1.0000 Y880.1800 Z0.0000
M3S245
G4 P0.5; Tool Off

G0 Z0; move to z-safe height
G0 X1.0000 Y882.1800
M3S0
G4 P0.5; Tool On
G1 F300 Z0.0000
G1 F15000 X1299.0000 Y882.1800 Z0.0000
M3S245
G4 P0.5; Tool Off

G0 Z0; move to z-safe height
G0 X1299.0000 Y884.1800
M3S0
G4 P0.5; Tool On
G1 F300 Z0.0000
G1 F15000 X1.0000 Y884.1800 Z0.0000
M3S245
G4 P0.5; Tool Off

G0 Z0; move to z-safe height
G0 X1.0000 Y886.1800
M3S0
G4 P0.5; Tool On
G1 F300 Z0.0000
G1 F15000 X1299.0000 Y886.1800 Z0.0000
M3S245
G4 P0.5; Tool Off

G0 Z0; move to z-safe height
G0 X1299.0000 Y888.1800
M3S0
G4 P0.5; Tool On
G1 F300 Z0.0000
G1 F15000 X1.0000 Y888.1800 Z0.0000
M3S245
G4 P0.5; Tool Off

G0 Z0; move to z-safe height
G0 X1.0000 Y890.1800
M3S0
G4 P0.5; Tool On
G1 F300 Z0.0000
G1 F15000 X1299.0000 Y890.1800 Z0.0000
M3S245
G4 P0.5; Tool Off

G0 Z0; move to z-safe height
G0 X1299.0000 Y892.1800
M3S0
G4 P0.5; Tool On
G1 F300 Z0.0000
G1 F15000 X1.0000 Y892.1800 Z0.0000
M3S245
G4 P0.5; Tool Off

G0 Z0; move to z-safe height
G0 X1.0000 Y894.1800
M3S0
G4 P0.5; Tool On
G1 F300 Z0.0000
G1 F15000 X1299.0000 Y894.1800 Z0.0000
M3S245
G4 P0.5; Tool Off

G0 Z0; move to z-safe height
G0 X1299.0000 Y896.1800
M3S0
G4 P0.5; Tool On
G1 F300 Z0.0000
G1 F15000 X1.0000 Y896.1800 Z0.0000
M3S245
G4 P0.5; Tool Off

G0 Z0; move to z-safe height
G0 X1.0000 Y898.1800
M3S0
G4 P0.5; Tool On
G1 F300 Z0.0000
G1 F15000 X1299.0000 Y898.1800 Z0.0000
M3S245
G4 P0.5; Tool Off

G0 Z0; move to z-safe height
G0 X1299.0000 Y900.1800
M3S0
G4 P0.5; Tool On
G1 F300 Z0.0000
G1 F15000 X1.0000 Y900.1800 Z0.0000
M3S245
G4 P0.5; Tool Off

G0 Z0; move to z-safe height
G0 X1.0000 Y902.1800
M3S0
G4 P0.5; Tool On
G1 F300 Z0.0000
G1 F15000 X1299.0000 Y902.1800 Z0.0000
M3S245
G4 P0.5; Tool Off

G0 Z0; move to z-safe height
G0 X1299.0000 Y904.1800
M3S0
G4 P0.5; Tool On
G1 F300 Z0.0000
G1 F15000 X1.0000 Y904.1800 Z0.0000
M3S245
G4 P0.5; Tool Off

G0 Z0; move to z-safe height
G0 X1.0000 Y906.1800
M3S0
G4 P0.5; Tool On
G1 F300 Z0.0000
G1 F15000 X1299.0000 Y906.1800 Z0.0000
M3S245
G4 P0.5; Tool Off

G0 Z0; move to z-safe height
G0 X1299.0000 Y908.1800
M3S0
G4 P0.5; Tool On
G1 F300 Z0.0000
G1 F15000 X1.0000 Y908.1800 Z0.0000
M3S245
G4 P0.5; Tool Off

G0 Z0; move to z-safe height
G0 X1.0000 Y910.1800
M3S0
G4 P0.5; Tool On
G1 F300 Z0.0000
G1 F15000 X1299.0000 Y910.1800 Z0.0000
M3S245
G4 P0.5; Tool Off

G0 Z0; move to z-safe height
G0 X1299.0000 Y912.1800
M3S0
G4 P0.5; Tool On
G1 F300 Z0.0000
G1 F15000 X1.0000 Y912.1800 Z0.0000
M3S245
G4 P0.5; Tool Off

G0 Z0; move to z-safe height
G0 X1.0000 Y914.1800
M3S0
G4 P0.5; Tool On
G1 F300 Z0.0000
G1 F15000 X1299.0000 Y914.1800 Z0.0000
M3S245
G4 P0.5; Tool Off

G0 Z0; move to z-safe height
G0 X1299.0000 Y916.1800
M3S0
G4 P0.5; Tool On
G1 F300 Z0.0000
G1 F15000 X1.0000 Y916.1800 Z0.0000
M3S245
G4 P0.5; Tool Off

G0 Z0; move to z-safe height
G0 X1.0000 Y918.1800
M3S0
G4 P0.5; Tool On
G1 F300 Z0.0000
G1 F15000 X1299.0000 Y918.1800 Z0.0000
M3S245
G4 P0.5; Tool Off

G0 Z0; move to z-safe height
G0 X1299.0000 Y920.1800
M3S0
G4 P0.5; Tool On
G1 F300 Z0.0000
G1 F15000 X1.0000 Y920.1800 Z0.0000
M3S245
G4 P0.5; Tool Off

G0 Z0; move to z-safe height
G0 X1.0000 Y922.1800
M3S0
G4 P0.5; Tool On
G1 F300 Z0.0000
G1 F15000 X1299.0000 Y922.1800 Z0.0000
M3S245
G4 P0.5; Tool Off

G0 Z0; move to z-safe height
G0 X1299.0000 Y924.1800
M3S0
G4 P0.5; Tool On
G1 F300 Z0.0000
G1 F15000 X1.0000 Y924.1800 Z0.0000
M3S245
G4 P0.5; Tool Off

G0 Z0; move to z-safe height
G0 X1.0000 Y926.1800
M3S0
G4 P0.5; Tool On
G1 F300 Z0.0000
G1 F15000 X1299.0000 Y926.1800 Z0.0000
M3S245
G4 P0.5; Tool Off

G0 Z0; move to z-safe height
G0 X1299.0000 Y928.1800
M3S0
G4 P0.5; Tool On
G1 F300 Z0.0000
G1 F15000 X1.0000 Y928.1800 Z0.0000
M3S245
G4 P0.5; Tool Off

G0 Z0; move to z-safe height
G0 X1.0000 Y930.1800
M3S0
G4 P0.5; Tool On
G1 F300 Z0.0000
G1 F15000 X1299.0000 Y930.1800 Z0.0000
M3S245
G4 P0.5; Tool Off

G0 Z0; move to z-safe height
G0 X1299.0000 Y932.1800
M3S0
G4 P0.5; Tool On
G1 F300 Z0.0000
G1 F15000 X1.0000 Y932.1800 Z0.0000
M3S245
G4 P0.5; Tool Off

G0 Z0; move to z-safe height
G0 X1.0000 Y934.1800
M3S0
G4 P0.5; Tool On
G1 F300 Z0.0000
G1 F15000 X1299.0000 Y934.1800 Z0.0000
M3S245
G4 P0.5; Tool Off

G0 Z0; move to z-safe height
G0 X1299.0000 Y936.1800
M3S0
G4 P0.5; Tool On
G1 F300 Z0.0000
G1 F15000 X1.0000 Y936.1800 Z0.0000
M3S245
G4 P0.5; Tool Off

G0 Z0; move to z-safe height
G0 X1.0000 Y938.1800
M3S0
G4 P0.5; Tool On
G1 F300 Z0.0000
G1 F15000 X1299.0000 Y938.1800 Z0.0000
M3S245
G4 P0.5; Tool Off

G0 Z0; move to z-safe height
G0 X1299.0000 Y940.1800
M3S0
G4 P0.5; Tool On
G1 F300 Z0.0000
G1 F15000 X1.0000 Y940.1800 Z0.0000
M3S245
G4 P0.5; Tool Off

G0 Z0; move to z-safe height
G0 X1.0000 Y942.1800
M3S0
G4 P0.5; Tool On
G1 F300 Z0.0000
G1 F15000 X1299.0000 Y942.1800 Z0.0000
M3S245
G4 P0.5; Tool Off

G0 Z0; move to z-safe height
G0 X1299.0000 Y944.1800
M3S0
G4 P0.5; Tool On
G1 F300 Z0.0000
G1 F15000 X1.0000 Y944.1800 Z0.0000
M3S245
G4 P0.5; Tool Off

G0 Z0; move to z-safe height
G0 X1.0000 Y946.1800
M3S0
G4 P0.5; Tool On
G1 F300 Z0.0000
G1 F15000 X1299.0000 Y946.1800 Z0.0000
M3S245
G4 P0.5; Tool Off

G0 Z0; move to z-safe height
G0 X1299.0000 Y948.1800
M3S0
G4 P0.5; Tool On
G1 F300 Z0.0000
G1 F15000 X1.0000 Y948.1800 Z0.0000
M3S245
G4 P0.5; Tool Off

G0 Z0; move to z-safe height
G0 X1.0000 Y950.1800
M3S0
G4 P0.5; Tool On
G1 F300 Z0.0000
G1 F15000 X1299.0000 Y950.1800 Z0.0000
M3S245
G4 P0.5; Tool Off

G0 Z0; move to z-safe height
G0 X1299.0000 Y952.1800
M3S0
G4 P0.5; Tool On
G1 F300 Z0.0000
G1 F15000 X1.0000 Y952.1800 Z0.0000
M3S245
G4 P0.5; Tool Off

G0 Z0; move to z-safe height
G0 X1.0000 Y954.1800
M3S0
G4 P0.5; Tool On
G1 F300 Z0.0000
G1 F15000 X1299.0000 Y954.1800 Z0.0000
M3S245
G4 P0.5; Tool Off

G0 Z0; move to z-safe height
G0 X1299.0000 Y956.1800
M3S0
G4 P0.5; Tool On
G1 F300 Z0.0000
G1 F15000 X1.0000 Y956.1800 Z0.0000
M3S245
G4 P0.5; Tool Off

G0 Z0; move to z-safe height
G0 X1.0000 Y958.1800
M3S0
G4 P0.5; Tool On
G1 F300 Z0.0000
G1 F15000 X1299.0000 Y958.1800 Z0.0000
M3S245
G4 P0.5; Tool Off

G0 Z0; move to z-safe height
G0 X1299.0000 Y960.1800
M3S0
G4 P0.5; Tool On
G1 F300 Z0.0000
G1 F15000 X1.0000 Y960.1800 Z0.0000
M3S245
G4 P0.5; Tool Off

G0 Z0; move to z-safe height
G0 X1.0000 Y962.1800
M3S0
G4 P0.5; Tool On
G1 F300 Z0.0000
G1 F15000 X1299.0000 Y962.1800 Z0.0000
M3S245
G4 P0.5; Tool Off

G0 Z0; move to z-safe height
G0 X1299.0000 Y964.1800
M3S0
G4 P0.5; Tool On
G1 F300 Z0.0000
G1 F15000 X1.0000 Y964.1800 Z0.0000
M3S245
G4 P0.5; Tool Off

G0 Z0; move to z-safe height
G0 X1.0000 Y966.1800
M3S0
G4 P0.5; Tool On
G1 F300 Z0.0000
G1 F15000 X1299.0000 Y966.1800 Z0.0000
M3S245
G4 P0.5; Tool Off

G0 Z0; move to z-safe height
G0 X1299.0000 Y968.1800
M3S0
G4 P0.5; Tool On
G1 F300 Z0.0000
G1 F15000 X1.0000 Y968.1800 Z0.0000
M3S245
G4 P0.5; Tool Off

G0 Z0; move to z-safe height
G0 X1.0000 Y970.1800
M3S0
G4 P0.5; Tool On
G1 F300 Z0.0000
G1 F15000 X1299.0000 Y970.1800 Z0.0000
M3S245
G4 P0.5; Tool Off

G0 Z0; move to z-safe height
G0 X1299.0000 Y972.1800
M3S0
G4 P0.5; Tool On
G1 F300 Z0.0000
G1 F15000 X1.0000 Y972.1800 Z0.0000
M3S245
G4 P0.5; Tool Off

G0 Z0; move to z-safe height
G0 X1.0000 Y974.1800
M3S0
G4 P0.5; Tool On
G1 F300 Z0.0000
G1 F15000 X1299.0000 Y974.1800 Z0.0000
M3S245
G4 P0.5; Tool Off

G0 Z0; move to z-safe height
G0 X1299.0000 Y976.1800
M3S0
G4 P0.5; Tool On
G1 F300 Z0.0000
G1 F15000 X1.0000 Y976.1800 Z0.0000
M3S245
G4 P0.5; Tool Off

G0 Z0; move to z-safe height
G0 X1.0000 Y978.1800
M3S0
G4 P0.5; Tool On
G1 F300 Z0.0000
G1 F15000 X1299.0000 Y978.1800 Z0.0000
M3S245
G4 P0.5; Tool Off

G0 Z0; move to z-safe height
G0 X1299.0000 Y980.1800
M3S0
G4 P0.5; Tool On
G1 F300 Z0.0000
G1 F15000 X1.0000 Y980.1800 Z0.0000
M3S245
G4 P0.5; Tool Off

G0 Z0; move to z-safe height
G0 X1.0000 Y982.1800
M3S0
G4 P0.5; Tool On
G1 F300 Z0.0000
G1 F15000 X1299.0000 Y982.1800 Z0.0000
M3S245
G4 P0.5; Tool Off

G0 Z0; move to z-safe height
G0 X1299.0000 Y984.1800
M3S0
G4 P0.5; Tool On
G1 F300 Z0.0000
G1 F15000 X1.0000 Y984.1800 Z0.0000
M3S245
G4 P0.5; Tool Off

G0 Z0; move to z-safe height
G0 X1.0000 Y986.1800
M3S0
G4 P0.5; Tool On
G1 F300 Z0.0000
G1 F15000 X1299.0000 Y986.1800 Z0.0000
M3S245
G4 P0.5; Tool Off

G0 Z0; move to z-safe height
G0 X1299.0000 Y988.1800
M3S0
G4 P0.5; Tool On
G1 F300 Z0.0000
G1 F15000 X1.0000 Y988.1800 Z0.0000
M3S245
G4 P0.5; Tool Off

G0 Z0; move to z-safe height
G0 X1.0000 Y990.1800
M3S0
G4 P0.5; Tool On
G1 F300 Z0.0000
G1 F15000 X1299.0000 Y990.1800 Z0.0000
M3S245
G4 P0.5; Tool Off

G0 Z0; move to z-safe height
G0 X1299.0000 Y992.1800
M3S0
G4 P0.5; Tool On
G1 F300 Z0.0000
G1 F15000 X1.0000 Y992.1800 Z0.0000
M3S245
G4 P0.5; Tool Off

G0 Z0; move to z-safe height
G0 X1.0000 Y994.1800
M3S0
G4 P0.5; Tool On
G1 F300 Z0.0000
G1 F15000 X1299.0000 Y994.1800 Z0.0000
M3S245
G4 P0.5; Tool Off

G0 Z0; move to z-safe height
G0 X1299.0000 Y996.1800
M3S0
G4 P0.5; Tool On
G1 F300 Z0.0000
G1 F15000 X1.0000 Y996.1800 Z0.0000
M3S245
G4 P0.5; Tool Off

G0 Z0; move to z-safe height
G0 X1.0000 Y998.1800
M3S0
G4 P0.5; Tool On
G1 F300 Z0.0000
G1 F15000 X1299.0000 Y998.1800 Z0.0000
M3S245
G4 P0.5; Tool Off

G0 Z0; move to z-safe height
G0 X1299.0000 Y1000.1800
M3S0
G4 P0.5; Tool On
G1 F300 Z0.0000
G1 F15000 X1.0000 Y1000.1800 Z0.0000
M3S245
G4 P0.5; Tool Off

G0 Z0; move to z-safe height
G0 X1.0000 Y1002.1800
M3S0
G4 P0.5; Tool On
G1 F300 Z0.0000
G1 F15000 X1299.0000 Y1002.1800 Z0.0000
M3S245
G4 P0.5; Tool Off

G0 Z0; move to z-safe height
G0 X1299.0000 Y1004.1800
M3S0
G4 P0.5; Tool On
G1 F300 Z0.0000
G1 F15000 X1.0000 Y1004.1800 Z0.0000
M3S245
G4 P0.5; Tool Off

G0 Z0; move to z-safe height
G0 X1.0000 Y1006.1800
M3S0
G4 P0.5; Tool On
G1 F300 Z0.0000
G1 F15000 X1299.0000 Y1006.1800 Z0.0000
M3S245
G4 P0.5; Tool Off

G0 Z0; move to z-safe height
G0 X1299.0000 Y1008.1800
M3S0
G4 P0.5; Tool On
G1 F300 Z0.0000
G1 F15000 X1.0000 Y1008.1800 Z0.0000
M3S245
G4 P0.5; Tool Off

G0 Z0; move to z-safe height
G0 X1.0000 Y1010.1800
M3S0
G4 P0.5; Tool On
G1 F300 Z0.0000
G1 F15000 X1299.0000 Y1010.1800 Z0.0000
M3S245
G4 P0.5; Tool Off

G0 Z0; move to z-safe height
G0 X1299.0000 Y1012.1800
M3S0
G4 P0.5; Tool On
G1 F300 Z0.0000
G1 F15000 X1.0000 Y1012.1800 Z0.0000
M3S245
G4 P0.5; Tool Off

G0 Z0; move to z-safe height
G0 X1.0000 Y1014.1800
M3S0
G4 P0.5; Tool On
G1 F300 Z0.0000
G1 F15000 X1299.0000 Y1014.1800 Z0.0000
M3S245
G4 P0.5; Tool Off

G0 Z0; move to z-safe height
G0 X1299.0000 Y1016.1800
M3S0
G4 P0.5; Tool On
G1 F300 Z0.0000
G1 F15000 X1.0000 Y1016.1800 Z0.0000
M3S245
G4 P0.5; Tool Off

G0 Z0; move to z-safe height
G0 X1.0000 Y1018.1800
M3S0
G4 P0.5; Tool On
G1 F300 Z0.0000
G1 F15000 X1299.0000 Y1018.1800 Z0.0000
M3S245
G4 P0.5; Tool Off

G0 Z0; move to z-safe height
G0 X1299.0000 Y1020.1800
M3S0
G4 P0.5; Tool On
G1 F300 Z0.0000
G1 F15000 X1.0000 Y1020.1800 Z0.0000
M3S245
G4 P0.5; Tool Off

G0 Z0; move to z-safe height
G0 X1.0000 Y1022.1800
M3S0
G4 P0.5; Tool On
G1 F300 Z0.0000
G1 F15000 X1299.0000 Y1022.1800 Z0.0000
M3S245
G4 P0.5; Tool Off

G0 Z0; move to z-safe height
G0 X1299.0000 Y1024.1800
M3S0
G4 P0.5; Tool On
G1 F300 Z0.0000
G1 F15000 X1.0000 Y1024.1800 Z0.0000
M3S245
G4 P0.5; Tool Off

G0 Z0; move to z-safe height
G0 X1.0000 Y1026.1800
M3S0
G4 P0.5; Tool On
G1 F300 Z0.0000
G1 F15000 X1299.0000 Y1026.1800 Z0.0000
M3S245
G4 P0.5; Tool Off

G0 Z0; move to z-safe height
G0 X1299.0000 Y1028.1800
M3S0
G4 P0.5; Tool On
G1 F300 Z0.0000
G1 F15000 X1.0000 Y1028.1800 Z0.0000
M3S245
G4 P0.5; Tool Off

G0 Z0; move to z-safe height
G0 X1.0000 Y1030.1800
M3S0
G4 P0.5; Tool On
G1 F300 Z0.0000
G1 F15000 X1299.0000 Y1030.1800 Z0.0000
M3S245
G4 P0.5; Tool Off

G0 Z0; move to z-safe height
G0 X1299.0000 Y1032.1800
M3S0
G4 P0.5; Tool On
G1 F300 Z0.0000
G1 F15000 X1.0000 Y1032.1800 Z0.0000
M3S245
G4 P0.5; Tool Off

G0 Z0; move to z-safe height
G0 X1.0000 Y1034.1800
M3S0
G4 P0.5; Tool On
G1 F300 Z0.0000
G1 F15000 X1299.0000 Y1034.1800 Z0.0000
M3S245
G4 P0.5; Tool Off

G0 Z0; move to z-safe height
G0 X1299.0000 Y1036.1800
M3S0
G4 P0.5; Tool On
G1 F300 Z0.0000
G1 F15000 X1.0000 Y1036.1800 Z0.0000
M3S245
G4 P0.5; Tool Off

G0 Z0; move to z-safe height
G0 X1.0000 Y1038.1800
M3S0
G4 P0.5; Tool On
G1 F300 Z0.0000
G1 F15000 X1299.0000 Y1038.1800 Z0.0000
M3S245
G4 P0.5; Tool Off

G0 Z0; move to z-safe height
G0 X1299.0000 Y1040.1800
M3S0
G4 P0.5; Tool On
G1 F300 Z0.0000
G1 F15000 X1.0000 Y1040.1800 Z0.0000
M3S245
G4 P0.5; Tool Off

G0 Z0; move to z-safe height
G0 X1.0000 Y1042.1800
M3S0
G4 P0.5; Tool On
G1 F300 Z0.0000
G1 F15000 X1299.0000 Y1042.1800 Z0.0000
M3S245
G4 P0.5; Tool Off

G0 Z0; move to z-safe height
G0 X1299.0000 Y1044.1800
M3S0
G4 P0.5; Tool On
G1 F300 Z0.0000
G1 F15000 X1.0000 Y1044.1800 Z0.0000
M3S245
G4 P0.5; Tool Off

G0 Z0; move to z-safe height
G0 X1.0000 Y1046.1800
M3S0
G4 P0.5; Tool On
G1 F300 Z0.0000
G1 F15000 X1299.0000 Y1046.1800 Z0.0000
M3S245
G4 P0.5; Tool Off

G0 Z0; move to z-safe height
G0 X1299.0000 Y1048.1800
M3S0
G4 P0.5; Tool On
G1 F300 Z0.0000
G1 F15000 X1.0000 Y1048.1800 Z0.0000
M3S245
G4 P0.5; Tool Off

G0 Z0; move to z-safe height
G0 X1.0000 Y1050.1800
M3S0
G4 P0.5; Tool On
G1 F300 Z0.0000
G1 F15000 X1299.0000 Y1050.1800 Z0.0000
M3S245
G4 P0.5; Tool Off

G0 Z0; move to z-safe height
G0 X1299.0000 Y1052.1800
M3S0
G4 P0.5; Tool On
G1 F300 Z0.0000
G1 F15000 X1.0000 Y1052.1800 Z0.0000
M3S245
G4 P0.5; Tool Off

G0 Z0; move to z-safe height
G0 X1.0000 Y1054.1800
M3S0
G4 P0.5; Tool On
G1 F300 Z0.0000
G1 F15000 X1299.0000 Y1054.1800 Z0.0000
M3S245
G4 P0.5; Tool Off

G0 Z0; move to z-safe height
G0 X1299.0000 Y1056.1800
M3S0
G4 P0.5; Tool On
G1 F300 Z0.0000
G1 F15000 X1.0000 Y1056.1800 Z0.0000
M3S245
G4 P0.5; Tool Off

G0 Z0; move to z-safe height
G0 X1.0000 Y1058.1800
M3S0
G4 P0.5; Tool On
G1 F300 Z0.0000
G1 F15000 X1299.0000 Y1058.1800 Z0.0000
M3S245
G4 P0.5; Tool Off

G0 Z0; move to z-safe height
G0 X1299.0000 Y1060.1800
M3S0
G4 P0.5; Tool On
G1 F300 Z0.0000
G1 F15000 X1.0000 Y1060.1800 Z0.0000
M3S245
G4 P0.5; Tool Off

G0 Z0; move to z-safe height
G0 X1.0000 Y1062.1800
M3S0
G4 P0.5; Tool On
G1 F300 Z0.0000
G1 F15000 X1299.0000 Y1062.1800 Z0.0000
M3S245
G4 P0.5; Tool Off

G0 Z0; move to z-safe height
G0 X1299.0000 Y1064.1800
M3S0
G4 P0.5; Tool On
G1 F300 Z0.0000
G1 F15000 X1.0000 Y1064.1800 Z0.0000
M3S245
G4 P0.5; Tool Off

G0 Z0; move to z-safe height
G0 X1.0000 Y1066.1800
M3S0
G4 P0.5; Tool On
G1 F300 Z0.0000
G1 F15000 X1299.0000 Y1066.1800 Z0.0000
M3S245
G4 P0.5; Tool Off

G0 Z0; move to z-safe height
G0 X1299.0000 Y1068.1800
M3S0
G4 P0.5; Tool On
G1 F300 Z0.0000
G1 F15000 X1.0000 Y1068.1800 Z0.0000
M3S245
G4 P0.5; Tool Off

G0 Z0; move to z-safe height
G0 X1.0000 Y1070.1800
M3S0
G4 P0.5; Tool On
G1 F300 Z0.0000
G1 F15000 X1299.0000 Y1070.1800 Z0.0000
M3S245
G4 P0.5; Tool Off

G0 Z0; move to z-safe height
G0 X1299.0000 Y1072.1800
M3S0
G4 P0.5; Tool On
G1 F300 Z0.0000
G1 F15000 X1.0000 Y1072.1800 Z0.0000
M3S245
G4 P0.5; Tool Off

G0 Z0; move to z-safe height
G0 X1.0000 Y1074.1800
M3S0
G4 P0.5; Tool On
G1 F300 Z0.0000
G1 F15000 X1299.0000 Y1074.1800 Z0.0000
M3S245
G4 P0.5; Tool Off

G0 Z0; move to z-safe height
G0 X1299.0000 Y1076.1800
M3S0
G4 P0.5; Tool On
G1 F300 Z0.0000
G1 F15000 X1.0000 Y1076.1800 Z0.0000
M3S245
G4 P0.5; Tool Off

G0 Z0; move to z-safe height
G0 X1.0000 Y1078.1800
M3S0
G4 P0.5; Tool On
G1 F300 Z0.0000
G1 F15000 X1299.0000 Y1078.1800 Z0.0000
M3S245
G4 P0.5; Tool Off

G0 Z0; move to z-safe height
G0 X1299.0000 Y1080.1800
M3S0
G4 P0.5; Tool On
G1 F300 Z0.0000
G1 F15000 X1.0000 Y1080.1800 Z0.0000
M3S245
G4 P0.5; Tool Off

G0 Z0; move to z-safe height
G0 X1.0000 Y1082.1800
M3S0
G4 P0.5; Tool On
G1 F300 Z0.0000
G1 F15000 X1299.0000 Y1082.1800 Z0.0000
M3S245
G4 P0.5; Tool Off

G0 Z0; move to z-safe height
G0 X1299.0000 Y1084.1800
M3S0
G4 P0.5; Tool On
G1 F300 Z0.0000
G1 F15000 X1.0000 Y1084.1800 Z0.0000
M3S245
G4 P0.5; Tool Off

G0 Z0; move to z-safe height
G0 X1.0000 Y1086.1800
M3S0
G4 P0.5; Tool On
G1 F300 Z0.0000
G1 F15000 X1299.0000 Y1086.1800 Z0.0000
M3S245
G4 P0.5; Tool Off

G0 Z0; move to z-safe height
G0 X1299.0000 Y1088.1800
M3S0
G4 P0.5; Tool On
G1 F300 Z0.0000
G1 F15000 X1.0000 Y1088.1800 Z0.0000
M3S245
G4 P0.5; Tool Off

G0 Z0; move to z-safe height
G0 X1.0000 Y1090.1800
M3S0
G4 P0.5; Tool On
G1 F300 Z0.0000
G1 F15000 X1299.0000 Y1090.1800 Z0.0000
M3S245
G4 P0.5; Tool Off

G0 Z0; move to z-safe height
G0 X1299.0000 Y1092.1800
M3S0
G4 P0.5; Tool On
G1 F300 Z0.0000
G1 F15000 X1.0000 Y1092.1800 Z0.0000
M3S245
G4 P0.5; Tool Off

G0 Z0; move to z-safe height
G0 X1.0000 Y1094.1800
M3S0
G4 P0.5; Tool On
G1 F300 Z0.0000
G1 F15000 X1299.0000 Y1094.1800 Z0.0000
M3S245
G4 P0.5; Tool Off

G0 Z0; move to z-safe height
G0 X1299.0000 Y1096.1800
M3S0
G4 P0.5; Tool On
G1 F300 Z0.0000
G1 F15000 X1.0000 Y1096.1800 Z0.0000
M3S245
G4 P0.5; Tool Off

G0 Z0; move to z-safe height
G0 X1.0000 Y1098.1800
M3S0
G4 P0.5; Tool On
G1 F300 Z0.0000
G1 F15000 X1299.0000 Y1098.1800 Z0.0000
M3S245
G4 P0.5; Tool Off

G0 Z0; move to z-safe height
G0 X1299.0000 Y1100.1800
M3S0
G4 P0.5; Tool On
G1 F300 Z0.0000
G1 F15000 X1.0000 Y1100.1800 Z0.0000
M3S245
G4 P0.5; Tool Off

G0 Z0; move to z-safe height
G0 X1.0000 Y1102.1800
M3S0
G4 P0.5; Tool On
G1 F300 Z0.0000
G1 F15000 X1299.0000 Y1102.1800 Z0.0000
M3S245
G4 P0.5; Tool Off

G0 Z0; move to z-safe height
G0 X1299.0000 Y1104.1800
M3S0
G4 P0.5; Tool On
G1 F300 Z0.0000
G1 F15000 X1.0000 Y1104.1800 Z0.0000
M3S245
G4 P0.5; Tool Off

G0 Z0; move to z-safe height
G0 X1.0000 Y1106.1800
M3S0
G4 P0.5; Tool On
G1 F300 Z0.0000
G1 F15000 X1299.0000 Y1106.1800 Z0.0000
M3S245
G4 P0.5; Tool Off

G0 Z0; move to z-safe height
G0 X1299.0000 Y1108.1800
M3S0
G4 P0.5; Tool On
G1 F300 Z0.0000
G1 F15000 X1.0000 Y1108.1800 Z0.0000
M3S245
G4 P0.5; Tool Off

G0 Z0; move to z-safe height
G0 X1.0000 Y1110.1800
M3S0
G4 P0.5; Tool On
G1 F300 Z0.0000
G1 F15000 X1299.0000 Y1110.1800 Z0.0000
M3S245
G4 P0.5; Tool Off

G0 Z0; move to z-safe height
G0 X1299.0000 Y1112.1800
M3S0
G4 P0.5; Tool On
G1 F300 Z0.0000
G1 F15000 X1.0000 Y1112.1800 Z0.0000
M3S245
G4 P0.5; Tool Off

G0 Z0; move to z-safe height
G0 X1.0000 Y1114.1800
M3S0
G4 P0.5; Tool On
G1 F300 Z0.0000
G1 F15000 X1299.0000 Y1114.1800 Z0.0000
M3S245
G4 P0.5; Tool Off

G0 Z0; move to z-safe height
G0 X1299.0000 Y1116.1800
M3S0
G4 P0.5; Tool On
G1 F300 Z0.0000
G1 F15000 X1.0000 Y1116.1800 Z0.0000
M3S245
G4 P0.5; Tool Off

G0 Z0; move to z-safe height
G0 X1.0000 Y1118.1800
M3S0
G4 P0.5; Tool On
G1 F300 Z0.0000
G1 F15000 X1299.0000 Y1118.1800 Z0.0000
M3S245
G4 P0.5; Tool Off

G0 Z0; move to z-safe height
G0 X1299.0000 Y1120.1800
M3S0
G4 P0.5; Tool On
G1 F300 Z0.0000
G1 F15000 X1.0000 Y1120.1800 Z0.0000
M3S245
G4 P0.5; Tool Off

G0 Z0; move to z-safe height
G0 X1.0000 Y1122.1800
M3S0
G4 P0.5; Tool On
G1 F300 Z0.0000
G1 F15000 X1299.0000 Y1122.1800 Z0.0000
M3S245
G4 P0.5; Tool Off

G0 Z0; move to z-safe height
G0 X1299.0000 Y1124.1800
M3S0
G4 P0.5; Tool On
G1 F300 Z0.0000
G1 F15000 X1.0000 Y1124.1800 Z0.0000
M3S245
G4 P0.5; Tool Off

G0 Z0; move to z-safe height
G0 X1.0000 Y1126.1800
M3S0
G4 P0.5; Tool On
G1 F300 Z0.0000
G1 F15000 X1299.0000 Y1126.1800 Z0.0000
M3S245
G4 P0.5; Tool Off

G0 Z0; move to z-safe height
G0 X1299.0000 Y1128.1800
M3S0
G4 P0.5; Tool On
G1 F300 Z0.0000
G1 F15000 X1.0000 Y1128.1800 Z0.0000
M3S245
G4 P0.5; Tool Off

G0 Z0; move to z-safe height
G0 X1.0000 Y1130.1800
M3S0
G4 P0.5; Tool On
G1 F300 Z0.0000
G1 F15000 X1299.0000 Y1130.1800 Z0.0000
M3S245
G4 P0.5; Tool Off

G0 Z0; move to z-safe height
G0 X1299.0000 Y1132.1800
M3S0
G4 P0.5; Tool On
G1 F300 Z0.0000
G1 F15000 X1.0000 Y1132.1800 Z0.0000
M3S245
G4 P0.5; Tool Off

G0 Z0; move to z-safe height
G0 X1.0000 Y1134.1800
M3S0
G4 P0.5; Tool On
G1 F300 Z0.0000
G1 F15000 X1299.0000 Y1134.1800 Z0.0000
M3S245
G4 P0.5; Tool Off

G0 Z0; move to z-safe height
G0 X1299.0000 Y1136.1800
M3S0
G4 P0.5; Tool On
G1 F300 Z0.0000
G1 F15000 X1.0000 Y1136.1800 Z0.0000
M3S245
G4 P0.5; Tool Off

G0 Z0; move to z-safe height
G0 X1.0000 Y1138.1800
M3S0
G4 P0.5; Tool On
G1 F300 Z0.0000
G1 F15000 X1299.0000 Y1138.1800 Z0.0000
M3S245
G4 P0.5; Tool Off

G0 Z0; move to z-safe height
G0 X1299.0000 Y1140.1800
M3S0
G4 P0.5; Tool On
G1 F300 Z0.0000
G1 F15000 X1.0000 Y1140.1800 Z0.0000
M3S245
G4 P0.5; Tool Off

G0 Z0; move to z-safe height
G0 X1.0000 Y1142.1800
M3S0
G4 P0.5; Tool On
G1 F300 Z0.0000
G1 F15000 X1299.0000 Y1142.1800 Z0.0000
M3S245
G4 P0.5; Tool Off

G0 Z0; move to z-safe height
G0 X1299.0000 Y1144.1800
M3S0
G4 P0.5; Tool On
G1 F300 Z0.0000
G1 F15000 X1.0000 Y1144.1800 Z0.0000
M3S245
G4 P0.5; Tool Off

G0 Z0; move to z-safe height
G0 X1.0000 Y1146.1800
M3S0
G4 P0.5; Tool On
G1 F300 Z0.0000
G1 F15000 X1299.0000 Y1146.1800 Z0.0000
M3S245
G4 P0.5; Tool Off

G0 Z0; move to z-safe height
G0 X1299.0000 Y1148.1800
M3S0
G4 P0.5; Tool On
G1 F300 Z0.0000
G1 F15000 X1.0000 Y1148.1800 Z0.0000
M3S245
G4 P0.5; Tool Off

G0 Z0; move to z-safe height
G0 X1.0000 Y1150.1800
M3S0
G4 P0.5; Tool On
G1 F300 Z0.0000
G1 F15000 X1299.0000 Y1150.1800 Z0.0000
M3S245
G4 P0.5; Tool Off

G0 Z0; move to z-safe height
G0 X1299.0000 Y1152.1800
M3S0
G4 P0.5; Tool On
G1 F300 Z0.0000
G1 F15000 X1.0000 Y1152.1800 Z0.0000
M3S245
G4 P0.5; Tool Off

G0 Z0; move to z-safe height
G0 X1.0000 Y1154.1800
M3S0
G4 P0.5; Tool On
G1 F300 Z0.0000
G1 F15000 X1299.0000 Y1154.1800 Z0.0000
M3S245
G4 P0.5; Tool Off

G0 Z0; move to z-safe height
G0 X1299.0000 Y1156.1800
M3S0
G4 P0.5; Tool On
G1 F300 Z0.0000
G1 F15000 X1.0000 Y1156.1800 Z0.0000
M3S245
G4 P0.5; Tool Off

G0 Z0; move to z-safe height
G0 X1.0000 Y1158.1800
M3S0
G4 P0.5; Tool On
G1 F300 Z0.0000
G1 F15000 X1299.0000 Y1158.1800 Z0.0000
M3S245
G4 P0.5; Tool Off

G0 Z0; move to z-safe height
G0 X1299.0000 Y1160.1800
M3S0
G4 P0.5; Tool On
G1 F300 Z0.0000
G1 F15000 X1.0000 Y1160.1800 Z0.0000
M3S245
G4 P0.5; Tool Off

G0 Z0; move to z-safe height
G0 X1.0000 Y1162.1800
M3S0
G4 P0.5; Tool On
G1 F300 Z0.0000
G1 F15000 X1299.0000 Y1162.1800 Z0.0000
M3S245
G4 P0.5; Tool Off

G0 Z0; move to z-safe height
G0 X1299.0000 Y1164.1800
M3S0
G4 P0.5; Tool On
G1 F300 Z0.0000
G1 F15000 X1.0000 Y1164.1800 Z0.0000
M3S245
G4 P0.5; Tool Off

G0 Z0; move to z-safe height
G0 X1.0000 Y1166.1800
M3S0
G4 P0.5; Tool On
G1 F300 Z0.0000
G1 F15000 X1299.0000 Y1166.1800 Z0.0000
M3S245
G4 P0.5; Tool Off

G0 Z0; move to z-safe height
G0 X1299.0000 Y1168.1800
M3S0
G4 P0.5; Tool On
G1 F300 Z0.0000
G1 F15000 X1.0000 Y1168.1800 Z0.0000
M3S245
G4 P0.5; Tool Off

G0 Z0; move to z-safe height
G0 X1.0000 Y1170.1800
M3S0
G4 P0.5; Tool On
G1 F300 Z0.0000
G1 F15000 X1299.0000 Y1170.1800 Z0.0000
M3S245
G4 P0.5; Tool Off

G0 Z0; move to z-safe height
G0 X1299.0000 Y1172.1800
M3S0
G4 P0.5; Tool On
G1 F300 Z0.0000
G1 F15000 X1.0000 Y1172.1800 Z0.0000
M3S245
G4 P0.5; Tool Off

G0 Z0; move to z-safe height
G0 X1.0000 Y1174.1800
M3S0
G4 P0.5; Tool On
G1 F300 Z0.0000
G1 F15000 X1299.0000 Y1174.1800 Z0.0000
M3S245
G4 P0.5; Tool Off

G0 Z0; move to z-safe height
G0 X1299.0000 Y1176.1800
M3S0
G4 P0.5; Tool On
G1 F300 Z0.0000
G1 F15000 X1.0000 Y1176.1800 Z0.0000
M3S245
G4 P0.5; Tool Off

G0 Z0; move to z-safe height
G0 X1.0000 Y1178.1800
M3S0
G4 P0.5; Tool On
G1 F300 Z0.0000
G1 F15000 X1299.0000 Y1178.1800 Z0.0000
M3S245
G4 P0.5; Tool Off

G0 Z0; move to z-safe height
G0 X1299.0000 Y1180.1800
M3S0
G4 P0.5; Tool On
G1 F300 Z0.0000
G1 F15000 X1.0000 Y1180.1800 Z0.0000
M3S245
G4 P0.5; Tool Off

G0 Z0; move to z-safe height
G0 X1.0000 Y1182.1800
M3S0
G4 P0.5; Tool On
G1 F300 Z0.0000
G1 F15000 X1299.0000 Y1182.1800 Z0.0000
M3S245
G4 P0.5; Tool Off

G0 Z0; move to z-safe height
G0 X1299.0000 Y1184.1800
M3S0
G4 P0.5; Tool On
G1 F300 Z0.0000
G1 F15000 X1.0000 Y1184.1800 Z0.0000
M3S245
G4 P0.5; Tool Off

G0 Z0; move to z-safe height
G0 X1.0000 Y1186.1800
M3S0
G4 P0.5; Tool On
G1 F300 Z0.0000
G1 F15000 X1299.0000 Y1186.1800 Z0.0000
M3S245
G4 P0.5; Tool Off

G0 Z0; move to z-safe height
G0 X1299.0000 Y1188.1800
M3S0
G4 P0.5; Tool On
G1 F300 Z0.0000
G1 F15000 X1.0000 Y1188.1800 Z0.0000
M3S245
G4 P0.5; Tool Off

G0 Z0; move to z-safe height
G0 X1.0000 Y1190.1800
M3S0
G4 P0.5; Tool On
G1 F300 Z0.0000
G1 F15000 X1299.0000 Y1190.1800 Z0.0000
M3S245
G4 P0.5; Tool Off

G0 Z0; move to z-safe height
G0 X1299.0000 Y1192.1800
M3S0
G4 P0.5; Tool On
G1 F300 Z0.0000
G1 F15000 X1.0000 Y1192.1800 Z0.0000
M3S245
G4 P0.5; Tool Off

G0 Z0; move to z-safe height
G0 X1.0000 Y1194.1800
M3S0
G4 P0.5; Tool On
G1 F300 Z0.0000
G1 F15000 X1299.0000 Y1194.1800 Z0.0000
M3S245
G4 P0.5; Tool Off

G0 Z0; move to z-safe height
G0 X1299.0000 Y1196.1800
M3S0
G4 P0.5; Tool On
G1 F300 Z0.0000
G1 F15000 X1.0000 Y1196.1800 Z0.0000
M3S245
G4 P0.5; Tool Off

G0 Z0; move to z-safe height
G0 X1.0000 Y1198.1800
M3S0
G4 P0.5; Tool On
G1 F300 Z0.0000
G1 F15000 X1299.0000 Y1198.1800 Z0.0000
M3S245
G4 P0.5; Tool Off

G0 Z0; move to z-safe height
G0 X1299.0000 Y1200.1800
M3S0
G4 P0.5; Tool On
G1 F300 Z0.0000
G1 F15000 X1.0000 Y1200.1800 Z0.0000
M3S245
G4 P0.5; Tool Off

G0 Z0; move to z-safe height
G0 X1.0000 Y1202.1800
M3S0
G4 P0.5; Tool On
G1 F300 Z0.0000
G1 F15000 X1299.0000 Y1202.1800 Z0.0000
M3S245
G4 P0.5; Tool Off

G0 Z0; move to z-safe height
G0 X1299.0000 Y1204.1800
M3S0
G4 P0.5; Tool On
G1 F300 Z0.0000
G1 F15000 X1.0000 Y1204.1800 Z0.0000
M3S245
G4 P0.5; Tool Off

G0 Z0; move to z-safe height
G0 X1.0000 Y1206.1800
M3S0
G4 P0.5; Tool On
G1 F300 Z0.0000
G1 F15000 X1299.0000 Y1206.1800 Z0.0000
M3S245
G4 P0.5; Tool Off

G0 Z0; move to z-safe height
G0 X1299.0000 Y1208.1800
M3S0
G4 P0.5; Tool On
G1 F300 Z0.0000
G1 F15000 X1.0000 Y1208.1800 Z0.0000
M3S245
G4 P0.5; Tool Off

G0 Z0; move to z-safe height
G0 X1.0000 Y1210.1800
M3S0
G4 P0.5; Tool On
G1 F300 Z0.0000
G1 F15000 X1299.0000 Y1210.1800 Z0.0000
M3S245
G4 P0.5; Tool Off

G0 Z0; move to z-safe height
G0 X1299.0000 Y1212.1800
M3S0
G4 P0.5; Tool On
G1 F300 Z0.0000
G1 F15000 X1.0000 Y1212.1800 Z0.0000
M3S245
G4 P0.5; Tool Off

G0 Z0; move to z-safe height
G0 X1.0000 Y1214.1800
M3S0
G4 P0.5; Tool On
G1 F300 Z0.0000
G1 F15000 X1299.0000 Y1214.1800 Z0.0000
M3S245
G4 P0.5; Tool Off

G0 Z0; move to z-safe height
G0 X1299.0000 Y1216.1800
M3S0
G4 P0.5; Tool On
G1 F300 Z0.0000
G1 F15000 X1.0000 Y1216.1800 Z0.0000
M3S245
G4 P0.5; Tool Off

G0 Z0; move to z-safe height
G0 X1.0000 Y1218.1800
M3S0
G4 P0.5; Tool On
G1 F300 Z0.0000
G1 F15000 X1299.0000 Y1218.1800 Z0.0000
M3S245
G4 P0.5; Tool Off

G0 Z0; move to z-safe height
G0 X1299.0000 Y1220.1800
M3S0
G4 P0.5; Tool On
G1 F300 Z0.0000
G1 F15000 X1.0000 Y1220.1800 Z0.0000
M3S245
G4 P0.5; Tool Off

G0 Z0; move to z-safe height
G0 X1.0000 Y1222.1800
M3S0
G4 P0.5; Tool On
G1 F300 Z0.0000
G1 F15000 X1299.0000 Y1222.1800 Z0.0000
M3S245
G4 P0.5; Tool Off

G0 Z0; move to z-safe height
G0 X1299.0000 Y1224.1800
M3S0
G4 P0.5; Tool On
G1 F300 Z0.0000
G1 F15000 X1.0000 Y1224.1800 Z0.0000
M3S245
G4 P0.5; Tool Off

G0 Z0; move to z-safe height
G0 X1.0000 Y1226.1800
M3S0
G4 P0.5; Tool On
G1 F300 Z0.0000
G1 F15000 X1299.0000 Y1226.1800 Z0.0000
M3S245
G4 P0.5; Tool Off

G0 Z0; move to z-safe height
G0 X1299.0000 Y1228.1800
M3S0
G4 P0.5; Tool On
G1 F300 Z0.0000
G1 F15000 X1.0000 Y1228.1800 Z0.0000
M3S245
G4 P0.5; Tool Off

G0 Z0; move to z-safe height
G0 X1.0000 Y1230.1800
M3S0
G4 P0.5; Tool On
G1 F300 Z0.0000
G1 F15000 X1299.0000 Y1230.1800 Z0.0000
M3S245
G4 P0.5; Tool Off

G0 Z0; move to z-safe height
G0 X1299.0000 Y1232.1800
M3S0
G4 P0.5; Tool On
G1 F300 Z0.0000
G1 F15000 X1.0000 Y1232.1800 Z0.0000
M3S245
G4 P0.5; Tool Off

G0 Z0; move to z-safe height
G0 X1.0000 Y1234.1800
M3S0
G4 P0.5; Tool On
G1 F300 Z0.0000
G1 F15000 X1299.0000 Y1234.1800 Z0.0000
M3S245
G4 P0.5; Tool Off

G0 Z0; move to z-safe height
G0 X1299.0000 Y1236.1800
M3S0
G4 P0.5; Tool On
G1 F300 Z0.0000
G1 F15000 X1.0000 Y1236.1800 Z0.0000
M3S245
G4 P0.5; Tool Off

G0 Z0; move to z-safe height
G0 X1.0000 Y1238.1800
M3S0
G4 P0.5; Tool On
G1 F300 Z0.0000
G1 F15000 X1299.0000 Y1238.1800 Z0.0000
M3S245
G4 P0.5; Tool Off

G0 Z0; move to z-safe height
G0 X1299.0000 Y1240.1800
M3S0
G4 P0.5; Tool On
G1 F300 Z0.0000
G1 F15000 X1.0000 Y1240.1800 Z0.0000
M3S245
G4 P0.5; Tool Off

G0 Z0; move to z-safe height
G0 X1.0000 Y1242.1800
M3S0
G4 P0.5; Tool On
G1 F300 Z0.0000
G1 F15000 X1299.0000 Y1242.1800 Z0.0000
M3S245
G4 P0.5; Tool Off

G0 Z0; move to z-safe height
G0 X1299.0000 Y1244.1800
M3S0
G4 P0.5; Tool On
G1 F300 Z0.0000
G1 F15000 X1.0000 Y1244.1800 Z0.0000
M3S245
G4 P0.5; Tool Off

G0 Z0; move to z-safe height
G0 X1.0000 Y1246.1800
M3S0
G4 P0.5; Tool On
G1 F300 Z0.0000
G1 F15000 X1299.0000 Y1246.1800 Z0.0000
M3S245
G4 P0.5; Tool Off

G0 Z0; move to z-safe height
G0 X1299.0000 Y1248.1800
M3S0
G4 P0.5; Tool On
G1 F300 Z0.0000
G1 F15000 X1.0000 Y1248.1800 Z0.0000
M3S245
G4 P0.5; Tool Off

G0 Z0; move to z-safe height
G0 X1.0000 Y1250.1800
M3S0
G4 P0.5; Tool On
G1 F300 Z0.0000
G1 F15000 X1299.0000 Y1250.1800 Z0.0000
M3S245
G4 P0.5; Tool Off

G0 Z0; move to z-safe height
G0 X1299.0000 Y1252.1800
M3S0
G4 P0.5; Tool On
G1 F300 Z0.0000
G1 F15000 X1.0000 Y1252.1800 Z0.0000
M3S245
G4 P0.5; Tool Off

G0 Z0; move to z-safe height
G0 X1.0000 Y1254.1800
M3S0
G4 P0.5; Tool On
G1 F300 Z0.0000
G1 F15000 X1299.0000 Y1254.1800 Z0.0000
M3S245
G4 P0.5; Tool Off

G0 Z0; move to z-safe height
G0 X1299.0000 Y1256.1800
M3S0
G4 P0.5; Tool On
G1 F300 Z0.0000
G1 F15000 X1.0000 Y1256.1800 Z0.0000
M3S245
G4 P0.5; Tool Off

G0 Z0; move to z-safe height
G0 X1.0000 Y1258.1800
M3S0
G4 P0.5; Tool On
G1 F300 Z0.0000
G1 F15000 X1299.0000 Y1258.1800 Z0.0000
M3S245
G4 P0.5; Tool Off

G0 Z0; move to z-safe height
G0 X1299.0000 Y1260.1800
M3S0
G4 P0.5; Tool On
G1 F300 Z0.0000
G1 F15000 X1.0000 Y1260.1800 Z0.0000
M3S245
G4 P0.5; Tool Off

G0 Z0; move to z-safe height
G0 X1.0000 Y1262.1800
M3S0
G4 P0.5; Tool On
G1 F300 Z0.0000
G1 F15000 X1299.0000 Y1262.1800 Z0.0000
M3S245
G4 P0.5; Tool Off

G0 Z0; move to z-safe height
G0 X1299.0000 Y1264.1800
M3S0
G4 P0.5; Tool On
G1 F300 Z0.0000
G1 F15000 X1.0000 Y1264.1800 Z0.0000
M3S245
G4 P0.5; Tool Off

G0 Z0; move to z-safe height
G0 X1.0000 Y1266.1800
M3S0
G4 P0.5; Tool On
G1 F300 Z0.0000
G1 F15000 X1299.0000 Y1266.1800 Z0.0000
M3S245
G4 P0.5; Tool Off

G0 Z0; move to z-safe height
G0 X1299.0000 Y1268.1800
M3S0
G4 P0.5; Tool On
G1 F300 Z0.0000
G1 F15000 X1.0000 Y1268.1800 Z0.0000
M3S245
G4 P0.5; Tool Off

G0 Z0; move to z-safe height
G0 X1.0000 Y1270.1800
M3S0
G4 P0.5; Tool On
G1 F300 Z0.0000
G1 F15000 X1299.0000 Y1270.1800 Z0.0000
M3S245
G4 P0.5; Tool Off

G0 Z0; move to z-safe height
G0 X1299.0000 Y1272.1800
M3S0
G4 P0.5; Tool On
G1 F300 Z0.0000
G1 F15000 X1.0000 Y1272.1800 Z0.0000
M3S245
G4 P0.5; Tool Off

G0 Z0; move to z-safe height
G0 X1.0000 Y1274.1800
M3S0
G4 P0.5; Tool On
G1 F300 Z0.0000
G1 F15000 X1299.0000 Y1274.1800 Z0.0000
M3S245
G4 P0.5; Tool Off

G0 Z0; move to z-safe height
G0 X1299.0000 Y1276.1800
M3S0
G4 P0.5; Tool On
G1 F300 Z0.0000
G1 F15000 X1.0000 Y1276.1800 Z0.0000
M3S245
G4 P0.5; Tool Off

G0 Z0; move to z-safe height
G0 X1.0000 Y1278.1800
M3S0
G4 P0.5; Tool On
G1 F300 Z0.0000
G1 F15000 X1299.0000 Y1278.1800 Z0.0000
M3S245
G4 P0.5; Tool Off

G0 Z0; move to z-safe height
G0 X1299.0000 Y1280.1800
M3S0
G4 P0.5; Tool On
G1 F300 Z0.0000
G1 F15000 X1.0000 Y1280.1800 Z0.0000
M3S245
G4 P0.5; Tool Off

G0 Z0; move to z-safe height
G0 X1.0000 Y1282.1800
M3S0
G4 P0.5; Tool On
G1 F300 Z0.0000
G1 F15000 X1299.0000 Y1282.1800 Z0.0000
M3S245
G4 P0.5; Tool Off

G0 Z0; move to z-safe height
G0 X1299.0000 Y1284.1800
M3S0
G4 P0.5; Tool On
G1 F300 Z0.0000
G1 F15000 X1.0000 Y1284.1800 Z0.0000
M3S245
G4 P0.5; Tool Off

G0 Z0; move to z-safe height
G0 X1.0000 Y1286.1800
M3S0
G4 P0.5; Tool On
G1 F300 Z0.0000
G1 F15000 X1299.0000 Y1286.1800 Z0.0000
M3S245
G4 P0.5; Tool Off

G0 Z0; move to z-safe height
G0 X1299.0000 Y1288.1800
M3S0
G4 P0.5; Tool On
G1 F300 Z0.0000
G1 F15000 X1.0000 Y1288.1800 Z0.0000
M3S245
G4 P0.5; Tool Off

G0 Z0; move to z-safe height
G0 X1.0000 Y1290.1800
M3S0
G4 P0.5; Tool On
G1 F300 Z0.0000
G1 F15000 X1299.0000 Y1290.1800 Z0.0000
M3S245
G4 P0.5; Tool Off

G0 Z0; move to z-safe height
G0 X1299.0000 Y1292.1800
M3S0
G4 P0.5; Tool On
G1 F300 Z0.0000
G1 F15000 X1.0000 Y1292.1800 Z0.0000
M3S245
G4 P0.5; Tool Off

G0 Z0; move to z-safe height
G0 X1.0000 Y1294.1800
M3S0
G4 P0.5; Tool On
G1 F300 Z0.0000
G1 F15000 X1299.0000 Y1294.1800 Z0.0000
M3S245
G4 P0.5; Tool Off

G0 Z0; move to z-safe height
G0 X1299.0000 Y1296.1800
M3S0
G4 P0.5; Tool On
G1 F300 Z0.0000
G1 F15000 X1.0000 Y1296.1800 Z0.0000
M3S245
G4 P0.5; Tool Off

G0 Z0; move to z-safe height
G0 X1.0000 Y1298.1800
M3S0
G4 P0.5; Tool On
G1 F300 Z0.0000
G1 F15000 X1299.0000 Y1298.1800 Z0.0000
M3S245
G4 P0.5; Tool Off
; retracting back to z-safe
G0 Z0

; Plotter Mode Complete
