; GCODE Generated by cam.openbuilds.com on 2023-11-22 
G21 ; mm-mode
G54; Work Coordinates
G21; mm-mode
G90; Absolute Positioning
; Plotter Mode Active

; Operation 0: Pen Plotter: (lines fill)
; Pen Diameter: 2

G0 Z0; move to z-safe height
G0 F1000 X1293.0000 Y20.6600
M3S0
G4 P0.5; Tool On
G1 F300 Z0.0000
G1 F15000 X7.0000 Y20.6600 Z0.0000
M3S245
G4 P0.5; Tool Off

G0 Z0; move to z-safe height
G0 X7.0000 Y34.6600
M3S0
G4 P0.5; Tool On
G1 F300 Z0.0000
G1 F15000 X1293.0000 Y34.6600 Z0.0000
M3S245
G4 P0.5; Tool Off

G0 Z0; move to z-safe height
G0 X1293.0000 Y48.6600
M3S0
G4 P0.5; Tool On
G1 F300 Z0.0000
G1 F15000 X7.0000 Y48.6600 Z0.0000
M3S245
G4 P0.5; Tool Off

G0 Z0; move to z-safe height
G0 X7.0000 Y62.6600
M3S0
G4 P0.5; Tool On
G1 F300 Z0.0000
G1 F15000 X1293.0000 Y62.6600 Z0.0000
M3S245
G4 P0.5; Tool Off

G0 Z0; move to z-safe height
G0 X1293.0000 Y76.6600
M3S0
G4 P0.5; Tool On
G1 F300 Z0.0000
G1 F15000 X7.0000 Y76.6600 Z0.0000
M3S245
G4 P0.5; Tool Off

G0 Z0; move to z-safe height
G0 X7.0000 Y90.6600
M3S0
G4 P0.5; Tool On
G1 F300 Z0.0000
G1 F15000 X1293.0000 Y90.6600 Z0.0000
M3S245
G4 P0.5; Tool Off

G0 Z0; move to z-safe height
G0 X1293.0000 Y104.6600
M3S0
G4 P0.5; Tool On
G1 F300 Z0.0000
G1 F15000 X7.0000 Y104.6600 Z0.0000
M3S245
G4 P0.5; Tool Off

G0 Z0; move to z-safe height
G0 X7.0000 Y118.6600
M3S0
G4 P0.5; Tool On
G1 F300 Z0.0000
G1 F15000 X1293.0000 Y118.6600 Z0.0000
M3S245
G4 P0.5; Tool Off

G0 Z0; move to z-safe height
G0 X1293.0000 Y132.6600
M3S0
G4 P0.5; Tool On
G1 F300 Z0.0000
G1 F15000 X7.0000 Y132.6600 Z0.0000
M3S245
G4 P0.5; Tool Off

G0 Z0; move to z-safe height
G0 X7.0000 Y146.6600
M3S0
G4 P0.5; Tool On
G1 F300 Z0.0000
G1 F15000 X1293.0000 Y146.6600 Z0.0000
M3S245
G4 P0.5; Tool Off

G0 Z0; move to z-safe height
G0 X1293.0000 Y160.6600
M3S0
G4 P0.5; Tool On
G1 F300 Z0.0000
G1 F15000 X7.0000 Y160.6600 Z0.0000
M3S245
G4 P0.5; Tool Off

G0 Z0; move to z-safe height
G0 X7.0000 Y174.6600
M3S0
G4 P0.5; Tool On
G1 F300 Z0.0000
G1 F15000 X1293.0000 Y174.6600 Z0.0000
M3S245
G4 P0.5; Tool Off

G0 Z0; move to z-safe height
G0 X1293.0000 Y188.6600
M3S0
G4 P0.5; Tool On
G1 F300 Z0.0000
G1 F15000 X7.0000 Y188.6600 Z0.0000
M3S245
G4 P0.5; Tool Off

G0 Z0; move to z-safe height
G0 X7.0000 Y202.6600
M3S0
G4 P0.5; Tool On
G1 F300 Z0.0000
G1 F15000 X1293.0000 Y202.6600 Z0.0000
M3S245
G4 P0.5; Tool Off

G0 Z0; move to z-safe height
G0 X1293.0000 Y216.6600
M3S0
G4 P0.5; Tool On
G1 F300 Z0.0000
G1 F15000 X7.0000 Y216.6600 Z0.0000
M3S245
G4 P0.5; Tool Off

G0 Z0; move to z-safe height
G0 X7.0000 Y230.6600
M3S0
G4 P0.5; Tool On
G1 F300 Z0.0000
G1 F15000 X1293.0000 Y230.6600 Z0.0000
M3S245
G4 P0.5; Tool Off

G0 Z0; move to z-safe height
G0 X1293.0000 Y244.6600
M3S0
G4 P0.5; Tool On
G1 F300 Z0.0000
G1 F15000 X7.0000 Y244.6600 Z0.0000
M3S245
G4 P0.5; Tool Off

G0 Z0; move to z-safe height
G0 X7.0000 Y258.6600
M3S0
G4 P0.5; Tool On
G1 F300 Z0.0000
G1 F15000 X1293.0000 Y258.6600 Z0.0000
M3S245
G4 P0.5; Tool Off

G0 Z0; move to z-safe height
G0 X1293.0000 Y272.6600
M3S0
G4 P0.5; Tool On
G1 F300 Z0.0000
G1 F15000 X7.0000 Y272.6600 Z0.0000
M3S245
G4 P0.5; Tool Off

G0 Z0; move to z-safe height
G0 X7.0000 Y286.6600
M3S0
G4 P0.5; Tool On
G1 F300 Z0.0000
G1 F15000 X1293.0000 Y286.6600 Z0.0000
M3S245
G4 P0.5; Tool Off

G0 Z0; move to z-safe height
G0 X1293.0000 Y300.6600
M3S0
G4 P0.5; Tool On
G1 F300 Z0.0000
G1 F15000 X7.0000 Y300.6600 Z0.0000
M3S245
G4 P0.5; Tool Off

G0 Z0; move to z-safe height
G0 X7.0000 Y314.6600
M3S0
G4 P0.5; Tool On
G1 F300 Z0.0000
G1 F15000 X1293.0000 Y314.6600 Z0.0000
M3S245
G4 P0.5; Tool Off

G0 Z0; move to z-safe height
G0 X1293.0000 Y328.6600
M3S0
G4 P0.5; Tool On
G1 F300 Z0.0000
G1 F15000 X7.0000 Y328.6600 Z0.0000
M3S245
G4 P0.5; Tool Off

G0 Z0; move to z-safe height
G0 X7.0000 Y342.6600
M3S0
G4 P0.5; Tool On
G1 F300 Z0.0000
G1 F15000 X1293.0000 Y342.6600 Z0.0000
M3S245
G4 P0.5; Tool Off

G0 Z0; move to z-safe height
G0 X1293.0000 Y356.6600
M3S0
G4 P0.5; Tool On
G1 F300 Z0.0000
G1 F15000 X7.0000 Y356.6600 Z0.0000
M3S245
G4 P0.5; Tool Off

G0 Z0; move to z-safe height
G0 X7.0000 Y370.6600
M3S0
G4 P0.5; Tool On
G1 F300 Z0.0000
G1 F15000 X1293.0000 Y370.6600 Z0.0000
M3S245
G4 P0.5; Tool Off

G0 Z0; move to z-safe height
G0 X1293.0000 Y384.6600
M3S0
G4 P0.5; Tool On
G1 F300 Z0.0000
G1 F15000 X7.0000 Y384.6600 Z0.0000
M3S245
G4 P0.5; Tool Off

G0 Z0; move to z-safe height
G0 X7.0000 Y398.6600
M3S0
G4 P0.5; Tool On
G1 F300 Z0.0000
G1 F15000 X1293.0000 Y398.6600 Z0.0000
M3S245
G4 P0.5; Tool Off

G0 Z0; move to z-safe height
G0 X1293.0000 Y412.6600
M3S0
G4 P0.5; Tool On
G1 F300 Z0.0000
G1 F15000 X7.0000 Y412.6600 Z0.0000
M3S245
G4 P0.5; Tool Off

G0 Z0; move to z-safe height
G0 X7.0000 Y426.6600
M3S0
G4 P0.5; Tool On
G1 F300 Z0.0000
G1 F15000 X1293.0000 Y426.6600 Z0.0000
M3S245
G4 P0.5; Tool Off

G0 Z0; move to z-safe height
G0 X1293.0000 Y440.6600
M3S0
G4 P0.5; Tool On
G1 F300 Z0.0000
G1 F15000 X7.0000 Y440.6600 Z0.0000
M3S245
G4 P0.5; Tool Off

G0 Z0; move to z-safe height
G0 X7.0000 Y454.6600
M3S0
G4 P0.5; Tool On
G1 F300 Z0.0000
G1 F15000 X1293.0000 Y454.6600 Z0.0000
M3S245
G4 P0.5; Tool Off

G0 Z0; move to z-safe height
G0 X1293.0000 Y468.6600
M3S0
G4 P0.5; Tool On
G1 F300 Z0.0000
G1 F15000 X7.0000 Y468.6600 Z0.0000
M3S245
G4 P0.5; Tool Off

G0 Z0; move to z-safe height
G0 X7.0000 Y482.6600
M3S0
G4 P0.5; Tool On
G1 F300 Z0.0000
G1 F15000 X1293.0000 Y482.6600 Z0.0000
M3S245
G4 P0.5; Tool Off

G0 Z0; move to z-safe height
G0 X1293.0000 Y496.6600
M3S0
G4 P0.5; Tool On
G1 F300 Z0.0000
G1 F15000 X7.0000 Y496.6600 Z0.0000
M3S245
G4 P0.5; Tool Off

G0 Z0; move to z-safe height
G0 X7.0000 Y510.6600
M3S0
G4 P0.5; Tool On
G1 F300 Z0.0000
G1 F15000 X1293.0000 Y510.6600 Z0.0000
M3S245
G4 P0.5; Tool Off

G0 Z0; move to z-safe height
G0 X1293.0000 Y524.6600
M3S0
G4 P0.5; Tool On
G1 F300 Z0.0000
G1 F15000 X7.0000 Y524.6600 Z0.0000
M3S245
G4 P0.5; Tool Off

G0 Z0; move to z-safe height
G0 X7.0000 Y538.6600
M3S0
G4 P0.5; Tool On
G1 F300 Z0.0000
G1 F15000 X1293.0000 Y538.6600 Z0.0000
M3S245
G4 P0.5; Tool Off

G0 Z0; move to z-safe height
G0 X1293.0000 Y552.6600
M3S0
G4 P0.5; Tool On
G1 F300 Z0.0000
G1 F15000 X7.0000 Y552.6600 Z0.0000
M3S245
G4 P0.5; Tool Off

G0 Z0; move to z-safe height
G0 X7.0000 Y566.6600
M3S0
G4 P0.5; Tool On
G1 F300 Z0.0000
G1 F15000 X1293.0000 Y566.6600 Z0.0000
M3S245
G4 P0.5; Tool Off

G0 Z0; move to z-safe height
G0 X1293.0000 Y580.6600
M3S0
G4 P0.5; Tool On
G1 F300 Z0.0000
G1 F15000 X7.0000 Y580.6600 Z0.0000
M3S245
G4 P0.5; Tool Off

G0 Z0; move to z-safe height
G0 X7.0000 Y594.6600
M3S0
G4 P0.5; Tool On
G1 F300 Z0.0000
G1 F15000 X1293.0000 Y594.6600 Z0.0000
M3S245
G4 P0.5; Tool Off

G0 Z0; move to z-safe height
G0 X1293.0000 Y608.6600
M3S0
G4 P0.5; Tool On
G1 F300 Z0.0000
G1 F15000 X7.0000 Y608.6600 Z0.0000
M3S245
G4 P0.5; Tool Off

G0 Z0; move to z-safe height
G0 X7.0000 Y622.6600
M3S0
G4 P0.5; Tool On
G1 F300 Z0.0000
G1 F15000 X1293.0000 Y622.6600 Z0.0000
M3S245
G4 P0.5; Tool Off

G0 Z0; move to z-safe height
G0 X1293.0000 Y636.6600
M3S0
G4 P0.5; Tool On
G1 F300 Z0.0000
G1 F15000 X7.0000 Y636.6600 Z0.0000
M3S245
G4 P0.5; Tool Off

G0 Z0; move to z-safe height
G0 X7.0000 Y650.6600
M3S0
G4 P0.5; Tool On
G1 F300 Z0.0000
G1 F15000 X1293.0000 Y650.6600 Z0.0000
M3S245
G4 P0.5; Tool Off

G0 Z0; move to z-safe height
G0 X1293.0000 Y664.6600
M3S0
G4 P0.5; Tool On
G1 F300 Z0.0000
G1 F15000 X7.0000 Y664.6600 Z0.0000
M3S245
G4 P0.5; Tool Off

G0 Z0; move to z-safe height
G0 X7.0000 Y678.6600
M3S0
G4 P0.5; Tool On
G1 F300 Z0.0000
G1 F15000 X1293.0000 Y678.6600 Z0.0000
M3S245
G4 P0.5; Tool Off

G0 Z0; move to z-safe height
G0 X1293.0000 Y692.6600
M3S0
G4 P0.5; Tool On
G1 F300 Z0.0000
G1 F15000 X7.0000 Y692.6600 Z0.0000
M3S245
G4 P0.5; Tool Off

G0 Z0; move to z-safe height
G0 X7.0000 Y706.6600
M3S0
G4 P0.5; Tool On
G1 F300 Z0.0000
G1 F15000 X1293.0000 Y706.6600 Z0.0000
M3S245
G4 P0.5; Tool Off

G0 Z0; move to z-safe height
G0 X1293.0000 Y720.6600
M3S0
G4 P0.5; Tool On
G1 F300 Z0.0000
G1 F15000 X7.0000 Y720.6600 Z0.0000
M3S245
G4 P0.5; Tool Off

G0 Z0; move to z-safe height
G0 X7.0000 Y734.6600
M3S0
G4 P0.5; Tool On
G1 F300 Z0.0000
G1 F15000 X1293.0000 Y734.6600 Z0.0000
M3S245
G4 P0.5; Tool Off

G0 Z0; move to z-safe height
G0 X1293.0000 Y748.6600
M3S0
G4 P0.5; Tool On
G1 F300 Z0.0000
G1 F15000 X7.0000 Y748.6600 Z0.0000
M3S245
G4 P0.5; Tool Off

G0 Z0; move to z-safe height
G0 X7.0000 Y762.6600
M3S0
G4 P0.5; Tool On
G1 F300 Z0.0000
G1 F15000 X1293.0000 Y762.6600 Z0.0000
M3S245
G4 P0.5; Tool Off

G0 Z0; move to z-safe height
G0 X1293.0000 Y776.6600
M3S0
G4 P0.5; Tool On
G1 F300 Z0.0000
G1 F15000 X7.0000 Y776.6600 Z0.0000
M3S245
G4 P0.5; Tool Off

G0 Z0; move to z-safe height
G0 X7.0000 Y790.6600
M3S0
G4 P0.5; Tool On
G1 F300 Z0.0000
G1 F15000 X1293.0000 Y790.6600 Z0.0000
M3S245
G4 P0.5; Tool Off

G0 Z0; move to z-safe height
G0 X1293.0000 Y804.6600
M3S0
G4 P0.5; Tool On
G1 F300 Z0.0000
G1 F15000 X7.0000 Y804.6600 Z0.0000
M3S245
G4 P0.5; Tool Off

G0 Z0; move to z-safe height
G0 X7.0000 Y818.6600
M3S0
G4 P0.5; Tool On
G1 F300 Z0.0000
G1 F15000 X1293.0000 Y818.6600 Z0.0000
M3S245
G4 P0.5; Tool Off

G0 Z0; move to z-safe height
G0 X1293.0000 Y832.6600
M3S0
G4 P0.5; Tool On
G1 F300 Z0.0000
G1 F15000 X7.0000 Y832.6600 Z0.0000
M3S245
G4 P0.5; Tool Off

G0 Z0; move to z-safe height
G0 X7.0000 Y846.6600
M3S0
G4 P0.5; Tool On
G1 F300 Z0.0000
G1 F15000 X1293.0000 Y846.6600 Z0.0000
M3S245
G4 P0.5; Tool Off

G0 Z0; move to z-safe height
G0 X1293.0000 Y860.6600
M3S0
G4 P0.5; Tool On
G1 F300 Z0.0000
G1 F15000 X7.0000 Y860.6600 Z0.0000
M3S245
G4 P0.5; Tool Off

G0 Z0; move to z-safe height
G0 X7.0000 Y874.6600
M3S0
G4 P0.5; Tool On
G1 F300 Z0.0000
G1 F15000 X1293.0000 Y874.6600 Z0.0000
M3S245
G4 P0.5; Tool Off

G0 Z0; move to z-safe height
G0 X1293.0000 Y888.6600
M3S0
G4 P0.5; Tool On
G1 F300 Z0.0000
G1 F15000 X7.0000 Y888.6600 Z0.0000
M3S245
G4 P0.5; Tool Off

G0 Z0; move to z-safe height
G0 X7.0000 Y902.6600
M3S0
G4 P0.5; Tool On
G1 F300 Z0.0000
G1 F15000 X1293.0000 Y902.6600 Z0.0000
M3S245
G4 P0.5; Tool Off

G0 Z0; move to z-safe height
G0 X1293.0000 Y916.6600
M3S0
G4 P0.5; Tool On
G1 F300 Z0.0000
G1 F15000 X7.0000 Y916.6600 Z0.0000
M3S245
G4 P0.5; Tool Off

G0 Z0; move to z-safe height
G0 X7.0000 Y930.6600
M3S0
G4 P0.5; Tool On
G1 F300 Z0.0000
G1 F15000 X1293.0000 Y930.6600 Z0.0000
M3S245
G4 P0.5; Tool Off

G0 Z0; move to z-safe height
G0 X1293.0000 Y944.6600
M3S0
G4 P0.5; Tool On
G1 F300 Z0.0000
G1 F15000 X7.0000 Y944.6600 Z0.0000
M3S245
G4 P0.5; Tool Off

G0 Z0; move to z-safe height
G0 X7.0000 Y958.6600
M3S0
G4 P0.5; Tool On
G1 F300 Z0.0000
G1 F15000 X1293.0000 Y958.6600 Z0.0000
M3S245
G4 P0.5; Tool Off

G0 Z0; move to z-safe height
G0 X1293.0000 Y972.6600
M3S0
G4 P0.5; Tool On
G1 F300 Z0.0000
G1 F15000 X7.0000 Y972.6600 Z0.0000
M3S245
G4 P0.5; Tool Off

G0 Z0; move to z-safe height
G0 X7.0000 Y986.6600
M3S0
G4 P0.5; Tool On
G1 F300 Z0.0000
G1 F15000 X1293.0000 Y986.6600 Z0.0000
M3S245
G4 P0.5; Tool Off

G0 Z0; move to z-safe height
G0 X1293.0000 Y1000.6600
M3S0
G4 P0.5; Tool On
G1 F300 Z0.0000
G1 F15000 X7.0000 Y1000.6600 Z0.0000
M3S245
G4 P0.5; Tool Off

G0 Z0; move to z-safe height
G0 X7.0000 Y1014.6600
M3S0
G4 P0.5; Tool On
G1 F300 Z0.0000
G1 F15000 X1293.0000 Y1014.6600 Z0.0000
M3S245
G4 P0.5; Tool Off

G0 Z0; move to z-safe height
G0 X1293.0000 Y1028.6600
M3S0
G4 P0.5; Tool On
G1 F300 Z0.0000
G1 F15000 X7.0000 Y1028.6600 Z0.0000
M3S245
G4 P0.5; Tool Off

G0 Z0; move to z-safe height
G0 X7.0000 Y1042.6600
M3S0
G4 P0.5; Tool On
G1 F300 Z0.0000
G1 F15000 X1293.0000 Y1042.6600 Z0.0000
M3S245
G4 P0.5; Tool Off

G0 Z0; move to z-safe height
G0 X1293.0000 Y1056.6600
M3S0
G4 P0.5; Tool On
G1 F300 Z0.0000
G1 F15000 X7.0000 Y1056.6600 Z0.0000
M3S245
G4 P0.5; Tool Off

G0 Z0; move to z-safe height
G0 X7.0000 Y1070.6600
M3S0
G4 P0.5; Tool On
G1 F300 Z0.0000
G1 F15000 X1293.0000 Y1070.6600 Z0.0000
M3S245
G4 P0.5; Tool Off

G0 Z0; move to z-safe height
G0 X1293.0000 Y1084.6600
M3S0
G4 P0.5; Tool On
G1 F300 Z0.0000
G1 F15000 X7.0000 Y1084.6600 Z0.0000
M3S245
G4 P0.5; Tool Off

G0 Z0; move to z-safe height
G0 X7.0000 Y1098.6600
M3S0
G4 P0.5; Tool On
G1 F300 Z0.0000
G1 F15000 X1293.0000 Y1098.6600 Z0.0000
M3S245
G4 P0.5; Tool Off

G0 Z0; move to z-safe height
G0 X1293.0000 Y1112.6600
M3S0
G4 P0.5; Tool On
G1 F300 Z0.0000
G1 F15000 X7.0000 Y1112.6600 Z0.0000
M3S245
G4 P0.5; Tool Off

G0 Z0; move to z-safe height
G0 X7.0000 Y1126.6600
M3S0
G4 P0.5; Tool On
G1 F300 Z0.0000
G1 F15000 X1293.0000 Y1126.6600 Z0.0000
M3S245
G4 P0.5; Tool Off

G0 Z0; move to z-safe height
G0 X1293.0000 Y1140.6600
M3S0
G4 P0.5; Tool On
G1 F300 Z0.0000
G1 F15000 X7.0000 Y1140.6600 Z0.0000
M3S245
G4 P0.5; Tool Off

G0 Z0; move to z-safe height
G0 X7.0000 Y1154.6600
M3S0
G4 P0.5; Tool On
G1 F300 Z0.0000
G1 F15000 X1293.0000 Y1154.6600 Z0.0000
M3S245
G4 P0.5; Tool Off

G0 Z0; move to z-safe height
G0 X1293.0000 Y1168.6600
M3S0
G4 P0.5; Tool On
G1 F300 Z0.0000
G1 F15000 X7.0000 Y1168.6600 Z0.0000
M3S245
G4 P0.5; Tool Off

G0 Z0; move to z-safe height
G0 X7.0000 Y1182.6600
M3S0
G4 P0.5; Tool On
G1 F300 Z0.0000
G1 F15000 X1293.0000 Y1182.6600 Z0.0000
M3S245
G4 P0.5; Tool Off

G0 Z0; move to z-safe height
G0 X1293.0000 Y1196.6600
M3S0
G4 P0.5; Tool On
G1 F300 Z0.0000
G1 F15000 X7.0000 Y1196.6600 Z0.0000
M3S245
G4 P0.5; Tool Off

G0 Z0; move to z-safe height
G0 X7.0000 Y1210.6600
M3S0
G4 P0.5; Tool On
G1 F300 Z0.0000
G1 F15000 X1293.0000 Y1210.6600 Z0.0000
M3S245
G4 P0.5; Tool Off

G0 Z0; move to z-safe height
G0 X1293.0000 Y1224.6600
M3S0
G4 P0.5; Tool On
G1 F300 Z0.0000
G1 F15000 X7.0000 Y1224.6600 Z0.0000
M3S245
G4 P0.5; Tool Off

G0 Z0; move to z-safe height
G0 X7.0000 Y1238.6600
M3S0
G4 P0.5; Tool On
G1 F300 Z0.0000
G1 F15000 X1293.0000 Y1238.6600 Z0.0000
M3S245
G4 P0.5; Tool Off

G0 Z0; move to z-safe height
G0 X1293.0000 Y1252.6600
M3S0
G4 P0.5; Tool On
G1 F300 Z0.0000
G1 F15000 X7.0000 Y1252.6600 Z0.0000
M3S245
G4 P0.5; Tool Off

G0 Z0; move to z-safe height
G0 X7.0000 Y1266.6600
M3S0
G4 P0.5; Tool On
G1 F300 Z0.0000
G1 F15000 X1293.0000 Y1266.6600 Z0.0000
M3S245
G4 P0.5; Tool Off

G0 Z0; move to z-safe height
G0 X1293.0000 Y1280.6600
M3S0
G4 P0.5; Tool On
G1 F300 Z0.0000
G1 F15000 X7.0000 Y1280.6600 Z0.0000
M3S245
G4 P0.5; Tool Off
; retracting back to z-safe
G0 Z0

; Plotter Mode Complete
