; GCODE Generated by cam.openbuilds.com on 2023-11-22 
G21 ; mm-mode
G54; Work Coordinates
G21; mm-mode
G90; Absolute Positioning
; Plotter Mode Active

; Operation 0: Pen Plotter: (lines fill)
; Pen Diameter: 2

G0 Z0; move to z-safe height
G0 F1000 X5.0000 Y7.8300
M3S0
G4 P0.5; Tool On
G1 F300 Z0.0000
G1 F15000 X1295.0000 Y7.8300 Z0.0000
M3S245
G4 P0.5; Tool Off

G0 Z0; move to z-safe height
G0 X1295.0000 Y17.8300
M3S0
G4 P0.5; Tool On
G1 F300 Z0.0000
G1 F15000 X5.0000 Y17.8300 Z0.0000
M3S245
G4 P0.5; Tool Off

G0 Z0; move to z-safe height
G0 X5.0000 Y27.8300
M3S0
G4 P0.5; Tool On
G1 F300 Z0.0000
G1 F15000 X1295.0000 Y27.8300 Z0.0000
M3S245
G4 P0.5; Tool Off

G0 Z0; move to z-safe height
G0 X1295.0000 Y37.8300
M3S0
G4 P0.5; Tool On
G1 F300 Z0.0000
G1 F15000 X5.0000 Y37.8300 Z0.0000
M3S245
G4 P0.5; Tool Off

G0 Z0; move to z-safe height
G0 X5.0000 Y47.8300
M3S0
G4 P0.5; Tool On
G1 F300 Z0.0000
G1 F15000 X1295.0000 Y47.8300 Z0.0000
M3S245
G4 P0.5; Tool Off

G0 Z0; move to z-safe height
G0 X1295.0000 Y57.8300
M3S0
G4 P0.5; Tool On
G1 F300 Z0.0000
G1 F15000 X5.0000 Y57.8300 Z0.0000
M3S245
G4 P0.5; Tool Off

G0 Z0; move to z-safe height
G0 X5.0000 Y67.8300
M3S0
G4 P0.5; Tool On
G1 F300 Z0.0000
G1 F15000 X1295.0000 Y67.8300 Z0.0000
M3S245
G4 P0.5; Tool Off

G0 Z0; move to z-safe height
G0 X1295.0000 Y77.8300
M3S0
G4 P0.5; Tool On
G1 F300 Z0.0000
G1 F15000 X5.0000 Y77.8300 Z0.0000
M3S245
G4 P0.5; Tool Off

G0 Z0; move to z-safe height
G0 X5.0000 Y87.8300
M3S0
G4 P0.5; Tool On
G1 F300 Z0.0000
G1 F15000 X1295.0000 Y87.8300 Z0.0000
M3S245
G4 P0.5; Tool Off

G0 Z0; move to z-safe height
G0 X1295.0000 Y97.8300
M3S0
G4 P0.5; Tool On
G1 F300 Z0.0000
G1 F15000 X5.0000 Y97.8300 Z0.0000
M3S245
G4 P0.5; Tool Off

G0 Z0; move to z-safe height
G0 X5.0000 Y107.8300
M3S0
G4 P0.5; Tool On
G1 F300 Z0.0000
G1 F15000 X1295.0000 Y107.8300 Z0.0000
M3S245
G4 P0.5; Tool Off

G0 Z0; move to z-safe height
G0 X1295.0000 Y117.8300
M3S0
G4 P0.5; Tool On
G1 F300 Z0.0000
G1 F15000 X5.0000 Y117.8300 Z0.0000
M3S245
G4 P0.5; Tool Off

G0 Z0; move to z-safe height
G0 X5.0000 Y127.8300
M3S0
G4 P0.5; Tool On
G1 F300 Z0.0000
G1 F15000 X1295.0000 Y127.8300 Z0.0000
M3S245
G4 P0.5; Tool Off

G0 Z0; move to z-safe height
G0 X1295.0000 Y137.8300
M3S0
G4 P0.5; Tool On
G1 F300 Z0.0000
G1 F15000 X5.0000 Y137.8300 Z0.0000
M3S245
G4 P0.5; Tool Off

G0 Z0; move to z-safe height
G0 X5.0000 Y147.8300
M3S0
G4 P0.5; Tool On
G1 F300 Z0.0000
G1 F15000 X1295.0000 Y147.8300 Z0.0000
M3S245
G4 P0.5; Tool Off

G0 Z0; move to z-safe height
G0 X1295.0000 Y157.8300
M3S0
G4 P0.5; Tool On
G1 F300 Z0.0000
G1 F15000 X5.0000 Y157.8300 Z0.0000
M3S245
G4 P0.5; Tool Off

G0 Z0; move to z-safe height
G0 X5.0000 Y167.8300
M3S0
G4 P0.5; Tool On
G1 F300 Z0.0000
G1 F15000 X1295.0000 Y167.8300 Z0.0000
M3S245
G4 P0.5; Tool Off

G0 Z0; move to z-safe height
G0 X1295.0000 Y177.8300
M3S0
G4 P0.5; Tool On
G1 F300 Z0.0000
G1 F15000 X5.0000 Y177.8300 Z0.0000
M3S245
G4 P0.5; Tool Off

G0 Z0; move to z-safe height
G0 X5.0000 Y187.8300
M3S0
G4 P0.5; Tool On
G1 F300 Z0.0000
G1 F15000 X1295.0000 Y187.8300 Z0.0000
M3S245
G4 P0.5; Tool Off

G0 Z0; move to z-safe height
G0 X1295.0000 Y197.8300
M3S0
G4 P0.5; Tool On
G1 F300 Z0.0000
G1 F15000 X5.0000 Y197.8300 Z0.0000
M3S245
G4 P0.5; Tool Off

G0 Z0; move to z-safe height
G0 X5.0000 Y207.8300
M3S0
G4 P0.5; Tool On
G1 F300 Z0.0000
G1 F15000 X1295.0000 Y207.8300 Z0.0000
M3S245
G4 P0.5; Tool Off

G0 Z0; move to z-safe height
G0 X1295.0000 Y217.8300
M3S0
G4 P0.5; Tool On
G1 F300 Z0.0000
G1 F15000 X5.0000 Y217.8300 Z0.0000
M3S245
G4 P0.5; Tool Off

G0 Z0; move to z-safe height
G0 X5.0000 Y227.8300
M3S0
G4 P0.5; Tool On
G1 F300 Z0.0000
G1 F15000 X1295.0000 Y227.8300 Z0.0000
M3S245
G4 P0.5; Tool Off

G0 Z0; move to z-safe height
G0 X1295.0000 Y237.8300
M3S0
G4 P0.5; Tool On
G1 F300 Z0.0000
G1 F15000 X5.0000 Y237.8300 Z0.0000
M3S245
G4 P0.5; Tool Off

G0 Z0; move to z-safe height
G0 X5.0000 Y247.8300
M3S0
G4 P0.5; Tool On
G1 F300 Z0.0000
G1 F15000 X1295.0000 Y247.8300 Z0.0000
M3S245
G4 P0.5; Tool Off

G0 Z0; move to z-safe height
G0 X1295.0000 Y257.8300
M3S0
G4 P0.5; Tool On
G1 F300 Z0.0000
G1 F15000 X5.0000 Y257.8300 Z0.0000
M3S245
G4 P0.5; Tool Off

G0 Z0; move to z-safe height
G0 X5.0000 Y267.8300
M3S0
G4 P0.5; Tool On
G1 F300 Z0.0000
G1 F15000 X1295.0000 Y267.8300 Z0.0000
M3S245
G4 P0.5; Tool Off

G0 Z0; move to z-safe height
G0 X1295.0000 Y277.8300
M3S0
G4 P0.5; Tool On
G1 F300 Z0.0000
G1 F15000 X5.0000 Y277.8300 Z0.0000
M3S245
G4 P0.5; Tool Off

G0 Z0; move to z-safe height
G0 X5.0000 Y287.8300
M3S0
G4 P0.5; Tool On
G1 F300 Z0.0000
G1 F15000 X1295.0000 Y287.8300 Z0.0000
M3S245
G4 P0.5; Tool Off

G0 Z0; move to z-safe height
G0 X1295.0000 Y297.8300
M3S0
G4 P0.5; Tool On
G1 F300 Z0.0000
G1 F15000 X5.0000 Y297.8300 Z0.0000
M3S245
G4 P0.5; Tool Off

G0 Z0; move to z-safe height
G0 X5.0000 Y307.8300
M3S0
G4 P0.5; Tool On
G1 F300 Z0.0000
G1 F15000 X1295.0000 Y307.8300 Z0.0000
M3S245
G4 P0.5; Tool Off

G0 Z0; move to z-safe height
G0 X1295.0000 Y317.8300
M3S0
G4 P0.5; Tool On
G1 F300 Z0.0000
G1 F15000 X5.0000 Y317.8300 Z0.0000
M3S245
G4 P0.5; Tool Off

G0 Z0; move to z-safe height
G0 X5.0000 Y327.8300
M3S0
G4 P0.5; Tool On
G1 F300 Z0.0000
G1 F15000 X1295.0000 Y327.8300 Z0.0000
M3S245
G4 P0.5; Tool Off

G0 Z0; move to z-safe height
G0 X1295.0000 Y337.8300
M3S0
G4 P0.5; Tool On
G1 F300 Z0.0000
G1 F15000 X5.0000 Y337.8300 Z0.0000
M3S245
G4 P0.5; Tool Off

G0 Z0; move to z-safe height
G0 X5.0000 Y347.8300
M3S0
G4 P0.5; Tool On
G1 F300 Z0.0000
G1 F15000 X1295.0000 Y347.8300 Z0.0000
M3S245
G4 P0.5; Tool Off

G0 Z0; move to z-safe height
G0 X1295.0000 Y357.8300
M3S0
G4 P0.5; Tool On
G1 F300 Z0.0000
G1 F15000 X5.0000 Y357.8300 Z0.0000
M3S245
G4 P0.5; Tool Off

G0 Z0; move to z-safe height
G0 X5.0000 Y367.8300
M3S0
G4 P0.5; Tool On
G1 F300 Z0.0000
G1 F15000 X1295.0000 Y367.8300 Z0.0000
M3S245
G4 P0.5; Tool Off

G0 Z0; move to z-safe height
G0 X1295.0000 Y377.8300
M3S0
G4 P0.5; Tool On
G1 F300 Z0.0000
G1 F15000 X5.0000 Y377.8300 Z0.0000
M3S245
G4 P0.5; Tool Off

G0 Z0; move to z-safe height
G0 X5.0000 Y387.8300
M3S0
G4 P0.5; Tool On
G1 F300 Z0.0000
G1 F15000 X1295.0000 Y387.8300 Z0.0000
M3S245
G4 P0.5; Tool Off

G0 Z0; move to z-safe height
G0 X1295.0000 Y397.8300
M3S0
G4 P0.5; Tool On
G1 F300 Z0.0000
G1 F15000 X5.0000 Y397.8300 Z0.0000
M3S245
G4 P0.5; Tool Off

G0 Z0; move to z-safe height
G0 X5.0000 Y407.8300
M3S0
G4 P0.5; Tool On
G1 F300 Z0.0000
G1 F15000 X1295.0000 Y407.8300 Z0.0000
M3S245
G4 P0.5; Tool Off

G0 Z0; move to z-safe height
G0 X1295.0000 Y417.8300
M3S0
G4 P0.5; Tool On
G1 F300 Z0.0000
G1 F15000 X5.0000 Y417.8300 Z0.0000
M3S245
G4 P0.5; Tool Off

G0 Z0; move to z-safe height
G0 X5.0000 Y427.8300
M3S0
G4 P0.5; Tool On
G1 F300 Z0.0000
G1 F15000 X1295.0000 Y427.8300 Z0.0000
M3S245
G4 P0.5; Tool Off

G0 Z0; move to z-safe height
G0 X1295.0000 Y437.8300
M3S0
G4 P0.5; Tool On
G1 F300 Z0.0000
G1 F15000 X5.0000 Y437.8300 Z0.0000
M3S245
G4 P0.5; Tool Off

G0 Z0; move to z-safe height
G0 X5.0000 Y447.8300
M3S0
G4 P0.5; Tool On
G1 F300 Z0.0000
G1 F15000 X1295.0000 Y447.8300 Z0.0000
M3S245
G4 P0.5; Tool Off

G0 Z0; move to z-safe height
G0 X1295.0000 Y457.8300
M3S0
G4 P0.5; Tool On
G1 F300 Z0.0000
G1 F15000 X5.0000 Y457.8300 Z0.0000
M3S245
G4 P0.5; Tool Off

G0 Z0; move to z-safe height
G0 X5.0000 Y467.8300
M3S0
G4 P0.5; Tool On
G1 F300 Z0.0000
G1 F15000 X1295.0000 Y467.8300 Z0.0000
M3S245
G4 P0.5; Tool Off

G0 Z0; move to z-safe height
G0 X1295.0000 Y477.8300
M3S0
G4 P0.5; Tool On
G1 F300 Z0.0000
G1 F15000 X5.0000 Y477.8300 Z0.0000
M3S245
G4 P0.5; Tool Off

G0 Z0; move to z-safe height
G0 X5.0000 Y487.8300
M3S0
G4 P0.5; Tool On
G1 F300 Z0.0000
G1 F15000 X1295.0000 Y487.8300 Z0.0000
M3S245
G4 P0.5; Tool Off

G0 Z0; move to z-safe height
G0 X1295.0000 Y497.8300
M3S0
G4 P0.5; Tool On
G1 F300 Z0.0000
G1 F15000 X5.0000 Y497.8300 Z0.0000
M3S245
G4 P0.5; Tool Off

G0 Z0; move to z-safe height
G0 X5.0000 Y507.8300
M3S0
G4 P0.5; Tool On
G1 F300 Z0.0000
G1 F15000 X1295.0000 Y507.8300 Z0.0000
M3S245
G4 P0.5; Tool Off

G0 Z0; move to z-safe height
G0 X1295.0000 Y517.8300
M3S0
G4 P0.5; Tool On
G1 F300 Z0.0000
G1 F15000 X5.0000 Y517.8300 Z0.0000
M3S245
G4 P0.5; Tool Off

G0 Z0; move to z-safe height
G0 X5.0000 Y527.8300
M3S0
G4 P0.5; Tool On
G1 F300 Z0.0000
G1 F15000 X1295.0000 Y527.8300 Z0.0000
M3S245
G4 P0.5; Tool Off

G0 Z0; move to z-safe height
G0 X1295.0000 Y537.8300
M3S0
G4 P0.5; Tool On
G1 F300 Z0.0000
G1 F15000 X5.0000 Y537.8300 Z0.0000
M3S245
G4 P0.5; Tool Off

G0 Z0; move to z-safe height
G0 X5.0000 Y547.8300
M3S0
G4 P0.5; Tool On
G1 F300 Z0.0000
G1 F15000 X1295.0000 Y547.8300 Z0.0000
M3S245
G4 P0.5; Tool Off

G0 Z0; move to z-safe height
G0 X1295.0000 Y557.8300
M3S0
G4 P0.5; Tool On
G1 F300 Z0.0000
G1 F15000 X5.0000 Y557.8300 Z0.0000
M3S245
G4 P0.5; Tool Off

G0 Z0; move to z-safe height
G0 X5.0000 Y567.8300
M3S0
G4 P0.5; Tool On
G1 F300 Z0.0000
G1 F15000 X1295.0000 Y567.8300 Z0.0000
M3S245
G4 P0.5; Tool Off

G0 Z0; move to z-safe height
G0 X1295.0000 Y577.8300
M3S0
G4 P0.5; Tool On
G1 F300 Z0.0000
G1 F15000 X5.0000 Y577.8300 Z0.0000
M3S245
G4 P0.5; Tool Off

G0 Z0; move to z-safe height
G0 X5.0000 Y587.8300
M3S0
G4 P0.5; Tool On
G1 F300 Z0.0000
G1 F15000 X1295.0000 Y587.8300 Z0.0000
M3S245
G4 P0.5; Tool Off

G0 Z0; move to z-safe height
G0 X1295.0000 Y597.8300
M3S0
G4 P0.5; Tool On
G1 F300 Z0.0000
G1 F15000 X5.0000 Y597.8300 Z0.0000
M3S245
G4 P0.5; Tool Off

G0 Z0; move to z-safe height
G0 X5.0000 Y607.8300
M3S0
G4 P0.5; Tool On
G1 F300 Z0.0000
G1 F15000 X1295.0000 Y607.8300 Z0.0000
M3S245
G4 P0.5; Tool Off

G0 Z0; move to z-safe height
G0 X1295.0000 Y617.8300
M3S0
G4 P0.5; Tool On
G1 F300 Z0.0000
G1 F15000 X5.0000 Y617.8300 Z0.0000
M3S245
G4 P0.5; Tool Off

G0 Z0; move to z-safe height
G0 X5.0000 Y627.8300
M3S0
G4 P0.5; Tool On
G1 F300 Z0.0000
G1 F15000 X1295.0000 Y627.8300 Z0.0000
M3S245
G4 P0.5; Tool Off

G0 Z0; move to z-safe height
G0 X1295.0000 Y637.8300
M3S0
G4 P0.5; Tool On
G1 F300 Z0.0000
G1 F15000 X5.0000 Y637.8300 Z0.0000
M3S245
G4 P0.5; Tool Off

G0 Z0; move to z-safe height
G0 X5.0000 Y647.8300
M3S0
G4 P0.5; Tool On
G1 F300 Z0.0000
G1 F15000 X1295.0000 Y647.8300 Z0.0000
M3S245
G4 P0.5; Tool Off

G0 Z0; move to z-safe height
G0 X1295.0000 Y657.8300
M3S0
G4 P0.5; Tool On
G1 F300 Z0.0000
G1 F15000 X5.0000 Y657.8300 Z0.0000
M3S245
G4 P0.5; Tool Off

G0 Z0; move to z-safe height
G0 X5.0000 Y667.8300
M3S0
G4 P0.5; Tool On
G1 F300 Z0.0000
G1 F15000 X1295.0000 Y667.8300 Z0.0000
M3S245
G4 P0.5; Tool Off

G0 Z0; move to z-safe height
G0 X1295.0000 Y677.8300
M3S0
G4 P0.5; Tool On
G1 F300 Z0.0000
G1 F15000 X5.0000 Y677.8300 Z0.0000
M3S245
G4 P0.5; Tool Off

G0 Z0; move to z-safe height
G0 X5.0000 Y687.8300
M3S0
G4 P0.5; Tool On
G1 F300 Z0.0000
G1 F15000 X1295.0000 Y687.8300 Z0.0000
M3S245
G4 P0.5; Tool Off

G0 Z0; move to z-safe height
G0 X1295.0000 Y697.8300
M3S0
G4 P0.5; Tool On
G1 F300 Z0.0000
G1 F15000 X5.0000 Y697.8300 Z0.0000
M3S245
G4 P0.5; Tool Off

G0 Z0; move to z-safe height
G0 X5.0000 Y707.8300
M3S0
G4 P0.5; Tool On
G1 F300 Z0.0000
G1 F15000 X1295.0000 Y707.8300 Z0.0000
M3S245
G4 P0.5; Tool Off

G0 Z0; move to z-safe height
G0 X1295.0000 Y717.8300
M3S0
G4 P0.5; Tool On
G1 F300 Z0.0000
G1 F15000 X5.0000 Y717.8300 Z0.0000
M3S245
G4 P0.5; Tool Off

G0 Z0; move to z-safe height
G0 X5.0000 Y727.8300
M3S0
G4 P0.5; Tool On
G1 F300 Z0.0000
G1 F15000 X1295.0000 Y727.8300 Z0.0000
M3S245
G4 P0.5; Tool Off

G0 Z0; move to z-safe height
G0 X1295.0000 Y737.8300
M3S0
G4 P0.5; Tool On
G1 F300 Z0.0000
G1 F15000 X5.0000 Y737.8300 Z0.0000
M3S245
G4 P0.5; Tool Off

G0 Z0; move to z-safe height
G0 X5.0000 Y747.8300
M3S0
G4 P0.5; Tool On
G1 F300 Z0.0000
G1 F15000 X1295.0000 Y747.8300 Z0.0000
M3S245
G4 P0.5; Tool Off

G0 Z0; move to z-safe height
G0 X1295.0000 Y757.8300
M3S0
G4 P0.5; Tool On
G1 F300 Z0.0000
G1 F15000 X5.0000 Y757.8300 Z0.0000
M3S245
G4 P0.5; Tool Off

G0 Z0; move to z-safe height
G0 X5.0000 Y767.8300
M3S0
G4 P0.5; Tool On
G1 F300 Z0.0000
G1 F15000 X1295.0000 Y767.8300 Z0.0000
M3S245
G4 P0.5; Tool Off

G0 Z0; move to z-safe height
G0 X1295.0000 Y777.8300
M3S0
G4 P0.5; Tool On
G1 F300 Z0.0000
G1 F15000 X5.0000 Y777.8300 Z0.0000
M3S245
G4 P0.5; Tool Off

G0 Z0; move to z-safe height
G0 X5.0000 Y787.8300
M3S0
G4 P0.5; Tool On
G1 F300 Z0.0000
G1 F15000 X1295.0000 Y787.8300 Z0.0000
M3S245
G4 P0.5; Tool Off

G0 Z0; move to z-safe height
G0 X1295.0000 Y797.8300
M3S0
G4 P0.5; Tool On
G1 F300 Z0.0000
G1 F15000 X5.0000 Y797.8300 Z0.0000
M3S245
G4 P0.5; Tool Off

G0 Z0; move to z-safe height
G0 X5.0000 Y807.8300
M3S0
G4 P0.5; Tool On
G1 F300 Z0.0000
G1 F15000 X1295.0000 Y807.8300 Z0.0000
M3S245
G4 P0.5; Tool Off

G0 Z0; move to z-safe height
G0 X1295.0000 Y817.8300
M3S0
G4 P0.5; Tool On
G1 F300 Z0.0000
G1 F15000 X5.0000 Y817.8300 Z0.0000
M3S245
G4 P0.5; Tool Off

G0 Z0; move to z-safe height
G0 X5.0000 Y827.8300
M3S0
G4 P0.5; Tool On
G1 F300 Z0.0000
G1 F15000 X1295.0000 Y827.8300 Z0.0000
M3S245
G4 P0.5; Tool Off

G0 Z0; move to z-safe height
G0 X1295.0000 Y837.8300
M3S0
G4 P0.5; Tool On
G1 F300 Z0.0000
G1 F15000 X5.0000 Y837.8300 Z0.0000
M3S245
G4 P0.5; Tool Off

G0 Z0; move to z-safe height
G0 X5.0000 Y847.8300
M3S0
G4 P0.5; Tool On
G1 F300 Z0.0000
G1 F15000 X1295.0000 Y847.8300 Z0.0000
M3S245
G4 P0.5; Tool Off

G0 Z0; move to z-safe height
G0 X1295.0000 Y857.8300
M3S0
G4 P0.5; Tool On
G1 F300 Z0.0000
G1 F15000 X5.0000 Y857.8300 Z0.0000
M3S245
G4 P0.5; Tool Off

G0 Z0; move to z-safe height
G0 X5.0000 Y867.8300
M3S0
G4 P0.5; Tool On
G1 F300 Z0.0000
G1 F15000 X1295.0000 Y867.8300 Z0.0000
M3S245
G4 P0.5; Tool Off

G0 Z0; move to z-safe height
G0 X1295.0000 Y877.8300
M3S0
G4 P0.5; Tool On
G1 F300 Z0.0000
G1 F15000 X5.0000 Y877.8300 Z0.0000
M3S245
G4 P0.5; Tool Off

G0 Z0; move to z-safe height
G0 X5.0000 Y887.8300
M3S0
G4 P0.5; Tool On
G1 F300 Z0.0000
G1 F15000 X1295.0000 Y887.8300 Z0.0000
M3S245
G4 P0.5; Tool Off

G0 Z0; move to z-safe height
G0 X1295.0000 Y897.8300
M3S0
G4 P0.5; Tool On
G1 F300 Z0.0000
G1 F15000 X5.0000 Y897.8300 Z0.0000
M3S245
G4 P0.5; Tool Off

G0 Z0; move to z-safe height
G0 X5.0000 Y907.8300
M3S0
G4 P0.5; Tool On
G1 F300 Z0.0000
G1 F15000 X1295.0000 Y907.8300 Z0.0000
M3S245
G4 P0.5; Tool Off

G0 Z0; move to z-safe height
G0 X1295.0000 Y917.8300
M3S0
G4 P0.5; Tool On
G1 F300 Z0.0000
G1 F15000 X5.0000 Y917.8300 Z0.0000
M3S245
G4 P0.5; Tool Off

G0 Z0; move to z-safe height
G0 X5.0000 Y927.8300
M3S0
G4 P0.5; Tool On
G1 F300 Z0.0000
G1 F15000 X1295.0000 Y927.8300 Z0.0000
M3S245
G4 P0.5; Tool Off

G0 Z0; move to z-safe height
G0 X1295.0000 Y937.8300
M3S0
G4 P0.5; Tool On
G1 F300 Z0.0000
G1 F15000 X5.0000 Y937.8300 Z0.0000
M3S245
G4 P0.5; Tool Off

G0 Z0; move to z-safe height
G0 X5.0000 Y947.8300
M3S0
G4 P0.5; Tool On
G1 F300 Z0.0000
G1 F15000 X1295.0000 Y947.8300 Z0.0000
M3S245
G4 P0.5; Tool Off

G0 Z0; move to z-safe height
G0 X1295.0000 Y957.8300
M3S0
G4 P0.5; Tool On
G1 F300 Z0.0000
G1 F15000 X5.0000 Y957.8300 Z0.0000
M3S245
G4 P0.5; Tool Off

G0 Z0; move to z-safe height
G0 X5.0000 Y967.8300
M3S0
G4 P0.5; Tool On
G1 F300 Z0.0000
G1 F15000 X1295.0000 Y967.8300 Z0.0000
M3S245
G4 P0.5; Tool Off

G0 Z0; move to z-safe height
G0 X1295.0000 Y977.8300
M3S0
G4 P0.5; Tool On
G1 F300 Z0.0000
G1 F15000 X5.0000 Y977.8300 Z0.0000
M3S245
G4 P0.5; Tool Off

G0 Z0; move to z-safe height
G0 X5.0000 Y987.8300
M3S0
G4 P0.5; Tool On
G1 F300 Z0.0000
G1 F15000 X1295.0000 Y987.8300 Z0.0000
M3S245
G4 P0.5; Tool Off

G0 Z0; move to z-safe height
G0 X1295.0000 Y997.8300
M3S0
G4 P0.5; Tool On
G1 F300 Z0.0000
G1 F15000 X5.0000 Y997.8300 Z0.0000
M3S245
G4 P0.5; Tool Off

G0 Z0; move to z-safe height
G0 X5.0000 Y1007.8300
M3S0
G4 P0.5; Tool On
G1 F300 Z0.0000
G1 F15000 X1295.0000 Y1007.8300 Z0.0000
M3S245
G4 P0.5; Tool Off

G0 Z0; move to z-safe height
G0 X1295.0000 Y1017.8300
M3S0
G4 P0.5; Tool On
G1 F300 Z0.0000
G1 F15000 X5.0000 Y1017.8300 Z0.0000
M3S245
G4 P0.5; Tool Off

G0 Z0; move to z-safe height
G0 X5.0000 Y1027.8300
M3S0
G4 P0.5; Tool On
G1 F300 Z0.0000
G1 F15000 X1295.0000 Y1027.8300 Z0.0000
M3S245
G4 P0.5; Tool Off

G0 Z0; move to z-safe height
G0 X1295.0000 Y1037.8300
M3S0
G4 P0.5; Tool On
G1 F300 Z0.0000
G1 F15000 X5.0000 Y1037.8300 Z0.0000
M3S245
G4 P0.5; Tool Off

G0 Z0; move to z-safe height
G0 X5.0000 Y1047.8300
M3S0
G4 P0.5; Tool On
G1 F300 Z0.0000
G1 F15000 X1295.0000 Y1047.8300 Z0.0000
M3S245
G4 P0.5; Tool Off

G0 Z0; move to z-safe height
G0 X1295.0000 Y1057.8300
M3S0
G4 P0.5; Tool On
G1 F300 Z0.0000
G1 F15000 X5.0000 Y1057.8300 Z0.0000
M3S245
G4 P0.5; Tool Off

G0 Z0; move to z-safe height
G0 X5.0000 Y1067.8300
M3S0
G4 P0.5; Tool On
G1 F300 Z0.0000
G1 F15000 X1295.0000 Y1067.8300 Z0.0000
M3S245
G4 P0.5; Tool Off

G0 Z0; move to z-safe height
G0 X1295.0000 Y1077.8300
M3S0
G4 P0.5; Tool On
G1 F300 Z0.0000
G1 F15000 X5.0000 Y1077.8300 Z0.0000
M3S245
G4 P0.5; Tool Off

G0 Z0; move to z-safe height
G0 X5.0000 Y1087.8300
M3S0
G4 P0.5; Tool On
G1 F300 Z0.0000
G1 F15000 X1295.0000 Y1087.8300 Z0.0000
M3S245
G4 P0.5; Tool Off

G0 Z0; move to z-safe height
G0 X1295.0000 Y1097.8300
M3S0
G4 P0.5; Tool On
G1 F300 Z0.0000
G1 F15000 X5.0000 Y1097.8300 Z0.0000
M3S245
G4 P0.5; Tool Off

G0 Z0; move to z-safe height
G0 X5.0000 Y1107.8300
M3S0
G4 P0.5; Tool On
G1 F300 Z0.0000
G1 F15000 X1295.0000 Y1107.8300 Z0.0000
M3S245
G4 P0.5; Tool Off

G0 Z0; move to z-safe height
G0 X1295.0000 Y1117.8300
M3S0
G4 P0.5; Tool On
G1 F300 Z0.0000
G1 F15000 X5.0000 Y1117.8300 Z0.0000
M3S245
G4 P0.5; Tool Off

G0 Z0; move to z-safe height
G0 X5.0000 Y1127.8300
M3S0
G4 P0.5; Tool On
G1 F300 Z0.0000
G1 F15000 X1295.0000 Y1127.8300 Z0.0000
M3S245
G4 P0.5; Tool Off

G0 Z0; move to z-safe height
G0 X1295.0000 Y1137.8300
M3S0
G4 P0.5; Tool On
G1 F300 Z0.0000
G1 F15000 X5.0000 Y1137.8300 Z0.0000
M3S245
G4 P0.5; Tool Off

G0 Z0; move to z-safe height
G0 X5.0000 Y1147.8300
M3S0
G4 P0.5; Tool On
G1 F300 Z0.0000
G1 F15000 X1295.0000 Y1147.8300 Z0.0000
M3S245
G4 P0.5; Tool Off

G0 Z0; move to z-safe height
G0 X1295.0000 Y1157.8300
M3S0
G4 P0.5; Tool On
G1 F300 Z0.0000
G1 F15000 X5.0000 Y1157.8300 Z0.0000
M3S245
G4 P0.5; Tool Off

G0 Z0; move to z-safe height
G0 X5.0000 Y1167.8300
M3S0
G4 P0.5; Tool On
G1 F300 Z0.0000
G1 F15000 X1295.0000 Y1167.8300 Z0.0000
M3S245
G4 P0.5; Tool Off

G0 Z0; move to z-safe height
G0 X1295.0000 Y1177.8300
M3S0
G4 P0.5; Tool On
G1 F300 Z0.0000
G1 F15000 X5.0000 Y1177.8300 Z0.0000
M3S245
G4 P0.5; Tool Off

G0 Z0; move to z-safe height
G0 X5.0000 Y1187.8300
M3S0
G4 P0.5; Tool On
G1 F300 Z0.0000
G1 F15000 X1295.0000 Y1187.8300 Z0.0000
M3S245
G4 P0.5; Tool Off

G0 Z0; move to z-safe height
G0 X1295.0000 Y1197.8300
M3S0
G4 P0.5; Tool On
G1 F300 Z0.0000
G1 F15000 X5.0000 Y1197.8300 Z0.0000
M3S245
G4 P0.5; Tool Off

G0 Z0; move to z-safe height
G0 X5.0000 Y1207.8300
M3S0
G4 P0.5; Tool On
G1 F300 Z0.0000
G1 F15000 X1295.0000 Y1207.8300 Z0.0000
M3S245
G4 P0.5; Tool Off

G0 Z0; move to z-safe height
G0 X1295.0000 Y1217.8300
M3S0
G4 P0.5; Tool On
G1 F300 Z0.0000
G1 F15000 X5.0000 Y1217.8300 Z0.0000
M3S245
G4 P0.5; Tool Off

G0 Z0; move to z-safe height
G0 X5.0000 Y1227.8300
M3S0
G4 P0.5; Tool On
G1 F300 Z0.0000
G1 F15000 X1295.0000 Y1227.8300 Z0.0000
M3S245
G4 P0.5; Tool Off

G0 Z0; move to z-safe height
G0 X1295.0000 Y1237.8300
M3S0
G4 P0.5; Tool On
G1 F300 Z0.0000
G1 F15000 X5.0000 Y1237.8300 Z0.0000
M3S245
G4 P0.5; Tool Off

G0 Z0; move to z-safe height
G0 X5.0000 Y1247.8300
M3S0
G4 P0.5; Tool On
G1 F300 Z0.0000
G1 F15000 X1295.0000 Y1247.8300 Z0.0000
M3S245
G4 P0.5; Tool Off

G0 Z0; move to z-safe height
G0 X1295.0000 Y1257.8300
M3S0
G4 P0.5; Tool On
G1 F300 Z0.0000
G1 F15000 X5.0000 Y1257.8300 Z0.0000
M3S245
G4 P0.5; Tool Off

G0 Z0; move to z-safe height
G0 X5.0000 Y1267.8300
M3S0
G4 P0.5; Tool On
G1 F300 Z0.0000
G1 F15000 X1295.0000 Y1267.8300 Z0.0000
M3S245
G4 P0.5; Tool Off

G0 Z0; move to z-safe height
G0 X1295.0000 Y1277.8300
M3S0
G4 P0.5; Tool On
G1 F300 Z0.0000
G1 F15000 X5.0000 Y1277.8300 Z0.0000
M3S245
G4 P0.5; Tool Off

G0 Z0; move to z-safe height
G0 X5.0000 Y1287.8300
M3S0
G4 P0.5; Tool On
G1 F300 Z0.0000
G1 F15000 X1295.0000 Y1287.8300 Z0.0000
M3S245
G4 P0.5; Tool Off
; retracting back to z-safe
G0 Z0

; Plotter Mode Complete
