; GCODE Generated by cam.openbuilds.com on 2023-11-22 
G21 ; mm-mode
G54; Work Coordinates
G21; mm-mode
G90; Absolute Positioning
; Plotter Mode Active

; Operation 0: Pen Plotter: (lines fill)
; Pen Diameter: 2

G0 Z0; move to z-safe height
G0 F1000 X8.0000 Y14.0700
M3S0
G4 P0.5; Tool On
G1 F300 Z0.0000
G1 F15000 X1292.0000 Y14.0700 Z0.0000
M3S245
G4 P0.5; Tool Off

G0 Z0; move to z-safe height
G0 X1292.0000 Y30.0700
M3S0
G4 P0.5; Tool On
G1 F300 Z0.0000
G1 F15000 X8.0000 Y30.0700 Z0.0000
M3S245
G4 P0.5; Tool Off

G0 Z0; move to z-safe height
G0 X8.0000 Y46.0700
M3S0
G4 P0.5; Tool On
G1 F300 Z0.0000
G1 F15000 X1292.0000 Y46.0700 Z0.0000
M3S245
G4 P0.5; Tool Off

G0 Z0; move to z-safe height
G0 X1292.0000 Y62.0700
M3S0
G4 P0.5; Tool On
G1 F300 Z0.0000
G1 F15000 X8.0000 Y62.0700 Z0.0000
M3S245
G4 P0.5; Tool Off

G0 Z0; move to z-safe height
G0 X8.0000 Y78.0700
M3S0
G4 P0.5; Tool On
G1 F300 Z0.0000
G1 F15000 X1292.0000 Y78.0700 Z0.0000
M3S245
G4 P0.5; Tool Off

G0 Z0; move to z-safe height
G0 X1292.0000 Y94.0700
M3S0
G4 P0.5; Tool On
G1 F300 Z0.0000
G1 F15000 X8.0000 Y94.0700 Z0.0000
M3S245
G4 P0.5; Tool Off

G0 Z0; move to z-safe height
G0 X8.0000 Y110.0700
M3S0
G4 P0.5; Tool On
G1 F300 Z0.0000
G1 F15000 X1292.0000 Y110.0700 Z0.0000
M3S245
G4 P0.5; Tool Off

G0 Z0; move to z-safe height
G0 X1292.0000 Y126.0700
M3S0
G4 P0.5; Tool On
G1 F300 Z0.0000
G1 F15000 X8.0000 Y126.0700 Z0.0000
M3S245
G4 P0.5; Tool Off

G0 Z0; move to z-safe height
G0 X8.0000 Y142.0700
M3S0
G4 P0.5; Tool On
G1 F300 Z0.0000
G1 F15000 X1292.0000 Y142.0700 Z0.0000
M3S245
G4 P0.5; Tool Off

G0 Z0; move to z-safe height
G0 X1292.0000 Y158.0700
M3S0
G4 P0.5; Tool On
G1 F300 Z0.0000
G1 F15000 X8.0000 Y158.0700 Z0.0000
M3S245
G4 P0.5; Tool Off

G0 Z0; move to z-safe height
G0 X8.0000 Y174.0700
M3S0
G4 P0.5; Tool On
G1 F300 Z0.0000
G1 F15000 X1292.0000 Y174.0700 Z0.0000
M3S245
G4 P0.5; Tool Off

G0 Z0; move to z-safe height
G0 X1292.0000 Y190.0700
M3S0
G4 P0.5; Tool On
G1 F300 Z0.0000
G1 F15000 X8.0000 Y190.0700 Z0.0000
M3S245
G4 P0.5; Tool Off

G0 Z0; move to z-safe height
G0 X8.0000 Y206.0700
M3S0
G4 P0.5; Tool On
G1 F300 Z0.0000
G1 F15000 X1292.0000 Y206.0700 Z0.0000
M3S245
G4 P0.5; Tool Off

G0 Z0; move to z-safe height
G0 X1292.0000 Y222.0700
M3S0
G4 P0.5; Tool On
G1 F300 Z0.0000
G1 F15000 X8.0000 Y222.0700 Z0.0000
M3S245
G4 P0.5; Tool Off

G0 Z0; move to z-safe height
G0 X8.0000 Y238.0700
M3S0
G4 P0.5; Tool On
G1 F300 Z0.0000
G1 F15000 X1292.0000 Y238.0700 Z0.0000
M3S245
G4 P0.5; Tool Off

G0 Z0; move to z-safe height
G0 X1292.0000 Y254.0700
M3S0
G4 P0.5; Tool On
G1 F300 Z0.0000
G1 F15000 X8.0000 Y254.0700 Z0.0000
M3S245
G4 P0.5; Tool Off

G0 Z0; move to z-safe height
G0 X8.0000 Y270.0700
M3S0
G4 P0.5; Tool On
G1 F300 Z0.0000
G1 F15000 X1292.0000 Y270.0700 Z0.0000
M3S245
G4 P0.5; Tool Off

G0 Z0; move to z-safe height
G0 X1292.0000 Y286.0700
M3S0
G4 P0.5; Tool On
G1 F300 Z0.0000
G1 F15000 X8.0000 Y286.0700 Z0.0000
M3S245
G4 P0.5; Tool Off

G0 Z0; move to z-safe height
G0 X8.0000 Y302.0700
M3S0
G4 P0.5; Tool On
G1 F300 Z0.0000
G1 F15000 X1292.0000 Y302.0700 Z0.0000
M3S245
G4 P0.5; Tool Off

G0 Z0; move to z-safe height
G0 X1292.0000 Y318.0700
M3S0
G4 P0.5; Tool On
G1 F300 Z0.0000
G1 F15000 X8.0000 Y318.0700 Z0.0000
M3S245
G4 P0.5; Tool Off

G0 Z0; move to z-safe height
G0 X8.0000 Y334.0700
M3S0
G4 P0.5; Tool On
G1 F300 Z0.0000
G1 F15000 X1292.0000 Y334.0700 Z0.0000
M3S245
G4 P0.5; Tool Off

G0 Z0; move to z-safe height
G0 X1292.0000 Y350.0700
M3S0
G4 P0.5; Tool On
G1 F300 Z0.0000
G1 F15000 X8.0000 Y350.0700 Z0.0000
M3S245
G4 P0.5; Tool Off

G0 Z0; move to z-safe height
G0 X8.0000 Y366.0700
M3S0
G4 P0.5; Tool On
G1 F300 Z0.0000
G1 F15000 X1292.0000 Y366.0700 Z0.0000
M3S245
G4 P0.5; Tool Off

G0 Z0; move to z-safe height
G0 X1292.0000 Y382.0700
M3S0
G4 P0.5; Tool On
G1 F300 Z0.0000
G1 F15000 X8.0000 Y382.0700 Z0.0000
M3S245
G4 P0.5; Tool Off

G0 Z0; move to z-safe height
G0 X8.0000 Y398.0700
M3S0
G4 P0.5; Tool On
G1 F300 Z0.0000
G1 F15000 X1292.0000 Y398.0700 Z0.0000
M3S245
G4 P0.5; Tool Off

G0 Z0; move to z-safe height
G0 X1292.0000 Y414.0700
M3S0
G4 P0.5; Tool On
G1 F300 Z0.0000
G1 F15000 X8.0000 Y414.0700 Z0.0000
M3S245
G4 P0.5; Tool Off

G0 Z0; move to z-safe height
G0 X8.0000 Y430.0700
M3S0
G4 P0.5; Tool On
G1 F300 Z0.0000
G1 F15000 X1292.0000 Y430.0700 Z0.0000
M3S245
G4 P0.5; Tool Off

G0 Z0; move to z-safe height
G0 X1292.0000 Y446.0700
M3S0
G4 P0.5; Tool On
G1 F300 Z0.0000
G1 F15000 X8.0000 Y446.0700 Z0.0000
M3S245
G4 P0.5; Tool Off

G0 Z0; move to z-safe height
G0 X8.0000 Y462.0700
M3S0
G4 P0.5; Tool On
G1 F300 Z0.0000
G1 F15000 X1292.0000 Y462.0700 Z0.0000
M3S245
G4 P0.5; Tool Off

G0 Z0; move to z-safe height
G0 X1292.0000 Y478.0700
M3S0
G4 P0.5; Tool On
G1 F300 Z0.0000
G1 F15000 X8.0000 Y478.0700 Z0.0000
M3S245
G4 P0.5; Tool Off

G0 Z0; move to z-safe height
G0 X8.0000 Y494.0700
M3S0
G4 P0.5; Tool On
G1 F300 Z0.0000
G1 F15000 X1292.0000 Y494.0700 Z0.0000
M3S245
G4 P0.5; Tool Off

G0 Z0; move to z-safe height
G0 X1292.0000 Y510.0700
M3S0
G4 P0.5; Tool On
G1 F300 Z0.0000
G1 F15000 X8.0000 Y510.0700 Z0.0000
M3S245
G4 P0.5; Tool Off

G0 Z0; move to z-safe height
G0 X8.0000 Y526.0700
M3S0
G4 P0.5; Tool On
G1 F300 Z0.0000
G1 F15000 X1292.0000 Y526.0700 Z0.0000
M3S245
G4 P0.5; Tool Off

G0 Z0; move to z-safe height
G0 X1292.0000 Y542.0700
M3S0
G4 P0.5; Tool On
G1 F300 Z0.0000
G1 F15000 X8.0000 Y542.0700 Z0.0000
M3S245
G4 P0.5; Tool Off

G0 Z0; move to z-safe height
G0 X8.0000 Y558.0700
M3S0
G4 P0.5; Tool On
G1 F300 Z0.0000
G1 F15000 X1292.0000 Y558.0700 Z0.0000
M3S245
G4 P0.5; Tool Off

G0 Z0; move to z-safe height
G0 X1292.0000 Y574.0700
M3S0
G4 P0.5; Tool On
G1 F300 Z0.0000
G1 F15000 X8.0000 Y574.0700 Z0.0000
M3S245
G4 P0.5; Tool Off

G0 Z0; move to z-safe height
G0 X8.0000 Y590.0700
M3S0
G4 P0.5; Tool On
G1 F300 Z0.0000
G1 F15000 X1292.0000 Y590.0700 Z0.0000
M3S245
G4 P0.5; Tool Off

G0 Z0; move to z-safe height
G0 X1292.0000 Y606.0700
M3S0
G4 P0.5; Tool On
G1 F300 Z0.0000
G1 F15000 X8.0000 Y606.0700 Z0.0000
M3S245
G4 P0.5; Tool Off

G0 Z0; move to z-safe height
G0 X8.0000 Y622.0700
M3S0
G4 P0.5; Tool On
G1 F300 Z0.0000
G1 F15000 X1292.0000 Y622.0700 Z0.0000
M3S245
G4 P0.5; Tool Off

G0 Z0; move to z-safe height
G0 X1292.0000 Y638.0700
M3S0
G4 P0.5; Tool On
G1 F300 Z0.0000
G1 F15000 X8.0000 Y638.0700 Z0.0000
M3S245
G4 P0.5; Tool Off

G0 Z0; move to z-safe height
G0 X8.0000 Y654.0700
M3S0
G4 P0.5; Tool On
G1 F300 Z0.0000
G1 F15000 X1292.0000 Y654.0700 Z0.0000
M3S245
G4 P0.5; Tool Off

G0 Z0; move to z-safe height
G0 X1292.0000 Y670.0700
M3S0
G4 P0.5; Tool On
G1 F300 Z0.0000
G1 F15000 X8.0000 Y670.0700 Z0.0000
M3S245
G4 P0.5; Tool Off

G0 Z0; move to z-safe height
G0 X8.0000 Y686.0700
M3S0
G4 P0.5; Tool On
G1 F300 Z0.0000
G1 F15000 X1292.0000 Y686.0700 Z0.0000
M3S245
G4 P0.5; Tool Off

G0 Z0; move to z-safe height
G0 X1292.0000 Y702.0700
M3S0
G4 P0.5; Tool On
G1 F300 Z0.0000
G1 F15000 X8.0000 Y702.0700 Z0.0000
M3S245
G4 P0.5; Tool Off

G0 Z0; move to z-safe height
G0 X8.0000 Y718.0700
M3S0
G4 P0.5; Tool On
G1 F300 Z0.0000
G1 F15000 X1292.0000 Y718.0700 Z0.0000
M3S245
G4 P0.5; Tool Off

G0 Z0; move to z-safe height
G0 X1292.0000 Y734.0700
M3S0
G4 P0.5; Tool On
G1 F300 Z0.0000
G1 F15000 X8.0000 Y734.0700 Z0.0000
M3S245
G4 P0.5; Tool Off

G0 Z0; move to z-safe height
G0 X8.0000 Y750.0700
M3S0
G4 P0.5; Tool On
G1 F300 Z0.0000
G1 F15000 X1292.0000 Y750.0700 Z0.0000
M3S245
G4 P0.5; Tool Off

G0 Z0; move to z-safe height
G0 X1292.0000 Y766.0700
M3S0
G4 P0.5; Tool On
G1 F300 Z0.0000
G1 F15000 X8.0000 Y766.0700 Z0.0000
M3S245
G4 P0.5; Tool Off

G0 Z0; move to z-safe height
G0 X8.0000 Y782.0700
M3S0
G4 P0.5; Tool On
G1 F300 Z0.0000
G1 F15000 X1292.0000 Y782.0700 Z0.0000
M3S245
G4 P0.5; Tool Off

G0 Z0; move to z-safe height
G0 X1292.0000 Y798.0700
M3S0
G4 P0.5; Tool On
G1 F300 Z0.0000
G1 F15000 X8.0000 Y798.0700 Z0.0000
M3S245
G4 P0.5; Tool Off

G0 Z0; move to z-safe height
G0 X8.0000 Y814.0700
M3S0
G4 P0.5; Tool On
G1 F300 Z0.0000
G1 F15000 X1292.0000 Y814.0700 Z0.0000
M3S245
G4 P0.5; Tool Off

G0 Z0; move to z-safe height
G0 X1292.0000 Y830.0700
M3S0
G4 P0.5; Tool On
G1 F300 Z0.0000
G1 F15000 X8.0000 Y830.0700 Z0.0000
M3S245
G4 P0.5; Tool Off

G0 Z0; move to z-safe height
G0 X8.0000 Y846.0700
M3S0
G4 P0.5; Tool On
G1 F300 Z0.0000
G1 F15000 X1292.0000 Y846.0700 Z0.0000
M3S245
G4 P0.5; Tool Off

G0 Z0; move to z-safe height
G0 X1292.0000 Y862.0700
M3S0
G4 P0.5; Tool On
G1 F300 Z0.0000
G1 F15000 X8.0000 Y862.0700 Z0.0000
M3S245
G4 P0.5; Tool Off

G0 Z0; move to z-safe height
G0 X8.0000 Y878.0700
M3S0
G4 P0.5; Tool On
G1 F300 Z0.0000
G1 F15000 X1292.0000 Y878.0700 Z0.0000
M3S245
G4 P0.5; Tool Off

G0 Z0; move to z-safe height
G0 X1292.0000 Y894.0700
M3S0
G4 P0.5; Tool On
G1 F300 Z0.0000
G1 F15000 X8.0000 Y894.0700 Z0.0000
M3S245
G4 P0.5; Tool Off

G0 Z0; move to z-safe height
G0 X8.0000 Y910.0700
M3S0
G4 P0.5; Tool On
G1 F300 Z0.0000
G1 F15000 X1292.0000 Y910.0700 Z0.0000
M3S245
G4 P0.5; Tool Off

G0 Z0; move to z-safe height
G0 X1292.0000 Y926.0700
M3S0
G4 P0.5; Tool On
G1 F300 Z0.0000
G1 F15000 X8.0000 Y926.0700 Z0.0000
M3S245
G4 P0.5; Tool Off

G0 Z0; move to z-safe height
G0 X8.0000 Y942.0700
M3S0
G4 P0.5; Tool On
G1 F300 Z0.0000
G1 F15000 X1292.0000 Y942.0700 Z0.0000
M3S245
G4 P0.5; Tool Off

G0 Z0; move to z-safe height
G0 X1292.0000 Y958.0700
M3S0
G4 P0.5; Tool On
G1 F300 Z0.0000
G1 F15000 X8.0000 Y958.0700 Z0.0000
M3S245
G4 P0.5; Tool Off

G0 Z0; move to z-safe height
G0 X8.0000 Y974.0700
M3S0
G4 P0.5; Tool On
G1 F300 Z0.0000
G1 F15000 X1292.0000 Y974.0700 Z0.0000
M3S245
G4 P0.5; Tool Off

G0 Z0; move to z-safe height
G0 X1292.0000 Y990.0700
M3S0
G4 P0.5; Tool On
G1 F300 Z0.0000
G1 F15000 X8.0000 Y990.0700 Z0.0000
M3S245
G4 P0.5; Tool Off

G0 Z0; move to z-safe height
G0 X8.0000 Y1006.0700
M3S0
G4 P0.5; Tool On
G1 F300 Z0.0000
G1 F15000 X1292.0000 Y1006.0700 Z0.0000
M3S245
G4 P0.5; Tool Off

G0 Z0; move to z-safe height
G0 X1292.0000 Y1022.0700
M3S0
G4 P0.5; Tool On
G1 F300 Z0.0000
G1 F15000 X8.0000 Y1022.0700 Z0.0000
M3S245
G4 P0.5; Tool Off

G0 Z0; move to z-safe height
G0 X8.0000 Y1038.0700
M3S0
G4 P0.5; Tool On
G1 F300 Z0.0000
G1 F15000 X1292.0000 Y1038.0700 Z0.0000
M3S245
G4 P0.5; Tool Off

G0 Z0; move to z-safe height
G0 X1292.0000 Y1054.0700
M3S0
G4 P0.5; Tool On
G1 F300 Z0.0000
G1 F15000 X8.0000 Y1054.0700 Z0.0000
M3S245
G4 P0.5; Tool Off

G0 Z0; move to z-safe height
G0 X8.0000 Y1070.0700
M3S0
G4 P0.5; Tool On
G1 F300 Z0.0000
G1 F15000 X1292.0000 Y1070.0700 Z0.0000
M3S245
G4 P0.5; Tool Off

G0 Z0; move to z-safe height
G0 X1292.0000 Y1086.0700
M3S0
G4 P0.5; Tool On
G1 F300 Z0.0000
G1 F15000 X8.0000 Y1086.0700 Z0.0000
M3S245
G4 P0.5; Tool Off

G0 Z0; move to z-safe height
G0 X8.0000 Y1102.0700
M3S0
G4 P0.5; Tool On
G1 F300 Z0.0000
G1 F15000 X1292.0000 Y1102.0700 Z0.0000
M3S245
G4 P0.5; Tool Off

G0 Z0; move to z-safe height
G0 X1292.0000 Y1118.0700
M3S0
G4 P0.5; Tool On
G1 F300 Z0.0000
G1 F15000 X8.0000 Y1118.0700 Z0.0000
M3S245
G4 P0.5; Tool Off

G0 Z0; move to z-safe height
G0 X8.0000 Y1134.0700
M3S0
G4 P0.5; Tool On
G1 F300 Z0.0000
G1 F15000 X1292.0000 Y1134.0700 Z0.0000
M3S245
G4 P0.5; Tool Off

G0 Z0; move to z-safe height
G0 X1292.0000 Y1150.0700
M3S0
G4 P0.5; Tool On
G1 F300 Z0.0000
G1 F15000 X8.0000 Y1150.0700 Z0.0000
M3S245
G4 P0.5; Tool Off

G0 Z0; move to z-safe height
G0 X8.0000 Y1166.0700
M3S0
G4 P0.5; Tool On
G1 F300 Z0.0000
G1 F15000 X1292.0000 Y1166.0700 Z0.0000
M3S245
G4 P0.5; Tool Off

G0 Z0; move to z-safe height
G0 X1292.0000 Y1182.0700
M3S0
G4 P0.5; Tool On
G1 F300 Z0.0000
G1 F15000 X8.0000 Y1182.0700 Z0.0000
M3S245
G4 P0.5; Tool Off

G0 Z0; move to z-safe height
G0 X8.0000 Y1198.0700
M3S0
G4 P0.5; Tool On
G1 F300 Z0.0000
G1 F15000 X1292.0000 Y1198.0700 Z0.0000
M3S245
G4 P0.5; Tool Off

G0 Z0; move to z-safe height
G0 X1292.0000 Y1214.0700
M3S0
G4 P0.5; Tool On
G1 F300 Z0.0000
G1 F15000 X8.0000 Y1214.0700 Z0.0000
M3S245
G4 P0.5; Tool Off

G0 Z0; move to z-safe height
G0 X8.0000 Y1230.0700
M3S0
G4 P0.5; Tool On
G1 F300 Z0.0000
G1 F15000 X1292.0000 Y1230.0700 Z0.0000
M3S245
G4 P0.5; Tool Off

G0 Z0; move to z-safe height
G0 X1292.0000 Y1246.0700
M3S0
G4 P0.5; Tool On
G1 F300 Z0.0000
G1 F15000 X8.0000 Y1246.0700 Z0.0000
M3S245
G4 P0.5; Tool Off

G0 Z0; move to z-safe height
G0 X8.0000 Y1262.0700
M3S0
G4 P0.5; Tool On
G1 F300 Z0.0000
G1 F15000 X1292.0000 Y1262.0700 Z0.0000
M3S245
G4 P0.5; Tool Off

G0 Z0; move to z-safe height
G0 X1292.0000 Y1278.0700
M3S0
G4 P0.5; Tool On
G1 F300 Z0.0000
G1 F15000 X8.0000 Y1278.0700 Z0.0000
M3S245
G4 P0.5; Tool Off
; retracting back to z-safe
G0 Z0

; Plotter Mode Complete
