; GCODE Generated by cam.openbuilds.com on 2023-11-22 
G21 ; mm-mode
G54; Work Coordinates
G21; mm-mode
G90; Absolute Positioning
; Plotter Mode Active

; Operation 0: Pen Plotter: (lines fill)
; Pen Diameter: 2

G0 Z0; move to z-safe height
G0 F1000 X9.0000 Y13.4900
M3S0
G4 P0.5; Tool On
G1 F300 Z0.0000
G1 F15000 X1291.0000 Y13.4900 Z0.0000
M3S245
G4 P0.5; Tool Off

G0 Z0; move to z-safe height
G0 X1291.0000 Y31.4900
M3S0
G4 P0.5; Tool On
G1 F300 Z0.0000
G1 F15000 X9.0000 Y31.4900 Z0.0000
M3S245
G4 P0.5; Tool Off

G0 Z0; move to z-safe height
G0 X9.0000 Y49.4900
M3S0
G4 P0.5; Tool On
G1 F300 Z0.0000
G1 F15000 X1291.0000 Y49.4900 Z0.0000
M3S245
G4 P0.5; Tool Off

G0 Z0; move to z-safe height
G0 X1291.0000 Y67.4900
M3S0
G4 P0.5; Tool On
G1 F300 Z0.0000
G1 F15000 X9.0000 Y67.4900 Z0.0000
M3S245
G4 P0.5; Tool Off

G0 Z0; move to z-safe height
G0 X9.0000 Y85.4900
M3S0
G4 P0.5; Tool On
G1 F300 Z0.0000
G1 F15000 X1291.0000 Y85.4900 Z0.0000
M3S245
G4 P0.5; Tool Off

G0 Z0; move to z-safe height
G0 X1291.0000 Y103.4900
M3S0
G4 P0.5; Tool On
G1 F300 Z0.0000
G1 F15000 X9.0000 Y103.4900 Z0.0000
M3S245
G4 P0.5; Tool Off

G0 Z0; move to z-safe height
G0 X9.0000 Y121.4900
M3S0
G4 P0.5; Tool On
G1 F300 Z0.0000
G1 F15000 X1291.0000 Y121.4900 Z0.0000
M3S245
G4 P0.5; Tool Off

G0 Z0; move to z-safe height
G0 X1291.0000 Y139.4900
M3S0
G4 P0.5; Tool On
G1 F300 Z0.0000
G1 F15000 X9.0000 Y139.4900 Z0.0000
M3S245
G4 P0.5; Tool Off

G0 Z0; move to z-safe height
G0 X9.0000 Y157.4900
M3S0
G4 P0.5; Tool On
G1 F300 Z0.0000
G1 F15000 X1291.0000 Y157.4900 Z0.0000
M3S245
G4 P0.5; Tool Off

G0 Z0; move to z-safe height
G0 X1291.0000 Y175.4900
M3S0
G4 P0.5; Tool On
G1 F300 Z0.0000
G1 F15000 X9.0000 Y175.4900 Z0.0000
M3S245
G4 P0.5; Tool Off

G0 Z0; move to z-safe height
G0 X9.0000 Y193.4900
M3S0
G4 P0.5; Tool On
G1 F300 Z0.0000
G1 F15000 X1291.0000 Y193.4900 Z0.0000
M3S245
G4 P0.5; Tool Off

G0 Z0; move to z-safe height
G0 X1291.0000 Y211.4900
M3S0
G4 P0.5; Tool On
G1 F300 Z0.0000
G1 F15000 X9.0000 Y211.4900 Z0.0000
M3S245
G4 P0.5; Tool Off

G0 Z0; move to z-safe height
G0 X9.0000 Y229.4900
M3S0
G4 P0.5; Tool On
G1 F300 Z0.0000
G1 F15000 X1291.0000 Y229.4900 Z0.0000
M3S245
G4 P0.5; Tool Off

G0 Z0; move to z-safe height
G0 X1291.0000 Y247.4900
M3S0
G4 P0.5; Tool On
G1 F300 Z0.0000
G1 F15000 X9.0000 Y247.4900 Z0.0000
M3S245
G4 P0.5; Tool Off

G0 Z0; move to z-safe height
G0 X9.0000 Y265.4900
M3S0
G4 P0.5; Tool On
G1 F300 Z0.0000
G1 F15000 X1291.0000 Y265.4900 Z0.0000
M3S245
G4 P0.5; Tool Off

G0 Z0; move to z-safe height
G0 X1291.0000 Y283.4900
M3S0
G4 P0.5; Tool On
G1 F300 Z0.0000
G1 F15000 X9.0000 Y283.4900 Z0.0000
M3S245
G4 P0.5; Tool Off

G0 Z0; move to z-safe height
G0 X9.0000 Y301.4900
M3S0
G4 P0.5; Tool On
G1 F300 Z0.0000
G1 F15000 X1291.0000 Y301.4900 Z0.0000
M3S245
G4 P0.5; Tool Off

G0 Z0; move to z-safe height
G0 X1291.0000 Y319.4900
M3S0
G4 P0.5; Tool On
G1 F300 Z0.0000
G1 F15000 X9.0000 Y319.4900 Z0.0000
M3S245
G4 P0.5; Tool Off

G0 Z0; move to z-safe height
G0 X9.0000 Y337.4900
M3S0
G4 P0.5; Tool On
G1 F300 Z0.0000
G1 F15000 X1291.0000 Y337.4900 Z0.0000
M3S245
G4 P0.5; Tool Off

G0 Z0; move to z-safe height
G0 X1291.0000 Y355.4900
M3S0
G4 P0.5; Tool On
G1 F300 Z0.0000
G1 F15000 X9.0000 Y355.4900 Z0.0000
M3S245
G4 P0.5; Tool Off

G0 Z0; move to z-safe height
G0 X9.0000 Y373.4900
M3S0
G4 P0.5; Tool On
G1 F300 Z0.0000
G1 F15000 X1291.0000 Y373.4900 Z0.0000
M3S245
G4 P0.5; Tool Off

G0 Z0; move to z-safe height
G0 X1291.0000 Y391.4900
M3S0
G4 P0.5; Tool On
G1 F300 Z0.0000
G1 F15000 X9.0000 Y391.4900 Z0.0000
M3S245
G4 P0.5; Tool Off

G0 Z0; move to z-safe height
G0 X9.0000 Y409.4900
M3S0
G4 P0.5; Tool On
G1 F300 Z0.0000
G1 F15000 X1291.0000 Y409.4900 Z0.0000
M3S245
G4 P0.5; Tool Off

G0 Z0; move to z-safe height
G0 X1291.0000 Y427.4900
M3S0
G4 P0.5; Tool On
G1 F300 Z0.0000
G1 F15000 X9.0000 Y427.4900 Z0.0000
M3S245
G4 P0.5; Tool Off

G0 Z0; move to z-safe height
G0 X9.0000 Y445.4900
M3S0
G4 P0.5; Tool On
G1 F300 Z0.0000
G1 F15000 X1291.0000 Y445.4900 Z0.0000
M3S245
G4 P0.5; Tool Off

G0 Z0; move to z-safe height
G0 X1291.0000 Y463.4900
M3S0
G4 P0.5; Tool On
G1 F300 Z0.0000
G1 F15000 X9.0000 Y463.4900 Z0.0000
M3S245
G4 P0.5; Tool Off

G0 Z0; move to z-safe height
G0 X9.0000 Y481.4900
M3S0
G4 P0.5; Tool On
G1 F300 Z0.0000
G1 F15000 X1291.0000 Y481.4900 Z0.0000
M3S245
G4 P0.5; Tool Off

G0 Z0; move to z-safe height
G0 X1291.0000 Y499.4900
M3S0
G4 P0.5; Tool On
G1 F300 Z0.0000
G1 F15000 X9.0000 Y499.4900 Z0.0000
M3S245
G4 P0.5; Tool Off

G0 Z0; move to z-safe height
G0 X9.0000 Y517.4900
M3S0
G4 P0.5; Tool On
G1 F300 Z0.0000
G1 F15000 X1291.0000 Y517.4900 Z0.0000
M3S245
G4 P0.5; Tool Off

G0 Z0; move to z-safe height
G0 X1291.0000 Y535.4900
M3S0
G4 P0.5; Tool On
G1 F300 Z0.0000
G1 F15000 X9.0000 Y535.4900 Z0.0000
M3S245
G4 P0.5; Tool Off

G0 Z0; move to z-safe height
G0 X9.0000 Y553.4900
M3S0
G4 P0.5; Tool On
G1 F300 Z0.0000
G1 F15000 X1291.0000 Y553.4900 Z0.0000
M3S245
G4 P0.5; Tool Off

G0 Z0; move to z-safe height
G0 X1291.0000 Y571.4900
M3S0
G4 P0.5; Tool On
G1 F300 Z0.0000
G1 F15000 X9.0000 Y571.4900 Z0.0000
M3S245
G4 P0.5; Tool Off

G0 Z0; move to z-safe height
G0 X9.0000 Y589.4900
M3S0
G4 P0.5; Tool On
G1 F300 Z0.0000
G1 F15000 X1291.0000 Y589.4900 Z0.0000
M3S245
G4 P0.5; Tool Off

G0 Z0; move to z-safe height
G0 X1291.0000 Y607.4900
M3S0
G4 P0.5; Tool On
G1 F300 Z0.0000
G1 F15000 X9.0000 Y607.4900 Z0.0000
M3S245
G4 P0.5; Tool Off

G0 Z0; move to z-safe height
G0 X9.0000 Y625.4900
M3S0
G4 P0.5; Tool On
G1 F300 Z0.0000
G1 F15000 X1291.0000 Y625.4900 Z0.0000
M3S245
G4 P0.5; Tool Off

G0 Z0; move to z-safe height
G0 X1291.0000 Y643.4900
M3S0
G4 P0.5; Tool On
G1 F300 Z0.0000
G1 F15000 X9.0000 Y643.4900 Z0.0000
M3S245
G4 P0.5; Tool Off

G0 Z0; move to z-safe height
G0 X9.0000 Y661.4900
M3S0
G4 P0.5; Tool On
G1 F300 Z0.0000
G1 F15000 X1291.0000 Y661.4900 Z0.0000
M3S245
G4 P0.5; Tool Off

G0 Z0; move to z-safe height
G0 X1291.0000 Y679.4900
M3S0
G4 P0.5; Tool On
G1 F300 Z0.0000
G1 F15000 X9.0000 Y679.4900 Z0.0000
M3S245
G4 P0.5; Tool Off

G0 Z0; move to z-safe height
G0 X9.0000 Y697.4900
M3S0
G4 P0.5; Tool On
G1 F300 Z0.0000
G1 F15000 X1291.0000 Y697.4900 Z0.0000
M3S245
G4 P0.5; Tool Off

G0 Z0; move to z-safe height
G0 X1291.0000 Y715.4900
M3S0
G4 P0.5; Tool On
G1 F300 Z0.0000
G1 F15000 X9.0000 Y715.4900 Z0.0000
M3S245
G4 P0.5; Tool Off

G0 Z0; move to z-safe height
G0 X9.0000 Y733.4900
M3S0
G4 P0.5; Tool On
G1 F300 Z0.0000
G1 F15000 X1291.0000 Y733.4900 Z0.0000
M3S245
G4 P0.5; Tool Off

G0 Z0; move to z-safe height
G0 X1291.0000 Y751.4900
M3S0
G4 P0.5; Tool On
G1 F300 Z0.0000
G1 F15000 X9.0000 Y751.4900 Z0.0000
M3S245
G4 P0.5; Tool Off

G0 Z0; move to z-safe height
G0 X9.0000 Y769.4900
M3S0
G4 P0.5; Tool On
G1 F300 Z0.0000
G1 F15000 X1291.0000 Y769.4900 Z0.0000
M3S245
G4 P0.5; Tool Off

G0 Z0; move to z-safe height
G0 X1291.0000 Y787.4900
M3S0
G4 P0.5; Tool On
G1 F300 Z0.0000
G1 F15000 X9.0000 Y787.4900 Z0.0000
M3S245
G4 P0.5; Tool Off

G0 Z0; move to z-safe height
G0 X9.0000 Y805.4900
M3S0
G4 P0.5; Tool On
G1 F300 Z0.0000
G1 F15000 X1291.0000 Y805.4900 Z0.0000
M3S245
G4 P0.5; Tool Off

G0 Z0; move to z-safe height
G0 X1291.0000 Y823.4900
M3S0
G4 P0.5; Tool On
G1 F300 Z0.0000
G1 F15000 X9.0000 Y823.4900 Z0.0000
M3S245
G4 P0.5; Tool Off

G0 Z0; move to z-safe height
G0 X9.0000 Y841.4900
M3S0
G4 P0.5; Tool On
G1 F300 Z0.0000
G1 F15000 X1291.0000 Y841.4900 Z0.0000
M3S245
G4 P0.5; Tool Off

G0 Z0; move to z-safe height
G0 X1291.0000 Y859.4900
M3S0
G4 P0.5; Tool On
G1 F300 Z0.0000
G1 F15000 X9.0000 Y859.4900 Z0.0000
M3S245
G4 P0.5; Tool Off

G0 Z0; move to z-safe height
G0 X9.0000 Y877.4900
M3S0
G4 P0.5; Tool On
G1 F300 Z0.0000
G1 F15000 X1291.0000 Y877.4900 Z0.0000
M3S245
G4 P0.5; Tool Off

G0 Z0; move to z-safe height
G0 X1291.0000 Y895.4900
M3S0
G4 P0.5; Tool On
G1 F300 Z0.0000
G1 F15000 X9.0000 Y895.4900 Z0.0000
M3S245
G4 P0.5; Tool Off

G0 Z0; move to z-safe height
G0 X9.0000 Y913.4900
M3S0
G4 P0.5; Tool On
G1 F300 Z0.0000
G1 F15000 X1291.0000 Y913.4900 Z0.0000
M3S245
G4 P0.5; Tool Off

G0 Z0; move to z-safe height
G0 X1291.0000 Y931.4900
M3S0
G4 P0.5; Tool On
G1 F300 Z0.0000
G1 F15000 X9.0000 Y931.4900 Z0.0000
M3S245
G4 P0.5; Tool Off

G0 Z0; move to z-safe height
G0 X9.0000 Y949.4900
M3S0
G4 P0.5; Tool On
G1 F300 Z0.0000
G1 F15000 X1291.0000 Y949.4900 Z0.0000
M3S245
G4 P0.5; Tool Off

G0 Z0; move to z-safe height
G0 X1291.0000 Y967.4900
M3S0
G4 P0.5; Tool On
G1 F300 Z0.0000
G1 F15000 X9.0000 Y967.4900 Z0.0000
M3S245
G4 P0.5; Tool Off

G0 Z0; move to z-safe height
G0 X9.0000 Y985.4900
M3S0
G4 P0.5; Tool On
G1 F300 Z0.0000
G1 F15000 X1291.0000 Y985.4900 Z0.0000
M3S245
G4 P0.5; Tool Off

G0 Z0; move to z-safe height
G0 X1291.0000 Y1003.4900
M3S0
G4 P0.5; Tool On
G1 F300 Z0.0000
G1 F15000 X9.0000 Y1003.4900 Z0.0000
M3S245
G4 P0.5; Tool Off

G0 Z0; move to z-safe height
G0 X9.0000 Y1021.4900
M3S0
G4 P0.5; Tool On
G1 F300 Z0.0000
G1 F15000 X1291.0000 Y1021.4900 Z0.0000
M3S245
G4 P0.5; Tool Off

G0 Z0; move to z-safe height
G0 X1291.0000 Y1039.4900
M3S0
G4 P0.5; Tool On
G1 F300 Z0.0000
G1 F15000 X9.0000 Y1039.4900 Z0.0000
M3S245
G4 P0.5; Tool Off

G0 Z0; move to z-safe height
G0 X9.0000 Y1057.4900
M3S0
G4 P0.5; Tool On
G1 F300 Z0.0000
G1 F15000 X1291.0000 Y1057.4900 Z0.0000
M3S245
G4 P0.5; Tool Off

G0 Z0; move to z-safe height
G0 X1291.0000 Y1075.4900
M3S0
G4 P0.5; Tool On
G1 F300 Z0.0000
G1 F15000 X9.0000 Y1075.4900 Z0.0000
M3S245
G4 P0.5; Tool Off

G0 Z0; move to z-safe height
G0 X9.0000 Y1093.4900
M3S0
G4 P0.5; Tool On
G1 F300 Z0.0000
G1 F15000 X1291.0000 Y1093.4900 Z0.0000
M3S245
G4 P0.5; Tool Off

G0 Z0; move to z-safe height
G0 X1291.0000 Y1111.4900
M3S0
G4 P0.5; Tool On
G1 F300 Z0.0000
G1 F15000 X9.0000 Y1111.4900 Z0.0000
M3S245
G4 P0.5; Tool Off

G0 Z0; move to z-safe height
G0 X9.0000 Y1129.4900
M3S0
G4 P0.5; Tool On
G1 F300 Z0.0000
G1 F15000 X1291.0000 Y1129.4900 Z0.0000
M3S245
G4 P0.5; Tool Off

G0 Z0; move to z-safe height
G0 X1291.0000 Y1147.4900
M3S0
G4 P0.5; Tool On
G1 F300 Z0.0000
G1 F15000 X9.0000 Y1147.4900 Z0.0000
M3S245
G4 P0.5; Tool Off

G0 Z0; move to z-safe height
G0 X9.0000 Y1165.4900
M3S0
G4 P0.5; Tool On
G1 F300 Z0.0000
G1 F15000 X1291.0000 Y1165.4900 Z0.0000
M3S245
G4 P0.5; Tool Off

G0 Z0; move to z-safe height
G0 X1291.0000 Y1183.4900
M3S0
G4 P0.5; Tool On
G1 F300 Z0.0000
G1 F15000 X9.0000 Y1183.4900 Z0.0000
M3S245
G4 P0.5; Tool Off

G0 Z0; move to z-safe height
G0 X9.0000 Y1201.4900
M3S0
G4 P0.5; Tool On
G1 F300 Z0.0000
G1 F15000 X1291.0000 Y1201.4900 Z0.0000
M3S245
G4 P0.5; Tool Off

G0 Z0; move to z-safe height
G0 X1291.0000 Y1219.4900
M3S0
G4 P0.5; Tool On
G1 F300 Z0.0000
G1 F15000 X9.0000 Y1219.4900 Z0.0000
M3S245
G4 P0.5; Tool Off

G0 Z0; move to z-safe height
G0 X9.0000 Y1237.4900
M3S0
G4 P0.5; Tool On
G1 F300 Z0.0000
G1 F15000 X1291.0000 Y1237.4900 Z0.0000
M3S245
G4 P0.5; Tool Off

G0 Z0; move to z-safe height
G0 X1291.0000 Y1255.4900
M3S0
G4 P0.5; Tool On
G1 F300 Z0.0000
G1 F15000 X9.0000 Y1255.4900 Z0.0000
M3S245
G4 P0.5; Tool Off

G0 Z0; move to z-safe height
G0 X9.0000 Y1273.4900
M3S0
G4 P0.5; Tool On
G1 F300 Z0.0000
G1 F15000 X1291.0000 Y1273.4900 Z0.0000
M3S245
G4 P0.5; Tool Off
; retracting back to z-safe
G0 Z0

; Plotter Mode Complete
