; GCODE Generated by cam.openbuilds.com on 2023-11-22 
G21 ; mm-mode
G54; Work Coordinates
G21; mm-mode
G90; Absolute Positioning
; Plotter Mode Active

; Operation 0: Pen Plotter: (lines fill)
; Pen Diameter: 2

G0 Z0; move to z-safe height
G0 F1000 X6.0000 Y15.2500
M3S0
G4 P0.5; Tool On
G1 F300 Z0.0000
G1 F15000 X1294.0000 Y15.2500 Z0.0000
M3S245
G4 P0.5; Tool Off

G0 Z0; move to z-safe height
G0 X1294.0000 Y27.2500
M3S0
G4 P0.5; Tool On
G1 F300 Z0.0000
G1 F15000 X6.0000 Y27.2500 Z0.0000
M3S245
G4 P0.5; Tool Off

G0 Z0; move to z-safe height
G0 X6.0000 Y39.2500
M3S0
G4 P0.5; Tool On
G1 F300 Z0.0000
G1 F15000 X1294.0000 Y39.2500 Z0.0000
M3S245
G4 P0.5; Tool Off

G0 Z0; move to z-safe height
G0 X1294.0000 Y51.2500
M3S0
G4 P0.5; Tool On
G1 F300 Z0.0000
G1 F15000 X6.0000 Y51.2500 Z0.0000
M3S245
G4 P0.5; Tool Off

G0 Z0; move to z-safe height
G0 X6.0000 Y63.2500
M3S0
G4 P0.5; Tool On
G1 F300 Z0.0000
G1 F15000 X1294.0000 Y63.2500 Z0.0000
M3S245
G4 P0.5; Tool Off

G0 Z0; move to z-safe height
G0 X1294.0000 Y75.2500
M3S0
G4 P0.5; Tool On
G1 F300 Z0.0000
G1 F15000 X6.0000 Y75.2500 Z0.0000
M3S245
G4 P0.5; Tool Off

G0 Z0; move to z-safe height
G0 X6.0000 Y87.2500
M3S0
G4 P0.5; Tool On
G1 F300 Z0.0000
G1 F15000 X1294.0000 Y87.2500 Z0.0000
M3S245
G4 P0.5; Tool Off

G0 Z0; move to z-safe height
G0 X1294.0000 Y99.2500
M3S0
G4 P0.5; Tool On
G1 F300 Z0.0000
G1 F15000 X6.0000 Y99.2500 Z0.0000
M3S245
G4 P0.5; Tool Off

G0 Z0; move to z-safe height
G0 X6.0000 Y111.2500
M3S0
G4 P0.5; Tool On
G1 F300 Z0.0000
G1 F15000 X1294.0000 Y111.2500 Z0.0000
M3S245
G4 P0.5; Tool Off

G0 Z0; move to z-safe height
G0 X1294.0000 Y123.2500
M3S0
G4 P0.5; Tool On
G1 F300 Z0.0000
G1 F15000 X6.0000 Y123.2500 Z0.0000
M3S245
G4 P0.5; Tool Off

G0 Z0; move to z-safe height
G0 X6.0000 Y135.2500
M3S0
G4 P0.5; Tool On
G1 F300 Z0.0000
G1 F15000 X1294.0000 Y135.2500 Z0.0000
M3S245
G4 P0.5; Tool Off

G0 Z0; move to z-safe height
G0 X1294.0000 Y147.2500
M3S0
G4 P0.5; Tool On
G1 F300 Z0.0000
G1 F15000 X6.0000 Y147.2500 Z0.0000
M3S245
G4 P0.5; Tool Off

G0 Z0; move to z-safe height
G0 X6.0000 Y159.2500
M3S0
G4 P0.5; Tool On
G1 F300 Z0.0000
G1 F15000 X1294.0000 Y159.2500 Z0.0000
M3S245
G4 P0.5; Tool Off

G0 Z0; move to z-safe height
G0 X1294.0000 Y171.2500
M3S0
G4 P0.5; Tool On
G1 F300 Z0.0000
G1 F15000 X6.0000 Y171.2500 Z0.0000
M3S245
G4 P0.5; Tool Off

G0 Z0; move to z-safe height
G0 X6.0000 Y183.2500
M3S0
G4 P0.5; Tool On
G1 F300 Z0.0000
G1 F15000 X1294.0000 Y183.2500 Z0.0000
M3S245
G4 P0.5; Tool Off

G0 Z0; move to z-safe height
G0 X1294.0000 Y195.2500
M3S0
G4 P0.5; Tool On
G1 F300 Z0.0000
G1 F15000 X6.0000 Y195.2500 Z0.0000
M3S245
G4 P0.5; Tool Off

G0 Z0; move to z-safe height
G0 X6.0000 Y207.2500
M3S0
G4 P0.5; Tool On
G1 F300 Z0.0000
G1 F15000 X1294.0000 Y207.2500 Z0.0000
M3S245
G4 P0.5; Tool Off

G0 Z0; move to z-safe height
G0 X1294.0000 Y219.2500
M3S0
G4 P0.5; Tool On
G1 F300 Z0.0000
G1 F15000 X6.0000 Y219.2500 Z0.0000
M3S245
G4 P0.5; Tool Off

G0 Z0; move to z-safe height
G0 X6.0000 Y231.2500
M3S0
G4 P0.5; Tool On
G1 F300 Z0.0000
G1 F15000 X1294.0000 Y231.2500 Z0.0000
M3S245
G4 P0.5; Tool Off

G0 Z0; move to z-safe height
G0 X1294.0000 Y243.2500
M3S0
G4 P0.5; Tool On
G1 F300 Z0.0000
G1 F15000 X6.0000 Y243.2500 Z0.0000
M3S245
G4 P0.5; Tool Off

G0 Z0; move to z-safe height
G0 X6.0000 Y255.2500
M3S0
G4 P0.5; Tool On
G1 F300 Z0.0000
G1 F15000 X1294.0000 Y255.2500 Z0.0000
M3S245
G4 P0.5; Tool Off

G0 Z0; move to z-safe height
G0 X1294.0000 Y267.2500
M3S0
G4 P0.5; Tool On
G1 F300 Z0.0000
G1 F15000 X6.0000 Y267.2500 Z0.0000
M3S245
G4 P0.5; Tool Off

G0 Z0; move to z-safe height
G0 X6.0000 Y279.2500
M3S0
G4 P0.5; Tool On
G1 F300 Z0.0000
G1 F15000 X1294.0000 Y279.2500 Z0.0000
M3S245
G4 P0.5; Tool Off

G0 Z0; move to z-safe height
G0 X1294.0000 Y291.2500
M3S0
G4 P0.5; Tool On
G1 F300 Z0.0000
G1 F15000 X6.0000 Y291.2500 Z0.0000
M3S245
G4 P0.5; Tool Off

G0 Z0; move to z-safe height
G0 X6.0000 Y303.2500
M3S0
G4 P0.5; Tool On
G1 F300 Z0.0000
G1 F15000 X1294.0000 Y303.2500 Z0.0000
M3S245
G4 P0.5; Tool Off

G0 Z0; move to z-safe height
G0 X1294.0000 Y315.2500
M3S0
G4 P0.5; Tool On
G1 F300 Z0.0000
G1 F15000 X6.0000 Y315.2500 Z0.0000
M3S245
G4 P0.5; Tool Off

G0 Z0; move to z-safe height
G0 X6.0000 Y327.2500
M3S0
G4 P0.5; Tool On
G1 F300 Z0.0000
G1 F15000 X1294.0000 Y327.2500 Z0.0000
M3S245
G4 P0.5; Tool Off

G0 Z0; move to z-safe height
G0 X1294.0000 Y339.2500
M3S0
G4 P0.5; Tool On
G1 F300 Z0.0000
G1 F15000 X6.0000 Y339.2500 Z0.0000
M3S245
G4 P0.5; Tool Off

G0 Z0; move to z-safe height
G0 X6.0000 Y351.2500
M3S0
G4 P0.5; Tool On
G1 F300 Z0.0000
G1 F15000 X1294.0000 Y351.2500 Z0.0000
M3S245
G4 P0.5; Tool Off

G0 Z0; move to z-safe height
G0 X1294.0000 Y363.2500
M3S0
G4 P0.5; Tool On
G1 F300 Z0.0000
G1 F15000 X6.0000 Y363.2500 Z0.0000
M3S245
G4 P0.5; Tool Off

G0 Z0; move to z-safe height
G0 X6.0000 Y375.2500
M3S0
G4 P0.5; Tool On
G1 F300 Z0.0000
G1 F15000 X1294.0000 Y375.2500 Z0.0000
M3S245
G4 P0.5; Tool Off

G0 Z0; move to z-safe height
G0 X1294.0000 Y387.2500
M3S0
G4 P0.5; Tool On
G1 F300 Z0.0000
G1 F15000 X6.0000 Y387.2500 Z0.0000
M3S245
G4 P0.5; Tool Off

G0 Z0; move to z-safe height
G0 X6.0000 Y399.2500
M3S0
G4 P0.5; Tool On
G1 F300 Z0.0000
G1 F15000 X1294.0000 Y399.2500 Z0.0000
M3S245
G4 P0.5; Tool Off

G0 Z0; move to z-safe height
G0 X1294.0000 Y411.2500
M3S0
G4 P0.5; Tool On
G1 F300 Z0.0000
G1 F15000 X6.0000 Y411.2500 Z0.0000
M3S245
G4 P0.5; Tool Off

G0 Z0; move to z-safe height
G0 X6.0000 Y423.2500
M3S0
G4 P0.5; Tool On
G1 F300 Z0.0000
G1 F15000 X1294.0000 Y423.2500 Z0.0000
M3S245
G4 P0.5; Tool Off

G0 Z0; move to z-safe height
G0 X1294.0000 Y435.2500
M3S0
G4 P0.5; Tool On
G1 F300 Z0.0000
G1 F15000 X6.0000 Y435.2500 Z0.0000
M3S245
G4 P0.5; Tool Off

G0 Z0; move to z-safe height
G0 X6.0000 Y447.2500
M3S0
G4 P0.5; Tool On
G1 F300 Z0.0000
G1 F15000 X1294.0000 Y447.2500 Z0.0000
M3S245
G4 P0.5; Tool Off

G0 Z0; move to z-safe height
G0 X1294.0000 Y459.2500
M3S0
G4 P0.5; Tool On
G1 F300 Z0.0000
G1 F15000 X6.0000 Y459.2500 Z0.0000
M3S245
G4 P0.5; Tool Off

G0 Z0; move to z-safe height
G0 X6.0000 Y471.2500
M3S0
G4 P0.5; Tool On
G1 F300 Z0.0000
G1 F15000 X1294.0000 Y471.2500 Z0.0000
M3S245
G4 P0.5; Tool Off

G0 Z0; move to z-safe height
G0 X1294.0000 Y483.2500
M3S0
G4 P0.5; Tool On
G1 F300 Z0.0000
G1 F15000 X6.0000 Y483.2500 Z0.0000
M3S245
G4 P0.5; Tool Off

G0 Z0; move to z-safe height
G0 X6.0000 Y495.2500
M3S0
G4 P0.5; Tool On
G1 F300 Z0.0000
G1 F15000 X1294.0000 Y495.2500 Z0.0000
M3S245
G4 P0.5; Tool Off

G0 Z0; move to z-safe height
G0 X1294.0000 Y507.2500
M3S0
G4 P0.5; Tool On
G1 F300 Z0.0000
G1 F15000 X6.0000 Y507.2500 Z0.0000
M3S245
G4 P0.5; Tool Off

G0 Z0; move to z-safe height
G0 X6.0000 Y519.2500
M3S0
G4 P0.5; Tool On
G1 F300 Z0.0000
G1 F15000 X1294.0000 Y519.2500 Z0.0000
M3S245
G4 P0.5; Tool Off

G0 Z0; move to z-safe height
G0 X1294.0000 Y531.2500
M3S0
G4 P0.5; Tool On
G1 F300 Z0.0000
G1 F15000 X6.0000 Y531.2500 Z0.0000
M3S245
G4 P0.5; Tool Off

G0 Z0; move to z-safe height
G0 X6.0000 Y543.2500
M3S0
G4 P0.5; Tool On
G1 F300 Z0.0000
G1 F15000 X1294.0000 Y543.2500 Z0.0000
M3S245
G4 P0.5; Tool Off

G0 Z0; move to z-safe height
G0 X1294.0000 Y555.2500
M3S0
G4 P0.5; Tool On
G1 F300 Z0.0000
G1 F15000 X6.0000 Y555.2500 Z0.0000
M3S245
G4 P0.5; Tool Off

G0 Z0; move to z-safe height
G0 X6.0000 Y567.2500
M3S0
G4 P0.5; Tool On
G1 F300 Z0.0000
G1 F15000 X1294.0000 Y567.2500 Z0.0000
M3S245
G4 P0.5; Tool Off

G0 Z0; move to z-safe height
G0 X1294.0000 Y579.2500
M3S0
G4 P0.5; Tool On
G1 F300 Z0.0000
G1 F15000 X6.0000 Y579.2500 Z0.0000
M3S245
G4 P0.5; Tool Off

G0 Z0; move to z-safe height
G0 X6.0000 Y591.2500
M3S0
G4 P0.5; Tool On
G1 F300 Z0.0000
G1 F15000 X1294.0000 Y591.2500 Z0.0000
M3S245
G4 P0.5; Tool Off

G0 Z0; move to z-safe height
G0 X1294.0000 Y603.2500
M3S0
G4 P0.5; Tool On
G1 F300 Z0.0000
G1 F15000 X6.0000 Y603.2500 Z0.0000
M3S245
G4 P0.5; Tool Off

G0 Z0; move to z-safe height
G0 X6.0000 Y615.2500
M3S0
G4 P0.5; Tool On
G1 F300 Z0.0000
G1 F15000 X1294.0000 Y615.2500 Z0.0000
M3S245
G4 P0.5; Tool Off

G0 Z0; move to z-safe height
G0 X1294.0000 Y627.2500
M3S0
G4 P0.5; Tool On
G1 F300 Z0.0000
G1 F15000 X6.0000 Y627.2500 Z0.0000
M3S245
G4 P0.5; Tool Off

G0 Z0; move to z-safe height
G0 X6.0000 Y639.2500
M3S0
G4 P0.5; Tool On
G1 F300 Z0.0000
G1 F15000 X1294.0000 Y639.2500 Z0.0000
M3S245
G4 P0.5; Tool Off

G0 Z0; move to z-safe height
G0 X1294.0000 Y651.2500
M3S0
G4 P0.5; Tool On
G1 F300 Z0.0000
G1 F15000 X6.0000 Y651.2500 Z0.0000
M3S245
G4 P0.5; Tool Off

G0 Z0; move to z-safe height
G0 X6.0000 Y663.2500
M3S0
G4 P0.5; Tool On
G1 F300 Z0.0000
G1 F15000 X1294.0000 Y663.2500 Z0.0000
M3S245
G4 P0.5; Tool Off

G0 Z0; move to z-safe height
G0 X1294.0000 Y675.2500
M3S0
G4 P0.5; Tool On
G1 F300 Z0.0000
G1 F15000 X6.0000 Y675.2500 Z0.0000
M3S245
G4 P0.5; Tool Off

G0 Z0; move to z-safe height
G0 X6.0000 Y687.2500
M3S0
G4 P0.5; Tool On
G1 F300 Z0.0000
G1 F15000 X1294.0000 Y687.2500 Z0.0000
M3S245
G4 P0.5; Tool Off

G0 Z0; move to z-safe height
G0 X1294.0000 Y699.2500
M3S0
G4 P0.5; Tool On
G1 F300 Z0.0000
G1 F15000 X6.0000 Y699.2500 Z0.0000
M3S245
G4 P0.5; Tool Off

G0 Z0; move to z-safe height
G0 X6.0000 Y711.2500
M3S0
G4 P0.5; Tool On
G1 F300 Z0.0000
G1 F15000 X1294.0000 Y711.2500 Z0.0000
M3S245
G4 P0.5; Tool Off

G0 Z0; move to z-safe height
G0 X1294.0000 Y723.2500
M3S0
G4 P0.5; Tool On
G1 F300 Z0.0000
G1 F15000 X6.0000 Y723.2500 Z0.0000
M3S245
G4 P0.5; Tool Off

G0 Z0; move to z-safe height
G0 X6.0000 Y735.2500
M3S0
G4 P0.5; Tool On
G1 F300 Z0.0000
G1 F15000 X1294.0000 Y735.2500 Z0.0000
M3S245
G4 P0.5; Tool Off

G0 Z0; move to z-safe height
G0 X1294.0000 Y747.2500
M3S0
G4 P0.5; Tool On
G1 F300 Z0.0000
G1 F15000 X6.0000 Y747.2500 Z0.0000
M3S245
G4 P0.5; Tool Off

G0 Z0; move to z-safe height
G0 X6.0000 Y759.2500
M3S0
G4 P0.5; Tool On
G1 F300 Z0.0000
G1 F15000 X1294.0000 Y759.2500 Z0.0000
M3S245
G4 P0.5; Tool Off

G0 Z0; move to z-safe height
G0 X1294.0000 Y771.2500
M3S0
G4 P0.5; Tool On
G1 F300 Z0.0000
G1 F15000 X6.0000 Y771.2500 Z0.0000
M3S245
G4 P0.5; Tool Off

G0 Z0; move to z-safe height
G0 X6.0000 Y783.2500
M3S0
G4 P0.5; Tool On
G1 F300 Z0.0000
G1 F15000 X1294.0000 Y783.2500 Z0.0000
M3S245
G4 P0.5; Tool Off

G0 Z0; move to z-safe height
G0 X1294.0000 Y795.2500
M3S0
G4 P0.5; Tool On
G1 F300 Z0.0000
G1 F15000 X6.0000 Y795.2500 Z0.0000
M3S245
G4 P0.5; Tool Off

G0 Z0; move to z-safe height
G0 X6.0000 Y807.2500
M3S0
G4 P0.5; Tool On
G1 F300 Z0.0000
G1 F15000 X1294.0000 Y807.2500 Z0.0000
M3S245
G4 P0.5; Tool Off

G0 Z0; move to z-safe height
G0 X1294.0000 Y819.2500
M3S0
G4 P0.5; Tool On
G1 F300 Z0.0000
G1 F15000 X6.0000 Y819.2500 Z0.0000
M3S245
G4 P0.5; Tool Off

G0 Z0; move to z-safe height
G0 X6.0000 Y831.2500
M3S0
G4 P0.5; Tool On
G1 F300 Z0.0000
G1 F15000 X1294.0000 Y831.2500 Z0.0000
M3S245
G4 P0.5; Tool Off

G0 Z0; move to z-safe height
G0 X1294.0000 Y843.2500
M3S0
G4 P0.5; Tool On
G1 F300 Z0.0000
G1 F15000 X6.0000 Y843.2500 Z0.0000
M3S245
G4 P0.5; Tool Off

G0 Z0; move to z-safe height
G0 X6.0000 Y855.2500
M3S0
G4 P0.5; Tool On
G1 F300 Z0.0000
G1 F15000 X1294.0000 Y855.2500 Z0.0000
M3S245
G4 P0.5; Tool Off

G0 Z0; move to z-safe height
G0 X1294.0000 Y867.2500
M3S0
G4 P0.5; Tool On
G1 F300 Z0.0000
G1 F15000 X6.0000 Y867.2500 Z0.0000
M3S245
G4 P0.5; Tool Off

G0 Z0; move to z-safe height
G0 X6.0000 Y879.2500
M3S0
G4 P0.5; Tool On
G1 F300 Z0.0000
G1 F15000 X1294.0000 Y879.2500 Z0.0000
M3S245
G4 P0.5; Tool Off

G0 Z0; move to z-safe height
G0 X1294.0000 Y891.2500
M3S0
G4 P0.5; Tool On
G1 F300 Z0.0000
G1 F15000 X6.0000 Y891.2500 Z0.0000
M3S245
G4 P0.5; Tool Off

G0 Z0; move to z-safe height
G0 X6.0000 Y903.2500
M3S0
G4 P0.5; Tool On
G1 F300 Z0.0000
G1 F15000 X1294.0000 Y903.2500 Z0.0000
M3S245
G4 P0.5; Tool Off

G0 Z0; move to z-safe height
G0 X1294.0000 Y915.2500
M3S0
G4 P0.5; Tool On
G1 F300 Z0.0000
G1 F15000 X6.0000 Y915.2500 Z0.0000
M3S245
G4 P0.5; Tool Off

G0 Z0; move to z-safe height
G0 X6.0000 Y927.2500
M3S0
G4 P0.5; Tool On
G1 F300 Z0.0000
G1 F15000 X1294.0000 Y927.2500 Z0.0000
M3S245
G4 P0.5; Tool Off

G0 Z0; move to z-safe height
G0 X1294.0000 Y939.2500
M3S0
G4 P0.5; Tool On
G1 F300 Z0.0000
G1 F15000 X6.0000 Y939.2500 Z0.0000
M3S245
G4 P0.5; Tool Off

G0 Z0; move to z-safe height
G0 X6.0000 Y951.2500
M3S0
G4 P0.5; Tool On
G1 F300 Z0.0000
G1 F15000 X1294.0000 Y951.2500 Z0.0000
M3S245
G4 P0.5; Tool Off

G0 Z0; move to z-safe height
G0 X1294.0000 Y963.2500
M3S0
G4 P0.5; Tool On
G1 F300 Z0.0000
G1 F15000 X6.0000 Y963.2500 Z0.0000
M3S245
G4 P0.5; Tool Off

G0 Z0; move to z-safe height
G0 X6.0000 Y975.2500
M3S0
G4 P0.5; Tool On
G1 F300 Z0.0000
G1 F15000 X1294.0000 Y975.2500 Z0.0000
M3S245
G4 P0.5; Tool Off

G0 Z0; move to z-safe height
G0 X1294.0000 Y987.2500
M3S0
G4 P0.5; Tool On
G1 F300 Z0.0000
G1 F15000 X6.0000 Y987.2500 Z0.0000
M3S245
G4 P0.5; Tool Off

G0 Z0; move to z-safe height
G0 X6.0000 Y999.2500
M3S0
G4 P0.5; Tool On
G1 F300 Z0.0000
G1 F15000 X1294.0000 Y999.2500 Z0.0000
M3S245
G4 P0.5; Tool Off

G0 Z0; move to z-safe height
G0 X1294.0000 Y1011.2500
M3S0
G4 P0.5; Tool On
G1 F300 Z0.0000
G1 F15000 X6.0000 Y1011.2500 Z0.0000
M3S245
G4 P0.5; Tool Off

G0 Z0; move to z-safe height
G0 X6.0000 Y1023.2500
M3S0
G4 P0.5; Tool On
G1 F300 Z0.0000
G1 F15000 X1294.0000 Y1023.2500 Z0.0000
M3S245
G4 P0.5; Tool Off

G0 Z0; move to z-safe height
G0 X1294.0000 Y1035.2500
M3S0
G4 P0.5; Tool On
G1 F300 Z0.0000
G1 F15000 X6.0000 Y1035.2500 Z0.0000
M3S245
G4 P0.5; Tool Off

G0 Z0; move to z-safe height
G0 X6.0000 Y1047.2500
M3S0
G4 P0.5; Tool On
G1 F300 Z0.0000
G1 F15000 X1294.0000 Y1047.2500 Z0.0000
M3S245
G4 P0.5; Tool Off

G0 Z0; move to z-safe height
G0 X1294.0000 Y1059.2500
M3S0
G4 P0.5; Tool On
G1 F300 Z0.0000
G1 F15000 X6.0000 Y1059.2500 Z0.0000
M3S245
G4 P0.5; Tool Off

G0 Z0; move to z-safe height
G0 X6.0000 Y1071.2500
M3S0
G4 P0.5; Tool On
G1 F300 Z0.0000
G1 F15000 X1294.0000 Y1071.2500 Z0.0000
M3S245
G4 P0.5; Tool Off

G0 Z0; move to z-safe height
G0 X1294.0000 Y1083.2500
M3S0
G4 P0.5; Tool On
G1 F300 Z0.0000
G1 F15000 X6.0000 Y1083.2500 Z0.0000
M3S245
G4 P0.5; Tool Off

G0 Z0; move to z-safe height
G0 X6.0000 Y1095.2500
M3S0
G4 P0.5; Tool On
G1 F300 Z0.0000
G1 F15000 X1294.0000 Y1095.2500 Z0.0000
M3S245
G4 P0.5; Tool Off

G0 Z0; move to z-safe height
G0 X1294.0000 Y1107.2500
M3S0
G4 P0.5; Tool On
G1 F300 Z0.0000
G1 F15000 X6.0000 Y1107.2500 Z0.0000
M3S245
G4 P0.5; Tool Off

G0 Z0; move to z-safe height
G0 X6.0000 Y1119.2500
M3S0
G4 P0.5; Tool On
G1 F300 Z0.0000
G1 F15000 X1294.0000 Y1119.2500 Z0.0000
M3S245
G4 P0.5; Tool Off

G0 Z0; move to z-safe height
G0 X1294.0000 Y1131.2500
M3S0
G4 P0.5; Tool On
G1 F300 Z0.0000
G1 F15000 X6.0000 Y1131.2500 Z0.0000
M3S245
G4 P0.5; Tool Off

G0 Z0; move to z-safe height
G0 X6.0000 Y1143.2500
M3S0
G4 P0.5; Tool On
G1 F300 Z0.0000
G1 F15000 X1294.0000 Y1143.2500 Z0.0000
M3S245
G4 P0.5; Tool Off

G0 Z0; move to z-safe height
G0 X1294.0000 Y1155.2500
M3S0
G4 P0.5; Tool On
G1 F300 Z0.0000
G1 F15000 X6.0000 Y1155.2500 Z0.0000
M3S245
G4 P0.5; Tool Off

G0 Z0; move to z-safe height
G0 X6.0000 Y1167.2500
M3S0
G4 P0.5; Tool On
G1 F300 Z0.0000
G1 F15000 X1294.0000 Y1167.2500 Z0.0000
M3S245
G4 P0.5; Tool Off

G0 Z0; move to z-safe height
G0 X1294.0000 Y1179.2500
M3S0
G4 P0.5; Tool On
G1 F300 Z0.0000
G1 F15000 X6.0000 Y1179.2500 Z0.0000
M3S245
G4 P0.5; Tool Off

G0 Z0; move to z-safe height
G0 X6.0000 Y1191.2500
M3S0
G4 P0.5; Tool On
G1 F300 Z0.0000
G1 F15000 X1294.0000 Y1191.2500 Z0.0000
M3S245
G4 P0.5; Tool Off

G0 Z0; move to z-safe height
G0 X1294.0000 Y1203.2500
M3S0
G4 P0.5; Tool On
G1 F300 Z0.0000
G1 F15000 X6.0000 Y1203.2500 Z0.0000
M3S245
G4 P0.5; Tool Off

G0 Z0; move to z-safe height
G0 X6.0000 Y1215.2500
M3S0
G4 P0.5; Tool On
G1 F300 Z0.0000
G1 F15000 X1294.0000 Y1215.2500 Z0.0000
M3S245
G4 P0.5; Tool Off

G0 Z0; move to z-safe height
G0 X1294.0000 Y1227.2500
M3S0
G4 P0.5; Tool On
G1 F300 Z0.0000
G1 F15000 X6.0000 Y1227.2500 Z0.0000
M3S245
G4 P0.5; Tool Off

G0 Z0; move to z-safe height
G0 X6.0000 Y1239.2500
M3S0
G4 P0.5; Tool On
G1 F300 Z0.0000
G1 F15000 X1294.0000 Y1239.2500 Z0.0000
M3S245
G4 P0.5; Tool Off

G0 Z0; move to z-safe height
G0 X1294.0000 Y1251.2500
M3S0
G4 P0.5; Tool On
G1 F300 Z0.0000
G1 F15000 X6.0000 Y1251.2500 Z0.0000
M3S245
G4 P0.5; Tool Off

G0 Z0; move to z-safe height
G0 X6.0000 Y1263.2500
M3S0
G4 P0.5; Tool On
G1 F300 Z0.0000
G1 F15000 X1294.0000 Y1263.2500 Z0.0000
M3S245
G4 P0.5; Tool Off

G0 Z0; move to z-safe height
G0 X1294.0000 Y1275.2500
M3S0
G4 P0.5; Tool On
G1 F300 Z0.0000
G1 F15000 X6.0000 Y1275.2500 Z0.0000
M3S245
G4 P0.5; Tool Off

G0 Z0; move to z-safe height
G0 X6.0000 Y1287.2500
M3S0
G4 P0.5; Tool On
G1 F300 Z0.0000
G1 F15000 X1294.0000 Y1287.2500 Z0.0000
M3S245
G4 P0.5; Tool Off
; retracting back to z-safe
G0 Z0

; Plotter Mode Complete
