; GCODE Generated by cam.openbuilds.com on 2023-11-22 
G21 ; mm-mode
G54; Work Coordinates
G21; mm-mode
G90; Absolute Positioning
; Plotter Mode Active

; Operation 0: Pen Plotter: (lines fill)
; Pen Diameter: 2

G0 Z0; move to z-safe height
G0 F1000 X1290.0000 Y24.9000
M3S0
G4 P0.5; Tool On
G1 F300 Z0.0000
G1 F15000 X10.0000 Y24.9000 Z0.0000
M3S245
G4 P0.5; Tool Off

G0 Z0; move to z-safe height
G0 X10.0000 Y44.9000
M3S0
G4 P0.5; Tool On
G1 F300 Z0.0000
G1 F15000 X1290.0000 Y44.9000 Z0.0000
M3S245
G4 P0.5; Tool Off

G0 Z0; move to z-safe height
G0 X1290.0000 Y64.9000
M3S0
G4 P0.5; Tool On
G1 F300 Z0.0000
G1 F15000 X10.0000 Y64.9000 Z0.0000
M3S245
G4 P0.5; Tool Off

G0 Z0; move to z-safe height
G0 X10.0000 Y84.9000
M3S0
G4 P0.5; Tool On
G1 F300 Z0.0000
G1 F15000 X1290.0000 Y84.9000 Z0.0000
M3S245
G4 P0.5; Tool Off

G0 Z0; move to z-safe height
G0 X1290.0000 Y104.9000
M3S0
G4 P0.5; Tool On
G1 F300 Z0.0000
G1 F15000 X10.0000 Y104.9000 Z0.0000
M3S245
G4 P0.5; Tool Off

G0 Z0; move to z-safe height
G0 X10.0000 Y124.9000
M3S0
G4 P0.5; Tool On
G1 F300 Z0.0000
G1 F15000 X1290.0000 Y124.9000 Z0.0000
M3S245
G4 P0.5; Tool Off

G0 Z0; move to z-safe height
G0 X1290.0000 Y144.9000
M3S0
G4 P0.5; Tool On
G1 F300 Z0.0000
G1 F15000 X10.0000 Y144.9000 Z0.0000
M3S245
G4 P0.5; Tool Off

G0 Z0; move to z-safe height
G0 X10.0000 Y164.9000
M3S0
G4 P0.5; Tool On
G1 F300 Z0.0000
G1 F15000 X1290.0000 Y164.9000 Z0.0000
M3S245
G4 P0.5; Tool Off

G0 Z0; move to z-safe height
G0 X1290.0000 Y184.9000
M3S0
G4 P0.5; Tool On
G1 F300 Z0.0000
G1 F15000 X10.0000 Y184.9000 Z0.0000
M3S245
G4 P0.5; Tool Off

G0 Z0; move to z-safe height
G0 X10.0000 Y204.9000
M3S0
G4 P0.5; Tool On
G1 F300 Z0.0000
G1 F15000 X1290.0000 Y204.9000 Z0.0000
M3S245
G4 P0.5; Tool Off

G0 Z0; move to z-safe height
G0 X1290.0000 Y224.9000
M3S0
G4 P0.5; Tool On
G1 F300 Z0.0000
G1 F15000 X10.0000 Y224.9000 Z0.0000
M3S245
G4 P0.5; Tool Off

G0 Z0; move to z-safe height
G0 X10.0000 Y244.9000
M3S0
G4 P0.5; Tool On
G1 F300 Z0.0000
G1 F15000 X1290.0000 Y244.9000 Z0.0000
M3S245
G4 P0.5; Tool Off

G0 Z0; move to z-safe height
G0 X1290.0000 Y264.9000
M3S0
G4 P0.5; Tool On
G1 F300 Z0.0000
G1 F15000 X10.0000 Y264.9000 Z0.0000
M3S245
G4 P0.5; Tool Off

G0 Z0; move to z-safe height
G0 X10.0000 Y284.9000
M3S0
G4 P0.5; Tool On
G1 F300 Z0.0000
G1 F15000 X1290.0000 Y284.9000 Z0.0000
M3S245
G4 P0.5; Tool Off

G0 Z0; move to z-safe height
G0 X1290.0000 Y304.9000
M3S0
G4 P0.5; Tool On
G1 F300 Z0.0000
G1 F15000 X10.0000 Y304.9000 Z0.0000
M3S245
G4 P0.5; Tool Off

G0 Z0; move to z-safe height
G0 X10.0000 Y324.9000
M3S0
G4 P0.5; Tool On
G1 F300 Z0.0000
G1 F15000 X1290.0000 Y324.9000 Z0.0000
M3S245
G4 P0.5; Tool Off

G0 Z0; move to z-safe height
G0 X1290.0000 Y344.9000
M3S0
G4 P0.5; Tool On
G1 F300 Z0.0000
G1 F15000 X10.0000 Y344.9000 Z0.0000
M3S245
G4 P0.5; Tool Off

G0 Z0; move to z-safe height
G0 X10.0000 Y364.9000
M3S0
G4 P0.5; Tool On
G1 F300 Z0.0000
G1 F15000 X1290.0000 Y364.9000 Z0.0000
M3S245
G4 P0.5; Tool Off

G0 Z0; move to z-safe height
G0 X1290.0000 Y384.9000
M3S0
G4 P0.5; Tool On
G1 F300 Z0.0000
G1 F15000 X10.0000 Y384.9000 Z0.0000
M3S245
G4 P0.5; Tool Off

G0 Z0; move to z-safe height
G0 X10.0000 Y404.9000
M3S0
G4 P0.5; Tool On
G1 F300 Z0.0000
G1 F15000 X1290.0000 Y404.9000 Z0.0000
M3S245
G4 P0.5; Tool Off

G0 Z0; move to z-safe height
G0 X1290.0000 Y424.9000
M3S0
G4 P0.5; Tool On
G1 F300 Z0.0000
G1 F15000 X10.0000 Y424.9000 Z0.0000
M3S245
G4 P0.5; Tool Off

G0 Z0; move to z-safe height
G0 X10.0000 Y444.9000
M3S0
G4 P0.5; Tool On
G1 F300 Z0.0000
G1 F15000 X1290.0000 Y444.9000 Z0.0000
M3S245
G4 P0.5; Tool Off

G0 Z0; move to z-safe height
G0 X1290.0000 Y464.9000
M3S0
G4 P0.5; Tool On
G1 F300 Z0.0000
G1 F15000 X10.0000 Y464.9000 Z0.0000
M3S245
G4 P0.5; Tool Off

G0 Z0; move to z-safe height
G0 X10.0000 Y484.9000
M3S0
G4 P0.5; Tool On
G1 F300 Z0.0000
G1 F15000 X1290.0000 Y484.9000 Z0.0000
M3S245
G4 P0.5; Tool Off

G0 Z0; move to z-safe height
G0 X1290.0000 Y504.9000
M3S0
G4 P0.5; Tool On
G1 F300 Z0.0000
G1 F15000 X10.0000 Y504.9000 Z0.0000
M3S245
G4 P0.5; Tool Off

G0 Z0; move to z-safe height
G0 X10.0000 Y524.9000
M3S0
G4 P0.5; Tool On
G1 F300 Z0.0000
G1 F15000 X1290.0000 Y524.9000 Z0.0000
M3S245
G4 P0.5; Tool Off

G0 Z0; move to z-safe height
G0 X1290.0000 Y544.9000
M3S0
G4 P0.5; Tool On
G1 F300 Z0.0000
G1 F15000 X10.0000 Y544.9000 Z0.0000
M3S245
G4 P0.5; Tool Off

G0 Z0; move to z-safe height
G0 X10.0000 Y564.9000
M3S0
G4 P0.5; Tool On
G1 F300 Z0.0000
G1 F15000 X1290.0000 Y564.9000 Z0.0000
M3S245
G4 P0.5; Tool Off

G0 Z0; move to z-safe height
G0 X1290.0000 Y584.9000
M3S0
G4 P0.5; Tool On
G1 F300 Z0.0000
G1 F15000 X10.0000 Y584.9000 Z0.0000
M3S245
G4 P0.5; Tool Off

G0 Z0; move to z-safe height
G0 X10.0000 Y604.9000
M3S0
G4 P0.5; Tool On
G1 F300 Z0.0000
G1 F15000 X1290.0000 Y604.9000 Z0.0000
M3S245
G4 P0.5; Tool Off

G0 Z0; move to z-safe height
G0 X1290.0000 Y624.9000
M3S0
G4 P0.5; Tool On
G1 F300 Z0.0000
G1 F15000 X10.0000 Y624.9000 Z0.0000
M3S245
G4 P0.5; Tool Off

G0 Z0; move to z-safe height
G0 X10.0000 Y644.9000
M3S0
G4 P0.5; Tool On
G1 F300 Z0.0000
G1 F15000 X1290.0000 Y644.9000 Z0.0000
M3S245
G4 P0.5; Tool Off

G0 Z0; move to z-safe height
G0 X1290.0000 Y664.9000
M3S0
G4 P0.5; Tool On
G1 F300 Z0.0000
G1 F15000 X10.0000 Y664.9000 Z0.0000
M3S245
G4 P0.5; Tool Off

G0 Z0; move to z-safe height
G0 X10.0000 Y684.9000
M3S0
G4 P0.5; Tool On
G1 F300 Z0.0000
G1 F15000 X1290.0000 Y684.9000 Z0.0000
M3S245
G4 P0.5; Tool Off

G0 Z0; move to z-safe height
G0 X1290.0000 Y704.9000
M3S0
G4 P0.5; Tool On
G1 F300 Z0.0000
G1 F15000 X10.0000 Y704.9000 Z0.0000
M3S245
G4 P0.5; Tool Off

G0 Z0; move to z-safe height
G0 X10.0000 Y724.9000
M3S0
G4 P0.5; Tool On
G1 F300 Z0.0000
G1 F15000 X1290.0000 Y724.9000 Z0.0000
M3S245
G4 P0.5; Tool Off

G0 Z0; move to z-safe height
G0 X1290.0000 Y744.9000
M3S0
G4 P0.5; Tool On
G1 F300 Z0.0000
G1 F15000 X10.0000 Y744.9000 Z0.0000
M3S245
G4 P0.5; Tool Off

G0 Z0; move to z-safe height
G0 X10.0000 Y764.9000
M3S0
G4 P0.5; Tool On
G1 F300 Z0.0000
G1 F15000 X1290.0000 Y764.9000 Z0.0000
M3S245
G4 P0.5; Tool Off

G0 Z0; move to z-safe height
G0 X1290.0000 Y784.9000
M3S0
G4 P0.5; Tool On
G1 F300 Z0.0000
G1 F15000 X10.0000 Y784.9000 Z0.0000
M3S245
G4 P0.5; Tool Off

G0 Z0; move to z-safe height
G0 X10.0000 Y804.9000
M3S0
G4 P0.5; Tool On
G1 F300 Z0.0000
G1 F15000 X1290.0000 Y804.9000 Z0.0000
M3S245
G4 P0.5; Tool Off

G0 Z0; move to z-safe height
G0 X1290.0000 Y824.9000
M3S0
G4 P0.5; Tool On
G1 F300 Z0.0000
G1 F15000 X10.0000 Y824.9000 Z0.0000
M3S245
G4 P0.5; Tool Off

G0 Z0; move to z-safe height
G0 X10.0000 Y844.9000
M3S0
G4 P0.5; Tool On
G1 F300 Z0.0000
G1 F15000 X1290.0000 Y844.9000 Z0.0000
M3S245
G4 P0.5; Tool Off

G0 Z0; move to z-safe height
G0 X1290.0000 Y864.9000
M3S0
G4 P0.5; Tool On
G1 F300 Z0.0000
G1 F15000 X10.0000 Y864.9000 Z0.0000
M3S245
G4 P0.5; Tool Off

G0 Z0; move to z-safe height
G0 X10.0000 Y884.9000
M3S0
G4 P0.5; Tool On
G1 F300 Z0.0000
G1 F15000 X1290.0000 Y884.9000 Z0.0000
M3S245
G4 P0.5; Tool Off

G0 Z0; move to z-safe height
G0 X1290.0000 Y904.9000
M3S0
G4 P0.5; Tool On
G1 F300 Z0.0000
G1 F15000 X10.0000 Y904.9000 Z0.0000
M3S245
G4 P0.5; Tool Off

G0 Z0; move to z-safe height
G0 X10.0000 Y924.9000
M3S0
G4 P0.5; Tool On
G1 F300 Z0.0000
G1 F15000 X1290.0000 Y924.9000 Z0.0000
M3S245
G4 P0.5; Tool Off

G0 Z0; move to z-safe height
G0 X1290.0000 Y944.9000
M3S0
G4 P0.5; Tool On
G1 F300 Z0.0000
G1 F15000 X10.0000 Y944.9000 Z0.0000
M3S245
G4 P0.5; Tool Off

G0 Z0; move to z-safe height
G0 X10.0000 Y964.9000
M3S0
G4 P0.5; Tool On
G1 F300 Z0.0000
G1 F15000 X1290.0000 Y964.9000 Z0.0000
M3S245
G4 P0.5; Tool Off

G0 Z0; move to z-safe height
G0 X1290.0000 Y984.9000
M3S0
G4 P0.5; Tool On
G1 F300 Z0.0000
G1 F15000 X10.0000 Y984.9000 Z0.0000
M3S245
G4 P0.5; Tool Off

G0 Z0; move to z-safe height
G0 X10.0000 Y1004.9000
M3S0
G4 P0.5; Tool On
G1 F300 Z0.0000
G1 F15000 X1290.0000 Y1004.9000 Z0.0000
M3S245
G4 P0.5; Tool Off

G0 Z0; move to z-safe height
G0 X1290.0000 Y1024.9000
M3S0
G4 P0.5; Tool On
G1 F300 Z0.0000
G1 F15000 X10.0000 Y1024.9000 Z0.0000
M3S245
G4 P0.5; Tool Off

G0 Z0; move to z-safe height
G0 X10.0000 Y1044.9000
M3S0
G4 P0.5; Tool On
G1 F300 Z0.0000
G1 F15000 X1290.0000 Y1044.9000 Z0.0000
M3S245
G4 P0.5; Tool Off

G0 Z0; move to z-safe height
G0 X1290.0000 Y1064.9000
M3S0
G4 P0.5; Tool On
G1 F300 Z0.0000
G1 F15000 X10.0000 Y1064.9000 Z0.0000
M3S245
G4 P0.5; Tool Off

G0 Z0; move to z-safe height
G0 X10.0000 Y1084.9000
M3S0
G4 P0.5; Tool On
G1 F300 Z0.0000
G1 F15000 X1290.0000 Y1084.9000 Z0.0000
M3S245
G4 P0.5; Tool Off

G0 Z0; move to z-safe height
G0 X1290.0000 Y1104.9000
M3S0
G4 P0.5; Tool On
G1 F300 Z0.0000
G1 F15000 X10.0000 Y1104.9000 Z0.0000
M3S245
G4 P0.5; Tool Off

G0 Z0; move to z-safe height
G0 X10.0000 Y1124.9000
M3S0
G4 P0.5; Tool On
G1 F300 Z0.0000
G1 F15000 X1290.0000 Y1124.9000 Z0.0000
M3S245
G4 P0.5; Tool Off

G0 Z0; move to z-safe height
G0 X1290.0000 Y1144.9000
M3S0
G4 P0.5; Tool On
G1 F300 Z0.0000
G1 F15000 X10.0000 Y1144.9000 Z0.0000
M3S245
G4 P0.5; Tool Off

G0 Z0; move to z-safe height
G0 X10.0000 Y1164.9000
M3S0
G4 P0.5; Tool On
G1 F300 Z0.0000
G1 F15000 X1290.0000 Y1164.9000 Z0.0000
M3S245
G4 P0.5; Tool Off

G0 Z0; move to z-safe height
G0 X1290.0000 Y1184.9000
M3S0
G4 P0.5; Tool On
G1 F300 Z0.0000
G1 F15000 X10.0000 Y1184.9000 Z0.0000
M3S245
G4 P0.5; Tool Off

G0 Z0; move to z-safe height
G0 X10.0000 Y1204.9000
M3S0
G4 P0.5; Tool On
G1 F300 Z0.0000
G1 F15000 X1290.0000 Y1204.9000 Z0.0000
M3S245
G4 P0.5; Tool Off

G0 Z0; move to z-safe height
G0 X1290.0000 Y1224.9000
M3S0
G4 P0.5; Tool On
G1 F300 Z0.0000
G1 F15000 X10.0000 Y1224.9000 Z0.0000
M3S245
G4 P0.5; Tool Off

G0 Z0; move to z-safe height
G0 X10.0000 Y1244.9000
M3S0
G4 P0.5; Tool On
G1 F300 Z0.0000
G1 F15000 X1290.0000 Y1244.9000 Z0.0000
M3S245
G4 P0.5; Tool Off

G0 Z0; move to z-safe height
G0 X1290.0000 Y1264.9000
M3S0
G4 P0.5; Tool On
G1 F300 Z0.0000
G1 F15000 X10.0000 Y1264.9000 Z0.0000
M3S245
G4 P0.5; Tool Off

G0 Z0; move to z-safe height
G0 X10.0000 Y1284.9000
M3S0
G4 P0.5; Tool On
G1 F300 Z0.0000
G1 F15000 X1290.0000 Y1284.9000 Z0.0000
M3S245
G4 P0.5; Tool Off
; retracting back to z-safe
G0 Z0

; Plotter Mode Complete
