; GCODE Generated by cam.openbuilds.com on 2023-11-22 
G21 ; mm-mode
G54; Work Coordinates
G21; mm-mode
G90; Absolute Positioning
; Plotter Mode Active

; Operation 0: Pen Plotter: (lines fill)
; Pen Diameter: 2

G0 Z0; move to z-safe height
G0 F1000 X1298.0000 Y5.5900
M3S0
G4 P0.5; Tool On
G1 F300 Z0.0000
G1 F15000 X2.0000 Y5.5900 Z0.0000
M3S245
G4 P0.5; Tool Off

G0 Z0; move to z-safe height
G0 X2.0000 Y9.5900
M3S0
G4 P0.5; Tool On
G1 F300 Z0.0000
G1 F15000 X1298.0000 Y9.5900 Z0.0000
M3S245
G4 P0.5; Tool Off

G0 Z0; move to z-safe height
G0 X1298.0000 Y13.5900
M3S0
G4 P0.5; Tool On
G1 F300 Z0.0000
G1 F15000 X2.0000 Y13.5900 Z0.0000
M3S245
G4 P0.5; Tool Off

G0 Z0; move to z-safe height
G0 X2.0000 Y17.5900
M3S0
G4 P0.5; Tool On
G1 F300 Z0.0000
G1 F15000 X1298.0000 Y17.5900 Z0.0000
M3S245
G4 P0.5; Tool Off

G0 Z0; move to z-safe height
G0 X1298.0000 Y21.5900
M3S0
G4 P0.5; Tool On
G1 F300 Z0.0000
G1 F15000 X2.0000 Y21.5900 Z0.0000
M3S245
G4 P0.5; Tool Off

G0 Z0; move to z-safe height
G0 X2.0000 Y25.5900
M3S0
G4 P0.5; Tool On
G1 F300 Z0.0000
G1 F15000 X1298.0000 Y25.5900 Z0.0000
M3S245
G4 P0.5; Tool Off

G0 Z0; move to z-safe height
G0 X1298.0000 Y29.5900
M3S0
G4 P0.5; Tool On
G1 F300 Z0.0000
G1 F15000 X2.0000 Y29.5900 Z0.0000
M3S245
G4 P0.5; Tool Off

G0 Z0; move to z-safe height
G0 X2.0000 Y33.5900
M3S0
G4 P0.5; Tool On
G1 F300 Z0.0000
G1 F15000 X1298.0000 Y33.5900 Z0.0000
M3S245
G4 P0.5; Tool Off

G0 Z0; move to z-safe height
G0 X1298.0000 Y37.5900
M3S0
G4 P0.5; Tool On
G1 F300 Z0.0000
G1 F15000 X2.0000 Y37.5900 Z0.0000
M3S245
G4 P0.5; Tool Off

G0 Z0; move to z-safe height
G0 X2.0000 Y41.5900
M3S0
G4 P0.5; Tool On
G1 F300 Z0.0000
G1 F15000 X1298.0000 Y41.5900 Z0.0000
M3S245
G4 P0.5; Tool Off

G0 Z0; move to z-safe height
G0 X1298.0000 Y45.5900
M3S0
G4 P0.5; Tool On
G1 F300 Z0.0000
G1 F15000 X2.0000 Y45.5900 Z0.0000
M3S245
G4 P0.5; Tool Off

G0 Z0; move to z-safe height
G0 X2.0000 Y49.5900
M3S0
G4 P0.5; Tool On
G1 F300 Z0.0000
G1 F15000 X1298.0000 Y49.5900 Z0.0000
M3S245
G4 P0.5; Tool Off

G0 Z0; move to z-safe height
G0 X1298.0000 Y53.5900
M3S0
G4 P0.5; Tool On
G1 F300 Z0.0000
G1 F15000 X2.0000 Y53.5900 Z0.0000
M3S245
G4 P0.5; Tool Off

G0 Z0; move to z-safe height
G0 X2.0000 Y57.5900
M3S0
G4 P0.5; Tool On
G1 F300 Z0.0000
G1 F15000 X1298.0000 Y57.5900 Z0.0000
M3S245
G4 P0.5; Tool Off

G0 Z0; move to z-safe height
G0 X1298.0000 Y61.5900
M3S0
G4 P0.5; Tool On
G1 F300 Z0.0000
G1 F15000 X2.0000 Y61.5900 Z0.0000
M3S245
G4 P0.5; Tool Off

G0 Z0; move to z-safe height
G0 X2.0000 Y65.5900
M3S0
G4 P0.5; Tool On
G1 F300 Z0.0000
G1 F15000 X1298.0000 Y65.5900 Z0.0000
M3S245
G4 P0.5; Tool Off

G0 Z0; move to z-safe height
G0 X1298.0000 Y69.5900
M3S0
G4 P0.5; Tool On
G1 F300 Z0.0000
G1 F15000 X2.0000 Y69.5900 Z0.0000
M3S245
G4 P0.5; Tool Off

G0 Z0; move to z-safe height
G0 X2.0000 Y73.5900
M3S0
G4 P0.5; Tool On
G1 F300 Z0.0000
G1 F15000 X1298.0000 Y73.5900 Z0.0000
M3S245
G4 P0.5; Tool Off

G0 Z0; move to z-safe height
G0 X1298.0000 Y77.5900
M3S0
G4 P0.5; Tool On
G1 F300 Z0.0000
G1 F15000 X2.0000 Y77.5900 Z0.0000
M3S245
G4 P0.5; Tool Off

G0 Z0; move to z-safe height
G0 X2.0000 Y81.5900
M3S0
G4 P0.5; Tool On
G1 F300 Z0.0000
G1 F15000 X1298.0000 Y81.5900 Z0.0000
M3S245
G4 P0.5; Tool Off

G0 Z0; move to z-safe height
G0 X1298.0000 Y85.5900
M3S0
G4 P0.5; Tool On
G1 F300 Z0.0000
G1 F15000 X2.0000 Y85.5900 Z0.0000
M3S245
G4 P0.5; Tool Off

G0 Z0; move to z-safe height
G0 X2.0000 Y89.5900
M3S0
G4 P0.5; Tool On
G1 F300 Z0.0000
G1 F15000 X1298.0000 Y89.5900 Z0.0000
M3S245
G4 P0.5; Tool Off

G0 Z0; move to z-safe height
G0 X1298.0000 Y93.5900
M3S0
G4 P0.5; Tool On
G1 F300 Z0.0000
G1 F15000 X2.0000 Y93.5900 Z0.0000
M3S245
G4 P0.5; Tool Off

G0 Z0; move to z-safe height
G0 X2.0000 Y97.5900
M3S0
G4 P0.5; Tool On
G1 F300 Z0.0000
G1 F15000 X1298.0000 Y97.5900 Z0.0000
M3S245
G4 P0.5; Tool Off

G0 Z0; move to z-safe height
G0 X1298.0000 Y101.5900
M3S0
G4 P0.5; Tool On
G1 F300 Z0.0000
G1 F15000 X2.0000 Y101.5900 Z0.0000
M3S245
G4 P0.5; Tool Off

G0 Z0; move to z-safe height
G0 X2.0000 Y105.5900
M3S0
G4 P0.5; Tool On
G1 F300 Z0.0000
G1 F15000 X1298.0000 Y105.5900 Z0.0000
M3S245
G4 P0.5; Tool Off

G0 Z0; move to z-safe height
G0 X1298.0000 Y109.5900
M3S0
G4 P0.5; Tool On
G1 F300 Z0.0000
G1 F15000 X2.0000 Y109.5900 Z0.0000
M3S245
G4 P0.5; Tool Off

G0 Z0; move to z-safe height
G0 X2.0000 Y113.5900
M3S0
G4 P0.5; Tool On
G1 F300 Z0.0000
G1 F15000 X1298.0000 Y113.5900 Z0.0000
M3S245
G4 P0.5; Tool Off

G0 Z0; move to z-safe height
G0 X1298.0000 Y117.5900
M3S0
G4 P0.5; Tool On
G1 F300 Z0.0000
G1 F15000 X2.0000 Y117.5900 Z0.0000
M3S245
G4 P0.5; Tool Off

G0 Z0; move to z-safe height
G0 X2.0000 Y121.5900
M3S0
G4 P0.5; Tool On
G1 F300 Z0.0000
G1 F15000 X1298.0000 Y121.5900 Z0.0000
M3S245
G4 P0.5; Tool Off

G0 Z0; move to z-safe height
G0 X1298.0000 Y125.5900
M3S0
G4 P0.5; Tool On
G1 F300 Z0.0000
G1 F15000 X2.0000 Y125.5900 Z0.0000
M3S245
G4 P0.5; Tool Off

G0 Z0; move to z-safe height
G0 X2.0000 Y129.5900
M3S0
G4 P0.5; Tool On
G1 F300 Z0.0000
G1 F15000 X1298.0000 Y129.5900 Z0.0000
M3S245
G4 P0.5; Tool Off

G0 Z0; move to z-safe height
G0 X1298.0000 Y133.5900
M3S0
G4 P0.5; Tool On
G1 F300 Z0.0000
G1 F15000 X2.0000 Y133.5900 Z0.0000
M3S245
G4 P0.5; Tool Off

G0 Z0; move to z-safe height
G0 X2.0000 Y137.5900
M3S0
G4 P0.5; Tool On
G1 F300 Z0.0000
G1 F15000 X1298.0000 Y137.5900 Z0.0000
M3S245
G4 P0.5; Tool Off

G0 Z0; move to z-safe height
G0 X1298.0000 Y141.5900
M3S0
G4 P0.5; Tool On
G1 F300 Z0.0000
G1 F15000 X2.0000 Y141.5900 Z0.0000
M3S245
G4 P0.5; Tool Off

G0 Z0; move to z-safe height
G0 X2.0000 Y145.5900
M3S0
G4 P0.5; Tool On
G1 F300 Z0.0000
G1 F15000 X1298.0000 Y145.5900 Z0.0000
M3S245
G4 P0.5; Tool Off

G0 Z0; move to z-safe height
G0 X1298.0000 Y149.5900
M3S0
G4 P0.5; Tool On
G1 F300 Z0.0000
G1 F15000 X2.0000 Y149.5900 Z0.0000
M3S245
G4 P0.5; Tool Off

G0 Z0; move to z-safe height
G0 X2.0000 Y153.5900
M3S0
G4 P0.5; Tool On
G1 F300 Z0.0000
G1 F15000 X1298.0000 Y153.5900 Z0.0000
M3S245
G4 P0.5; Tool Off

G0 Z0; move to z-safe height
G0 X1298.0000 Y157.5900
M3S0
G4 P0.5; Tool On
G1 F300 Z0.0000
G1 F15000 X2.0000 Y157.5900 Z0.0000
M3S245
G4 P0.5; Tool Off

G0 Z0; move to z-safe height
G0 X2.0000 Y161.5900
M3S0
G4 P0.5; Tool On
G1 F300 Z0.0000
G1 F15000 X1298.0000 Y161.5900 Z0.0000
M3S245
G4 P0.5; Tool Off

G0 Z0; move to z-safe height
G0 X1298.0000 Y165.5900
M3S0
G4 P0.5; Tool On
G1 F300 Z0.0000
G1 F15000 X2.0000 Y165.5900 Z0.0000
M3S245
G4 P0.5; Tool Off

G0 Z0; move to z-safe height
G0 X2.0000 Y169.5900
M3S0
G4 P0.5; Tool On
G1 F300 Z0.0000
G1 F15000 X1298.0000 Y169.5900 Z0.0000
M3S245
G4 P0.5; Tool Off

G0 Z0; move to z-safe height
G0 X1298.0000 Y173.5900
M3S0
G4 P0.5; Tool On
G1 F300 Z0.0000
G1 F15000 X2.0000 Y173.5900 Z0.0000
M3S245
G4 P0.5; Tool Off

G0 Z0; move to z-safe height
G0 X2.0000 Y177.5900
M3S0
G4 P0.5; Tool On
G1 F300 Z0.0000
G1 F15000 X1298.0000 Y177.5900 Z0.0000
M3S245
G4 P0.5; Tool Off

G0 Z0; move to z-safe height
G0 X1298.0000 Y181.5900
M3S0
G4 P0.5; Tool On
G1 F300 Z0.0000
G1 F15000 X2.0000 Y181.5900 Z0.0000
M3S245
G4 P0.5; Tool Off

G0 Z0; move to z-safe height
G0 X2.0000 Y185.5900
M3S0
G4 P0.5; Tool On
G1 F300 Z0.0000
G1 F15000 X1298.0000 Y185.5900 Z0.0000
M3S245
G4 P0.5; Tool Off

G0 Z0; move to z-safe height
G0 X1298.0000 Y189.5900
M3S0
G4 P0.5; Tool On
G1 F300 Z0.0000
G1 F15000 X2.0000 Y189.5900 Z0.0000
M3S245
G4 P0.5; Tool Off

G0 Z0; move to z-safe height
G0 X2.0000 Y193.5900
M3S0
G4 P0.5; Tool On
G1 F300 Z0.0000
G1 F15000 X1298.0000 Y193.5900 Z0.0000
M3S245
G4 P0.5; Tool Off

G0 Z0; move to z-safe height
G0 X1298.0000 Y197.5900
M3S0
G4 P0.5; Tool On
G1 F300 Z0.0000
G1 F15000 X2.0000 Y197.5900 Z0.0000
M3S245
G4 P0.5; Tool Off

G0 Z0; move to z-safe height
G0 X2.0000 Y201.5900
M3S0
G4 P0.5; Tool On
G1 F300 Z0.0000
G1 F15000 X1298.0000 Y201.5900 Z0.0000
M3S245
G4 P0.5; Tool Off

G0 Z0; move to z-safe height
G0 X1298.0000 Y205.5900
M3S0
G4 P0.5; Tool On
G1 F300 Z0.0000
G1 F15000 X2.0000 Y205.5900 Z0.0000
M3S245
G4 P0.5; Tool Off

G0 Z0; move to z-safe height
G0 X2.0000 Y209.5900
M3S0
G4 P0.5; Tool On
G1 F300 Z0.0000
G1 F15000 X1298.0000 Y209.5900 Z0.0000
M3S245
G4 P0.5; Tool Off

G0 Z0; move to z-safe height
G0 X1298.0000 Y213.5900
M3S0
G4 P0.5; Tool On
G1 F300 Z0.0000
G1 F15000 X2.0000 Y213.5900 Z0.0000
M3S245
G4 P0.5; Tool Off

G0 Z0; move to z-safe height
G0 X2.0000 Y217.5900
M3S0
G4 P0.5; Tool On
G1 F300 Z0.0000
G1 F15000 X1298.0000 Y217.5900 Z0.0000
M3S245
G4 P0.5; Tool Off

G0 Z0; move to z-safe height
G0 X1298.0000 Y221.5900
M3S0
G4 P0.5; Tool On
G1 F300 Z0.0000
G1 F15000 X2.0000 Y221.5900 Z0.0000
M3S245
G4 P0.5; Tool Off

G0 Z0; move to z-safe height
G0 X2.0000 Y225.5900
M3S0
G4 P0.5; Tool On
G1 F300 Z0.0000
G1 F15000 X1298.0000 Y225.5900 Z0.0000
M3S245
G4 P0.5; Tool Off

G0 Z0; move to z-safe height
G0 X1298.0000 Y229.5900
M3S0
G4 P0.5; Tool On
G1 F300 Z0.0000
G1 F15000 X2.0000 Y229.5900 Z0.0000
M3S245
G4 P0.5; Tool Off

G0 Z0; move to z-safe height
G0 X2.0000 Y233.5900
M3S0
G4 P0.5; Tool On
G1 F300 Z0.0000
G1 F15000 X1298.0000 Y233.5900 Z0.0000
M3S245
G4 P0.5; Tool Off

G0 Z0; move to z-safe height
G0 X1298.0000 Y237.5900
M3S0
G4 P0.5; Tool On
G1 F300 Z0.0000
G1 F15000 X2.0000 Y237.5900 Z0.0000
M3S245
G4 P0.5; Tool Off

G0 Z0; move to z-safe height
G0 X2.0000 Y241.5900
M3S0
G4 P0.5; Tool On
G1 F300 Z0.0000
G1 F15000 X1298.0000 Y241.5900 Z0.0000
M3S245
G4 P0.5; Tool Off

G0 Z0; move to z-safe height
G0 X1298.0000 Y245.5900
M3S0
G4 P0.5; Tool On
G1 F300 Z0.0000
G1 F15000 X2.0000 Y245.5900 Z0.0000
M3S245
G4 P0.5; Tool Off

G0 Z0; move to z-safe height
G0 X2.0000 Y249.5900
M3S0
G4 P0.5; Tool On
G1 F300 Z0.0000
G1 F15000 X1298.0000 Y249.5900 Z0.0000
M3S245
G4 P0.5; Tool Off

G0 Z0; move to z-safe height
G0 X1298.0000 Y253.5900
M3S0
G4 P0.5; Tool On
G1 F300 Z0.0000
G1 F15000 X2.0000 Y253.5900 Z0.0000
M3S245
G4 P0.5; Tool Off

G0 Z0; move to z-safe height
G0 X2.0000 Y257.5900
M3S0
G4 P0.5; Tool On
G1 F300 Z0.0000
G1 F15000 X1298.0000 Y257.5900 Z0.0000
M3S245
G4 P0.5; Tool Off

G0 Z0; move to z-safe height
G0 X1298.0000 Y261.5900
M3S0
G4 P0.5; Tool On
G1 F300 Z0.0000
G1 F15000 X2.0000 Y261.5900 Z0.0000
M3S245
G4 P0.5; Tool Off

G0 Z0; move to z-safe height
G0 X2.0000 Y265.5900
M3S0
G4 P0.5; Tool On
G1 F300 Z0.0000
G1 F15000 X1298.0000 Y265.5900 Z0.0000
M3S245
G4 P0.5; Tool Off

G0 Z0; move to z-safe height
G0 X1298.0000 Y269.5900
M3S0
G4 P0.5; Tool On
G1 F300 Z0.0000
G1 F15000 X2.0000 Y269.5900 Z0.0000
M3S245
G4 P0.5; Tool Off

G0 Z0; move to z-safe height
G0 X2.0000 Y273.5900
M3S0
G4 P0.5; Tool On
G1 F300 Z0.0000
G1 F15000 X1298.0000 Y273.5900 Z0.0000
M3S245
G4 P0.5; Tool Off

G0 Z0; move to z-safe height
G0 X1298.0000 Y277.5900
M3S0
G4 P0.5; Tool On
G1 F300 Z0.0000
G1 F15000 X2.0000 Y277.5900 Z0.0000
M3S245
G4 P0.5; Tool Off

G0 Z0; move to z-safe height
G0 X2.0000 Y281.5900
M3S0
G4 P0.5; Tool On
G1 F300 Z0.0000
G1 F15000 X1298.0000 Y281.5900 Z0.0000
M3S245
G4 P0.5; Tool Off

G0 Z0; move to z-safe height
G0 X1298.0000 Y285.5900
M3S0
G4 P0.5; Tool On
G1 F300 Z0.0000
G1 F15000 X2.0000 Y285.5900 Z0.0000
M3S245
G4 P0.5; Tool Off

G0 Z0; move to z-safe height
G0 X2.0000 Y289.5900
M3S0
G4 P0.5; Tool On
G1 F300 Z0.0000
G1 F15000 X1298.0000 Y289.5900 Z0.0000
M3S245
G4 P0.5; Tool Off

G0 Z0; move to z-safe height
G0 X1298.0000 Y293.5900
M3S0
G4 P0.5; Tool On
G1 F300 Z0.0000
G1 F15000 X2.0000 Y293.5900 Z0.0000
M3S245
G4 P0.5; Tool Off

G0 Z0; move to z-safe height
G0 X2.0000 Y297.5900
M3S0
G4 P0.5; Tool On
G1 F300 Z0.0000
G1 F15000 X1298.0000 Y297.5900 Z0.0000
M3S245
G4 P0.5; Tool Off

G0 Z0; move to z-safe height
G0 X1298.0000 Y301.5900
M3S0
G4 P0.5; Tool On
G1 F300 Z0.0000
G1 F15000 X2.0000 Y301.5900 Z0.0000
M3S245
G4 P0.5; Tool Off

G0 Z0; move to z-safe height
G0 X2.0000 Y305.5900
M3S0
G4 P0.5; Tool On
G1 F300 Z0.0000
G1 F15000 X1298.0000 Y305.5900 Z0.0000
M3S245
G4 P0.5; Tool Off

G0 Z0; move to z-safe height
G0 X1298.0000 Y309.5900
M3S0
G4 P0.5; Tool On
G1 F300 Z0.0000
G1 F15000 X2.0000 Y309.5900 Z0.0000
M3S245
G4 P0.5; Tool Off

G0 Z0; move to z-safe height
G0 X2.0000 Y313.5900
M3S0
G4 P0.5; Tool On
G1 F300 Z0.0000
G1 F15000 X1298.0000 Y313.5900 Z0.0000
M3S245
G4 P0.5; Tool Off

G0 Z0; move to z-safe height
G0 X1298.0000 Y317.5900
M3S0
G4 P0.5; Tool On
G1 F300 Z0.0000
G1 F15000 X2.0000 Y317.5900 Z0.0000
M3S245
G4 P0.5; Tool Off

G0 Z0; move to z-safe height
G0 X2.0000 Y321.5900
M3S0
G4 P0.5; Tool On
G1 F300 Z0.0000
G1 F15000 X1298.0000 Y321.5900 Z0.0000
M3S245
G4 P0.5; Tool Off

G0 Z0; move to z-safe height
G0 X1298.0000 Y325.5900
M3S0
G4 P0.5; Tool On
G1 F300 Z0.0000
G1 F15000 X2.0000 Y325.5900 Z0.0000
M3S245
G4 P0.5; Tool Off

G0 Z0; move to z-safe height
G0 X2.0000 Y329.5900
M3S0
G4 P0.5; Tool On
G1 F300 Z0.0000
G1 F15000 X1298.0000 Y329.5900 Z0.0000
M3S245
G4 P0.5; Tool Off

G0 Z0; move to z-safe height
G0 X1298.0000 Y333.5900
M3S0
G4 P0.5; Tool On
G1 F300 Z0.0000
G1 F15000 X2.0000 Y333.5900 Z0.0000
M3S245
G4 P0.5; Tool Off

G0 Z0; move to z-safe height
G0 X2.0000 Y337.5900
M3S0
G4 P0.5; Tool On
G1 F300 Z0.0000
G1 F15000 X1298.0000 Y337.5900 Z0.0000
M3S245
G4 P0.5; Tool Off

G0 Z0; move to z-safe height
G0 X1298.0000 Y341.5900
M3S0
G4 P0.5; Tool On
G1 F300 Z0.0000
G1 F15000 X2.0000 Y341.5900 Z0.0000
M3S245
G4 P0.5; Tool Off

G0 Z0; move to z-safe height
G0 X2.0000 Y345.5900
M3S0
G4 P0.5; Tool On
G1 F300 Z0.0000
G1 F15000 X1298.0000 Y345.5900 Z0.0000
M3S245
G4 P0.5; Tool Off

G0 Z0; move to z-safe height
G0 X1298.0000 Y349.5900
M3S0
G4 P0.5; Tool On
G1 F300 Z0.0000
G1 F15000 X2.0000 Y349.5900 Z0.0000
M3S245
G4 P0.5; Tool Off

G0 Z0; move to z-safe height
G0 X2.0000 Y353.5900
M3S0
G4 P0.5; Tool On
G1 F300 Z0.0000
G1 F15000 X1298.0000 Y353.5900 Z0.0000
M3S245
G4 P0.5; Tool Off

G0 Z0; move to z-safe height
G0 X1298.0000 Y357.5900
M3S0
G4 P0.5; Tool On
G1 F300 Z0.0000
G1 F15000 X2.0000 Y357.5900 Z0.0000
M3S245
G4 P0.5; Tool Off

G0 Z0; move to z-safe height
G0 X2.0000 Y361.5900
M3S0
G4 P0.5; Tool On
G1 F300 Z0.0000
G1 F15000 X1298.0000 Y361.5900 Z0.0000
M3S245
G4 P0.5; Tool Off

G0 Z0; move to z-safe height
G0 X1298.0000 Y365.5900
M3S0
G4 P0.5; Tool On
G1 F300 Z0.0000
G1 F15000 X2.0000 Y365.5900 Z0.0000
M3S245
G4 P0.5; Tool Off

G0 Z0; move to z-safe height
G0 X2.0000 Y369.5900
M3S0
G4 P0.5; Tool On
G1 F300 Z0.0000
G1 F15000 X1298.0000 Y369.5900 Z0.0000
M3S245
G4 P0.5; Tool Off

G0 Z0; move to z-safe height
G0 X1298.0000 Y373.5900
M3S0
G4 P0.5; Tool On
G1 F300 Z0.0000
G1 F15000 X2.0000 Y373.5900 Z0.0000
M3S245
G4 P0.5; Tool Off

G0 Z0; move to z-safe height
G0 X2.0000 Y377.5900
M3S0
G4 P0.5; Tool On
G1 F300 Z0.0000
G1 F15000 X1298.0000 Y377.5900 Z0.0000
M3S245
G4 P0.5; Tool Off

G0 Z0; move to z-safe height
G0 X1298.0000 Y381.5900
M3S0
G4 P0.5; Tool On
G1 F300 Z0.0000
G1 F15000 X2.0000 Y381.5900 Z0.0000
M3S245
G4 P0.5; Tool Off

G0 Z0; move to z-safe height
G0 X2.0000 Y385.5900
M3S0
G4 P0.5; Tool On
G1 F300 Z0.0000
G1 F15000 X1298.0000 Y385.5900 Z0.0000
M3S245
G4 P0.5; Tool Off

G0 Z0; move to z-safe height
G0 X1298.0000 Y389.5900
M3S0
G4 P0.5; Tool On
G1 F300 Z0.0000
G1 F15000 X2.0000 Y389.5900 Z0.0000
M3S245
G4 P0.5; Tool Off

G0 Z0; move to z-safe height
G0 X2.0000 Y393.5900
M3S0
G4 P0.5; Tool On
G1 F300 Z0.0000
G1 F15000 X1298.0000 Y393.5900 Z0.0000
M3S245
G4 P0.5; Tool Off

G0 Z0; move to z-safe height
G0 X1298.0000 Y397.5900
M3S0
G4 P0.5; Tool On
G1 F300 Z0.0000
G1 F15000 X2.0000 Y397.5900 Z0.0000
M3S245
G4 P0.5; Tool Off

G0 Z0; move to z-safe height
G0 X2.0000 Y401.5900
M3S0
G4 P0.5; Tool On
G1 F300 Z0.0000
G1 F15000 X1298.0000 Y401.5900 Z0.0000
M3S245
G4 P0.5; Tool Off

G0 Z0; move to z-safe height
G0 X1298.0000 Y405.5900
M3S0
G4 P0.5; Tool On
G1 F300 Z0.0000
G1 F15000 X2.0000 Y405.5900 Z0.0000
M3S245
G4 P0.5; Tool Off

G0 Z0; move to z-safe height
G0 X2.0000 Y409.5900
M3S0
G4 P0.5; Tool On
G1 F300 Z0.0000
G1 F15000 X1298.0000 Y409.5900 Z0.0000
M3S245
G4 P0.5; Tool Off

G0 Z0; move to z-safe height
G0 X1298.0000 Y413.5900
M3S0
G4 P0.5; Tool On
G1 F300 Z0.0000
G1 F15000 X2.0000 Y413.5900 Z0.0000
M3S245
G4 P0.5; Tool Off

G0 Z0; move to z-safe height
G0 X2.0000 Y417.5900
M3S0
G4 P0.5; Tool On
G1 F300 Z0.0000
G1 F15000 X1298.0000 Y417.5900 Z0.0000
M3S245
G4 P0.5; Tool Off

G0 Z0; move to z-safe height
G0 X1298.0000 Y421.5900
M3S0
G4 P0.5; Tool On
G1 F300 Z0.0000
G1 F15000 X2.0000 Y421.5900 Z0.0000
M3S245
G4 P0.5; Tool Off

G0 Z0; move to z-safe height
G0 X2.0000 Y425.5900
M3S0
G4 P0.5; Tool On
G1 F300 Z0.0000
G1 F15000 X1298.0000 Y425.5900 Z0.0000
M3S245
G4 P0.5; Tool Off

G0 Z0; move to z-safe height
G0 X1298.0000 Y429.5900
M3S0
G4 P0.5; Tool On
G1 F300 Z0.0000
G1 F15000 X2.0000 Y429.5900 Z0.0000
M3S245
G4 P0.5; Tool Off

G0 Z0; move to z-safe height
G0 X2.0000 Y433.5900
M3S0
G4 P0.5; Tool On
G1 F300 Z0.0000
G1 F15000 X1298.0000 Y433.5900 Z0.0000
M3S245
G4 P0.5; Tool Off

G0 Z0; move to z-safe height
G0 X1298.0000 Y437.5900
M3S0
G4 P0.5; Tool On
G1 F300 Z0.0000
G1 F15000 X2.0000 Y437.5900 Z0.0000
M3S245
G4 P0.5; Tool Off

G0 Z0; move to z-safe height
G0 X2.0000 Y441.5900
M3S0
G4 P0.5; Tool On
G1 F300 Z0.0000
G1 F15000 X1298.0000 Y441.5900 Z0.0000
M3S245
G4 P0.5; Tool Off

G0 Z0; move to z-safe height
G0 X1298.0000 Y445.5900
M3S0
G4 P0.5; Tool On
G1 F300 Z0.0000
G1 F15000 X2.0000 Y445.5900 Z0.0000
M3S245
G4 P0.5; Tool Off

G0 Z0; move to z-safe height
G0 X2.0000 Y449.5900
M3S0
G4 P0.5; Tool On
G1 F300 Z0.0000
G1 F15000 X1298.0000 Y449.5900 Z0.0000
M3S245
G4 P0.5; Tool Off

G0 Z0; move to z-safe height
G0 X1298.0000 Y453.5900
M3S0
G4 P0.5; Tool On
G1 F300 Z0.0000
G1 F15000 X2.0000 Y453.5900 Z0.0000
M3S245
G4 P0.5; Tool Off

G0 Z0; move to z-safe height
G0 X2.0000 Y457.5900
M3S0
G4 P0.5; Tool On
G1 F300 Z0.0000
G1 F15000 X1298.0000 Y457.5900 Z0.0000
M3S245
G4 P0.5; Tool Off

G0 Z0; move to z-safe height
G0 X1298.0000 Y461.5900
M3S0
G4 P0.5; Tool On
G1 F300 Z0.0000
G1 F15000 X2.0000 Y461.5900 Z0.0000
M3S245
G4 P0.5; Tool Off

G0 Z0; move to z-safe height
G0 X2.0000 Y465.5900
M3S0
G4 P0.5; Tool On
G1 F300 Z0.0000
G1 F15000 X1298.0000 Y465.5900 Z0.0000
M3S245
G4 P0.5; Tool Off

G0 Z0; move to z-safe height
G0 X1298.0000 Y469.5900
M3S0
G4 P0.5; Tool On
G1 F300 Z0.0000
G1 F15000 X2.0000 Y469.5900 Z0.0000
M3S245
G4 P0.5; Tool Off

G0 Z0; move to z-safe height
G0 X2.0000 Y473.5900
M3S0
G4 P0.5; Tool On
G1 F300 Z0.0000
G1 F15000 X1298.0000 Y473.5900 Z0.0000
M3S245
G4 P0.5; Tool Off

G0 Z0; move to z-safe height
G0 X1298.0000 Y477.5900
M3S0
G4 P0.5; Tool On
G1 F300 Z0.0000
G1 F15000 X2.0000 Y477.5900 Z0.0000
M3S245
G4 P0.5; Tool Off

G0 Z0; move to z-safe height
G0 X2.0000 Y481.5900
M3S0
G4 P0.5; Tool On
G1 F300 Z0.0000
G1 F15000 X1298.0000 Y481.5900 Z0.0000
M3S245
G4 P0.5; Tool Off

G0 Z0; move to z-safe height
G0 X1298.0000 Y485.5900
M3S0
G4 P0.5; Tool On
G1 F300 Z0.0000
G1 F15000 X2.0000 Y485.5900 Z0.0000
M3S245
G4 P0.5; Tool Off

G0 Z0; move to z-safe height
G0 X2.0000 Y489.5900
M3S0
G4 P0.5; Tool On
G1 F300 Z0.0000
G1 F15000 X1298.0000 Y489.5900 Z0.0000
M3S245
G4 P0.5; Tool Off

G0 Z0; move to z-safe height
G0 X1298.0000 Y493.5900
M3S0
G4 P0.5; Tool On
G1 F300 Z0.0000
G1 F15000 X2.0000 Y493.5900 Z0.0000
M3S245
G4 P0.5; Tool Off

G0 Z0; move to z-safe height
G0 X2.0000 Y497.5900
M3S0
G4 P0.5; Tool On
G1 F300 Z0.0000
G1 F15000 X1298.0000 Y497.5900 Z0.0000
M3S245
G4 P0.5; Tool Off

G0 Z0; move to z-safe height
G0 X1298.0000 Y501.5900
M3S0
G4 P0.5; Tool On
G1 F300 Z0.0000
G1 F15000 X2.0000 Y501.5900 Z0.0000
M3S245
G4 P0.5; Tool Off

G0 Z0; move to z-safe height
G0 X2.0000 Y505.5900
M3S0
G4 P0.5; Tool On
G1 F300 Z0.0000
G1 F15000 X1298.0000 Y505.5900 Z0.0000
M3S245
G4 P0.5; Tool Off

G0 Z0; move to z-safe height
G0 X1298.0000 Y509.5900
M3S0
G4 P0.5; Tool On
G1 F300 Z0.0000
G1 F15000 X2.0000 Y509.5900 Z0.0000
M3S245
G4 P0.5; Tool Off

G0 Z0; move to z-safe height
G0 X2.0000 Y513.5900
M3S0
G4 P0.5; Tool On
G1 F300 Z0.0000
G1 F15000 X1298.0000 Y513.5900 Z0.0000
M3S245
G4 P0.5; Tool Off

G0 Z0; move to z-safe height
G0 X1298.0000 Y517.5900
M3S0
G4 P0.5; Tool On
G1 F300 Z0.0000
G1 F15000 X2.0000 Y517.5900 Z0.0000
M3S245
G4 P0.5; Tool Off

G0 Z0; move to z-safe height
G0 X2.0000 Y521.5900
M3S0
G4 P0.5; Tool On
G1 F300 Z0.0000
G1 F15000 X1298.0000 Y521.5900 Z0.0000
M3S245
G4 P0.5; Tool Off

G0 Z0; move to z-safe height
G0 X1298.0000 Y525.5900
M3S0
G4 P0.5; Tool On
G1 F300 Z0.0000
G1 F15000 X2.0000 Y525.5900 Z0.0000
M3S245
G4 P0.5; Tool Off

G0 Z0; move to z-safe height
G0 X2.0000 Y529.5900
M3S0
G4 P0.5; Tool On
G1 F300 Z0.0000
G1 F15000 X1298.0000 Y529.5900 Z0.0000
M3S245
G4 P0.5; Tool Off

G0 Z0; move to z-safe height
G0 X1298.0000 Y533.5900
M3S0
G4 P0.5; Tool On
G1 F300 Z0.0000
G1 F15000 X2.0000 Y533.5900 Z0.0000
M3S245
G4 P0.5; Tool Off

G0 Z0; move to z-safe height
G0 X2.0000 Y537.5900
M3S0
G4 P0.5; Tool On
G1 F300 Z0.0000
G1 F15000 X1298.0000 Y537.5900 Z0.0000
M3S245
G4 P0.5; Tool Off

G0 Z0; move to z-safe height
G0 X1298.0000 Y541.5900
M3S0
G4 P0.5; Tool On
G1 F300 Z0.0000
G1 F15000 X2.0000 Y541.5900 Z0.0000
M3S245
G4 P0.5; Tool Off

G0 Z0; move to z-safe height
G0 X2.0000 Y545.5900
M3S0
G4 P0.5; Tool On
G1 F300 Z0.0000
G1 F15000 X1298.0000 Y545.5900 Z0.0000
M3S245
G4 P0.5; Tool Off

G0 Z0; move to z-safe height
G0 X1298.0000 Y549.5900
M3S0
G4 P0.5; Tool On
G1 F300 Z0.0000
G1 F15000 X2.0000 Y549.5900 Z0.0000
M3S245
G4 P0.5; Tool Off

G0 Z0; move to z-safe height
G0 X2.0000 Y553.5900
M3S0
G4 P0.5; Tool On
G1 F300 Z0.0000
G1 F15000 X1298.0000 Y553.5900 Z0.0000
M3S245
G4 P0.5; Tool Off

G0 Z0; move to z-safe height
G0 X1298.0000 Y557.5900
M3S0
G4 P0.5; Tool On
G1 F300 Z0.0000
G1 F15000 X2.0000 Y557.5900 Z0.0000
M3S245
G4 P0.5; Tool Off

G0 Z0; move to z-safe height
G0 X2.0000 Y561.5900
M3S0
G4 P0.5; Tool On
G1 F300 Z0.0000
G1 F15000 X1298.0000 Y561.5900 Z0.0000
M3S245
G4 P0.5; Tool Off

G0 Z0; move to z-safe height
G0 X1298.0000 Y565.5900
M3S0
G4 P0.5; Tool On
G1 F300 Z0.0000
G1 F15000 X2.0000 Y565.5900 Z0.0000
M3S245
G4 P0.5; Tool Off

G0 Z0; move to z-safe height
G0 X2.0000 Y569.5900
M3S0
G4 P0.5; Tool On
G1 F300 Z0.0000
G1 F15000 X1298.0000 Y569.5900 Z0.0000
M3S245
G4 P0.5; Tool Off

G0 Z0; move to z-safe height
G0 X1298.0000 Y573.5900
M3S0
G4 P0.5; Tool On
G1 F300 Z0.0000
G1 F15000 X2.0000 Y573.5900 Z0.0000
M3S245
G4 P0.5; Tool Off

G0 Z0; move to z-safe height
G0 X2.0000 Y577.5900
M3S0
G4 P0.5; Tool On
G1 F300 Z0.0000
G1 F15000 X1298.0000 Y577.5900 Z0.0000
M3S245
G4 P0.5; Tool Off

G0 Z0; move to z-safe height
G0 X1298.0000 Y581.5900
M3S0
G4 P0.5; Tool On
G1 F300 Z0.0000
G1 F15000 X2.0000 Y581.5900 Z0.0000
M3S245
G4 P0.5; Tool Off

G0 Z0; move to z-safe height
G0 X2.0000 Y585.5900
M3S0
G4 P0.5; Tool On
G1 F300 Z0.0000
G1 F15000 X1298.0000 Y585.5900 Z0.0000
M3S245
G4 P0.5; Tool Off

G0 Z0; move to z-safe height
G0 X1298.0000 Y589.5900
M3S0
G4 P0.5; Tool On
G1 F300 Z0.0000
G1 F15000 X2.0000 Y589.5900 Z0.0000
M3S245
G4 P0.5; Tool Off

G0 Z0; move to z-safe height
G0 X2.0000 Y593.5900
M3S0
G4 P0.5; Tool On
G1 F300 Z0.0000
G1 F15000 X1298.0000 Y593.5900 Z0.0000
M3S245
G4 P0.5; Tool Off

G0 Z0; move to z-safe height
G0 X1298.0000 Y597.5900
M3S0
G4 P0.5; Tool On
G1 F300 Z0.0000
G1 F15000 X2.0000 Y597.5900 Z0.0000
M3S245
G4 P0.5; Tool Off

G0 Z0; move to z-safe height
G0 X2.0000 Y601.5900
M3S0
G4 P0.5; Tool On
G1 F300 Z0.0000
G1 F15000 X1298.0000 Y601.5900 Z0.0000
M3S245
G4 P0.5; Tool Off

G0 Z0; move to z-safe height
G0 X1298.0000 Y605.5900
M3S0
G4 P0.5; Tool On
G1 F300 Z0.0000
G1 F15000 X2.0000 Y605.5900 Z0.0000
M3S245
G4 P0.5; Tool Off

G0 Z0; move to z-safe height
G0 X2.0000 Y609.5900
M3S0
G4 P0.5; Tool On
G1 F300 Z0.0000
G1 F15000 X1298.0000 Y609.5900 Z0.0000
M3S245
G4 P0.5; Tool Off

G0 Z0; move to z-safe height
G0 X1298.0000 Y613.5900
M3S0
G4 P0.5; Tool On
G1 F300 Z0.0000
G1 F15000 X2.0000 Y613.5900 Z0.0000
M3S245
G4 P0.5; Tool Off

G0 Z0; move to z-safe height
G0 X2.0000 Y617.5900
M3S0
G4 P0.5; Tool On
G1 F300 Z0.0000
G1 F15000 X1298.0000 Y617.5900 Z0.0000
M3S245
G4 P0.5; Tool Off

G0 Z0; move to z-safe height
G0 X1298.0000 Y621.5900
M3S0
G4 P0.5; Tool On
G1 F300 Z0.0000
G1 F15000 X2.0000 Y621.5900 Z0.0000
M3S245
G4 P0.5; Tool Off

G0 Z0; move to z-safe height
G0 X2.0000 Y625.5900
M3S0
G4 P0.5; Tool On
G1 F300 Z0.0000
G1 F15000 X1298.0000 Y625.5900 Z0.0000
M3S245
G4 P0.5; Tool Off

G0 Z0; move to z-safe height
G0 X1298.0000 Y629.5900
M3S0
G4 P0.5; Tool On
G1 F300 Z0.0000
G1 F15000 X2.0000 Y629.5900 Z0.0000
M3S245
G4 P0.5; Tool Off

G0 Z0; move to z-safe height
G0 X2.0000 Y633.5900
M3S0
G4 P0.5; Tool On
G1 F300 Z0.0000
G1 F15000 X1298.0000 Y633.5900 Z0.0000
M3S245
G4 P0.5; Tool Off

G0 Z0; move to z-safe height
G0 X1298.0000 Y637.5900
M3S0
G4 P0.5; Tool On
G1 F300 Z0.0000
G1 F15000 X2.0000 Y637.5900 Z0.0000
M3S245
G4 P0.5; Tool Off

G0 Z0; move to z-safe height
G0 X2.0000 Y641.5900
M3S0
G4 P0.5; Tool On
G1 F300 Z0.0000
G1 F15000 X1298.0000 Y641.5900 Z0.0000
M3S245
G4 P0.5; Tool Off

G0 Z0; move to z-safe height
G0 X1298.0000 Y645.5900
M3S0
G4 P0.5; Tool On
G1 F300 Z0.0000
G1 F15000 X2.0000 Y645.5900 Z0.0000
M3S245
G4 P0.5; Tool Off

G0 Z0; move to z-safe height
G0 X2.0000 Y649.5900
M3S0
G4 P0.5; Tool On
G1 F300 Z0.0000
G1 F15000 X1298.0000 Y649.5900 Z0.0000
M3S245
G4 P0.5; Tool Off

G0 Z0; move to z-safe height
G0 X1298.0000 Y653.5900
M3S0
G4 P0.5; Tool On
G1 F300 Z0.0000
G1 F15000 X2.0000 Y653.5900 Z0.0000
M3S245
G4 P0.5; Tool Off

G0 Z0; move to z-safe height
G0 X2.0000 Y657.5900
M3S0
G4 P0.5; Tool On
G1 F300 Z0.0000
G1 F15000 X1298.0000 Y657.5900 Z0.0000
M3S245
G4 P0.5; Tool Off

G0 Z0; move to z-safe height
G0 X1298.0000 Y661.5900
M3S0
G4 P0.5; Tool On
G1 F300 Z0.0000
G1 F15000 X2.0000 Y661.5900 Z0.0000
M3S245
G4 P0.5; Tool Off

G0 Z0; move to z-safe height
G0 X2.0000 Y665.5900
M3S0
G4 P0.5; Tool On
G1 F300 Z0.0000
G1 F15000 X1298.0000 Y665.5900 Z0.0000
M3S245
G4 P0.5; Tool Off

G0 Z0; move to z-safe height
G0 X1298.0000 Y669.5900
M3S0
G4 P0.5; Tool On
G1 F300 Z0.0000
G1 F15000 X2.0000 Y669.5900 Z0.0000
M3S245
G4 P0.5; Tool Off

G0 Z0; move to z-safe height
G0 X2.0000 Y673.5900
M3S0
G4 P0.5; Tool On
G1 F300 Z0.0000
G1 F15000 X1298.0000 Y673.5900 Z0.0000
M3S245
G4 P0.5; Tool Off

G0 Z0; move to z-safe height
G0 X1298.0000 Y677.5900
M3S0
G4 P0.5; Tool On
G1 F300 Z0.0000
G1 F15000 X2.0000 Y677.5900 Z0.0000
M3S245
G4 P0.5; Tool Off

G0 Z0; move to z-safe height
G0 X2.0000 Y681.5900
M3S0
G4 P0.5; Tool On
G1 F300 Z0.0000
G1 F15000 X1298.0000 Y681.5900 Z0.0000
M3S245
G4 P0.5; Tool Off

G0 Z0; move to z-safe height
G0 X1298.0000 Y685.5900
M3S0
G4 P0.5; Tool On
G1 F300 Z0.0000
G1 F15000 X2.0000 Y685.5900 Z0.0000
M3S245
G4 P0.5; Tool Off

G0 Z0; move to z-safe height
G0 X2.0000 Y689.5900
M3S0
G4 P0.5; Tool On
G1 F300 Z0.0000
G1 F15000 X1298.0000 Y689.5900 Z0.0000
M3S245
G4 P0.5; Tool Off

G0 Z0; move to z-safe height
G0 X1298.0000 Y693.5900
M3S0
G4 P0.5; Tool On
G1 F300 Z0.0000
G1 F15000 X2.0000 Y693.5900 Z0.0000
M3S245
G4 P0.5; Tool Off

G0 Z0; move to z-safe height
G0 X2.0000 Y697.5900
M3S0
G4 P0.5; Tool On
G1 F300 Z0.0000
G1 F15000 X1298.0000 Y697.5900 Z0.0000
M3S245
G4 P0.5; Tool Off

G0 Z0; move to z-safe height
G0 X1298.0000 Y701.5900
M3S0
G4 P0.5; Tool On
G1 F300 Z0.0000
G1 F15000 X2.0000 Y701.5900 Z0.0000
M3S245
G4 P0.5; Tool Off

G0 Z0; move to z-safe height
G0 X2.0000 Y705.5900
M3S0
G4 P0.5; Tool On
G1 F300 Z0.0000
G1 F15000 X1298.0000 Y705.5900 Z0.0000
M3S245
G4 P0.5; Tool Off

G0 Z0; move to z-safe height
G0 X1298.0000 Y709.5900
M3S0
G4 P0.5; Tool On
G1 F300 Z0.0000
G1 F15000 X2.0000 Y709.5900 Z0.0000
M3S245
G4 P0.5; Tool Off

G0 Z0; move to z-safe height
G0 X2.0000 Y713.5900
M3S0
G4 P0.5; Tool On
G1 F300 Z0.0000
G1 F15000 X1298.0000 Y713.5900 Z0.0000
M3S245
G4 P0.5; Tool Off

G0 Z0; move to z-safe height
G0 X1298.0000 Y717.5900
M3S0
G4 P0.5; Tool On
G1 F300 Z0.0000
G1 F15000 X2.0000 Y717.5900 Z0.0000
M3S245
G4 P0.5; Tool Off

G0 Z0; move to z-safe height
G0 X2.0000 Y721.5900
M3S0
G4 P0.5; Tool On
G1 F300 Z0.0000
G1 F15000 X1298.0000 Y721.5900 Z0.0000
M3S245
G4 P0.5; Tool Off

G0 Z0; move to z-safe height
G0 X1298.0000 Y725.5900
M3S0
G4 P0.5; Tool On
G1 F300 Z0.0000
G1 F15000 X2.0000 Y725.5900 Z0.0000
M3S245
G4 P0.5; Tool Off

G0 Z0; move to z-safe height
G0 X2.0000 Y729.5900
M3S0
G4 P0.5; Tool On
G1 F300 Z0.0000
G1 F15000 X1298.0000 Y729.5900 Z0.0000
M3S245
G4 P0.5; Tool Off

G0 Z0; move to z-safe height
G0 X1298.0000 Y733.5900
M3S0
G4 P0.5; Tool On
G1 F300 Z0.0000
G1 F15000 X2.0000 Y733.5900 Z0.0000
M3S245
G4 P0.5; Tool Off

G0 Z0; move to z-safe height
G0 X2.0000 Y737.5900
M3S0
G4 P0.5; Tool On
G1 F300 Z0.0000
G1 F15000 X1298.0000 Y737.5900 Z0.0000
M3S245
G4 P0.5; Tool Off

G0 Z0; move to z-safe height
G0 X1298.0000 Y741.5900
M3S0
G4 P0.5; Tool On
G1 F300 Z0.0000
G1 F15000 X2.0000 Y741.5900 Z0.0000
M3S245
G4 P0.5; Tool Off

G0 Z0; move to z-safe height
G0 X2.0000 Y745.5900
M3S0
G4 P0.5; Tool On
G1 F300 Z0.0000
G1 F15000 X1298.0000 Y745.5900 Z0.0000
M3S245
G4 P0.5; Tool Off

G0 Z0; move to z-safe height
G0 X1298.0000 Y749.5900
M3S0
G4 P0.5; Tool On
G1 F300 Z0.0000
G1 F15000 X2.0000 Y749.5900 Z0.0000
M3S245
G4 P0.5; Tool Off

G0 Z0; move to z-safe height
G0 X2.0000 Y753.5900
M3S0
G4 P0.5; Tool On
G1 F300 Z0.0000
G1 F15000 X1298.0000 Y753.5900 Z0.0000
M3S245
G4 P0.5; Tool Off

G0 Z0; move to z-safe height
G0 X1298.0000 Y757.5900
M3S0
G4 P0.5; Tool On
G1 F300 Z0.0000
G1 F15000 X2.0000 Y757.5900 Z0.0000
M3S245
G4 P0.5; Tool Off

G0 Z0; move to z-safe height
G0 X2.0000 Y761.5900
M3S0
G4 P0.5; Tool On
G1 F300 Z0.0000
G1 F15000 X1298.0000 Y761.5900 Z0.0000
M3S245
G4 P0.5; Tool Off

G0 Z0; move to z-safe height
G0 X1298.0000 Y765.5900
M3S0
G4 P0.5; Tool On
G1 F300 Z0.0000
G1 F15000 X2.0000 Y765.5900 Z0.0000
M3S245
G4 P0.5; Tool Off

G0 Z0; move to z-safe height
G0 X2.0000 Y769.5900
M3S0
G4 P0.5; Tool On
G1 F300 Z0.0000
G1 F15000 X1298.0000 Y769.5900 Z0.0000
M3S245
G4 P0.5; Tool Off

G0 Z0; move to z-safe height
G0 X1298.0000 Y773.5900
M3S0
G4 P0.5; Tool On
G1 F300 Z0.0000
G1 F15000 X2.0000 Y773.5900 Z0.0000
M3S245
G4 P0.5; Tool Off

G0 Z0; move to z-safe height
G0 X2.0000 Y777.5900
M3S0
G4 P0.5; Tool On
G1 F300 Z0.0000
G1 F15000 X1298.0000 Y777.5900 Z0.0000
M3S245
G4 P0.5; Tool Off

G0 Z0; move to z-safe height
G0 X1298.0000 Y781.5900
M3S0
G4 P0.5; Tool On
G1 F300 Z0.0000
G1 F15000 X2.0000 Y781.5900 Z0.0000
M3S245
G4 P0.5; Tool Off

G0 Z0; move to z-safe height
G0 X2.0000 Y785.5900
M3S0
G4 P0.5; Tool On
G1 F300 Z0.0000
G1 F15000 X1298.0000 Y785.5900 Z0.0000
M3S245
G4 P0.5; Tool Off

G0 Z0; move to z-safe height
G0 X1298.0000 Y789.5900
M3S0
G4 P0.5; Tool On
G1 F300 Z0.0000
G1 F15000 X2.0000 Y789.5900 Z0.0000
M3S245
G4 P0.5; Tool Off

G0 Z0; move to z-safe height
G0 X2.0000 Y793.5900
M3S0
G4 P0.5; Tool On
G1 F300 Z0.0000
G1 F15000 X1298.0000 Y793.5900 Z0.0000
M3S245
G4 P0.5; Tool Off

G0 Z0; move to z-safe height
G0 X1298.0000 Y797.5900
M3S0
G4 P0.5; Tool On
G1 F300 Z0.0000
G1 F15000 X2.0000 Y797.5900 Z0.0000
M3S245
G4 P0.5; Tool Off

G0 Z0; move to z-safe height
G0 X2.0000 Y801.5900
M3S0
G4 P0.5; Tool On
G1 F300 Z0.0000
G1 F15000 X1298.0000 Y801.5900 Z0.0000
M3S245
G4 P0.5; Tool Off

G0 Z0; move to z-safe height
G0 X1298.0000 Y805.5900
M3S0
G4 P0.5; Tool On
G1 F300 Z0.0000
G1 F15000 X2.0000 Y805.5900 Z0.0000
M3S245
G4 P0.5; Tool Off

G0 Z0; move to z-safe height
G0 X2.0000 Y809.5900
M3S0
G4 P0.5; Tool On
G1 F300 Z0.0000
G1 F15000 X1298.0000 Y809.5900 Z0.0000
M3S245
G4 P0.5; Tool Off

G0 Z0; move to z-safe height
G0 X1298.0000 Y813.5900
M3S0
G4 P0.5; Tool On
G1 F300 Z0.0000
G1 F15000 X2.0000 Y813.5900 Z0.0000
M3S245
G4 P0.5; Tool Off

G0 Z0; move to z-safe height
G0 X2.0000 Y817.5900
M3S0
G4 P0.5; Tool On
G1 F300 Z0.0000
G1 F15000 X1298.0000 Y817.5900 Z0.0000
M3S245
G4 P0.5; Tool Off

G0 Z0; move to z-safe height
G0 X1298.0000 Y821.5900
M3S0
G4 P0.5; Tool On
G1 F300 Z0.0000
G1 F15000 X2.0000 Y821.5900 Z0.0000
M3S245
G4 P0.5; Tool Off

G0 Z0; move to z-safe height
G0 X2.0000 Y825.5900
M3S0
G4 P0.5; Tool On
G1 F300 Z0.0000
G1 F15000 X1298.0000 Y825.5900 Z0.0000
M3S245
G4 P0.5; Tool Off

G0 Z0; move to z-safe height
G0 X1298.0000 Y829.5900
M3S0
G4 P0.5; Tool On
G1 F300 Z0.0000
G1 F15000 X2.0000 Y829.5900 Z0.0000
M3S245
G4 P0.5; Tool Off

G0 Z0; move to z-safe height
G0 X2.0000 Y833.5900
M3S0
G4 P0.5; Tool On
G1 F300 Z0.0000
G1 F15000 X1298.0000 Y833.5900 Z0.0000
M3S245
G4 P0.5; Tool Off

G0 Z0; move to z-safe height
G0 X1298.0000 Y837.5900
M3S0
G4 P0.5; Tool On
G1 F300 Z0.0000
G1 F15000 X2.0000 Y837.5900 Z0.0000
M3S245
G4 P0.5; Tool Off

G0 Z0; move to z-safe height
G0 X2.0000 Y841.5900
M3S0
G4 P0.5; Tool On
G1 F300 Z0.0000
G1 F15000 X1298.0000 Y841.5900 Z0.0000
M3S245
G4 P0.5; Tool Off

G0 Z0; move to z-safe height
G0 X1298.0000 Y845.5900
M3S0
G4 P0.5; Tool On
G1 F300 Z0.0000
G1 F15000 X2.0000 Y845.5900 Z0.0000
M3S245
G4 P0.5; Tool Off

G0 Z0; move to z-safe height
G0 X2.0000 Y849.5900
M3S0
G4 P0.5; Tool On
G1 F300 Z0.0000
G1 F15000 X1298.0000 Y849.5900 Z0.0000
M3S245
G4 P0.5; Tool Off

G0 Z0; move to z-safe height
G0 X1298.0000 Y853.5900
M3S0
G4 P0.5; Tool On
G1 F300 Z0.0000
G1 F15000 X2.0000 Y853.5900 Z0.0000
M3S245
G4 P0.5; Tool Off

G0 Z0; move to z-safe height
G0 X2.0000 Y857.5900
M3S0
G4 P0.5; Tool On
G1 F300 Z0.0000
G1 F15000 X1298.0000 Y857.5900 Z0.0000
M3S245
G4 P0.5; Tool Off

G0 Z0; move to z-safe height
G0 X1298.0000 Y861.5900
M3S0
G4 P0.5; Tool On
G1 F300 Z0.0000
G1 F15000 X2.0000 Y861.5900 Z0.0000
M3S245
G4 P0.5; Tool Off

G0 Z0; move to z-safe height
G0 X2.0000 Y865.5900
M3S0
G4 P0.5; Tool On
G1 F300 Z0.0000
G1 F15000 X1298.0000 Y865.5900 Z0.0000
M3S245
G4 P0.5; Tool Off

G0 Z0; move to z-safe height
G0 X1298.0000 Y869.5900
M3S0
G4 P0.5; Tool On
G1 F300 Z0.0000
G1 F15000 X2.0000 Y869.5900 Z0.0000
M3S245
G4 P0.5; Tool Off

G0 Z0; move to z-safe height
G0 X2.0000 Y873.5900
M3S0
G4 P0.5; Tool On
G1 F300 Z0.0000
G1 F15000 X1298.0000 Y873.5900 Z0.0000
M3S245
G4 P0.5; Tool Off

G0 Z0; move to z-safe height
G0 X1298.0000 Y877.5900
M3S0
G4 P0.5; Tool On
G1 F300 Z0.0000
G1 F15000 X2.0000 Y877.5900 Z0.0000
M3S245
G4 P0.5; Tool Off

G0 Z0; move to z-safe height
G0 X2.0000 Y881.5900
M3S0
G4 P0.5; Tool On
G1 F300 Z0.0000
G1 F15000 X1298.0000 Y881.5900 Z0.0000
M3S245
G4 P0.5; Tool Off

G0 Z0; move to z-safe height
G0 X1298.0000 Y885.5900
M3S0
G4 P0.5; Tool On
G1 F300 Z0.0000
G1 F15000 X2.0000 Y885.5900 Z0.0000
M3S245
G4 P0.5; Tool Off

G0 Z0; move to z-safe height
G0 X2.0000 Y889.5900
M3S0
G4 P0.5; Tool On
G1 F300 Z0.0000
G1 F15000 X1298.0000 Y889.5900 Z0.0000
M3S245
G4 P0.5; Tool Off

G0 Z0; move to z-safe height
G0 X1298.0000 Y893.5900
M3S0
G4 P0.5; Tool On
G1 F300 Z0.0000
G1 F15000 X2.0000 Y893.5900 Z0.0000
M3S245
G4 P0.5; Tool Off

G0 Z0; move to z-safe height
G0 X2.0000 Y897.5900
M3S0
G4 P0.5; Tool On
G1 F300 Z0.0000
G1 F15000 X1298.0000 Y897.5900 Z0.0000
M3S245
G4 P0.5; Tool Off

G0 Z0; move to z-safe height
G0 X1298.0000 Y901.5900
M3S0
G4 P0.5; Tool On
G1 F300 Z0.0000
G1 F15000 X2.0000 Y901.5900 Z0.0000
M3S245
G4 P0.5; Tool Off

G0 Z0; move to z-safe height
G0 X2.0000 Y905.5900
M3S0
G4 P0.5; Tool On
G1 F300 Z0.0000
G1 F15000 X1298.0000 Y905.5900 Z0.0000
M3S245
G4 P0.5; Tool Off

G0 Z0; move to z-safe height
G0 X1298.0000 Y909.5900
M3S0
G4 P0.5; Tool On
G1 F300 Z0.0000
G1 F15000 X2.0000 Y909.5900 Z0.0000
M3S245
G4 P0.5; Tool Off

G0 Z0; move to z-safe height
G0 X2.0000 Y913.5900
M3S0
G4 P0.5; Tool On
G1 F300 Z0.0000
G1 F15000 X1298.0000 Y913.5900 Z0.0000
M3S245
G4 P0.5; Tool Off

G0 Z0; move to z-safe height
G0 X1298.0000 Y917.5900
M3S0
G4 P0.5; Tool On
G1 F300 Z0.0000
G1 F15000 X2.0000 Y917.5900 Z0.0000
M3S245
G4 P0.5; Tool Off

G0 Z0; move to z-safe height
G0 X2.0000 Y921.5900
M3S0
G4 P0.5; Tool On
G1 F300 Z0.0000
G1 F15000 X1298.0000 Y921.5900 Z0.0000
M3S245
G4 P0.5; Tool Off

G0 Z0; move to z-safe height
G0 X1298.0000 Y925.5900
M3S0
G4 P0.5; Tool On
G1 F300 Z0.0000
G1 F15000 X2.0000 Y925.5900 Z0.0000
M3S245
G4 P0.5; Tool Off

G0 Z0; move to z-safe height
G0 X2.0000 Y929.5900
M3S0
G4 P0.5; Tool On
G1 F300 Z0.0000
G1 F15000 X1298.0000 Y929.5900 Z0.0000
M3S245
G4 P0.5; Tool Off

G0 Z0; move to z-safe height
G0 X1298.0000 Y933.5900
M3S0
G4 P0.5; Tool On
G1 F300 Z0.0000
G1 F15000 X2.0000 Y933.5900 Z0.0000
M3S245
G4 P0.5; Tool Off

G0 Z0; move to z-safe height
G0 X2.0000 Y937.5900
M3S0
G4 P0.5; Tool On
G1 F300 Z0.0000
G1 F15000 X1298.0000 Y937.5900 Z0.0000
M3S245
G4 P0.5; Tool Off

G0 Z0; move to z-safe height
G0 X1298.0000 Y941.5900
M3S0
G4 P0.5; Tool On
G1 F300 Z0.0000
G1 F15000 X2.0000 Y941.5900 Z0.0000
M3S245
G4 P0.5; Tool Off

G0 Z0; move to z-safe height
G0 X2.0000 Y945.5900
M3S0
G4 P0.5; Tool On
G1 F300 Z0.0000
G1 F15000 X1298.0000 Y945.5900 Z0.0000
M3S245
G4 P0.5; Tool Off

G0 Z0; move to z-safe height
G0 X1298.0000 Y949.5900
M3S0
G4 P0.5; Tool On
G1 F300 Z0.0000
G1 F15000 X2.0000 Y949.5900 Z0.0000
M3S245
G4 P0.5; Tool Off

G0 Z0; move to z-safe height
G0 X2.0000 Y953.5900
M3S0
G4 P0.5; Tool On
G1 F300 Z0.0000
G1 F15000 X1298.0000 Y953.5900 Z0.0000
M3S245
G4 P0.5; Tool Off

G0 Z0; move to z-safe height
G0 X1298.0000 Y957.5900
M3S0
G4 P0.5; Tool On
G1 F300 Z0.0000
G1 F15000 X2.0000 Y957.5900 Z0.0000
M3S245
G4 P0.5; Tool Off

G0 Z0; move to z-safe height
G0 X2.0000 Y961.5900
M3S0
G4 P0.5; Tool On
G1 F300 Z0.0000
G1 F15000 X1298.0000 Y961.5900 Z0.0000
M3S245
G4 P0.5; Tool Off

G0 Z0; move to z-safe height
G0 X1298.0000 Y965.5900
M3S0
G4 P0.5; Tool On
G1 F300 Z0.0000
G1 F15000 X2.0000 Y965.5900 Z0.0000
M3S245
G4 P0.5; Tool Off

G0 Z0; move to z-safe height
G0 X2.0000 Y969.5900
M3S0
G4 P0.5; Tool On
G1 F300 Z0.0000
G1 F15000 X1298.0000 Y969.5900 Z0.0000
M3S245
G4 P0.5; Tool Off

G0 Z0; move to z-safe height
G0 X1298.0000 Y973.5900
M3S0
G4 P0.5; Tool On
G1 F300 Z0.0000
G1 F15000 X2.0000 Y973.5900 Z0.0000
M3S245
G4 P0.5; Tool Off

G0 Z0; move to z-safe height
G0 X2.0000 Y977.5900
M3S0
G4 P0.5; Tool On
G1 F300 Z0.0000
G1 F15000 X1298.0000 Y977.5900 Z0.0000
M3S245
G4 P0.5; Tool Off

G0 Z0; move to z-safe height
G0 X1298.0000 Y981.5900
M3S0
G4 P0.5; Tool On
G1 F300 Z0.0000
G1 F15000 X2.0000 Y981.5900 Z0.0000
M3S245
G4 P0.5; Tool Off

G0 Z0; move to z-safe height
G0 X2.0000 Y985.5900
M3S0
G4 P0.5; Tool On
G1 F300 Z0.0000
G1 F15000 X1298.0000 Y985.5900 Z0.0000
M3S245
G4 P0.5; Tool Off

G0 Z0; move to z-safe height
G0 X1298.0000 Y989.5900
M3S0
G4 P0.5; Tool On
G1 F300 Z0.0000
G1 F15000 X2.0000 Y989.5900 Z0.0000
M3S245
G4 P0.5; Tool Off

G0 Z0; move to z-safe height
G0 X2.0000 Y993.5900
M3S0
G4 P0.5; Tool On
G1 F300 Z0.0000
G1 F15000 X1298.0000 Y993.5900 Z0.0000
M3S245
G4 P0.5; Tool Off

G0 Z0; move to z-safe height
G0 X1298.0000 Y997.5900
M3S0
G4 P0.5; Tool On
G1 F300 Z0.0000
G1 F15000 X2.0000 Y997.5900 Z0.0000
M3S245
G4 P0.5; Tool Off

G0 Z0; move to z-safe height
G0 X2.0000 Y1001.5900
M3S0
G4 P0.5; Tool On
G1 F300 Z0.0000
G1 F15000 X1298.0000 Y1001.5900 Z0.0000
M3S245
G4 P0.5; Tool Off

G0 Z0; move to z-safe height
G0 X1298.0000 Y1005.5900
M3S0
G4 P0.5; Tool On
G1 F300 Z0.0000
G1 F15000 X2.0000 Y1005.5900 Z0.0000
M3S245
G4 P0.5; Tool Off

G0 Z0; move to z-safe height
G0 X2.0000 Y1009.5900
M3S0
G4 P0.5; Tool On
G1 F300 Z0.0000
G1 F15000 X1298.0000 Y1009.5900 Z0.0000
M3S245
G4 P0.5; Tool Off

G0 Z0; move to z-safe height
G0 X1298.0000 Y1013.5900
M3S0
G4 P0.5; Tool On
G1 F300 Z0.0000
G1 F15000 X2.0000 Y1013.5900 Z0.0000
M3S245
G4 P0.5; Tool Off

G0 Z0; move to z-safe height
G0 X2.0000 Y1017.5900
M3S0
G4 P0.5; Tool On
G1 F300 Z0.0000
G1 F15000 X1298.0000 Y1017.5900 Z0.0000
M3S245
G4 P0.5; Tool Off

G0 Z0; move to z-safe height
G0 X1298.0000 Y1021.5900
M3S0
G4 P0.5; Tool On
G1 F300 Z0.0000
G1 F15000 X2.0000 Y1021.5900 Z0.0000
M3S245
G4 P0.5; Tool Off

G0 Z0; move to z-safe height
G0 X2.0000 Y1025.5900
M3S0
G4 P0.5; Tool On
G1 F300 Z0.0000
G1 F15000 X1298.0000 Y1025.5900 Z0.0000
M3S245
G4 P0.5; Tool Off

G0 Z0; move to z-safe height
G0 X1298.0000 Y1029.5900
M3S0
G4 P0.5; Tool On
G1 F300 Z0.0000
G1 F15000 X2.0000 Y1029.5900 Z0.0000
M3S245
G4 P0.5; Tool Off

G0 Z0; move to z-safe height
G0 X2.0000 Y1033.5900
M3S0
G4 P0.5; Tool On
G1 F300 Z0.0000
G1 F15000 X1298.0000 Y1033.5900 Z0.0000
M3S245
G4 P0.5; Tool Off

G0 Z0; move to z-safe height
G0 X1298.0000 Y1037.5900
M3S0
G4 P0.5; Tool On
G1 F300 Z0.0000
G1 F15000 X2.0000 Y1037.5900 Z0.0000
M3S245
G4 P0.5; Tool Off

G0 Z0; move to z-safe height
G0 X2.0000 Y1041.5900
M3S0
G4 P0.5; Tool On
G1 F300 Z0.0000
G1 F15000 X1298.0000 Y1041.5900 Z0.0000
M3S245
G4 P0.5; Tool Off

G0 Z0; move to z-safe height
G0 X1298.0000 Y1045.5900
M3S0
G4 P0.5; Tool On
G1 F300 Z0.0000
G1 F15000 X2.0000 Y1045.5900 Z0.0000
M3S245
G4 P0.5; Tool Off

G0 Z0; move to z-safe height
G0 X2.0000 Y1049.5900
M3S0
G4 P0.5; Tool On
G1 F300 Z0.0000
G1 F15000 X1298.0000 Y1049.5900 Z0.0000
M3S245
G4 P0.5; Tool Off

G0 Z0; move to z-safe height
G0 X1298.0000 Y1053.5900
M3S0
G4 P0.5; Tool On
G1 F300 Z0.0000
G1 F15000 X2.0000 Y1053.5900 Z0.0000
M3S245
G4 P0.5; Tool Off

G0 Z0; move to z-safe height
G0 X2.0000 Y1057.5900
M3S0
G4 P0.5; Tool On
G1 F300 Z0.0000
G1 F15000 X1298.0000 Y1057.5900 Z0.0000
M3S245
G4 P0.5; Tool Off

G0 Z0; move to z-safe height
G0 X1298.0000 Y1061.5900
M3S0
G4 P0.5; Tool On
G1 F300 Z0.0000
G1 F15000 X2.0000 Y1061.5900 Z0.0000
M3S245
G4 P0.5; Tool Off

G0 Z0; move to z-safe height
G0 X2.0000 Y1065.5900
M3S0
G4 P0.5; Tool On
G1 F300 Z0.0000
G1 F15000 X1298.0000 Y1065.5900 Z0.0000
M3S245
G4 P0.5; Tool Off

G0 Z0; move to z-safe height
G0 X1298.0000 Y1069.5900
M3S0
G4 P0.5; Tool On
G1 F300 Z0.0000
G1 F15000 X2.0000 Y1069.5900 Z0.0000
M3S245
G4 P0.5; Tool Off

G0 Z0; move to z-safe height
G0 X2.0000 Y1073.5900
M3S0
G4 P0.5; Tool On
G1 F300 Z0.0000
G1 F15000 X1298.0000 Y1073.5900 Z0.0000
M3S245
G4 P0.5; Tool Off

G0 Z0; move to z-safe height
G0 X1298.0000 Y1077.5900
M3S0
G4 P0.5; Tool On
G1 F300 Z0.0000
G1 F15000 X2.0000 Y1077.5900 Z0.0000
M3S245
G4 P0.5; Tool Off

G0 Z0; move to z-safe height
G0 X2.0000 Y1081.5900
M3S0
G4 P0.5; Tool On
G1 F300 Z0.0000
G1 F15000 X1298.0000 Y1081.5900 Z0.0000
M3S245
G4 P0.5; Tool Off

G0 Z0; move to z-safe height
G0 X1298.0000 Y1085.5900
M3S0
G4 P0.5; Tool On
G1 F300 Z0.0000
G1 F15000 X2.0000 Y1085.5900 Z0.0000
M3S245
G4 P0.5; Tool Off

G0 Z0; move to z-safe height
G0 X2.0000 Y1089.5900
M3S0
G4 P0.5; Tool On
G1 F300 Z0.0000
G1 F15000 X1298.0000 Y1089.5900 Z0.0000
M3S245
G4 P0.5; Tool Off

G0 Z0; move to z-safe height
G0 X1298.0000 Y1093.5900
M3S0
G4 P0.5; Tool On
G1 F300 Z0.0000
G1 F15000 X2.0000 Y1093.5900 Z0.0000
M3S245
G4 P0.5; Tool Off

G0 Z0; move to z-safe height
G0 X2.0000 Y1097.5900
M3S0
G4 P0.5; Tool On
G1 F300 Z0.0000
G1 F15000 X1298.0000 Y1097.5900 Z0.0000
M3S245
G4 P0.5; Tool Off

G0 Z0; move to z-safe height
G0 X1298.0000 Y1101.5900
M3S0
G4 P0.5; Tool On
G1 F300 Z0.0000
G1 F15000 X2.0000 Y1101.5900 Z0.0000
M3S245
G4 P0.5; Tool Off

G0 Z0; move to z-safe height
G0 X2.0000 Y1105.5900
M3S0
G4 P0.5; Tool On
G1 F300 Z0.0000
G1 F15000 X1298.0000 Y1105.5900 Z0.0000
M3S245
G4 P0.5; Tool Off

G0 Z0; move to z-safe height
G0 X1298.0000 Y1109.5900
M3S0
G4 P0.5; Tool On
G1 F300 Z0.0000
G1 F15000 X2.0000 Y1109.5900 Z0.0000
M3S245
G4 P0.5; Tool Off

G0 Z0; move to z-safe height
G0 X2.0000 Y1113.5900
M3S0
G4 P0.5; Tool On
G1 F300 Z0.0000
G1 F15000 X1298.0000 Y1113.5900 Z0.0000
M3S245
G4 P0.5; Tool Off

G0 Z0; move to z-safe height
G0 X1298.0000 Y1117.5900
M3S0
G4 P0.5; Tool On
G1 F300 Z0.0000
G1 F15000 X2.0000 Y1117.5900 Z0.0000
M3S245
G4 P0.5; Tool Off

G0 Z0; move to z-safe height
G0 X2.0000 Y1121.5900
M3S0
G4 P0.5; Tool On
G1 F300 Z0.0000
G1 F15000 X1298.0000 Y1121.5900 Z0.0000
M3S245
G4 P0.5; Tool Off

G0 Z0; move to z-safe height
G0 X1298.0000 Y1125.5900
M3S0
G4 P0.5; Tool On
G1 F300 Z0.0000
G1 F15000 X2.0000 Y1125.5900 Z0.0000
M3S245
G4 P0.5; Tool Off

G0 Z0; move to z-safe height
G0 X2.0000 Y1129.5900
M3S0
G4 P0.5; Tool On
G1 F300 Z0.0000
G1 F15000 X1298.0000 Y1129.5900 Z0.0000
M3S245
G4 P0.5; Tool Off

G0 Z0; move to z-safe height
G0 X1298.0000 Y1133.5900
M3S0
G4 P0.5; Tool On
G1 F300 Z0.0000
G1 F15000 X2.0000 Y1133.5900 Z0.0000
M3S245
G4 P0.5; Tool Off

G0 Z0; move to z-safe height
G0 X2.0000 Y1137.5900
M3S0
G4 P0.5; Tool On
G1 F300 Z0.0000
G1 F15000 X1298.0000 Y1137.5900 Z0.0000
M3S245
G4 P0.5; Tool Off

G0 Z0; move to z-safe height
G0 X1298.0000 Y1141.5900
M3S0
G4 P0.5; Tool On
G1 F300 Z0.0000
G1 F15000 X2.0000 Y1141.5900 Z0.0000
M3S245
G4 P0.5; Tool Off

G0 Z0; move to z-safe height
G0 X2.0000 Y1145.5900
M3S0
G4 P0.5; Tool On
G1 F300 Z0.0000
G1 F15000 X1298.0000 Y1145.5900 Z0.0000
M3S245
G4 P0.5; Tool Off

G0 Z0; move to z-safe height
G0 X1298.0000 Y1149.5900
M3S0
G4 P0.5; Tool On
G1 F300 Z0.0000
G1 F15000 X2.0000 Y1149.5900 Z0.0000
M3S245
G4 P0.5; Tool Off

G0 Z0; move to z-safe height
G0 X2.0000 Y1153.5900
M3S0
G4 P0.5; Tool On
G1 F300 Z0.0000
G1 F15000 X1298.0000 Y1153.5900 Z0.0000
M3S245
G4 P0.5; Tool Off

G0 Z0; move to z-safe height
G0 X1298.0000 Y1157.5900
M3S0
G4 P0.5; Tool On
G1 F300 Z0.0000
G1 F15000 X2.0000 Y1157.5900 Z0.0000
M3S245
G4 P0.5; Tool Off

G0 Z0; move to z-safe height
G0 X2.0000 Y1161.5900
M3S0
G4 P0.5; Tool On
G1 F300 Z0.0000
G1 F15000 X1298.0000 Y1161.5900 Z0.0000
M3S245
G4 P0.5; Tool Off

G0 Z0; move to z-safe height
G0 X1298.0000 Y1165.5900
M3S0
G4 P0.5; Tool On
G1 F300 Z0.0000
G1 F15000 X2.0000 Y1165.5900 Z0.0000
M3S245
G4 P0.5; Tool Off

G0 Z0; move to z-safe height
G0 X2.0000 Y1169.5900
M3S0
G4 P0.5; Tool On
G1 F300 Z0.0000
G1 F15000 X1298.0000 Y1169.5900 Z0.0000
M3S245
G4 P0.5; Tool Off

G0 Z0; move to z-safe height
G0 X1298.0000 Y1173.5900
M3S0
G4 P0.5; Tool On
G1 F300 Z0.0000
G1 F15000 X2.0000 Y1173.5900 Z0.0000
M3S245
G4 P0.5; Tool Off

G0 Z0; move to z-safe height
G0 X2.0000 Y1177.5900
M3S0
G4 P0.5; Tool On
G1 F300 Z0.0000
G1 F15000 X1298.0000 Y1177.5900 Z0.0000
M3S245
G4 P0.5; Tool Off

G0 Z0; move to z-safe height
G0 X1298.0000 Y1181.5900
M3S0
G4 P0.5; Tool On
G1 F300 Z0.0000
G1 F15000 X2.0000 Y1181.5900 Z0.0000
M3S245
G4 P0.5; Tool Off

G0 Z0; move to z-safe height
G0 X2.0000 Y1185.5900
M3S0
G4 P0.5; Tool On
G1 F300 Z0.0000
G1 F15000 X1298.0000 Y1185.5900 Z0.0000
M3S245
G4 P0.5; Tool Off

G0 Z0; move to z-safe height
G0 X1298.0000 Y1189.5900
M3S0
G4 P0.5; Tool On
G1 F300 Z0.0000
G1 F15000 X2.0000 Y1189.5900 Z0.0000
M3S245
G4 P0.5; Tool Off

G0 Z0; move to z-safe height
G0 X2.0000 Y1193.5900
M3S0
G4 P0.5; Tool On
G1 F300 Z0.0000
G1 F15000 X1298.0000 Y1193.5900 Z0.0000
M3S245
G4 P0.5; Tool Off

G0 Z0; move to z-safe height
G0 X1298.0000 Y1197.5900
M3S0
G4 P0.5; Tool On
G1 F300 Z0.0000
G1 F15000 X2.0000 Y1197.5900 Z0.0000
M3S245
G4 P0.5; Tool Off

G0 Z0; move to z-safe height
G0 X2.0000 Y1201.5900
M3S0
G4 P0.5; Tool On
G1 F300 Z0.0000
G1 F15000 X1298.0000 Y1201.5900 Z0.0000
M3S245
G4 P0.5; Tool Off

G0 Z0; move to z-safe height
G0 X1298.0000 Y1205.5900
M3S0
G4 P0.5; Tool On
G1 F300 Z0.0000
G1 F15000 X2.0000 Y1205.5900 Z0.0000
M3S245
G4 P0.5; Tool Off

G0 Z0; move to z-safe height
G0 X2.0000 Y1209.5900
M3S0
G4 P0.5; Tool On
G1 F300 Z0.0000
G1 F15000 X1298.0000 Y1209.5900 Z0.0000
M3S245
G4 P0.5; Tool Off

G0 Z0; move to z-safe height
G0 X1298.0000 Y1213.5900
M3S0
G4 P0.5; Tool On
G1 F300 Z0.0000
G1 F15000 X2.0000 Y1213.5900 Z0.0000
M3S245
G4 P0.5; Tool Off

G0 Z0; move to z-safe height
G0 X2.0000 Y1217.5900
M3S0
G4 P0.5; Tool On
G1 F300 Z0.0000
G1 F15000 X1298.0000 Y1217.5900 Z0.0000
M3S245
G4 P0.5; Tool Off

G0 Z0; move to z-safe height
G0 X1298.0000 Y1221.5900
M3S0
G4 P0.5; Tool On
G1 F300 Z0.0000
G1 F15000 X2.0000 Y1221.5900 Z0.0000
M3S245
G4 P0.5; Tool Off

G0 Z0; move to z-safe height
G0 X2.0000 Y1225.5900
M3S0
G4 P0.5; Tool On
G1 F300 Z0.0000
G1 F15000 X1298.0000 Y1225.5900 Z0.0000
M3S245
G4 P0.5; Tool Off

G0 Z0; move to z-safe height
G0 X1298.0000 Y1229.5900
M3S0
G4 P0.5; Tool On
G1 F300 Z0.0000
G1 F15000 X2.0000 Y1229.5900 Z0.0000
M3S245
G4 P0.5; Tool Off

G0 Z0; move to z-safe height
G0 X2.0000 Y1233.5900
M3S0
G4 P0.5; Tool On
G1 F300 Z0.0000
G1 F15000 X1298.0000 Y1233.5900 Z0.0000
M3S245
G4 P0.5; Tool Off

G0 Z0; move to z-safe height
G0 X1298.0000 Y1237.5900
M3S0
G4 P0.5; Tool On
G1 F300 Z0.0000
G1 F15000 X2.0000 Y1237.5900 Z0.0000
M3S245
G4 P0.5; Tool Off

G0 Z0; move to z-safe height
G0 X2.0000 Y1241.5900
M3S0
G4 P0.5; Tool On
G1 F300 Z0.0000
G1 F15000 X1298.0000 Y1241.5900 Z0.0000
M3S245
G4 P0.5; Tool Off

G0 Z0; move to z-safe height
G0 X1298.0000 Y1245.5900
M3S0
G4 P0.5; Tool On
G1 F300 Z0.0000
G1 F15000 X2.0000 Y1245.5900 Z0.0000
M3S245
G4 P0.5; Tool Off

G0 Z0; move to z-safe height
G0 X2.0000 Y1249.5900
M3S0
G4 P0.5; Tool On
G1 F300 Z0.0000
G1 F15000 X1298.0000 Y1249.5900 Z0.0000
M3S245
G4 P0.5; Tool Off

G0 Z0; move to z-safe height
G0 X1298.0000 Y1253.5900
M3S0
G4 P0.5; Tool On
G1 F300 Z0.0000
G1 F15000 X2.0000 Y1253.5900 Z0.0000
M3S245
G4 P0.5; Tool Off

G0 Z0; move to z-safe height
G0 X2.0000 Y1257.5900
M3S0
G4 P0.5; Tool On
G1 F300 Z0.0000
G1 F15000 X1298.0000 Y1257.5900 Z0.0000
M3S245
G4 P0.5; Tool Off

G0 Z0; move to z-safe height
G0 X1298.0000 Y1261.5900
M3S0
G4 P0.5; Tool On
G1 F300 Z0.0000
G1 F15000 X2.0000 Y1261.5900 Z0.0000
M3S245
G4 P0.5; Tool Off

G0 Z0; move to z-safe height
G0 X2.0000 Y1265.5900
M3S0
G4 P0.5; Tool On
G1 F300 Z0.0000
G1 F15000 X1298.0000 Y1265.5900 Z0.0000
M3S245
G4 P0.5; Tool Off

G0 Z0; move to z-safe height
G0 X1298.0000 Y1269.5900
M3S0
G4 P0.5; Tool On
G1 F300 Z0.0000
G1 F15000 X2.0000 Y1269.5900 Z0.0000
M3S245
G4 P0.5; Tool Off

G0 Z0; move to z-safe height
G0 X2.0000 Y1273.5900
M3S0
G4 P0.5; Tool On
G1 F300 Z0.0000
G1 F15000 X1298.0000 Y1273.5900 Z0.0000
M3S245
G4 P0.5; Tool Off

G0 Z0; move to z-safe height
G0 X1298.0000 Y1277.5900
M3S0
G4 P0.5; Tool On
G1 F300 Z0.0000
G1 F15000 X2.0000 Y1277.5900 Z0.0000
M3S245
G4 P0.5; Tool Off

G0 Z0; move to z-safe height
G0 X2.0000 Y1281.5900
M3S0
G4 P0.5; Tool On
G1 F300 Z0.0000
G1 F15000 X1298.0000 Y1281.5900 Z0.0000
M3S245
G4 P0.5; Tool Off

G0 Z0; move to z-safe height
G0 X1298.0000 Y1285.5900
M3S0
G4 P0.5; Tool On
G1 F300 Z0.0000
G1 F15000 X2.0000 Y1285.5900 Z0.0000
M3S245
G4 P0.5; Tool Off

G0 Z0; move to z-safe height
G0 X2.0000 Y1289.5900
M3S0
G4 P0.5; Tool On
G1 F300 Z0.0000
G1 F15000 X1298.0000 Y1289.5900 Z0.0000
M3S245
G4 P0.5; Tool Off

G0 Z0; move to z-safe height
G0 X1298.0000 Y1293.5900
M3S0
G4 P0.5; Tool On
G1 F300 Z0.0000
G1 F15000 X2.0000 Y1293.5900 Z0.0000
M3S245
G4 P0.5; Tool Off

G0 Z0; move to z-safe height
G0 X2.0000 Y1297.5900
M3S0
G4 P0.5; Tool On
G1 F300 Z0.0000
G1 F15000 X1298.0000 Y1297.5900 Z0.0000
M3S245
G4 P0.5; Tool Off
; retracting back to z-safe
G0 Z0

; Plotter Mode Complete
