; GCODE Generated by cam.openbuilds.com on 2023-11-22 
G21 ; mm-mode
G54; Work Coordinates
G21; mm-mode
G90; Absolute Positioning
; Plotter Mode Active

; Operation 0: Pen Plotter: (lines fill)
; Pen Diameter: 2

G0 Z0; move to z-safe height
G0 F1000 X1296.0000 Y8.4200
M3S0
G4 P0.5; Tool On
G1 F300 Z0.0000
G1 F15000 X4.0000 Y8.4200 Z0.0000
M3S245
G4 P0.5; Tool Off

G0 Z0; move to z-safe height
G0 X4.0000 Y16.4200
M3S0
G4 P0.5; Tool On
G1 F300 Z0.0000
G1 F15000 X1296.0000 Y16.4200 Z0.0000
M3S245
G4 P0.5; Tool Off

G0 Z0; move to z-safe height
G0 X1296.0000 Y24.4200
M3S0
G4 P0.5; Tool On
G1 F300 Z0.0000
G1 F15000 X4.0000 Y24.4200 Z0.0000
M3S245
G4 P0.5; Tool Off

G0 Z0; move to z-safe height
G0 X4.0000 Y32.4200
M3S0
G4 P0.5; Tool On
G1 F300 Z0.0000
G1 F15000 X1296.0000 Y32.4200 Z0.0000
M3S245
G4 P0.5; Tool Off

G0 Z0; move to z-safe height
G0 X1296.0000 Y40.4200
M3S0
G4 P0.5; Tool On
G1 F300 Z0.0000
G1 F15000 X4.0000 Y40.4200 Z0.0000
M3S245
G4 P0.5; Tool Off

G0 Z0; move to z-safe height
G0 X4.0000 Y48.4200
M3S0
G4 P0.5; Tool On
G1 F300 Z0.0000
G1 F15000 X1296.0000 Y48.4200 Z0.0000
M3S245
G4 P0.5; Tool Off

G0 Z0; move to z-safe height
G0 X1296.0000 Y56.4200
M3S0
G4 P0.5; Tool On
G1 F300 Z0.0000
G1 F15000 X4.0000 Y56.4200 Z0.0000
M3S245
G4 P0.5; Tool Off

G0 Z0; move to z-safe height
G0 X4.0000 Y64.4200
M3S0
G4 P0.5; Tool On
G1 F300 Z0.0000
G1 F15000 X1296.0000 Y64.4200 Z0.0000
M3S245
G4 P0.5; Tool Off

G0 Z0; move to z-safe height
G0 X1296.0000 Y72.4200
M3S0
G4 P0.5; Tool On
G1 F300 Z0.0000
G1 F15000 X4.0000 Y72.4200 Z0.0000
M3S245
G4 P0.5; Tool Off

G0 Z0; move to z-safe height
G0 X4.0000 Y80.4200
M3S0
G4 P0.5; Tool On
G1 F300 Z0.0000
G1 F15000 X1296.0000 Y80.4200 Z0.0000
M3S245
G4 P0.5; Tool Off

G0 Z0; move to z-safe height
G0 X1296.0000 Y88.4200
M3S0
G4 P0.5; Tool On
G1 F300 Z0.0000
G1 F15000 X4.0000 Y88.4200 Z0.0000
M3S245
G4 P0.5; Tool Off

G0 Z0; move to z-safe height
G0 X4.0000 Y96.4200
M3S0
G4 P0.5; Tool On
G1 F300 Z0.0000
G1 F15000 X1296.0000 Y96.4200 Z0.0000
M3S245
G4 P0.5; Tool Off

G0 Z0; move to z-safe height
G0 X1296.0000 Y104.4200
M3S0
G4 P0.5; Tool On
G1 F300 Z0.0000
G1 F15000 X4.0000 Y104.4200 Z0.0000
M3S245
G4 P0.5; Tool Off

G0 Z0; move to z-safe height
G0 X4.0000 Y112.4200
M3S0
G4 P0.5; Tool On
G1 F300 Z0.0000
G1 F15000 X1296.0000 Y112.4200 Z0.0000
M3S245
G4 P0.5; Tool Off

G0 Z0; move to z-safe height
G0 X1296.0000 Y120.4200
M3S0
G4 P0.5; Tool On
G1 F300 Z0.0000
G1 F15000 X4.0000 Y120.4200 Z0.0000
M3S245
G4 P0.5; Tool Off

G0 Z0; move to z-safe height
G0 X4.0000 Y128.4200
M3S0
G4 P0.5; Tool On
G1 F300 Z0.0000
G1 F15000 X1296.0000 Y128.4200 Z0.0000
M3S245
G4 P0.5; Tool Off

G0 Z0; move to z-safe height
G0 X1296.0000 Y136.4200
M3S0
G4 P0.5; Tool On
G1 F300 Z0.0000
G1 F15000 X4.0000 Y136.4200 Z0.0000
M3S245
G4 P0.5; Tool Off

G0 Z0; move to z-safe height
G0 X4.0000 Y144.4200
M3S0
G4 P0.5; Tool On
G1 F300 Z0.0000
G1 F15000 X1296.0000 Y144.4200 Z0.0000
M3S245
G4 P0.5; Tool Off

G0 Z0; move to z-safe height
G0 X1296.0000 Y152.4200
M3S0
G4 P0.5; Tool On
G1 F300 Z0.0000
G1 F15000 X4.0000 Y152.4200 Z0.0000
M3S245
G4 P0.5; Tool Off

G0 Z0; move to z-safe height
G0 X4.0000 Y160.4200
M3S0
G4 P0.5; Tool On
G1 F300 Z0.0000
G1 F15000 X1296.0000 Y160.4200 Z0.0000
M3S245
G4 P0.5; Tool Off

G0 Z0; move to z-safe height
G0 X1296.0000 Y168.4200
M3S0
G4 P0.5; Tool On
G1 F300 Z0.0000
G1 F15000 X4.0000 Y168.4200 Z0.0000
M3S245
G4 P0.5; Tool Off

G0 Z0; move to z-safe height
G0 X4.0000 Y176.4200
M3S0
G4 P0.5; Tool On
G1 F300 Z0.0000
G1 F15000 X1296.0000 Y176.4200 Z0.0000
M3S245
G4 P0.5; Tool Off

G0 Z0; move to z-safe height
G0 X1296.0000 Y184.4200
M3S0
G4 P0.5; Tool On
G1 F300 Z0.0000
G1 F15000 X4.0000 Y184.4200 Z0.0000
M3S245
G4 P0.5; Tool Off

G0 Z0; move to z-safe height
G0 X4.0000 Y192.4200
M3S0
G4 P0.5; Tool On
G1 F300 Z0.0000
G1 F15000 X1296.0000 Y192.4200 Z0.0000
M3S245
G4 P0.5; Tool Off

G0 Z0; move to z-safe height
G0 X1296.0000 Y200.4200
M3S0
G4 P0.5; Tool On
G1 F300 Z0.0000
G1 F15000 X4.0000 Y200.4200 Z0.0000
M3S245
G4 P0.5; Tool Off

G0 Z0; move to z-safe height
G0 X4.0000 Y208.4200
M3S0
G4 P0.5; Tool On
G1 F300 Z0.0000
G1 F15000 X1296.0000 Y208.4200 Z0.0000
M3S245
G4 P0.5; Tool Off

G0 Z0; move to z-safe height
G0 X1296.0000 Y216.4200
M3S0
G4 P0.5; Tool On
G1 F300 Z0.0000
G1 F15000 X4.0000 Y216.4200 Z0.0000
M3S245
G4 P0.5; Tool Off

G0 Z0; move to z-safe height
G0 X4.0000 Y224.4200
M3S0
G4 P0.5; Tool On
G1 F300 Z0.0000
G1 F15000 X1296.0000 Y224.4200 Z0.0000
M3S245
G4 P0.5; Tool Off

G0 Z0; move to z-safe height
G0 X1296.0000 Y232.4200
M3S0
G4 P0.5; Tool On
G1 F300 Z0.0000
G1 F15000 X4.0000 Y232.4200 Z0.0000
M3S245
G4 P0.5; Tool Off

G0 Z0; move to z-safe height
G0 X4.0000 Y240.4200
M3S0
G4 P0.5; Tool On
G1 F300 Z0.0000
G1 F15000 X1296.0000 Y240.4200 Z0.0000
M3S245
G4 P0.5; Tool Off

G0 Z0; move to z-safe height
G0 X1296.0000 Y248.4200
M3S0
G4 P0.5; Tool On
G1 F300 Z0.0000
G1 F15000 X4.0000 Y248.4200 Z0.0000
M3S245
G4 P0.5; Tool Off

G0 Z0; move to z-safe height
G0 X4.0000 Y256.4200
M3S0
G4 P0.5; Tool On
G1 F300 Z0.0000
G1 F15000 X1296.0000 Y256.4200 Z0.0000
M3S245
G4 P0.5; Tool Off

G0 Z0; move to z-safe height
G0 X1296.0000 Y264.4200
M3S0
G4 P0.5; Tool On
G1 F300 Z0.0000
G1 F15000 X4.0000 Y264.4200 Z0.0000
M3S245
G4 P0.5; Tool Off

G0 Z0; move to z-safe height
G0 X4.0000 Y272.4200
M3S0
G4 P0.5; Tool On
G1 F300 Z0.0000
G1 F15000 X1296.0000 Y272.4200 Z0.0000
M3S245
G4 P0.5; Tool Off

G0 Z0; move to z-safe height
G0 X1296.0000 Y280.4200
M3S0
G4 P0.5; Tool On
G1 F300 Z0.0000
G1 F15000 X4.0000 Y280.4200 Z0.0000
M3S245
G4 P0.5; Tool Off

G0 Z0; move to z-safe height
G0 X4.0000 Y288.4200
M3S0
G4 P0.5; Tool On
G1 F300 Z0.0000
G1 F15000 X1296.0000 Y288.4200 Z0.0000
M3S245
G4 P0.5; Tool Off

G0 Z0; move to z-safe height
G0 X1296.0000 Y296.4200
M3S0
G4 P0.5; Tool On
G1 F300 Z0.0000
G1 F15000 X4.0000 Y296.4200 Z0.0000
M3S245
G4 P0.5; Tool Off

G0 Z0; move to z-safe height
G0 X4.0000 Y304.4200
M3S0
G4 P0.5; Tool On
G1 F300 Z0.0000
G1 F15000 X1296.0000 Y304.4200 Z0.0000
M3S245
G4 P0.5; Tool Off

G0 Z0; move to z-safe height
G0 X1296.0000 Y312.4200
M3S0
G4 P0.5; Tool On
G1 F300 Z0.0000
G1 F15000 X4.0000 Y312.4200 Z0.0000
M3S245
G4 P0.5; Tool Off

G0 Z0; move to z-safe height
G0 X4.0000 Y320.4200
M3S0
G4 P0.5; Tool On
G1 F300 Z0.0000
G1 F15000 X1296.0000 Y320.4200 Z0.0000
M3S245
G4 P0.5; Tool Off

G0 Z0; move to z-safe height
G0 X1296.0000 Y328.4200
M3S0
G4 P0.5; Tool On
G1 F300 Z0.0000
G1 F15000 X4.0000 Y328.4200 Z0.0000
M3S245
G4 P0.5; Tool Off

G0 Z0; move to z-safe height
G0 X4.0000 Y336.4200
M3S0
G4 P0.5; Tool On
G1 F300 Z0.0000
G1 F15000 X1296.0000 Y336.4200 Z0.0000
M3S245
G4 P0.5; Tool Off

G0 Z0; move to z-safe height
G0 X1296.0000 Y344.4200
M3S0
G4 P0.5; Tool On
G1 F300 Z0.0000
G1 F15000 X4.0000 Y344.4200 Z0.0000
M3S245
G4 P0.5; Tool Off

G0 Z0; move to z-safe height
G0 X4.0000 Y352.4200
M3S0
G4 P0.5; Tool On
G1 F300 Z0.0000
G1 F15000 X1296.0000 Y352.4200 Z0.0000
M3S245
G4 P0.5; Tool Off

G0 Z0; move to z-safe height
G0 X1296.0000 Y360.4200
M3S0
G4 P0.5; Tool On
G1 F300 Z0.0000
G1 F15000 X4.0000 Y360.4200 Z0.0000
M3S245
G4 P0.5; Tool Off

G0 Z0; move to z-safe height
G0 X4.0000 Y368.4200
M3S0
G4 P0.5; Tool On
G1 F300 Z0.0000
G1 F15000 X1296.0000 Y368.4200 Z0.0000
M3S245
G4 P0.5; Tool Off

G0 Z0; move to z-safe height
G0 X1296.0000 Y376.4200
M3S0
G4 P0.5; Tool On
G1 F300 Z0.0000
G1 F15000 X4.0000 Y376.4200 Z0.0000
M3S245
G4 P0.5; Tool Off

G0 Z0; move to z-safe height
G0 X4.0000 Y384.4200
M3S0
G4 P0.5; Tool On
G1 F300 Z0.0000
G1 F15000 X1296.0000 Y384.4200 Z0.0000
M3S245
G4 P0.5; Tool Off

G0 Z0; move to z-safe height
G0 X1296.0000 Y392.4200
M3S0
G4 P0.5; Tool On
G1 F300 Z0.0000
G1 F15000 X4.0000 Y392.4200 Z0.0000
M3S245
G4 P0.5; Tool Off

G0 Z0; move to z-safe height
G0 X4.0000 Y400.4200
M3S0
G4 P0.5; Tool On
G1 F300 Z0.0000
G1 F15000 X1296.0000 Y400.4200 Z0.0000
M3S245
G4 P0.5; Tool Off

G0 Z0; move to z-safe height
G0 X1296.0000 Y408.4200
M3S0
G4 P0.5; Tool On
G1 F300 Z0.0000
G1 F15000 X4.0000 Y408.4200 Z0.0000
M3S245
G4 P0.5; Tool Off

G0 Z0; move to z-safe height
G0 X4.0000 Y416.4200
M3S0
G4 P0.5; Tool On
G1 F300 Z0.0000
G1 F15000 X1296.0000 Y416.4200 Z0.0000
M3S245
G4 P0.5; Tool Off

G0 Z0; move to z-safe height
G0 X1296.0000 Y424.4200
M3S0
G4 P0.5; Tool On
G1 F300 Z0.0000
G1 F15000 X4.0000 Y424.4200 Z0.0000
M3S245
G4 P0.5; Tool Off

G0 Z0; move to z-safe height
G0 X4.0000 Y432.4200
M3S0
G4 P0.5; Tool On
G1 F300 Z0.0000
G1 F15000 X1296.0000 Y432.4200 Z0.0000
M3S245
G4 P0.5; Tool Off

G0 Z0; move to z-safe height
G0 X1296.0000 Y440.4200
M3S0
G4 P0.5; Tool On
G1 F300 Z0.0000
G1 F15000 X4.0000 Y440.4200 Z0.0000
M3S245
G4 P0.5; Tool Off

G0 Z0; move to z-safe height
G0 X4.0000 Y448.4200
M3S0
G4 P0.5; Tool On
G1 F300 Z0.0000
G1 F15000 X1296.0000 Y448.4200 Z0.0000
M3S245
G4 P0.5; Tool Off

G0 Z0; move to z-safe height
G0 X1296.0000 Y456.4200
M3S0
G4 P0.5; Tool On
G1 F300 Z0.0000
G1 F15000 X4.0000 Y456.4200 Z0.0000
M3S245
G4 P0.5; Tool Off

G0 Z0; move to z-safe height
G0 X4.0000 Y464.4200
M3S0
G4 P0.5; Tool On
G1 F300 Z0.0000
G1 F15000 X1296.0000 Y464.4200 Z0.0000
M3S245
G4 P0.5; Tool Off

G0 Z0; move to z-safe height
G0 X1296.0000 Y472.4200
M3S0
G4 P0.5; Tool On
G1 F300 Z0.0000
G1 F15000 X4.0000 Y472.4200 Z0.0000
M3S245
G4 P0.5; Tool Off

G0 Z0; move to z-safe height
G0 X4.0000 Y480.4200
M3S0
G4 P0.5; Tool On
G1 F300 Z0.0000
G1 F15000 X1296.0000 Y480.4200 Z0.0000
M3S245
G4 P0.5; Tool Off

G0 Z0; move to z-safe height
G0 X1296.0000 Y488.4200
M3S0
G4 P0.5; Tool On
G1 F300 Z0.0000
G1 F15000 X4.0000 Y488.4200 Z0.0000
M3S245
G4 P0.5; Tool Off

G0 Z0; move to z-safe height
G0 X4.0000 Y496.4200
M3S0
G4 P0.5; Tool On
G1 F300 Z0.0000
G1 F15000 X1296.0000 Y496.4200 Z0.0000
M3S245
G4 P0.5; Tool Off

G0 Z0; move to z-safe height
G0 X1296.0000 Y504.4200
M3S0
G4 P0.5; Tool On
G1 F300 Z0.0000
G1 F15000 X4.0000 Y504.4200 Z0.0000
M3S245
G4 P0.5; Tool Off

G0 Z0; move to z-safe height
G0 X4.0000 Y512.4200
M3S0
G4 P0.5; Tool On
G1 F300 Z0.0000
G1 F15000 X1296.0000 Y512.4200 Z0.0000
M3S245
G4 P0.5; Tool Off

G0 Z0; move to z-safe height
G0 X1296.0000 Y520.4200
M3S0
G4 P0.5; Tool On
G1 F300 Z0.0000
G1 F15000 X4.0000 Y520.4200 Z0.0000
M3S245
G4 P0.5; Tool Off

G0 Z0; move to z-safe height
G0 X4.0000 Y528.4200
M3S0
G4 P0.5; Tool On
G1 F300 Z0.0000
G1 F15000 X1296.0000 Y528.4200 Z0.0000
M3S245
G4 P0.5; Tool Off

G0 Z0; move to z-safe height
G0 X1296.0000 Y536.4200
M3S0
G4 P0.5; Tool On
G1 F300 Z0.0000
G1 F15000 X4.0000 Y536.4200 Z0.0000
M3S245
G4 P0.5; Tool Off

G0 Z0; move to z-safe height
G0 X4.0000 Y544.4200
M3S0
G4 P0.5; Tool On
G1 F300 Z0.0000
G1 F15000 X1296.0000 Y544.4200 Z0.0000
M3S245
G4 P0.5; Tool Off

G0 Z0; move to z-safe height
G0 X1296.0000 Y552.4200
M3S0
G4 P0.5; Tool On
G1 F300 Z0.0000
G1 F15000 X4.0000 Y552.4200 Z0.0000
M3S245
G4 P0.5; Tool Off

G0 Z0; move to z-safe height
G0 X4.0000 Y560.4200
M3S0
G4 P0.5; Tool On
G1 F300 Z0.0000
G1 F15000 X1296.0000 Y560.4200 Z0.0000
M3S245
G4 P0.5; Tool Off

G0 Z0; move to z-safe height
G0 X1296.0000 Y568.4200
M3S0
G4 P0.5; Tool On
G1 F300 Z0.0000
G1 F15000 X4.0000 Y568.4200 Z0.0000
M3S245
G4 P0.5; Tool Off

G0 Z0; move to z-safe height
G0 X4.0000 Y576.4200
M3S0
G4 P0.5; Tool On
G1 F300 Z0.0000
G1 F15000 X1296.0000 Y576.4200 Z0.0000
M3S245
G4 P0.5; Tool Off

G0 Z0; move to z-safe height
G0 X1296.0000 Y584.4200
M3S0
G4 P0.5; Tool On
G1 F300 Z0.0000
G1 F15000 X4.0000 Y584.4200 Z0.0000
M3S245
G4 P0.5; Tool Off

G0 Z0; move to z-safe height
G0 X4.0000 Y592.4200
M3S0
G4 P0.5; Tool On
G1 F300 Z0.0000
G1 F15000 X1296.0000 Y592.4200 Z0.0000
M3S245
G4 P0.5; Tool Off

G0 Z0; move to z-safe height
G0 X1296.0000 Y600.4200
M3S0
G4 P0.5; Tool On
G1 F300 Z0.0000
G1 F15000 X4.0000 Y600.4200 Z0.0000
M3S245
G4 P0.5; Tool Off

G0 Z0; move to z-safe height
G0 X4.0000 Y608.4200
M3S0
G4 P0.5; Tool On
G1 F300 Z0.0000
G1 F15000 X1296.0000 Y608.4200 Z0.0000
M3S245
G4 P0.5; Tool Off

G0 Z0; move to z-safe height
G0 X1296.0000 Y616.4200
M3S0
G4 P0.5; Tool On
G1 F300 Z0.0000
G1 F15000 X4.0000 Y616.4200 Z0.0000
M3S245
G4 P0.5; Tool Off

G0 Z0; move to z-safe height
G0 X4.0000 Y624.4200
M3S0
G4 P0.5; Tool On
G1 F300 Z0.0000
G1 F15000 X1296.0000 Y624.4200 Z0.0000
M3S245
G4 P0.5; Tool Off

G0 Z0; move to z-safe height
G0 X1296.0000 Y632.4200
M3S0
G4 P0.5; Tool On
G1 F300 Z0.0000
G1 F15000 X4.0000 Y632.4200 Z0.0000
M3S245
G4 P0.5; Tool Off

G0 Z0; move to z-safe height
G0 X4.0000 Y640.4200
M3S0
G4 P0.5; Tool On
G1 F300 Z0.0000
G1 F15000 X1296.0000 Y640.4200 Z0.0000
M3S245
G4 P0.5; Tool Off

G0 Z0; move to z-safe height
G0 X1296.0000 Y648.4200
M3S0
G4 P0.5; Tool On
G1 F300 Z0.0000
G1 F15000 X4.0000 Y648.4200 Z0.0000
M3S245
G4 P0.5; Tool Off

G0 Z0; move to z-safe height
G0 X4.0000 Y656.4200
M3S0
G4 P0.5; Tool On
G1 F300 Z0.0000
G1 F15000 X1296.0000 Y656.4200 Z0.0000
M3S245
G4 P0.5; Tool Off

G0 Z0; move to z-safe height
G0 X1296.0000 Y664.4200
M3S0
G4 P0.5; Tool On
G1 F300 Z0.0000
G1 F15000 X4.0000 Y664.4200 Z0.0000
M3S245
G4 P0.5; Tool Off

G0 Z0; move to z-safe height
G0 X4.0000 Y672.4200
M3S0
G4 P0.5; Tool On
G1 F300 Z0.0000
G1 F15000 X1296.0000 Y672.4200 Z0.0000
M3S245
G4 P0.5; Tool Off

G0 Z0; move to z-safe height
G0 X1296.0000 Y680.4200
M3S0
G4 P0.5; Tool On
G1 F300 Z0.0000
G1 F15000 X4.0000 Y680.4200 Z0.0000
M3S245
G4 P0.5; Tool Off

G0 Z0; move to z-safe height
G0 X4.0000 Y688.4200
M3S0
G4 P0.5; Tool On
G1 F300 Z0.0000
G1 F15000 X1296.0000 Y688.4200 Z0.0000
M3S245
G4 P0.5; Tool Off

G0 Z0; move to z-safe height
G0 X1296.0000 Y696.4200
M3S0
G4 P0.5; Tool On
G1 F300 Z0.0000
G1 F15000 X4.0000 Y696.4200 Z0.0000
M3S245
G4 P0.5; Tool Off

G0 Z0; move to z-safe height
G0 X4.0000 Y704.4200
M3S0
G4 P0.5; Tool On
G1 F300 Z0.0000
G1 F15000 X1296.0000 Y704.4200 Z0.0000
M3S245
G4 P0.5; Tool Off

G0 Z0; move to z-safe height
G0 X1296.0000 Y712.4200
M3S0
G4 P0.5; Tool On
G1 F300 Z0.0000
G1 F15000 X4.0000 Y712.4200 Z0.0000
M3S245
G4 P0.5; Tool Off

G0 Z0; move to z-safe height
G0 X4.0000 Y720.4200
M3S0
G4 P0.5; Tool On
G1 F300 Z0.0000
G1 F15000 X1296.0000 Y720.4200 Z0.0000
M3S245
G4 P0.5; Tool Off

G0 Z0; move to z-safe height
G0 X1296.0000 Y728.4200
M3S0
G4 P0.5; Tool On
G1 F300 Z0.0000
G1 F15000 X4.0000 Y728.4200 Z0.0000
M3S245
G4 P0.5; Tool Off

G0 Z0; move to z-safe height
G0 X4.0000 Y736.4200
M3S0
G4 P0.5; Tool On
G1 F300 Z0.0000
G1 F15000 X1296.0000 Y736.4200 Z0.0000
M3S245
G4 P0.5; Tool Off

G0 Z0; move to z-safe height
G0 X1296.0000 Y744.4200
M3S0
G4 P0.5; Tool On
G1 F300 Z0.0000
G1 F15000 X4.0000 Y744.4200 Z0.0000
M3S245
G4 P0.5; Tool Off

G0 Z0; move to z-safe height
G0 X4.0000 Y752.4200
M3S0
G4 P0.5; Tool On
G1 F300 Z0.0000
G1 F15000 X1296.0000 Y752.4200 Z0.0000
M3S245
G4 P0.5; Tool Off

G0 Z0; move to z-safe height
G0 X1296.0000 Y760.4200
M3S0
G4 P0.5; Tool On
G1 F300 Z0.0000
G1 F15000 X4.0000 Y760.4200 Z0.0000
M3S245
G4 P0.5; Tool Off

G0 Z0; move to z-safe height
G0 X4.0000 Y768.4200
M3S0
G4 P0.5; Tool On
G1 F300 Z0.0000
G1 F15000 X1296.0000 Y768.4200 Z0.0000
M3S245
G4 P0.5; Tool Off

G0 Z0; move to z-safe height
G0 X1296.0000 Y776.4200
M3S0
G4 P0.5; Tool On
G1 F300 Z0.0000
G1 F15000 X4.0000 Y776.4200 Z0.0000
M3S245
G4 P0.5; Tool Off

G0 Z0; move to z-safe height
G0 X4.0000 Y784.4200
M3S0
G4 P0.5; Tool On
G1 F300 Z0.0000
G1 F15000 X1296.0000 Y784.4200 Z0.0000
M3S245
G4 P0.5; Tool Off

G0 Z0; move to z-safe height
G0 X1296.0000 Y792.4200
M3S0
G4 P0.5; Tool On
G1 F300 Z0.0000
G1 F15000 X4.0000 Y792.4200 Z0.0000
M3S245
G4 P0.5; Tool Off

G0 Z0; move to z-safe height
G0 X4.0000 Y800.4200
M3S0
G4 P0.5; Tool On
G1 F300 Z0.0000
G1 F15000 X1296.0000 Y800.4200 Z0.0000
M3S245
G4 P0.5; Tool Off

G0 Z0; move to z-safe height
G0 X1296.0000 Y808.4200
M3S0
G4 P0.5; Tool On
G1 F300 Z0.0000
G1 F15000 X4.0000 Y808.4200 Z0.0000
M3S245
G4 P0.5; Tool Off

G0 Z0; move to z-safe height
G0 X4.0000 Y816.4200
M3S0
G4 P0.5; Tool On
G1 F300 Z0.0000
G1 F15000 X1296.0000 Y816.4200 Z0.0000
M3S245
G4 P0.5; Tool Off

G0 Z0; move to z-safe height
G0 X1296.0000 Y824.4200
M3S0
G4 P0.5; Tool On
G1 F300 Z0.0000
G1 F15000 X4.0000 Y824.4200 Z0.0000
M3S245
G4 P0.5; Tool Off

G0 Z0; move to z-safe height
G0 X4.0000 Y832.4200
M3S0
G4 P0.5; Tool On
G1 F300 Z0.0000
G1 F15000 X1296.0000 Y832.4200 Z0.0000
M3S245
G4 P0.5; Tool Off

G0 Z0; move to z-safe height
G0 X1296.0000 Y840.4200
M3S0
G4 P0.5; Tool On
G1 F300 Z0.0000
G1 F15000 X4.0000 Y840.4200 Z0.0000
M3S245
G4 P0.5; Tool Off

G0 Z0; move to z-safe height
G0 X4.0000 Y848.4200
M3S0
G4 P0.5; Tool On
G1 F300 Z0.0000
G1 F15000 X1296.0000 Y848.4200 Z0.0000
M3S245
G4 P0.5; Tool Off

G0 Z0; move to z-safe height
G0 X1296.0000 Y856.4200
M3S0
G4 P0.5; Tool On
G1 F300 Z0.0000
G1 F15000 X4.0000 Y856.4200 Z0.0000
M3S245
G4 P0.5; Tool Off

G0 Z0; move to z-safe height
G0 X4.0000 Y864.4200
M3S0
G4 P0.5; Tool On
G1 F300 Z0.0000
G1 F15000 X1296.0000 Y864.4200 Z0.0000
M3S245
G4 P0.5; Tool Off

G0 Z0; move to z-safe height
G0 X1296.0000 Y872.4200
M3S0
G4 P0.5; Tool On
G1 F300 Z0.0000
G1 F15000 X4.0000 Y872.4200 Z0.0000
M3S245
G4 P0.5; Tool Off

G0 Z0; move to z-safe height
G0 X4.0000 Y880.4200
M3S0
G4 P0.5; Tool On
G1 F300 Z0.0000
G1 F15000 X1296.0000 Y880.4200 Z0.0000
M3S245
G4 P0.5; Tool Off

G0 Z0; move to z-safe height
G0 X1296.0000 Y888.4200
M3S0
G4 P0.5; Tool On
G1 F300 Z0.0000
G1 F15000 X4.0000 Y888.4200 Z0.0000
M3S245
G4 P0.5; Tool Off

G0 Z0; move to z-safe height
G0 X4.0000 Y896.4200
M3S0
G4 P0.5; Tool On
G1 F300 Z0.0000
G1 F15000 X1296.0000 Y896.4200 Z0.0000
M3S245
G4 P0.5; Tool Off

G0 Z0; move to z-safe height
G0 X1296.0000 Y904.4200
M3S0
G4 P0.5; Tool On
G1 F300 Z0.0000
G1 F15000 X4.0000 Y904.4200 Z0.0000
M3S245
G4 P0.5; Tool Off

G0 Z0; move to z-safe height
G0 X4.0000 Y912.4200
M3S0
G4 P0.5; Tool On
G1 F300 Z0.0000
G1 F15000 X1296.0000 Y912.4200 Z0.0000
M3S245
G4 P0.5; Tool Off

G0 Z0; move to z-safe height
G0 X1296.0000 Y920.4200
M3S0
G4 P0.5; Tool On
G1 F300 Z0.0000
G1 F15000 X4.0000 Y920.4200 Z0.0000
M3S245
G4 P0.5; Tool Off

G0 Z0; move to z-safe height
G0 X4.0000 Y928.4200
M3S0
G4 P0.5; Tool On
G1 F300 Z0.0000
G1 F15000 X1296.0000 Y928.4200 Z0.0000
M3S245
G4 P0.5; Tool Off

G0 Z0; move to z-safe height
G0 X1296.0000 Y936.4200
M3S0
G4 P0.5; Tool On
G1 F300 Z0.0000
G1 F15000 X4.0000 Y936.4200 Z0.0000
M3S245
G4 P0.5; Tool Off

G0 Z0; move to z-safe height
G0 X4.0000 Y944.4200
M3S0
G4 P0.5; Tool On
G1 F300 Z0.0000
G1 F15000 X1296.0000 Y944.4200 Z0.0000
M3S245
G4 P0.5; Tool Off

G0 Z0; move to z-safe height
G0 X1296.0000 Y952.4200
M3S0
G4 P0.5; Tool On
G1 F300 Z0.0000
G1 F15000 X4.0000 Y952.4200 Z0.0000
M3S245
G4 P0.5; Tool Off

G0 Z0; move to z-safe height
G0 X4.0000 Y960.4200
M3S0
G4 P0.5; Tool On
G1 F300 Z0.0000
G1 F15000 X1296.0000 Y960.4200 Z0.0000
M3S245
G4 P0.5; Tool Off

G0 Z0; move to z-safe height
G0 X1296.0000 Y968.4200
M3S0
G4 P0.5; Tool On
G1 F300 Z0.0000
G1 F15000 X4.0000 Y968.4200 Z0.0000
M3S245
G4 P0.5; Tool Off

G0 Z0; move to z-safe height
G0 X4.0000 Y976.4200
M3S0
G4 P0.5; Tool On
G1 F300 Z0.0000
G1 F15000 X1296.0000 Y976.4200 Z0.0000
M3S245
G4 P0.5; Tool Off

G0 Z0; move to z-safe height
G0 X1296.0000 Y984.4200
M3S0
G4 P0.5; Tool On
G1 F300 Z0.0000
G1 F15000 X4.0000 Y984.4200 Z0.0000
M3S245
G4 P0.5; Tool Off

G0 Z0; move to z-safe height
G0 X4.0000 Y992.4200
M3S0
G4 P0.5; Tool On
G1 F300 Z0.0000
G1 F15000 X1296.0000 Y992.4200 Z0.0000
M3S245
G4 P0.5; Tool Off

G0 Z0; move to z-safe height
G0 X1296.0000 Y1000.4200
M3S0
G4 P0.5; Tool On
G1 F300 Z0.0000
G1 F15000 X4.0000 Y1000.4200 Z0.0000
M3S245
G4 P0.5; Tool Off

G0 Z0; move to z-safe height
G0 X4.0000 Y1008.4200
M3S0
G4 P0.5; Tool On
G1 F300 Z0.0000
G1 F15000 X1296.0000 Y1008.4200 Z0.0000
M3S245
G4 P0.5; Tool Off

G0 Z0; move to z-safe height
G0 X1296.0000 Y1016.4200
M3S0
G4 P0.5; Tool On
G1 F300 Z0.0000
G1 F15000 X4.0000 Y1016.4200 Z0.0000
M3S245
G4 P0.5; Tool Off

G0 Z0; move to z-safe height
G0 X4.0000 Y1024.4200
M3S0
G4 P0.5; Tool On
G1 F300 Z0.0000
G1 F15000 X1296.0000 Y1024.4200 Z0.0000
M3S245
G4 P0.5; Tool Off

G0 Z0; move to z-safe height
G0 X1296.0000 Y1032.4200
M3S0
G4 P0.5; Tool On
G1 F300 Z0.0000
G1 F15000 X4.0000 Y1032.4200 Z0.0000
M3S245
G4 P0.5; Tool Off

G0 Z0; move to z-safe height
G0 X4.0000 Y1040.4200
M3S0
G4 P0.5; Tool On
G1 F300 Z0.0000
G1 F15000 X1296.0000 Y1040.4200 Z0.0000
M3S245
G4 P0.5; Tool Off

G0 Z0; move to z-safe height
G0 X1296.0000 Y1048.4200
M3S0
G4 P0.5; Tool On
G1 F300 Z0.0000
G1 F15000 X4.0000 Y1048.4200 Z0.0000
M3S245
G4 P0.5; Tool Off

G0 Z0; move to z-safe height
G0 X4.0000 Y1056.4200
M3S0
G4 P0.5; Tool On
G1 F300 Z0.0000
G1 F15000 X1296.0000 Y1056.4200 Z0.0000
M3S245
G4 P0.5; Tool Off

G0 Z0; move to z-safe height
G0 X1296.0000 Y1064.4200
M3S0
G4 P0.5; Tool On
G1 F300 Z0.0000
G1 F15000 X4.0000 Y1064.4200 Z0.0000
M3S245
G4 P0.5; Tool Off

G0 Z0; move to z-safe height
G0 X4.0000 Y1072.4200
M3S0
G4 P0.5; Tool On
G1 F300 Z0.0000
G1 F15000 X1296.0000 Y1072.4200 Z0.0000
M3S245
G4 P0.5; Tool Off

G0 Z0; move to z-safe height
G0 X1296.0000 Y1080.4200
M3S0
G4 P0.5; Tool On
G1 F300 Z0.0000
G1 F15000 X4.0000 Y1080.4200 Z0.0000
M3S245
G4 P0.5; Tool Off

G0 Z0; move to z-safe height
G0 X4.0000 Y1088.4200
M3S0
G4 P0.5; Tool On
G1 F300 Z0.0000
G1 F15000 X1296.0000 Y1088.4200 Z0.0000
M3S245
G4 P0.5; Tool Off

G0 Z0; move to z-safe height
G0 X1296.0000 Y1096.4200
M3S0
G4 P0.5; Tool On
G1 F300 Z0.0000
G1 F15000 X4.0000 Y1096.4200 Z0.0000
M3S245
G4 P0.5; Tool Off

G0 Z0; move to z-safe height
G0 X4.0000 Y1104.4200
M3S0
G4 P0.5; Tool On
G1 F300 Z0.0000
G1 F15000 X1296.0000 Y1104.4200 Z0.0000
M3S245
G4 P0.5; Tool Off

G0 Z0; move to z-safe height
G0 X1296.0000 Y1112.4200
M3S0
G4 P0.5; Tool On
G1 F300 Z0.0000
G1 F15000 X4.0000 Y1112.4200 Z0.0000
M3S245
G4 P0.5; Tool Off

G0 Z0; move to z-safe height
G0 X4.0000 Y1120.4200
M3S0
G4 P0.5; Tool On
G1 F300 Z0.0000
G1 F15000 X1296.0000 Y1120.4200 Z0.0000
M3S245
G4 P0.5; Tool Off

G0 Z0; move to z-safe height
G0 X1296.0000 Y1128.4200
M3S0
G4 P0.5; Tool On
G1 F300 Z0.0000
G1 F15000 X4.0000 Y1128.4200 Z0.0000
M3S245
G4 P0.5; Tool Off

G0 Z0; move to z-safe height
G0 X4.0000 Y1136.4200
M3S0
G4 P0.5; Tool On
G1 F300 Z0.0000
G1 F15000 X1296.0000 Y1136.4200 Z0.0000
M3S245
G4 P0.5; Tool Off

G0 Z0; move to z-safe height
G0 X1296.0000 Y1144.4200
M3S0
G4 P0.5; Tool On
G1 F300 Z0.0000
G1 F15000 X4.0000 Y1144.4200 Z0.0000
M3S245
G4 P0.5; Tool Off

G0 Z0; move to z-safe height
G0 X4.0000 Y1152.4200
M3S0
G4 P0.5; Tool On
G1 F300 Z0.0000
G1 F15000 X1296.0000 Y1152.4200 Z0.0000
M3S245
G4 P0.5; Tool Off

G0 Z0; move to z-safe height
G0 X1296.0000 Y1160.4200
M3S0
G4 P0.5; Tool On
G1 F300 Z0.0000
G1 F15000 X4.0000 Y1160.4200 Z0.0000
M3S245
G4 P0.5; Tool Off

G0 Z0; move to z-safe height
G0 X4.0000 Y1168.4200
M3S0
G4 P0.5; Tool On
G1 F300 Z0.0000
G1 F15000 X1296.0000 Y1168.4200 Z0.0000
M3S245
G4 P0.5; Tool Off

G0 Z0; move to z-safe height
G0 X1296.0000 Y1176.4200
M3S0
G4 P0.5; Tool On
G1 F300 Z0.0000
G1 F15000 X4.0000 Y1176.4200 Z0.0000
M3S245
G4 P0.5; Tool Off

G0 Z0; move to z-safe height
G0 X4.0000 Y1184.4200
M3S0
G4 P0.5; Tool On
G1 F300 Z0.0000
G1 F15000 X1296.0000 Y1184.4200 Z0.0000
M3S245
G4 P0.5; Tool Off

G0 Z0; move to z-safe height
G0 X1296.0000 Y1192.4200
M3S0
G4 P0.5; Tool On
G1 F300 Z0.0000
G1 F15000 X4.0000 Y1192.4200 Z0.0000
M3S245
G4 P0.5; Tool Off

G0 Z0; move to z-safe height
G0 X4.0000 Y1200.4200
M3S0
G4 P0.5; Tool On
G1 F300 Z0.0000
G1 F15000 X1296.0000 Y1200.4200 Z0.0000
M3S245
G4 P0.5; Tool Off

G0 Z0; move to z-safe height
G0 X1296.0000 Y1208.4200
M3S0
G4 P0.5; Tool On
G1 F300 Z0.0000
G1 F15000 X4.0000 Y1208.4200 Z0.0000
M3S245
G4 P0.5; Tool Off

G0 Z0; move to z-safe height
G0 X4.0000 Y1216.4200
M3S0
G4 P0.5; Tool On
G1 F300 Z0.0000
G1 F15000 X1296.0000 Y1216.4200 Z0.0000
M3S245
G4 P0.5; Tool Off

G0 Z0; move to z-safe height
G0 X1296.0000 Y1224.4200
M3S0
G4 P0.5; Tool On
G1 F300 Z0.0000
G1 F15000 X4.0000 Y1224.4200 Z0.0000
M3S245
G4 P0.5; Tool Off

G0 Z0; move to z-safe height
G0 X4.0000 Y1232.4200
M3S0
G4 P0.5; Tool On
G1 F300 Z0.0000
G1 F15000 X1296.0000 Y1232.4200 Z0.0000
M3S245
G4 P0.5; Tool Off

G0 Z0; move to z-safe height
G0 X1296.0000 Y1240.4200
M3S0
G4 P0.5; Tool On
G1 F300 Z0.0000
G1 F15000 X4.0000 Y1240.4200 Z0.0000
M3S245
G4 P0.5; Tool Off

G0 Z0; move to z-safe height
G0 X4.0000 Y1248.4200
M3S0
G4 P0.5; Tool On
G1 F300 Z0.0000
G1 F15000 X1296.0000 Y1248.4200 Z0.0000
M3S245
G4 P0.5; Tool Off

G0 Z0; move to z-safe height
G0 X1296.0000 Y1256.4200
M3S0
G4 P0.5; Tool On
G1 F300 Z0.0000
G1 F15000 X4.0000 Y1256.4200 Z0.0000
M3S245
G4 P0.5; Tool Off

G0 Z0; move to z-safe height
G0 X4.0000 Y1264.4200
M3S0
G4 P0.5; Tool On
G1 F300 Z0.0000
G1 F15000 X1296.0000 Y1264.4200 Z0.0000
M3S245
G4 P0.5; Tool Off

G0 Z0; move to z-safe height
G0 X1296.0000 Y1272.4200
M3S0
G4 P0.5; Tool On
G1 F300 Z0.0000
G1 F15000 X4.0000 Y1272.4200 Z0.0000
M3S245
G4 P0.5; Tool Off

G0 Z0; move to z-safe height
G0 X4.0000 Y1280.4200
M3S0
G4 P0.5; Tool On
G1 F300 Z0.0000
G1 F15000 X1296.0000 Y1280.4200 Z0.0000
M3S245
G4 P0.5; Tool Off

G0 Z0; move to z-safe height
G0 X1296.0000 Y1288.4200
M3S0
G4 P0.5; Tool On
G1 F300 Z0.0000
G1 F15000 X4.0000 Y1288.4200 Z0.0000
M3S245
G4 P0.5; Tool Off
; retracting back to z-safe
G0 Z0

; Plotter Mode Complete
