; GCODE Generated by cam.openbuilds.com on 2023-03-28 
G21 ; mm-mode
G54; Work Coordinates
G21; mm-mode
G90; Absolute Positioning
; Plotter Mode Active

; Operation 0: Pen Plotter: (lines fill)
; Pen Diameter: 2

G0 Z0; move to z-safe height
G0 F1000 X4.0000 Y10.4000
M3S0
G4 P0.5; Tool On
G1 F300 Z0.0000
G1 F15000 X300.0000 Y10.4000 Z0.0000
M3S245
G4 P0.5; Tool Off

G0 Z0; move to z-safe height
G0 X300.0000 Y18.4000
M3S0
G4 P0.5; Tool On
G1 F300 Z0.0000
G1 F15000 X4.0000 Y18.4000 Z0.0000
M3S245
G4 P0.5; Tool Off

G0 Z0; move to z-safe height
G0 X4.0000 Y26.4000
M3S0
G4 P0.5; Tool On
G1 F300 Z0.0000
G1 F15000 X300.0000 Y26.4000 Z0.0000
M3S245
G4 P0.5; Tool Off

G0 Z0; move to z-safe height
G0 X300.0000 Y34.4000
M3S0
G4 P0.5; Tool On
G1 F300 Z0.0000
G1 F15000 X4.0000 Y34.4000 Z0.0000
M3S245
G4 P0.5; Tool Off

G0 Z0; move to z-safe height
G0 X4.0000 Y42.4000
M3S0
G4 P0.5; Tool On
G1 F300 Z0.0000
G1 F15000 X300.0000 Y42.4000 Z0.0000
M3S245
G4 P0.5; Tool Off

G0 Z0; move to z-safe height
G0 X300.0000 Y50.4000
M3S0
G4 P0.5; Tool On
G1 F300 Z0.0000
G1 F15000 X4.0000 Y50.4000 Z0.0000
M3S245
G4 P0.5; Tool Off

G0 Z0; move to z-safe height
G0 X4.0000 Y58.4000
M3S0
G4 P0.5; Tool On
G1 F300 Z0.0000
G1 F15000 X300.0000 Y58.4000 Z0.0000
M3S245
G4 P0.5; Tool Off

G0 Z0; move to z-safe height
G0 X300.0000 Y66.4000
M3S0
G4 P0.5; Tool On
G1 F300 Z0.0000
G1 F15000 X4.0000 Y66.4000 Z0.0000
M3S245
G4 P0.5; Tool Off

G0 Z0; move to z-safe height
G0 X4.0000 Y74.4000
M3S0
G4 P0.5; Tool On
G1 F300 Z0.0000
G1 F15000 X300.0000 Y74.4000 Z0.0000
M3S245
G4 P0.5; Tool Off

G0 Z0; move to z-safe height
G0 X300.0000 Y82.4000
M3S0
G4 P0.5; Tool On
G1 F300 Z0.0000
G1 F15000 X4.0000 Y82.4000 Z0.0000
M3S245
G4 P0.5; Tool Off

G0 Z0; move to z-safe height
G0 X4.0000 Y90.4000
M3S0
G4 P0.5; Tool On
G1 F300 Z0.0000
G1 F15000 X300.0000 Y90.4000 Z0.0000
M3S245
G4 P0.5; Tool Off

G0 Z0; move to z-safe height
G0 X300.0000 Y98.4000
M3S0
G4 P0.5; Tool On
G1 F300 Z0.0000
G1 F15000 X4.0000 Y98.4000 Z0.0000
M3S245
G4 P0.5; Tool Off

G0 Z0; move to z-safe height
G0 X4.0000 Y106.4000
M3S0
G4 P0.5; Tool On
G1 F300 Z0.0000
G1 F15000 X300.0000 Y106.4000 Z0.0000
M3S245
G4 P0.5; Tool Off

G0 Z0; move to z-safe height
G0 X300.0000 Y114.4000
M3S0
G4 P0.5; Tool On
G1 F300 Z0.0000
G1 F15000 X4.0000 Y114.4000 Z0.0000
M3S245
G4 P0.5; Tool Off

G0 Z0; move to z-safe height
G0 X4.0000 Y122.4000
M3S0
G4 P0.5; Tool On
G1 F300 Z0.0000
G1 F15000 X300.0000 Y122.4000 Z0.0000
M3S245
G4 P0.5; Tool Off

G0 Z0; move to z-safe height
G0 X300.0000 Y130.4000
M3S0
G4 P0.5; Tool On
G1 F300 Z0.0000
G1 F15000 X4.0000 Y130.4000 Z0.0000
M3S245
G4 P0.5; Tool Off

G0 Z0; move to z-safe height
G0 X4.0000 Y138.4000
M3S0
G4 P0.5; Tool On
G1 F300 Z0.0000
G1 F15000 X300.0000 Y138.4000 Z0.0000
M3S245
G4 P0.5; Tool Off

G0 Z0; move to z-safe height
G0 X300.0000 Y146.4000
M3S0
G4 P0.5; Tool On
G1 F300 Z0.0000
G1 F15000 X4.0000 Y146.4000 Z0.0000
M3S245
G4 P0.5; Tool Off

G0 Z0; move to z-safe height
G0 X4.0000 Y154.4000
M3S0
G4 P0.5; Tool On
G1 F300 Z0.0000
G1 F15000 X300.0000 Y154.4000 Z0.0000
M3S245
G4 P0.5; Tool Off

G0 Z0; move to z-safe height
G0 X300.0000 Y162.4000
M3S0
G4 P0.5; Tool On
G1 F300 Z0.0000
G1 F15000 X4.0000 Y162.4000 Z0.0000
M3S245
G4 P0.5; Tool Off

G0 Z0; move to z-safe height
G0 X4.0000 Y170.4000
M3S0
G4 P0.5; Tool On
G1 F300 Z0.0000
G1 F15000 X300.0000 Y170.4000 Z0.0000
M3S245
G4 P0.5; Tool Off

G0 Z0; move to z-safe height
G0 X300.0000 Y178.4000
M3S0
G4 P0.5; Tool On
G1 F300 Z0.0000
G1 F15000 X4.0000 Y178.4000 Z0.0000
M3S245
G4 P0.5; Tool Off

G0 Z0; move to z-safe height
G0 X4.0000 Y186.4000
M3S0
G4 P0.5; Tool On
G1 F300 Z0.0000
G1 F15000 X300.0000 Y186.4000 Z0.0000
M3S245
G4 P0.5; Tool Off

G0 Z0; move to z-safe height
G0 X300.0000 Y194.4000
M3S0
G4 P0.5; Tool On
G1 F300 Z0.0000
G1 F15000 X4.0000 Y194.4000 Z0.0000
M3S245
G4 P0.5; Tool Off

G0 Z0; move to z-safe height
G0 X4.0000 Y202.4000
M3S0
G4 P0.5; Tool On
G1 F300 Z0.0000
G1 F15000 X300.0000 Y202.4000 Z0.0000
M3S245
G4 P0.5; Tool Off

G0 Z0; move to z-safe height
G0 X300.0000 Y210.4000
M3S0
G4 P0.5; Tool On
G1 F300 Z0.0000
G1 F15000 X4.0000 Y210.4000 Z0.0000
M3S245
G4 P0.5; Tool Off

G0 Z0; move to z-safe height
G0 X4.0000 Y218.4000
M3S0
G4 P0.5; Tool On
G1 F300 Z0.0000
G1 F15000 X300.0000 Y218.4000 Z0.0000
M3S245
G4 P0.5; Tool Off

G0 Z0; move to z-safe height
G0 X300.0000 Y226.4000
M3S0
G4 P0.5; Tool On
G1 F300 Z0.0000
G1 F15000 X4.0000 Y226.4000 Z0.0000
M3S245
G4 P0.5; Tool Off

G0 Z0; move to z-safe height
G0 X4.0000 Y234.4000
M3S0
G4 P0.5; Tool On
G1 F300 Z0.0000
G1 F15000 X300.0000 Y234.4000 Z0.0000
M3S245
G4 P0.5; Tool Off

G0 Z0; move to z-safe height
G0 X300.0000 Y242.4000
M3S0
G4 P0.5; Tool On
G1 F300 Z0.0000
G1 F15000 X4.0000 Y242.4000 Z0.0000
M3S245
G4 P0.5; Tool Off

G0 Z0; move to z-safe height
G0 X4.0000 Y250.4000
M3S0
G4 P0.5; Tool On
G1 F300 Z0.0000
G1 F15000 X300.0000 Y250.4000 Z0.0000
M3S245
G4 P0.5; Tool Off

G0 Z0; move to z-safe height
G0 X300.0000 Y258.4000
M3S0
G4 P0.5; Tool On
G1 F300 Z0.0000
G1 F15000 X4.0000 Y258.4000 Z0.0000
M3S245
G4 P0.5; Tool Off

G0 Z0; move to z-safe height
G0 X4.0000 Y266.4000
M3S0
G4 P0.5; Tool On
G1 F300 Z0.0000
G1 F15000 X300.0000 Y266.4000 Z0.0000
M3S245
G4 P0.5; Tool Off

G0 Z0; move to z-safe height
G0 X300.0000 Y274.4000
M3S0
G4 P0.5; Tool On
G1 F300 Z0.0000
G1 F15000 X4.0000 Y274.4000 Z0.0000
M3S245
G4 P0.5; Tool Off

G0 Z0; move to z-safe height
G0 X4.0000 Y282.4000
M3S0
G4 P0.5; Tool On
G1 F300 Z0.0000
G1 F15000 X300.0000 Y282.4000 Z0.0000
M3S245
G4 P0.5; Tool Off

G0 Z0; move to z-safe height
G0 X300.0000 Y290.4000
M3S0
G4 P0.5; Tool On
G1 F300 Z0.0000
G1 F15000 X4.0000 Y290.4000 Z0.0000
M3S245
G4 P0.5; Tool Off

G0 Z0; move to z-safe height
G0 X4.0000 Y298.4000
M3S0
G4 P0.5; Tool On
G1 F300 Z0.0000
G1 F15000 X300.0000 Y298.4000 Z0.0000
M3S245
G4 P0.5; Tool Off

G0 Z0; move to z-safe height
G0 X300.0000 Y306.4000
M3S0
G4 P0.5; Tool On
G1 F300 Z0.0000
G1 F15000 X4.0000 Y306.4000 Z0.0000
M3S245
G4 P0.5; Tool Off

G0 Z0; move to z-safe height
G0 X4.0000 Y314.4000
M3S0
G4 P0.5; Tool On
G1 F300 Z0.0000
G1 F15000 X300.0000 Y314.4000 Z0.0000
M3S245
G4 P0.5; Tool Off

G0 Z0; move to z-safe height
G0 X300.0000 Y322.4000
M3S0
G4 P0.5; Tool On
G1 F300 Z0.0000
G1 F15000 X4.0000 Y322.4000 Z0.0000
M3S245
G4 P0.5; Tool Off

G0 Z0; move to z-safe height
G0 X4.0000 Y330.4000
M3S0
G4 P0.5; Tool On
G1 F300 Z0.0000
G1 F15000 X300.0000 Y330.4000 Z0.0000
M3S245
G4 P0.5; Tool Off

G0 Z0; move to z-safe height
G0 X300.0000 Y338.4000
M3S0
G4 P0.5; Tool On
G1 F300 Z0.0000
G1 F15000 X4.0000 Y338.4000 Z0.0000
M3S245
G4 P0.5; Tool Off

G0 Z0; move to z-safe height
G0 X4.0000 Y346.4000
M3S0
G4 P0.5; Tool On
G1 F300 Z0.0000
G1 F15000 X300.0000 Y346.4000 Z0.0000
M3S245
G4 P0.5; Tool Off

G0 Z0; move to z-safe height
G0 X300.0000 Y354.4000
M3S0
G4 P0.5; Tool On
G1 F300 Z0.0000
G1 F15000 X4.0000 Y354.4000 Z0.0000
M3S245
G4 P0.5; Tool Off

G0 Z0; move to z-safe height
G0 X4.0000 Y362.4000
M3S0
G4 P0.5; Tool On
G1 F300 Z0.0000
G1 F15000 X300.0000 Y362.4000 Z0.0000
M3S245
G4 P0.5; Tool Off

G0 Z0; move to z-safe height
G0 X300.0000 Y370.4000
M3S0
G4 P0.5; Tool On
G1 F300 Z0.0000
G1 F15000 X4.0000 Y370.4000 Z0.0000
M3S245
G4 P0.5; Tool Off

G0 Z0; move to z-safe height
G0 X4.0000 Y378.4000
M3S0
G4 P0.5; Tool On
G1 F300 Z0.0000
G1 F15000 X300.0000 Y378.4000 Z0.0000
M3S245
G4 P0.5; Tool Off

G0 Z0; move to z-safe height
G0 X300.0000 Y386.4000
M3S0
G4 P0.5; Tool On
G1 F300 Z0.0000
G1 F15000 X4.0000 Y386.4000 Z0.0000
M3S245
G4 P0.5; Tool Off

G0 Z0; move to z-safe height
G0 X4.0000 Y394.4000
M3S0
G4 P0.5; Tool On
G1 F300 Z0.0000
G1 F15000 X300.0000 Y394.4000 Z0.0000
M3S245
G4 P0.5; Tool Off
; retracting back to z-safe
G0 Z0

; Plotter Mode Complete
