; GCODE Generated by cam.openbuilds.com on 2023-06-19 
G21 ; mm-mode
G54; Work Coordinates
G21; mm-mode
G90; Absolute Positioning
; Plotter Mode Active

; Operation 0: Pen Plotter: (lines fill)
; Pen Diameter: 2

G0 Z0; move to z-safe height
G0 F1000 X1205.7700 Y2.0000
M3S0
G4 P0.5; Tool On
G1 F300 Z0.0000
G1 F15000 X1205.7700 Y1208.0000 Z0.0000
M3S245
G4 P0.5; Tool Off

G0 Z0; move to z-safe height
G0 X1201.7700 Y1208.0000
M3S0
G4 P0.5; Tool On
G1 F300 Z0.0000
G1 F15000 X1201.7700 Y2.0000 Z0.0000
M3S245
G4 P0.5; Tool Off

G0 Z0; move to z-safe height
G0 X1197.7700 Y2.0000
M3S0
G4 P0.5; Tool On
G1 F300 Z0.0000
G1 F15000 X1197.7700 Y1208.0000 Z0.0000
M3S245
G4 P0.5; Tool Off

G0 Z0; move to z-safe height
G0 X1193.7700 Y1208.0000
M3S0
G4 P0.5; Tool On
G1 F300 Z0.0000
G1 F15000 X1193.7700 Y2.0000 Z0.0000
M3S245
G4 P0.5; Tool Off

G0 Z0; move to z-safe height
G0 X1189.7700 Y2.0000
M3S0
G4 P0.5; Tool On
G1 F300 Z0.0000
G1 F15000 X1189.7700 Y1208.0000 Z0.0000
M3S245
G4 P0.5; Tool Off

G0 Z0; move to z-safe height
G0 X1185.7700 Y1208.0000
M3S0
G4 P0.5; Tool On
G1 F300 Z0.0000
G1 F15000 X1185.7700 Y2.0000 Z0.0000
M3S245
G4 P0.5; Tool Off

G0 Z0; move to z-safe height
G0 X1181.7700 Y2.0000
M3S0
G4 P0.5; Tool On
G1 F300 Z0.0000
G1 F15000 X1181.7700 Y1208.0000 Z0.0000
M3S245
G4 P0.5; Tool Off

G0 Z0; move to z-safe height
G0 X1177.7700 Y1208.0000
M3S0
G4 P0.5; Tool On
G1 F300 Z0.0000
G1 F15000 X1177.7700 Y2.0000 Z0.0000
M3S245
G4 P0.5; Tool Off

G0 Z0; move to z-safe height
G0 X1173.7700 Y2.0000
M3S0
G4 P0.5; Tool On
G1 F300 Z0.0000
G1 F15000 X1173.7700 Y1208.0000 Z0.0000
M3S245
G4 P0.5; Tool Off

G0 Z0; move to z-safe height
G0 X1169.7700 Y1208.0000
M3S0
G4 P0.5; Tool On
G1 F300 Z0.0000
G1 F15000 X1169.7700 Y2.0000 Z0.0000
M3S245
G4 P0.5; Tool Off

G0 Z0; move to z-safe height
G0 X1165.7700 Y2.0000
M3S0
G4 P0.5; Tool On
G1 F300 Z0.0000
G1 F15000 X1165.7700 Y1208.0000 Z0.0000
M3S245
G4 P0.5; Tool Off

G0 Z0; move to z-safe height
G0 X1161.7700 Y1208.0000
M3S0
G4 P0.5; Tool On
G1 F300 Z0.0000
G1 F15000 X1161.7700 Y2.0000 Z0.0000
M3S245
G4 P0.5; Tool Off

G0 Z0; move to z-safe height
G0 X1157.7700 Y2.0000
M3S0
G4 P0.5; Tool On
G1 F300 Z0.0000
G1 F15000 X1157.7700 Y1208.0000 Z0.0000
M3S245
G4 P0.5; Tool Off

G0 Z0; move to z-safe height
G0 X1153.7700 Y1208.0000
M3S0
G4 P0.5; Tool On
G1 F300 Z0.0000
G1 F15000 X1153.7700 Y2.0000 Z0.0000
M3S245
G4 P0.5; Tool Off

G0 Z0; move to z-safe height
G0 X1149.7700 Y2.0000
M3S0
G4 P0.5; Tool On
G1 F300 Z0.0000
G1 F15000 X1149.7700 Y1208.0000 Z0.0000
M3S245
G4 P0.5; Tool Off

G0 Z0; move to z-safe height
G0 X1145.7700 Y1208.0000
M3S0
G4 P0.5; Tool On
G1 F300 Z0.0000
G1 F15000 X1145.7700 Y2.0000 Z0.0000
M3S245
G4 P0.5; Tool Off

G0 Z0; move to z-safe height
G0 X1141.7700 Y2.0000
M3S0
G4 P0.5; Tool On
G1 F300 Z0.0000
G1 F15000 X1141.7700 Y1208.0000 Z0.0000
M3S245
G4 P0.5; Tool Off

G0 Z0; move to z-safe height
G0 X1137.7700 Y1208.0000
M3S0
G4 P0.5; Tool On
G1 F300 Z0.0000
G1 F15000 X1137.7700 Y2.0000 Z0.0000
M3S245
G4 P0.5; Tool Off

G0 Z0; move to z-safe height
G0 X1133.7700 Y2.0000
M3S0
G4 P0.5; Tool On
G1 F300 Z0.0000
G1 F15000 X1133.7700 Y1208.0000 Z0.0000
M3S245
G4 P0.5; Tool Off

G0 Z0; move to z-safe height
G0 X1129.7700 Y1208.0000
M3S0
G4 P0.5; Tool On
G1 F300 Z0.0000
G1 F15000 X1129.7700 Y2.0000 Z0.0000
M3S245
G4 P0.5; Tool Off

G0 Z0; move to z-safe height
G0 X1125.7700 Y2.0000
M3S0
G4 P0.5; Tool On
G1 F300 Z0.0000
G1 F15000 X1125.7700 Y1208.0000 Z0.0000
M3S245
G4 P0.5; Tool Off

G0 Z0; move to z-safe height
G0 X1121.7700 Y1208.0000
M3S0
G4 P0.5; Tool On
G1 F300 Z0.0000
G1 F15000 X1121.7700 Y2.0000 Z0.0000
M3S245
G4 P0.5; Tool Off

G0 Z0; move to z-safe height
G0 X1117.7700 Y2.0000
M3S0
G4 P0.5; Tool On
G1 F300 Z0.0000
G1 F15000 X1117.7700 Y1208.0000 Z0.0000
M3S245
G4 P0.5; Tool Off

G0 Z0; move to z-safe height
G0 X1113.7700 Y1208.0000
M3S0
G4 P0.5; Tool On
G1 F300 Z0.0000
G1 F15000 X1113.7700 Y2.0000 Z0.0000
M3S245
G4 P0.5; Tool Off

G0 Z0; move to z-safe height
G0 X1109.7700 Y2.0000
M3S0
G4 P0.5; Tool On
G1 F300 Z0.0000
G1 F15000 X1109.7700 Y1208.0000 Z0.0000
M3S245
G4 P0.5; Tool Off

G0 Z0; move to z-safe height
G0 X1105.7700 Y1208.0000
M3S0
G4 P0.5; Tool On
G1 F300 Z0.0000
G1 F15000 X1105.7700 Y2.0000 Z0.0000
M3S245
G4 P0.5; Tool Off

G0 Z0; move to z-safe height
G0 X1101.7700 Y2.0000
M3S0
G4 P0.5; Tool On
G1 F300 Z0.0000
G1 F15000 X1101.7700 Y1208.0000 Z0.0000
M3S245
G4 P0.5; Tool Off

G0 Z0; move to z-safe height
G0 X1097.7700 Y1208.0000
M3S0
G4 P0.5; Tool On
G1 F300 Z0.0000
G1 F15000 X1097.7700 Y2.0000 Z0.0000
M3S245
G4 P0.5; Tool Off

G0 Z0; move to z-safe height
G0 X1093.7700 Y2.0000
M3S0
G4 P0.5; Tool On
G1 F300 Z0.0000
G1 F15000 X1093.7700 Y1208.0000 Z0.0000
M3S245
G4 P0.5; Tool Off

G0 Z0; move to z-safe height
G0 X1089.7700 Y1208.0000
M3S0
G4 P0.5; Tool On
G1 F300 Z0.0000
G1 F15000 X1089.7700 Y2.0000 Z0.0000
M3S245
G4 P0.5; Tool Off

G0 Z0; move to z-safe height
G0 X1085.7700 Y2.0000
M3S0
G4 P0.5; Tool On
G1 F300 Z0.0000
G1 F15000 X1085.7700 Y1208.0000 Z0.0000
M3S245
G4 P0.5; Tool Off

G0 Z0; move to z-safe height
G0 X1081.7700 Y1208.0000
M3S0
G4 P0.5; Tool On
G1 F300 Z0.0000
G1 F15000 X1081.7700 Y2.0000 Z0.0000
M3S245
G4 P0.5; Tool Off

G0 Z0; move to z-safe height
G0 X1077.7700 Y2.0000
M3S0
G4 P0.5; Tool On
G1 F300 Z0.0000
G1 F15000 X1077.7700 Y1208.0000 Z0.0000
M3S245
G4 P0.5; Tool Off

G0 Z0; move to z-safe height
G0 X1073.7700 Y1208.0000
M3S0
G4 P0.5; Tool On
G1 F300 Z0.0000
G1 F15000 X1073.7700 Y2.0000 Z0.0000
M3S245
G4 P0.5; Tool Off

G0 Z0; move to z-safe height
G0 X1069.7700 Y2.0000
M3S0
G4 P0.5; Tool On
G1 F300 Z0.0000
G1 F15000 X1069.7700 Y1208.0000 Z0.0000
M3S245
G4 P0.5; Tool Off

G0 Z0; move to z-safe height
G0 X1065.7700 Y1208.0000
M3S0
G4 P0.5; Tool On
G1 F300 Z0.0000
G1 F15000 X1065.7700 Y2.0000 Z0.0000
M3S245
G4 P0.5; Tool Off

G0 Z0; move to z-safe height
G0 X1061.7700 Y2.0000
M3S0
G4 P0.5; Tool On
G1 F300 Z0.0000
G1 F15000 X1061.7700 Y1208.0000 Z0.0000
M3S245
G4 P0.5; Tool Off

G0 Z0; move to z-safe height
G0 X1057.7700 Y1208.0000
M3S0
G4 P0.5; Tool On
G1 F300 Z0.0000
G1 F15000 X1057.7700 Y2.0000 Z0.0000
M3S245
G4 P0.5; Tool Off

G0 Z0; move to z-safe height
G0 X1053.7700 Y2.0000
M3S0
G4 P0.5; Tool On
G1 F300 Z0.0000
G1 F15000 X1053.7700 Y1208.0000 Z0.0000
M3S245
G4 P0.5; Tool Off

G0 Z0; move to z-safe height
G0 X1049.7700 Y1208.0000
M3S0
G4 P0.5; Tool On
G1 F300 Z0.0000
G1 F15000 X1049.7700 Y2.0000 Z0.0000
M3S245
G4 P0.5; Tool Off

G0 Z0; move to z-safe height
G0 X1045.7700 Y2.0000
M3S0
G4 P0.5; Tool On
G1 F300 Z0.0000
G1 F15000 X1045.7700 Y1208.0000 Z0.0000
M3S245
G4 P0.5; Tool Off

G0 Z0; move to z-safe height
G0 X1041.7700 Y1208.0000
M3S0
G4 P0.5; Tool On
G1 F300 Z0.0000
G1 F15000 X1041.7700 Y2.0000 Z0.0000
M3S245
G4 P0.5; Tool Off

G0 Z0; move to z-safe height
G0 X1037.7700 Y2.0000
M3S0
G4 P0.5; Tool On
G1 F300 Z0.0000
G1 F15000 X1037.7700 Y1208.0000 Z0.0000
M3S245
G4 P0.5; Tool Off

G0 Z0; move to z-safe height
G0 X1033.7700 Y1208.0000
M3S0
G4 P0.5; Tool On
G1 F300 Z0.0000
G1 F15000 X1033.7700 Y2.0000 Z0.0000
M3S245
G4 P0.5; Tool Off

G0 Z0; move to z-safe height
G0 X1029.7700 Y2.0000
M3S0
G4 P0.5; Tool On
G1 F300 Z0.0000
G1 F15000 X1029.7700 Y1208.0000 Z0.0000
M3S245
G4 P0.5; Tool Off

G0 Z0; move to z-safe height
G0 X1025.7700 Y1208.0000
M3S0
G4 P0.5; Tool On
G1 F300 Z0.0000
G1 F15000 X1025.7700 Y2.0000 Z0.0000
M3S245
G4 P0.5; Tool Off

G0 Z0; move to z-safe height
G0 X1021.7700 Y2.0000
M3S0
G4 P0.5; Tool On
G1 F300 Z0.0000
G1 F15000 X1021.7700 Y1208.0000 Z0.0000
M3S245
G4 P0.5; Tool Off

G0 Z0; move to z-safe height
G0 X1017.7700 Y1208.0000
M3S0
G4 P0.5; Tool On
G1 F300 Z0.0000
G1 F15000 X1017.7700 Y2.0000 Z0.0000
M3S245
G4 P0.5; Tool Off

G0 Z0; move to z-safe height
G0 X1013.7700 Y2.0000
M3S0
G4 P0.5; Tool On
G1 F300 Z0.0000
G1 F15000 X1013.7700 Y1208.0000 Z0.0000
M3S245
G4 P0.5; Tool Off

G0 Z0; move to z-safe height
G0 X1009.7700 Y1208.0000
M3S0
G4 P0.5; Tool On
G1 F300 Z0.0000
G1 F15000 X1009.7700 Y2.0000 Z0.0000
M3S245
G4 P0.5; Tool Off

G0 Z0; move to z-safe height
G0 X1005.7700 Y2.0000
M3S0
G4 P0.5; Tool On
G1 F300 Z0.0000
G1 F15000 X1005.7700 Y1208.0000 Z0.0000
M3S245
G4 P0.5; Tool Off

G0 Z0; move to z-safe height
G0 X1001.7700 Y1208.0000
M3S0
G4 P0.5; Tool On
G1 F300 Z0.0000
G1 F15000 X1001.7700 Y2.0000 Z0.0000
M3S245
G4 P0.5; Tool Off

G0 Z0; move to z-safe height
G0 X997.7700 Y2.0000
M3S0
G4 P0.5; Tool On
G1 F300 Z0.0000
G1 F15000 X997.7700 Y1208.0000 Z0.0000
M3S245
G4 P0.5; Tool Off

G0 Z0; move to z-safe height
G0 X993.7700 Y1208.0000
M3S0
G4 P0.5; Tool On
G1 F300 Z0.0000
G1 F15000 X993.7700 Y2.0000 Z0.0000
M3S245
G4 P0.5; Tool Off

G0 Z0; move to z-safe height
G0 X989.7700 Y2.0000
M3S0
G4 P0.5; Tool On
G1 F300 Z0.0000
G1 F15000 X989.7700 Y1208.0000 Z0.0000
M3S245
G4 P0.5; Tool Off

G0 Z0; move to z-safe height
G0 X985.7700 Y1208.0000
M3S0
G4 P0.5; Tool On
G1 F300 Z0.0000
G1 F15000 X985.7700 Y2.0000 Z0.0000
M3S245
G4 P0.5; Tool Off

G0 Z0; move to z-safe height
G0 X981.7700 Y2.0000
M3S0
G4 P0.5; Tool On
G1 F300 Z0.0000
G1 F15000 X981.7700 Y1208.0000 Z0.0000
M3S245
G4 P0.5; Tool Off

G0 Z0; move to z-safe height
G0 X977.7700 Y1208.0000
M3S0
G4 P0.5; Tool On
G1 F300 Z0.0000
G1 F15000 X977.7700 Y2.0000 Z0.0000
M3S245
G4 P0.5; Tool Off

G0 Z0; move to z-safe height
G0 X973.7700 Y2.0000
M3S0
G4 P0.5; Tool On
G1 F300 Z0.0000
G1 F15000 X973.7700 Y1208.0000 Z0.0000
M3S245
G4 P0.5; Tool Off

G0 Z0; move to z-safe height
G0 X969.7700 Y1208.0000
M3S0
G4 P0.5; Tool On
G1 F300 Z0.0000
G1 F15000 X969.7700 Y2.0000 Z0.0000
M3S245
G4 P0.5; Tool Off

G0 Z0; move to z-safe height
G0 X965.7700 Y2.0000
M3S0
G4 P0.5; Tool On
G1 F300 Z0.0000
G1 F15000 X965.7700 Y1208.0000 Z0.0000
M3S245
G4 P0.5; Tool Off

G0 Z0; move to z-safe height
G0 X961.7700 Y1208.0000
M3S0
G4 P0.5; Tool On
G1 F300 Z0.0000
G1 F15000 X961.7700 Y2.0000 Z0.0000
M3S245
G4 P0.5; Tool Off

G0 Z0; move to z-safe height
G0 X957.7700 Y2.0000
M3S0
G4 P0.5; Tool On
G1 F300 Z0.0000
G1 F15000 X957.7700 Y1208.0000 Z0.0000
M3S245
G4 P0.5; Tool Off

G0 Z0; move to z-safe height
G0 X953.7700 Y1208.0000
M3S0
G4 P0.5; Tool On
G1 F300 Z0.0000
G1 F15000 X953.7700 Y2.0000 Z0.0000
M3S245
G4 P0.5; Tool Off

G0 Z0; move to z-safe height
G0 X949.7700 Y2.0000
M3S0
G4 P0.5; Tool On
G1 F300 Z0.0000
G1 F15000 X949.7700 Y1208.0000 Z0.0000
M3S245
G4 P0.5; Tool Off

G0 Z0; move to z-safe height
G0 X945.7700 Y1208.0000
M3S0
G4 P0.5; Tool On
G1 F300 Z0.0000
G1 F15000 X945.7700 Y2.0000 Z0.0000
M3S245
G4 P0.5; Tool Off

G0 Z0; move to z-safe height
G0 X941.7700 Y2.0000
M3S0
G4 P0.5; Tool On
G1 F300 Z0.0000
G1 F15000 X941.7700 Y1208.0000 Z0.0000
M3S245
G4 P0.5; Tool Off

G0 Z0; move to z-safe height
G0 X937.7700 Y1208.0000
M3S0
G4 P0.5; Tool On
G1 F300 Z0.0000
G1 F15000 X937.7700 Y2.0000 Z0.0000
M3S245
G4 P0.5; Tool Off

G0 Z0; move to z-safe height
G0 X933.7700 Y2.0000
M3S0
G4 P0.5; Tool On
G1 F300 Z0.0000
G1 F15000 X933.7700 Y1208.0000 Z0.0000
M3S245
G4 P0.5; Tool Off

G0 Z0; move to z-safe height
G0 X929.7700 Y1208.0000
M3S0
G4 P0.5; Tool On
G1 F300 Z0.0000
G1 F15000 X929.7700 Y2.0000 Z0.0000
M3S245
G4 P0.5; Tool Off

G0 Z0; move to z-safe height
G0 X925.7700 Y2.0000
M3S0
G4 P0.5; Tool On
G1 F300 Z0.0000
G1 F15000 X925.7700 Y1208.0000 Z0.0000
M3S245
G4 P0.5; Tool Off

G0 Z0; move to z-safe height
G0 X921.7700 Y1208.0000
M3S0
G4 P0.5; Tool On
G1 F300 Z0.0000
G1 F15000 X921.7700 Y2.0000 Z0.0000
M3S245
G4 P0.5; Tool Off

G0 Z0; move to z-safe height
G0 X917.7700 Y2.0000
M3S0
G4 P0.5; Tool On
G1 F300 Z0.0000
G1 F15000 X917.7700 Y1208.0000 Z0.0000
M3S245
G4 P0.5; Tool Off

G0 Z0; move to z-safe height
G0 X913.7700 Y1208.0000
M3S0
G4 P0.5; Tool On
G1 F300 Z0.0000
G1 F15000 X913.7700 Y2.0000 Z0.0000
M3S245
G4 P0.5; Tool Off

G0 Z0; move to z-safe height
G0 X909.7700 Y2.0000
M3S0
G4 P0.5; Tool On
G1 F300 Z0.0000
G1 F15000 X909.7700 Y1208.0000 Z0.0000
M3S245
G4 P0.5; Tool Off

G0 Z0; move to z-safe height
G0 X905.7700 Y1208.0000
M3S0
G4 P0.5; Tool On
G1 F300 Z0.0000
G1 F15000 X905.7700 Y2.0000 Z0.0000
M3S245
G4 P0.5; Tool Off

G0 Z0; move to z-safe height
G0 X901.7700 Y2.0000
M3S0
G4 P0.5; Tool On
G1 F300 Z0.0000
G1 F15000 X901.7700 Y1208.0000 Z0.0000
M3S245
G4 P0.5; Tool Off

G0 Z0; move to z-safe height
G0 X897.7700 Y1208.0000
M3S0
G4 P0.5; Tool On
G1 F300 Z0.0000
G1 F15000 X897.7700 Y2.0000 Z0.0000
M3S245
G4 P0.5; Tool Off

G0 Z0; move to z-safe height
G0 X893.7700 Y2.0000
M3S0
G4 P0.5; Tool On
G1 F300 Z0.0000
G1 F15000 X893.7700 Y1208.0000 Z0.0000
M3S245
G4 P0.5; Tool Off

G0 Z0; move to z-safe height
G0 X889.7700 Y1208.0000
M3S0
G4 P0.5; Tool On
G1 F300 Z0.0000
G1 F15000 X889.7700 Y2.0000 Z0.0000
M3S245
G4 P0.5; Tool Off

G0 Z0; move to z-safe height
G0 X885.7700 Y2.0000
M3S0
G4 P0.5; Tool On
G1 F300 Z0.0000
G1 F15000 X885.7700 Y1208.0000 Z0.0000
M3S245
G4 P0.5; Tool Off

G0 Z0; move to z-safe height
G0 X881.7700 Y1208.0000
M3S0
G4 P0.5; Tool On
G1 F300 Z0.0000
G1 F15000 X881.7700 Y2.0000 Z0.0000
M3S245
G4 P0.5; Tool Off

G0 Z0; move to z-safe height
G0 X877.7700 Y2.0000
M3S0
G4 P0.5; Tool On
G1 F300 Z0.0000
G1 F15000 X877.7700 Y1208.0000 Z0.0000
M3S245
G4 P0.5; Tool Off

G0 Z0; move to z-safe height
G0 X873.7700 Y1208.0000
M3S0
G4 P0.5; Tool On
G1 F300 Z0.0000
G1 F15000 X873.7700 Y2.0000 Z0.0000
M3S245
G4 P0.5; Tool Off

G0 Z0; move to z-safe height
G0 X869.7700 Y2.0000
M3S0
G4 P0.5; Tool On
G1 F300 Z0.0000
G1 F15000 X869.7700 Y1208.0000 Z0.0000
M3S245
G4 P0.5; Tool Off

G0 Z0; move to z-safe height
G0 X865.7700 Y1208.0000
M3S0
G4 P0.5; Tool On
G1 F300 Z0.0000
G1 F15000 X865.7700 Y2.0000 Z0.0000
M3S245
G4 P0.5; Tool Off

G0 Z0; move to z-safe height
G0 X861.7700 Y2.0000
M3S0
G4 P0.5; Tool On
G1 F300 Z0.0000
G1 F15000 X861.7700 Y1208.0000 Z0.0000
M3S245
G4 P0.5; Tool Off

G0 Z0; move to z-safe height
G0 X857.7700 Y1208.0000
M3S0
G4 P0.5; Tool On
G1 F300 Z0.0000
G1 F15000 X857.7700 Y2.0000 Z0.0000
M3S245
G4 P0.5; Tool Off

G0 Z0; move to z-safe height
G0 X853.7700 Y2.0000
M3S0
G4 P0.5; Tool On
G1 F300 Z0.0000
G1 F15000 X853.7700 Y1208.0000 Z0.0000
M3S245
G4 P0.5; Tool Off

G0 Z0; move to z-safe height
G0 X849.7700 Y1208.0000
M3S0
G4 P0.5; Tool On
G1 F300 Z0.0000
G1 F15000 X849.7700 Y2.0000 Z0.0000
M3S245
G4 P0.5; Tool Off

G0 Z0; move to z-safe height
G0 X845.7700 Y2.0000
M3S0
G4 P0.5; Tool On
G1 F300 Z0.0000
G1 F15000 X845.7700 Y1208.0000 Z0.0000
M3S245
G4 P0.5; Tool Off

G0 Z0; move to z-safe height
G0 X841.7700 Y1208.0000
M3S0
G4 P0.5; Tool On
G1 F300 Z0.0000
G1 F15000 X841.7700 Y2.0000 Z0.0000
M3S245
G4 P0.5; Tool Off

G0 Z0; move to z-safe height
G0 X837.7700 Y2.0000
M3S0
G4 P0.5; Tool On
G1 F300 Z0.0000
G1 F15000 X837.7700 Y1208.0000 Z0.0000
M3S245
G4 P0.5; Tool Off

G0 Z0; move to z-safe height
G0 X833.7700 Y1208.0000
M3S0
G4 P0.5; Tool On
G1 F300 Z0.0000
G1 F15000 X833.7700 Y2.0000 Z0.0000
M3S245
G4 P0.5; Tool Off

G0 Z0; move to z-safe height
G0 X829.7700 Y2.0000
M3S0
G4 P0.5; Tool On
G1 F300 Z0.0000
G1 F15000 X829.7700 Y1208.0000 Z0.0000
M3S245
G4 P0.5; Tool Off

G0 Z0; move to z-safe height
G0 X825.7700 Y1208.0000
M3S0
G4 P0.5; Tool On
G1 F300 Z0.0000
G1 F15000 X825.7700 Y2.0000 Z0.0000
M3S245
G4 P0.5; Tool Off

G0 Z0; move to z-safe height
G0 X821.7700 Y2.0000
M3S0
G4 P0.5; Tool On
G1 F300 Z0.0000
G1 F15000 X821.7700 Y1208.0000 Z0.0000
M3S245
G4 P0.5; Tool Off

G0 Z0; move to z-safe height
G0 X817.7700 Y1208.0000
M3S0
G4 P0.5; Tool On
G1 F300 Z0.0000
G1 F15000 X817.7700 Y2.0000 Z0.0000
M3S245
G4 P0.5; Tool Off

G0 Z0; move to z-safe height
G0 X813.7700 Y2.0000
M3S0
G4 P0.5; Tool On
G1 F300 Z0.0000
G1 F15000 X813.7700 Y1208.0000 Z0.0000
M3S245
G4 P0.5; Tool Off

G0 Z0; move to z-safe height
G0 X809.7700 Y1208.0000
M3S0
G4 P0.5; Tool On
G1 F300 Z0.0000
G1 F15000 X809.7700 Y2.0000 Z0.0000
M3S245
G4 P0.5; Tool Off

G0 Z0; move to z-safe height
G0 X805.7700 Y2.0000
M3S0
G4 P0.5; Tool On
G1 F300 Z0.0000
G1 F15000 X805.7700 Y1208.0000 Z0.0000
M3S245
G4 P0.5; Tool Off

G0 Z0; move to z-safe height
G0 X801.7700 Y1208.0000
M3S0
G4 P0.5; Tool On
G1 F300 Z0.0000
G1 F15000 X801.7700 Y2.0000 Z0.0000
M3S245
G4 P0.5; Tool Off

G0 Z0; move to z-safe height
G0 X797.7700 Y2.0000
M3S0
G4 P0.5; Tool On
G1 F300 Z0.0000
G1 F15000 X797.7700 Y1208.0000 Z0.0000
M3S245
G4 P0.5; Tool Off

G0 Z0; move to z-safe height
G0 X793.7700 Y1208.0000
M3S0
G4 P0.5; Tool On
G1 F300 Z0.0000
G1 F15000 X793.7700 Y2.0000 Z0.0000
M3S245
G4 P0.5; Tool Off

G0 Z0; move to z-safe height
G0 X789.7700 Y2.0000
M3S0
G4 P0.5; Tool On
G1 F300 Z0.0000
G1 F15000 X789.7700 Y1208.0000 Z0.0000
M3S245
G4 P0.5; Tool Off

G0 Z0; move to z-safe height
G0 X785.7700 Y1208.0000
M3S0
G4 P0.5; Tool On
G1 F300 Z0.0000
G1 F15000 X785.7700 Y2.0000 Z0.0000
M3S245
G4 P0.5; Tool Off

G0 Z0; move to z-safe height
G0 X781.7700 Y2.0000
M3S0
G4 P0.5; Tool On
G1 F300 Z0.0000
G1 F15000 X781.7700 Y1208.0000 Z0.0000
M3S245
G4 P0.5; Tool Off

G0 Z0; move to z-safe height
G0 X777.7700 Y1208.0000
M3S0
G4 P0.5; Tool On
G1 F300 Z0.0000
G1 F15000 X777.7700 Y2.0000 Z0.0000
M3S245
G4 P0.5; Tool Off

G0 Z0; move to z-safe height
G0 X773.7700 Y2.0000
M3S0
G4 P0.5; Tool On
G1 F300 Z0.0000
G1 F15000 X773.7700 Y1208.0000 Z0.0000
M3S245
G4 P0.5; Tool Off

G0 Z0; move to z-safe height
G0 X769.7700 Y1208.0000
M3S0
G4 P0.5; Tool On
G1 F300 Z0.0000
G1 F15000 X769.7700 Y2.0000 Z0.0000
M3S245
G4 P0.5; Tool Off

G0 Z0; move to z-safe height
G0 X765.7700 Y2.0000
M3S0
G4 P0.5; Tool On
G1 F300 Z0.0000
G1 F15000 X765.7700 Y1208.0000 Z0.0000
M3S245
G4 P0.5; Tool Off

G0 Z0; move to z-safe height
G0 X761.7700 Y1208.0000
M3S0
G4 P0.5; Tool On
G1 F300 Z0.0000
G1 F15000 X761.7700 Y2.0000 Z0.0000
M3S245
G4 P0.5; Tool Off

G0 Z0; move to z-safe height
G0 X757.7700 Y2.0000
M3S0
G4 P0.5; Tool On
G1 F300 Z0.0000
G1 F15000 X757.7700 Y1208.0000 Z0.0000
M3S245
G4 P0.5; Tool Off

G0 Z0; move to z-safe height
G0 X753.7700 Y1208.0000
M3S0
G4 P0.5; Tool On
G1 F300 Z0.0000
G1 F15000 X753.7700 Y2.0000 Z0.0000
M3S245
G4 P0.5; Tool Off

G0 Z0; move to z-safe height
G0 X749.7700 Y2.0000
M3S0
G4 P0.5; Tool On
G1 F300 Z0.0000
G1 F15000 X749.7700 Y1208.0000 Z0.0000
M3S245
G4 P0.5; Tool Off

G0 Z0; move to z-safe height
G0 X745.7700 Y1208.0000
M3S0
G4 P0.5; Tool On
G1 F300 Z0.0000
G1 F15000 X745.7700 Y2.0000 Z0.0000
M3S245
G4 P0.5; Tool Off

G0 Z0; move to z-safe height
G0 X741.7700 Y2.0000
M3S0
G4 P0.5; Tool On
G1 F300 Z0.0000
G1 F15000 X741.7700 Y1208.0000 Z0.0000
M3S245
G4 P0.5; Tool Off

G0 Z0; move to z-safe height
G0 X737.7700 Y1208.0000
M3S0
G4 P0.5; Tool On
G1 F300 Z0.0000
G1 F15000 X737.7700 Y2.0000 Z0.0000
M3S245
G4 P0.5; Tool Off

G0 Z0; move to z-safe height
G0 X733.7700 Y2.0000
M3S0
G4 P0.5; Tool On
G1 F300 Z0.0000
G1 F15000 X733.7700 Y1208.0000 Z0.0000
M3S245
G4 P0.5; Tool Off

G0 Z0; move to z-safe height
G0 X729.7700 Y1208.0000
M3S0
G4 P0.5; Tool On
G1 F300 Z0.0000
G1 F15000 X729.7700 Y2.0000 Z0.0000
M3S245
G4 P0.5; Tool Off

G0 Z0; move to z-safe height
G0 X725.7700 Y2.0000
M3S0
G4 P0.5; Tool On
G1 F300 Z0.0000
G1 F15000 X725.7700 Y1208.0000 Z0.0000
M3S245
G4 P0.5; Tool Off

G0 Z0; move to z-safe height
G0 X721.7700 Y1208.0000
M3S0
G4 P0.5; Tool On
G1 F300 Z0.0000
G1 F15000 X721.7700 Y2.0000 Z0.0000
M3S245
G4 P0.5; Tool Off

G0 Z0; move to z-safe height
G0 X717.7700 Y2.0000
M3S0
G4 P0.5; Tool On
G1 F300 Z0.0000
G1 F15000 X717.7700 Y1208.0000 Z0.0000
M3S245
G4 P0.5; Tool Off

G0 Z0; move to z-safe height
G0 X713.7700 Y1208.0000
M3S0
G4 P0.5; Tool On
G1 F300 Z0.0000
G1 F15000 X713.7700 Y2.0000 Z0.0000
M3S245
G4 P0.5; Tool Off

G0 Z0; move to z-safe height
G0 X709.7700 Y2.0000
M3S0
G4 P0.5; Tool On
G1 F300 Z0.0000
G1 F15000 X709.7700 Y1208.0000 Z0.0000
M3S245
G4 P0.5; Tool Off

G0 Z0; move to z-safe height
G0 X705.7700 Y1208.0000
M3S0
G4 P0.5; Tool On
G1 F300 Z0.0000
G1 F15000 X705.7700 Y2.0000 Z0.0000
M3S245
G4 P0.5; Tool Off

G0 Z0; move to z-safe height
G0 X701.7700 Y2.0000
M3S0
G4 P0.5; Tool On
G1 F300 Z0.0000
G1 F15000 X701.7700 Y1208.0000 Z0.0000
M3S245
G4 P0.5; Tool Off

G0 Z0; move to z-safe height
G0 X697.7700 Y1208.0000
M3S0
G4 P0.5; Tool On
G1 F300 Z0.0000
G1 F15000 X697.7700 Y2.0000 Z0.0000
M3S245
G4 P0.5; Tool Off

G0 Z0; move to z-safe height
G0 X693.7700 Y2.0000
M3S0
G4 P0.5; Tool On
G1 F300 Z0.0000
G1 F15000 X693.7700 Y1208.0000 Z0.0000
M3S245
G4 P0.5; Tool Off

G0 Z0; move to z-safe height
G0 X689.7700 Y1208.0000
M3S0
G4 P0.5; Tool On
G1 F300 Z0.0000
G1 F15000 X689.7700 Y2.0000 Z0.0000
M3S245
G4 P0.5; Tool Off

G0 Z0; move to z-safe height
G0 X685.7700 Y2.0000
M3S0
G4 P0.5; Tool On
G1 F300 Z0.0000
G1 F15000 X685.7700 Y1208.0000 Z0.0000
M3S245
G4 P0.5; Tool Off

G0 Z0; move to z-safe height
G0 X681.7700 Y1208.0000
M3S0
G4 P0.5; Tool On
G1 F300 Z0.0000
G1 F15000 X681.7700 Y2.0000 Z0.0000
M3S245
G4 P0.5; Tool Off

G0 Z0; move to z-safe height
G0 X677.7700 Y2.0000
M3S0
G4 P0.5; Tool On
G1 F300 Z0.0000
G1 F15000 X677.7700 Y1208.0000 Z0.0000
M3S245
G4 P0.5; Tool Off

G0 Z0; move to z-safe height
G0 X673.7700 Y1208.0000
M3S0
G4 P0.5; Tool On
G1 F300 Z0.0000
G1 F15000 X673.7700 Y2.0000 Z0.0000
M3S245
G4 P0.5; Tool Off

G0 Z0; move to z-safe height
G0 X669.7700 Y2.0000
M3S0
G4 P0.5; Tool On
G1 F300 Z0.0000
G1 F15000 X669.7700 Y1208.0000 Z0.0000
M3S245
G4 P0.5; Tool Off

G0 Z0; move to z-safe height
G0 X665.7700 Y1208.0000
M3S0
G4 P0.5; Tool On
G1 F300 Z0.0000
G1 F15000 X665.7700 Y2.0000 Z0.0000
M3S245
G4 P0.5; Tool Off

G0 Z0; move to z-safe height
G0 X661.7700 Y2.0000
M3S0
G4 P0.5; Tool On
G1 F300 Z0.0000
G1 F15000 X661.7700 Y1208.0000 Z0.0000
M3S245
G4 P0.5; Tool Off

G0 Z0; move to z-safe height
G0 X657.7700 Y1208.0000
M3S0
G4 P0.5; Tool On
G1 F300 Z0.0000
G1 F15000 X657.7700 Y2.0000 Z0.0000
M3S245
G4 P0.5; Tool Off

G0 Z0; move to z-safe height
G0 X653.7700 Y2.0000
M3S0
G4 P0.5; Tool On
G1 F300 Z0.0000
G1 F15000 X653.7700 Y1208.0000 Z0.0000
M3S245
G4 P0.5; Tool Off

G0 Z0; move to z-safe height
G0 X649.7700 Y1208.0000
M3S0
G4 P0.5; Tool On
G1 F300 Z0.0000
G1 F15000 X649.7700 Y2.0000 Z0.0000
M3S245
G4 P0.5; Tool Off

G0 Z0; move to z-safe height
G0 X645.7700 Y2.0000
M3S0
G4 P0.5; Tool On
G1 F300 Z0.0000
G1 F15000 X645.7700 Y1208.0000 Z0.0000
M3S245
G4 P0.5; Tool Off

G0 Z0; move to z-safe height
G0 X641.7700 Y1208.0000
M3S0
G4 P0.5; Tool On
G1 F300 Z0.0000
G1 F15000 X641.7700 Y2.0000 Z0.0000
M3S245
G4 P0.5; Tool Off

G0 Z0; move to z-safe height
G0 X637.7700 Y2.0000
M3S0
G4 P0.5; Tool On
G1 F300 Z0.0000
G1 F15000 X637.7700 Y1208.0000 Z0.0000
M3S245
G4 P0.5; Tool Off

G0 Z0; move to z-safe height
G0 X633.7700 Y1208.0000
M3S0
G4 P0.5; Tool On
G1 F300 Z0.0000
G1 F15000 X633.7700 Y2.0000 Z0.0000
M3S245
G4 P0.5; Tool Off

G0 Z0; move to z-safe height
G0 X629.7700 Y2.0000
M3S0
G4 P0.5; Tool On
G1 F300 Z0.0000
G1 F15000 X629.7700 Y1208.0000 Z0.0000
M3S245
G4 P0.5; Tool Off

G0 Z0; move to z-safe height
G0 X625.7700 Y1208.0000
M3S0
G4 P0.5; Tool On
G1 F300 Z0.0000
G1 F15000 X625.7700 Y2.0000 Z0.0000
M3S245
G4 P0.5; Tool Off

G0 Z0; move to z-safe height
G0 X621.7700 Y2.0000
M3S0
G4 P0.5; Tool On
G1 F300 Z0.0000
G1 F15000 X621.7700 Y1208.0000 Z0.0000
M3S245
G4 P0.5; Tool Off

G0 Z0; move to z-safe height
G0 X617.7700 Y1208.0000
M3S0
G4 P0.5; Tool On
G1 F300 Z0.0000
G1 F15000 X617.7700 Y2.0000 Z0.0000
M3S245
G4 P0.5; Tool Off

G0 Z0; move to z-safe height
G0 X613.7700 Y2.0000
M3S0
G4 P0.5; Tool On
G1 F300 Z0.0000
G1 F15000 X613.7700 Y1208.0000 Z0.0000
M3S245
G4 P0.5; Tool Off

G0 Z0; move to z-safe height
G0 X609.7700 Y1208.0000
M3S0
G4 P0.5; Tool On
G1 F300 Z0.0000
G1 F15000 X609.7700 Y2.0000 Z0.0000
M3S245
G4 P0.5; Tool Off

G0 Z0; move to z-safe height
G0 X605.7700 Y2.0000
M3S0
G4 P0.5; Tool On
G1 F300 Z0.0000
G1 F15000 X605.7700 Y1208.0000 Z0.0000
M3S245
G4 P0.5; Tool Off

G0 Z0; move to z-safe height
G0 X601.7700 Y1208.0000
M3S0
G4 P0.5; Tool On
G1 F300 Z0.0000
G1 F15000 X601.7700 Y2.0000 Z0.0000
M3S245
G4 P0.5; Tool Off

G0 Z0; move to z-safe height
G0 X597.7700 Y2.0000
M3S0
G4 P0.5; Tool On
G1 F300 Z0.0000
G1 F15000 X597.7700 Y1208.0000 Z0.0000
M3S245
G4 P0.5; Tool Off

G0 Z0; move to z-safe height
G0 X593.7700 Y1208.0000
M3S0
G4 P0.5; Tool On
G1 F300 Z0.0000
G1 F15000 X593.7700 Y2.0000 Z0.0000
M3S245
G4 P0.5; Tool Off

G0 Z0; move to z-safe height
G0 X589.7700 Y2.0000
M3S0
G4 P0.5; Tool On
G1 F300 Z0.0000
G1 F15000 X589.7700 Y1208.0000 Z0.0000
M3S245
G4 P0.5; Tool Off

G0 Z0; move to z-safe height
G0 X585.7700 Y1208.0000
M3S0
G4 P0.5; Tool On
G1 F300 Z0.0000
G1 F15000 X585.7700 Y2.0000 Z0.0000
M3S245
G4 P0.5; Tool Off

G0 Z0; move to z-safe height
G0 X581.7700 Y2.0000
M3S0
G4 P0.5; Tool On
G1 F300 Z0.0000
G1 F15000 X581.7700 Y1208.0000 Z0.0000
M3S245
G4 P0.5; Tool Off

G0 Z0; move to z-safe height
G0 X577.7700 Y1208.0000
M3S0
G4 P0.5; Tool On
G1 F300 Z0.0000
G1 F15000 X577.7700 Y2.0000 Z0.0000
M3S245
G4 P0.5; Tool Off

G0 Z0; move to z-safe height
G0 X573.7700 Y2.0000
M3S0
G4 P0.5; Tool On
G1 F300 Z0.0000
G1 F15000 X573.7700 Y1208.0000 Z0.0000
M3S245
G4 P0.5; Tool Off

G0 Z0; move to z-safe height
G0 X569.7700 Y1208.0000
M3S0
G4 P0.5; Tool On
G1 F300 Z0.0000
G1 F15000 X569.7700 Y2.0000 Z0.0000
M3S245
G4 P0.5; Tool Off

G0 Z0; move to z-safe height
G0 X565.7700 Y2.0000
M3S0
G4 P0.5; Tool On
G1 F300 Z0.0000
G1 F15000 X565.7700 Y1208.0000 Z0.0000
M3S245
G4 P0.5; Tool Off

G0 Z0; move to z-safe height
G0 X561.7700 Y1208.0000
M3S0
G4 P0.5; Tool On
G1 F300 Z0.0000
G1 F15000 X561.7700 Y2.0000 Z0.0000
M3S245
G4 P0.5; Tool Off

G0 Z0; move to z-safe height
G0 X557.7700 Y2.0000
M3S0
G4 P0.5; Tool On
G1 F300 Z0.0000
G1 F15000 X557.7700 Y1208.0000 Z0.0000
M3S245
G4 P0.5; Tool Off

G0 Z0; move to z-safe height
G0 X553.7700 Y1208.0000
M3S0
G4 P0.5; Tool On
G1 F300 Z0.0000
G1 F15000 X553.7700 Y2.0000 Z0.0000
M3S245
G4 P0.5; Tool Off

G0 Z0; move to z-safe height
G0 X549.7700 Y2.0000
M3S0
G4 P0.5; Tool On
G1 F300 Z0.0000
G1 F15000 X549.7700 Y1208.0000 Z0.0000
M3S245
G4 P0.5; Tool Off

G0 Z0; move to z-safe height
G0 X545.7700 Y1208.0000
M3S0
G4 P0.5; Tool On
G1 F300 Z0.0000
G1 F15000 X545.7700 Y2.0000 Z0.0000
M3S245
G4 P0.5; Tool Off

G0 Z0; move to z-safe height
G0 X541.7700 Y2.0000
M3S0
G4 P0.5; Tool On
G1 F300 Z0.0000
G1 F15000 X541.7700 Y1208.0000 Z0.0000
M3S245
G4 P0.5; Tool Off

G0 Z0; move to z-safe height
G0 X537.7700 Y1208.0000
M3S0
G4 P0.5; Tool On
G1 F300 Z0.0000
G1 F15000 X537.7700 Y2.0000 Z0.0000
M3S245
G4 P0.5; Tool Off

G0 Z0; move to z-safe height
G0 X533.7700 Y2.0000
M3S0
G4 P0.5; Tool On
G1 F300 Z0.0000
G1 F15000 X533.7700 Y1208.0000 Z0.0000
M3S245
G4 P0.5; Tool Off

G0 Z0; move to z-safe height
G0 X529.7700 Y1208.0000
M3S0
G4 P0.5; Tool On
G1 F300 Z0.0000
G1 F15000 X529.7700 Y2.0000 Z0.0000
M3S245
G4 P0.5; Tool Off

G0 Z0; move to z-safe height
G0 X525.7700 Y2.0000
M3S0
G4 P0.5; Tool On
G1 F300 Z0.0000
G1 F15000 X525.7700 Y1208.0000 Z0.0000
M3S245
G4 P0.5; Tool Off

G0 Z0; move to z-safe height
G0 X521.7700 Y1208.0000
M3S0
G4 P0.5; Tool On
G1 F300 Z0.0000
G1 F15000 X521.7700 Y2.0000 Z0.0000
M3S245
G4 P0.5; Tool Off

G0 Z0; move to z-safe height
G0 X517.7700 Y2.0000
M3S0
G4 P0.5; Tool On
G1 F300 Z0.0000
G1 F15000 X517.7700 Y1208.0000 Z0.0000
M3S245
G4 P0.5; Tool Off

G0 Z0; move to z-safe height
G0 X513.7700 Y1208.0000
M3S0
G4 P0.5; Tool On
G1 F300 Z0.0000
G1 F15000 X513.7700 Y2.0000 Z0.0000
M3S245
G4 P0.5; Tool Off

G0 Z0; move to z-safe height
G0 X509.7700 Y2.0000
M3S0
G4 P0.5; Tool On
G1 F300 Z0.0000
G1 F15000 X509.7700 Y1208.0000 Z0.0000
M3S245
G4 P0.5; Tool Off

G0 Z0; move to z-safe height
G0 X505.7700 Y1208.0000
M3S0
G4 P0.5; Tool On
G1 F300 Z0.0000
G1 F15000 X505.7700 Y2.0000 Z0.0000
M3S245
G4 P0.5; Tool Off

G0 Z0; move to z-safe height
G0 X501.7700 Y2.0000
M3S0
G4 P0.5; Tool On
G1 F300 Z0.0000
G1 F15000 X501.7700 Y1208.0000 Z0.0000
M3S245
G4 P0.5; Tool Off

G0 Z0; move to z-safe height
G0 X497.7700 Y1208.0000
M3S0
G4 P0.5; Tool On
G1 F300 Z0.0000
G1 F15000 X497.7700 Y2.0000 Z0.0000
M3S245
G4 P0.5; Tool Off

G0 Z0; move to z-safe height
G0 X493.7700 Y2.0000
M3S0
G4 P0.5; Tool On
G1 F300 Z0.0000
G1 F15000 X493.7700 Y1208.0000 Z0.0000
M3S245
G4 P0.5; Tool Off

G0 Z0; move to z-safe height
G0 X489.7700 Y1208.0000
M3S0
G4 P0.5; Tool On
G1 F300 Z0.0000
G1 F15000 X489.7700 Y2.0000 Z0.0000
M3S245
G4 P0.5; Tool Off

G0 Z0; move to z-safe height
G0 X485.7700 Y2.0000
M3S0
G4 P0.5; Tool On
G1 F300 Z0.0000
G1 F15000 X485.7700 Y1208.0000 Z0.0000
M3S245
G4 P0.5; Tool Off

G0 Z0; move to z-safe height
G0 X481.7700 Y1208.0000
M3S0
G4 P0.5; Tool On
G1 F300 Z0.0000
G1 F15000 X481.7700 Y2.0000 Z0.0000
M3S245
G4 P0.5; Tool Off

G0 Z0; move to z-safe height
G0 X477.7700 Y2.0000
M3S0
G4 P0.5; Tool On
G1 F300 Z0.0000
G1 F15000 X477.7700 Y1208.0000 Z0.0000
M3S245
G4 P0.5; Tool Off

G0 Z0; move to z-safe height
G0 X473.7700 Y1208.0000
M3S0
G4 P0.5; Tool On
G1 F300 Z0.0000
G1 F15000 X473.7700 Y2.0000 Z0.0000
M3S245
G4 P0.5; Tool Off

G0 Z0; move to z-safe height
G0 X469.7700 Y2.0000
M3S0
G4 P0.5; Tool On
G1 F300 Z0.0000
G1 F15000 X469.7700 Y1208.0000 Z0.0000
M3S245
G4 P0.5; Tool Off

G0 Z0; move to z-safe height
G0 X465.7700 Y1208.0000
M3S0
G4 P0.5; Tool On
G1 F300 Z0.0000
G1 F15000 X465.7700 Y2.0000 Z0.0000
M3S245
G4 P0.5; Tool Off

G0 Z0; move to z-safe height
G0 X461.7700 Y2.0000
M3S0
G4 P0.5; Tool On
G1 F300 Z0.0000
G1 F15000 X461.7700 Y1208.0000 Z0.0000
M3S245
G4 P0.5; Tool Off

G0 Z0; move to z-safe height
G0 X457.7700 Y1208.0000
M3S0
G4 P0.5; Tool On
G1 F300 Z0.0000
G1 F15000 X457.7700 Y2.0000 Z0.0000
M3S245
G4 P0.5; Tool Off

G0 Z0; move to z-safe height
G0 X453.7700 Y2.0000
M3S0
G4 P0.5; Tool On
G1 F300 Z0.0000
G1 F15000 X453.7700 Y1208.0000 Z0.0000
M3S245
G4 P0.5; Tool Off

G0 Z0; move to z-safe height
G0 X449.7700 Y1208.0000
M3S0
G4 P0.5; Tool On
G1 F300 Z0.0000
G1 F15000 X449.7700 Y2.0000 Z0.0000
M3S245
G4 P0.5; Tool Off

G0 Z0; move to z-safe height
G0 X445.7700 Y2.0000
M3S0
G4 P0.5; Tool On
G1 F300 Z0.0000
G1 F15000 X445.7700 Y1208.0000 Z0.0000
M3S245
G4 P0.5; Tool Off

G0 Z0; move to z-safe height
G0 X441.7700 Y1208.0000
M3S0
G4 P0.5; Tool On
G1 F300 Z0.0000
G1 F15000 X441.7700 Y2.0000 Z0.0000
M3S245
G4 P0.5; Tool Off

G0 Z0; move to z-safe height
G0 X437.7700 Y2.0000
M3S0
G4 P0.5; Tool On
G1 F300 Z0.0000
G1 F15000 X437.7700 Y1208.0000 Z0.0000
M3S245
G4 P0.5; Tool Off

G0 Z0; move to z-safe height
G0 X433.7700 Y1208.0000
M3S0
G4 P0.5; Tool On
G1 F300 Z0.0000
G1 F15000 X433.7700 Y2.0000 Z0.0000
M3S245
G4 P0.5; Tool Off

G0 Z0; move to z-safe height
G0 X429.7700 Y2.0000
M3S0
G4 P0.5; Tool On
G1 F300 Z0.0000
G1 F15000 X429.7700 Y1208.0000 Z0.0000
M3S245
G4 P0.5; Tool Off

G0 Z0; move to z-safe height
G0 X425.7700 Y1208.0000
M3S0
G4 P0.5; Tool On
G1 F300 Z0.0000
G1 F15000 X425.7700 Y2.0000 Z0.0000
M3S245
G4 P0.5; Tool Off

G0 Z0; move to z-safe height
G0 X421.7700 Y2.0000
M3S0
G4 P0.5; Tool On
G1 F300 Z0.0000
G1 F15000 X421.7700 Y1208.0000 Z0.0000
M3S245
G4 P0.5; Tool Off

G0 Z0; move to z-safe height
G0 X417.7700 Y1208.0000
M3S0
G4 P0.5; Tool On
G1 F300 Z0.0000
G1 F15000 X417.7700 Y2.0000 Z0.0000
M3S245
G4 P0.5; Tool Off

G0 Z0; move to z-safe height
G0 X413.7700 Y2.0000
M3S0
G4 P0.5; Tool On
G1 F300 Z0.0000
G1 F15000 X413.7700 Y1208.0000 Z0.0000
M3S245
G4 P0.5; Tool Off

G0 Z0; move to z-safe height
G0 X409.7700 Y1208.0000
M3S0
G4 P0.5; Tool On
G1 F300 Z0.0000
G1 F15000 X409.7700 Y2.0000 Z0.0000
M3S245
G4 P0.5; Tool Off

G0 Z0; move to z-safe height
G0 X405.7700 Y2.0000
M3S0
G4 P0.5; Tool On
G1 F300 Z0.0000
G1 F15000 X405.7700 Y1208.0000 Z0.0000
M3S245
G4 P0.5; Tool Off

G0 Z0; move to z-safe height
G0 X401.7700 Y1208.0000
M3S0
G4 P0.5; Tool On
G1 F300 Z0.0000
G1 F15000 X401.7700 Y2.0000 Z0.0000
M3S245
G4 P0.5; Tool Off

G0 Z0; move to z-safe height
G0 X397.7700 Y2.0000
M3S0
G4 P0.5; Tool On
G1 F300 Z0.0000
G1 F15000 X397.7700 Y1208.0000 Z0.0000
M3S245
G4 P0.5; Tool Off

G0 Z0; move to z-safe height
G0 X393.7700 Y1208.0000
M3S0
G4 P0.5; Tool On
G1 F300 Z0.0000
G1 F15000 X393.7700 Y2.0000 Z0.0000
M3S245
G4 P0.5; Tool Off

G0 Z0; move to z-safe height
G0 X389.7700 Y2.0000
M3S0
G4 P0.5; Tool On
G1 F300 Z0.0000
G1 F15000 X389.7700 Y1208.0000 Z0.0000
M3S245
G4 P0.5; Tool Off

G0 Z0; move to z-safe height
G0 X385.7700 Y1208.0000
M3S0
G4 P0.5; Tool On
G1 F300 Z0.0000
G1 F15000 X385.7700 Y2.0000 Z0.0000
M3S245
G4 P0.5; Tool Off

G0 Z0; move to z-safe height
G0 X381.7700 Y2.0000
M3S0
G4 P0.5; Tool On
G1 F300 Z0.0000
G1 F15000 X381.7700 Y1208.0000 Z0.0000
M3S245
G4 P0.5; Tool Off

G0 Z0; move to z-safe height
G0 X377.7700 Y1208.0000
M3S0
G4 P0.5; Tool On
G1 F300 Z0.0000
G1 F15000 X377.7700 Y2.0000 Z0.0000
M3S245
G4 P0.5; Tool Off

G0 Z0; move to z-safe height
G0 X373.7700 Y2.0000
M3S0
G4 P0.5; Tool On
G1 F300 Z0.0000
G1 F15000 X373.7700 Y1208.0000 Z0.0000
M3S245
G4 P0.5; Tool Off

G0 Z0; move to z-safe height
G0 X369.7700 Y1208.0000
M3S0
G4 P0.5; Tool On
G1 F300 Z0.0000
G1 F15000 X369.7700 Y2.0000 Z0.0000
M3S245
G4 P0.5; Tool Off

G0 Z0; move to z-safe height
G0 X365.7700 Y2.0000
M3S0
G4 P0.5; Tool On
G1 F300 Z0.0000
G1 F15000 X365.7700 Y1208.0000 Z0.0000
M3S245
G4 P0.5; Tool Off

G0 Z0; move to z-safe height
G0 X361.7700 Y1208.0000
M3S0
G4 P0.5; Tool On
G1 F300 Z0.0000
G1 F15000 X361.7700 Y2.0000 Z0.0000
M3S245
G4 P0.5; Tool Off

G0 Z0; move to z-safe height
G0 X357.7700 Y2.0000
M3S0
G4 P0.5; Tool On
G1 F300 Z0.0000
G1 F15000 X357.7700 Y1208.0000 Z0.0000
M3S245
G4 P0.5; Tool Off

G0 Z0; move to z-safe height
G0 X353.7700 Y1208.0000
M3S0
G4 P0.5; Tool On
G1 F300 Z0.0000
G1 F15000 X353.7700 Y2.0000 Z0.0000
M3S245
G4 P0.5; Tool Off

G0 Z0; move to z-safe height
G0 X349.7700 Y2.0000
M3S0
G4 P0.5; Tool On
G1 F300 Z0.0000
G1 F15000 X349.7700 Y1208.0000 Z0.0000
M3S245
G4 P0.5; Tool Off

G0 Z0; move to z-safe height
G0 X345.7700 Y1208.0000
M3S0
G4 P0.5; Tool On
G1 F300 Z0.0000
G1 F15000 X345.7700 Y2.0000 Z0.0000
M3S245
G4 P0.5; Tool Off

G0 Z0; move to z-safe height
G0 X341.7700 Y2.0000
M3S0
G4 P0.5; Tool On
G1 F300 Z0.0000
G1 F15000 X341.7700 Y1208.0000 Z0.0000
M3S245
G4 P0.5; Tool Off

G0 Z0; move to z-safe height
G0 X337.7700 Y1208.0000
M3S0
G4 P0.5; Tool On
G1 F300 Z0.0000
G1 F15000 X337.7700 Y2.0000 Z0.0000
M3S245
G4 P0.5; Tool Off

G0 Z0; move to z-safe height
G0 X333.7700 Y2.0000
M3S0
G4 P0.5; Tool On
G1 F300 Z0.0000
G1 F15000 X333.7700 Y1208.0000 Z0.0000
M3S245
G4 P0.5; Tool Off

G0 Z0; move to z-safe height
G0 X329.7700 Y1208.0000
M3S0
G4 P0.5; Tool On
G1 F300 Z0.0000
G1 F15000 X329.7700 Y2.0000 Z0.0000
M3S245
G4 P0.5; Tool Off

G0 Z0; move to z-safe height
G0 X325.7700 Y2.0000
M3S0
G4 P0.5; Tool On
G1 F300 Z0.0000
G1 F15000 X325.7700 Y1208.0000 Z0.0000
M3S245
G4 P0.5; Tool Off

G0 Z0; move to z-safe height
G0 X321.7700 Y1208.0000
M3S0
G4 P0.5; Tool On
G1 F300 Z0.0000
G1 F15000 X321.7700 Y2.0000 Z0.0000
M3S245
G4 P0.5; Tool Off

G0 Z0; move to z-safe height
G0 X317.7700 Y2.0000
M3S0
G4 P0.5; Tool On
G1 F300 Z0.0000
G1 F15000 X317.7700 Y1208.0000 Z0.0000
M3S245
G4 P0.5; Tool Off

G0 Z0; move to z-safe height
G0 X313.7700 Y1208.0000
M3S0
G4 P0.5; Tool On
G1 F300 Z0.0000
G1 F15000 X313.7700 Y2.0000 Z0.0000
M3S245
G4 P0.5; Tool Off

G0 Z0; move to z-safe height
G0 X309.7700 Y2.0000
M3S0
G4 P0.5; Tool On
G1 F300 Z0.0000
G1 F15000 X309.7700 Y1208.0000 Z0.0000
M3S245
G4 P0.5; Tool Off

G0 Z0; move to z-safe height
G0 X305.7700 Y1208.0000
M3S0
G4 P0.5; Tool On
G1 F300 Z0.0000
G1 F15000 X305.7700 Y2.0000 Z0.0000
M3S245
G4 P0.5; Tool Off

G0 Z0; move to z-safe height
G0 X301.7700 Y2.0000
M3S0
G4 P0.5; Tool On
G1 F300 Z0.0000
G1 F15000 X301.7700 Y1208.0000 Z0.0000
M3S245
G4 P0.5; Tool Off

G0 Z0; move to z-safe height
G0 X297.7700 Y1208.0000
M3S0
G4 P0.5; Tool On
G1 F300 Z0.0000
G1 F15000 X297.7700 Y2.0000 Z0.0000
M3S245
G4 P0.5; Tool Off

G0 Z0; move to z-safe height
G0 X293.7700 Y2.0000
M3S0
G4 P0.5; Tool On
G1 F300 Z0.0000
G1 F15000 X293.7700 Y1208.0000 Z0.0000
M3S245
G4 P0.5; Tool Off

G0 Z0; move to z-safe height
G0 X289.7700 Y1208.0000
M3S0
G4 P0.5; Tool On
G1 F300 Z0.0000
G1 F15000 X289.7700 Y2.0000 Z0.0000
M3S245
G4 P0.5; Tool Off

G0 Z0; move to z-safe height
G0 X285.7700 Y2.0000
M3S0
G4 P0.5; Tool On
G1 F300 Z0.0000
G1 F15000 X285.7700 Y1208.0000 Z0.0000
M3S245
G4 P0.5; Tool Off

G0 Z0; move to z-safe height
G0 X281.7700 Y1208.0000
M3S0
G4 P0.5; Tool On
G1 F300 Z0.0000
G1 F15000 X281.7700 Y2.0000 Z0.0000
M3S245
G4 P0.5; Tool Off

G0 Z0; move to z-safe height
G0 X277.7700 Y2.0000
M3S0
G4 P0.5; Tool On
G1 F300 Z0.0000
G1 F15000 X277.7700 Y1208.0000 Z0.0000
M3S245
G4 P0.5; Tool Off

G0 Z0; move to z-safe height
G0 X273.7700 Y1208.0000
M3S0
G4 P0.5; Tool On
G1 F300 Z0.0000
G1 F15000 X273.7700 Y2.0000 Z0.0000
M3S245
G4 P0.5; Tool Off

G0 Z0; move to z-safe height
G0 X269.7700 Y2.0000
M3S0
G4 P0.5; Tool On
G1 F300 Z0.0000
G1 F15000 X269.7700 Y1208.0000 Z0.0000
M3S245
G4 P0.5; Tool Off

G0 Z0; move to z-safe height
G0 X265.7700 Y1208.0000
M3S0
G4 P0.5; Tool On
G1 F300 Z0.0000
G1 F15000 X265.7700 Y2.0000 Z0.0000
M3S245
G4 P0.5; Tool Off

G0 Z0; move to z-safe height
G0 X261.7700 Y2.0000
M3S0
G4 P0.5; Tool On
G1 F300 Z0.0000
G1 F15000 X261.7700 Y1208.0000 Z0.0000
M3S245
G4 P0.5; Tool Off

G0 Z0; move to z-safe height
G0 X257.7700 Y1208.0000
M3S0
G4 P0.5; Tool On
G1 F300 Z0.0000
G1 F15000 X257.7700 Y2.0000 Z0.0000
M3S245
G4 P0.5; Tool Off

G0 Z0; move to z-safe height
G0 X253.7700 Y2.0000
M3S0
G4 P0.5; Tool On
G1 F300 Z0.0000
G1 F15000 X253.7700 Y1208.0000 Z0.0000
M3S245
G4 P0.5; Tool Off

G0 Z0; move to z-safe height
G0 X249.7700 Y1208.0000
M3S0
G4 P0.5; Tool On
G1 F300 Z0.0000
G1 F15000 X249.7700 Y2.0000 Z0.0000
M3S245
G4 P0.5; Tool Off

G0 Z0; move to z-safe height
G0 X245.7700 Y2.0000
M3S0
G4 P0.5; Tool On
G1 F300 Z0.0000
G1 F15000 X245.7700 Y1208.0000 Z0.0000
M3S245
G4 P0.5; Tool Off

G0 Z0; move to z-safe height
G0 X241.7700 Y1208.0000
M3S0
G4 P0.5; Tool On
G1 F300 Z0.0000
G1 F15000 X241.7700 Y2.0000 Z0.0000
M3S245
G4 P0.5; Tool Off

G0 Z0; move to z-safe height
G0 X237.7700 Y2.0000
M3S0
G4 P0.5; Tool On
G1 F300 Z0.0000
G1 F15000 X237.7700 Y1208.0000 Z0.0000
M3S245
G4 P0.5; Tool Off

G0 Z0; move to z-safe height
G0 X233.7700 Y1208.0000
M3S0
G4 P0.5; Tool On
G1 F300 Z0.0000
G1 F15000 X233.7700 Y2.0000 Z0.0000
M3S245
G4 P0.5; Tool Off

G0 Z0; move to z-safe height
G0 X229.7700 Y2.0000
M3S0
G4 P0.5; Tool On
G1 F300 Z0.0000
G1 F15000 X229.7700 Y1208.0000 Z0.0000
M3S245
G4 P0.5; Tool Off

G0 Z0; move to z-safe height
G0 X225.7700 Y1208.0000
M3S0
G4 P0.5; Tool On
G1 F300 Z0.0000
G1 F15000 X225.7700 Y2.0000 Z0.0000
M3S245
G4 P0.5; Tool Off

G0 Z0; move to z-safe height
G0 X221.7700 Y2.0000
M3S0
G4 P0.5; Tool On
G1 F300 Z0.0000
G1 F15000 X221.7700 Y1208.0000 Z0.0000
M3S245
G4 P0.5; Tool Off

G0 Z0; move to z-safe height
G0 X217.7700 Y1208.0000
M3S0
G4 P0.5; Tool On
G1 F300 Z0.0000
G1 F15000 X217.7700 Y2.0000 Z0.0000
M3S245
G4 P0.5; Tool Off

G0 Z0; move to z-safe height
G0 X213.7700 Y2.0000
M3S0
G4 P0.5; Tool On
G1 F300 Z0.0000
G1 F15000 X213.7700 Y1208.0000 Z0.0000
M3S245
G4 P0.5; Tool Off

G0 Z0; move to z-safe height
G0 X209.7700 Y1208.0000
M3S0
G4 P0.5; Tool On
G1 F300 Z0.0000
G1 F15000 X209.7700 Y2.0000 Z0.0000
M3S245
G4 P0.5; Tool Off

G0 Z0; move to z-safe height
G0 X205.7700 Y2.0000
M3S0
G4 P0.5; Tool On
G1 F300 Z0.0000
G1 F15000 X205.7700 Y1208.0000 Z0.0000
M3S245
G4 P0.5; Tool Off

G0 Z0; move to z-safe height
G0 X201.7700 Y1208.0000
M3S0
G4 P0.5; Tool On
G1 F300 Z0.0000
G1 F15000 X201.7700 Y2.0000 Z0.0000
M3S245
G4 P0.5; Tool Off

G0 Z0; move to z-safe height
G0 X197.7700 Y2.0000
M3S0
G4 P0.5; Tool On
G1 F300 Z0.0000
G1 F15000 X197.7700 Y1208.0000 Z0.0000
M3S245
G4 P0.5; Tool Off

G0 Z0; move to z-safe height
G0 X193.7700 Y1208.0000
M3S0
G4 P0.5; Tool On
G1 F300 Z0.0000
G1 F15000 X193.7700 Y2.0000 Z0.0000
M3S245
G4 P0.5; Tool Off

G0 Z0; move to z-safe height
G0 X189.7700 Y2.0000
M3S0
G4 P0.5; Tool On
G1 F300 Z0.0000
G1 F15000 X189.7700 Y1208.0000 Z0.0000
M3S245
G4 P0.5; Tool Off

G0 Z0; move to z-safe height
G0 X185.7700 Y1208.0000
M3S0
G4 P0.5; Tool On
G1 F300 Z0.0000
G1 F15000 X185.7700 Y2.0000 Z0.0000
M3S245
G4 P0.5; Tool Off

G0 Z0; move to z-safe height
G0 X181.7700 Y2.0000
M3S0
G4 P0.5; Tool On
G1 F300 Z0.0000
G1 F15000 X181.7700 Y1208.0000 Z0.0000
M3S245
G4 P0.5; Tool Off

G0 Z0; move to z-safe height
G0 X177.7700 Y1208.0000
M3S0
G4 P0.5; Tool On
G1 F300 Z0.0000
G1 F15000 X177.7700 Y2.0000 Z0.0000
M3S245
G4 P0.5; Tool Off

G0 Z0; move to z-safe height
G0 X173.7700 Y2.0000
M3S0
G4 P0.5; Tool On
G1 F300 Z0.0000
G1 F15000 X173.7700 Y1208.0000 Z0.0000
M3S245
G4 P0.5; Tool Off

G0 Z0; move to z-safe height
G0 X169.7700 Y1208.0000
M3S0
G4 P0.5; Tool On
G1 F300 Z0.0000
G1 F15000 X169.7700 Y2.0000 Z0.0000
M3S245
G4 P0.5; Tool Off

G0 Z0; move to z-safe height
G0 X165.7700 Y2.0000
M3S0
G4 P0.5; Tool On
G1 F300 Z0.0000
G1 F15000 X165.7700 Y1208.0000 Z0.0000
M3S245
G4 P0.5; Tool Off

G0 Z0; move to z-safe height
G0 X161.7700 Y1208.0000
M3S0
G4 P0.5; Tool On
G1 F300 Z0.0000
G1 F15000 X161.7700 Y2.0000 Z0.0000
M3S245
G4 P0.5; Tool Off

G0 Z0; move to z-safe height
G0 X157.7700 Y2.0000
M3S0
G4 P0.5; Tool On
G1 F300 Z0.0000
G1 F15000 X157.7700 Y1208.0000 Z0.0000
M3S245
G4 P0.5; Tool Off

G0 Z0; move to z-safe height
G0 X153.7700 Y1208.0000
M3S0
G4 P0.5; Tool On
G1 F300 Z0.0000
G1 F15000 X153.7700 Y2.0000 Z0.0000
M3S245
G4 P0.5; Tool Off

G0 Z0; move to z-safe height
G0 X149.7700 Y2.0000
M3S0
G4 P0.5; Tool On
G1 F300 Z0.0000
G1 F15000 X149.7700 Y1208.0000 Z0.0000
M3S245
G4 P0.5; Tool Off

G0 Z0; move to z-safe height
G0 X145.7700 Y1208.0000
M3S0
G4 P0.5; Tool On
G1 F300 Z0.0000
G1 F15000 X145.7700 Y2.0000 Z0.0000
M3S245
G4 P0.5; Tool Off

G0 Z0; move to z-safe height
G0 X141.7700 Y2.0000
M3S0
G4 P0.5; Tool On
G1 F300 Z0.0000
G1 F15000 X141.7700 Y1208.0000 Z0.0000
M3S245
G4 P0.5; Tool Off

G0 Z0; move to z-safe height
G0 X137.7700 Y1208.0000
M3S0
G4 P0.5; Tool On
G1 F300 Z0.0000
G1 F15000 X137.7700 Y2.0000 Z0.0000
M3S245
G4 P0.5; Tool Off

G0 Z0; move to z-safe height
G0 X133.7700 Y2.0000
M3S0
G4 P0.5; Tool On
G1 F300 Z0.0000
G1 F15000 X133.7700 Y1208.0000 Z0.0000
M3S245
G4 P0.5; Tool Off

G0 Z0; move to z-safe height
G0 X129.7700 Y1208.0000
M3S0
G4 P0.5; Tool On
G1 F300 Z0.0000
G1 F15000 X129.7700 Y2.0000 Z0.0000
M3S245
G4 P0.5; Tool Off

G0 Z0; move to z-safe height
G0 X125.7700 Y2.0000
M3S0
G4 P0.5; Tool On
G1 F300 Z0.0000
G1 F15000 X125.7700 Y1208.0000 Z0.0000
M3S245
G4 P0.5; Tool Off

G0 Z0; move to z-safe height
G0 X121.7700 Y1208.0000
M3S0
G4 P0.5; Tool On
G1 F300 Z0.0000
G1 F15000 X121.7700 Y2.0000 Z0.0000
M3S245
G4 P0.5; Tool Off

G0 Z0; move to z-safe height
G0 X117.7700 Y2.0000
M3S0
G4 P0.5; Tool On
G1 F300 Z0.0000
G1 F15000 X117.7700 Y1208.0000 Z0.0000
M3S245
G4 P0.5; Tool Off

G0 Z0; move to z-safe height
G0 X113.7700 Y1208.0000
M3S0
G4 P0.5; Tool On
G1 F300 Z0.0000
G1 F15000 X113.7700 Y2.0000 Z0.0000
M3S245
G4 P0.5; Tool Off

G0 Z0; move to z-safe height
G0 X109.7700 Y2.0000
M3S0
G4 P0.5; Tool On
G1 F300 Z0.0000
G1 F15000 X109.7700 Y1208.0000 Z0.0000
M3S245
G4 P0.5; Tool Off

G0 Z0; move to z-safe height
G0 X105.7700 Y1208.0000
M3S0
G4 P0.5; Tool On
G1 F300 Z0.0000
G1 F15000 X105.7700 Y2.0000 Z0.0000
M3S245
G4 P0.5; Tool Off

G0 Z0; move to z-safe height
G0 X101.7700 Y2.0000
M3S0
G4 P0.5; Tool On
G1 F300 Z0.0000
G1 F15000 X101.7700 Y1208.0000 Z0.0000
M3S245
G4 P0.5; Tool Off

G0 Z0; move to z-safe height
G0 X97.7700 Y1208.0000
M3S0
G4 P0.5; Tool On
G1 F300 Z0.0000
G1 F15000 X97.7700 Y2.0000 Z0.0000
M3S245
G4 P0.5; Tool Off

G0 Z0; move to z-safe height
G0 X93.7700 Y2.0000
M3S0
G4 P0.5; Tool On
G1 F300 Z0.0000
G1 F15000 X93.7700 Y1208.0000 Z0.0000
M3S245
G4 P0.5; Tool Off

G0 Z0; move to z-safe height
G0 X89.7700 Y1208.0000
M3S0
G4 P0.5; Tool On
G1 F300 Z0.0000
G1 F15000 X89.7700 Y2.0000 Z0.0000
M3S245
G4 P0.5; Tool Off

G0 Z0; move to z-safe height
G0 X85.7700 Y2.0000
M3S0
G4 P0.5; Tool On
G1 F300 Z0.0000
G1 F15000 X85.7700 Y1208.0000 Z0.0000
M3S245
G4 P0.5; Tool Off

G0 Z0; move to z-safe height
G0 X81.7700 Y1208.0000
M3S0
G4 P0.5; Tool On
G1 F300 Z0.0000
G1 F15000 X81.7700 Y2.0000 Z0.0000
M3S245
G4 P0.5; Tool Off

G0 Z0; move to z-safe height
G0 X77.7700 Y2.0000
M3S0
G4 P0.5; Tool On
G1 F300 Z0.0000
G1 F15000 X77.7700 Y1208.0000 Z0.0000
M3S245
G4 P0.5; Tool Off

G0 Z0; move to z-safe height
G0 X73.7700 Y1208.0000
M3S0
G4 P0.5; Tool On
G1 F300 Z0.0000
G1 F15000 X73.7700 Y2.0000 Z0.0000
M3S245
G4 P0.5; Tool Off

G0 Z0; move to z-safe height
G0 X69.7700 Y2.0000
M3S0
G4 P0.5; Tool On
G1 F300 Z0.0000
G1 F15000 X69.7700 Y1208.0000 Z0.0000
M3S245
G4 P0.5; Tool Off

G0 Z0; move to z-safe height
G0 X65.7700 Y1208.0000
M3S0
G4 P0.5; Tool On
G1 F300 Z0.0000
G1 F15000 X65.7700 Y2.0000 Z0.0000
M3S245
G4 P0.5; Tool Off

G0 Z0; move to z-safe height
G0 X61.7700 Y2.0000
M3S0
G4 P0.5; Tool On
G1 F300 Z0.0000
G1 F15000 X61.7700 Y1208.0000 Z0.0000
M3S245
G4 P0.5; Tool Off

G0 Z0; move to z-safe height
G0 X57.7700 Y1208.0000
M3S0
G4 P0.5; Tool On
G1 F300 Z0.0000
G1 F15000 X57.7700 Y2.0000 Z0.0000
M3S245
G4 P0.5; Tool Off

G0 Z0; move to z-safe height
G0 X53.7700 Y2.0000
M3S0
G4 P0.5; Tool On
G1 F300 Z0.0000
G1 F15000 X53.7700 Y1208.0000 Z0.0000
M3S245
G4 P0.5; Tool Off

G0 Z0; move to z-safe height
G0 X49.7700 Y1208.0000
M3S0
G4 P0.5; Tool On
G1 F300 Z0.0000
G1 F15000 X49.7700 Y2.0000 Z0.0000
M3S245
G4 P0.5; Tool Off

G0 Z0; move to z-safe height
G0 X45.7700 Y2.0000
M3S0
G4 P0.5; Tool On
G1 F300 Z0.0000
G1 F15000 X45.7700 Y1208.0000 Z0.0000
M3S245
G4 P0.5; Tool Off

G0 Z0; move to z-safe height
G0 X41.7700 Y1208.0000
M3S0
G4 P0.5; Tool On
G1 F300 Z0.0000
G1 F15000 X41.7700 Y2.0000 Z0.0000
M3S245
G4 P0.5; Tool Off

G0 Z0; move to z-safe height
G0 X37.7700 Y2.0000
M3S0
G4 P0.5; Tool On
G1 F300 Z0.0000
G1 F15000 X37.7700 Y1208.0000 Z0.0000
M3S245
G4 P0.5; Tool Off

G0 Z0; move to z-safe height
G0 X33.7700 Y1208.0000
M3S0
G4 P0.5; Tool On
G1 F300 Z0.0000
G1 F15000 X33.7700 Y2.0000 Z0.0000
M3S245
G4 P0.5; Tool Off

G0 Z0; move to z-safe height
G0 X29.7700 Y2.0000
M3S0
G4 P0.5; Tool On
G1 F300 Z0.0000
G1 F15000 X29.7700 Y1208.0000 Z0.0000
M3S245
G4 P0.5; Tool Off

G0 Z0; move to z-safe height
G0 X25.7700 Y1208.0000
M3S0
G4 P0.5; Tool On
G1 F300 Z0.0000
G1 F15000 X25.7700 Y2.0000 Z0.0000
M3S245
G4 P0.5; Tool Off

G0 Z0; move to z-safe height
G0 X21.7700 Y2.0000
M3S0
G4 P0.5; Tool On
G1 F300 Z0.0000
G1 F15000 X21.7700 Y1208.0000 Z0.0000
M3S245
G4 P0.5; Tool Off

G0 Z0; move to z-safe height
G0 X17.7700 Y1208.0000
M3S0
G4 P0.5; Tool On
G1 F300 Z0.0000
G1 F15000 X17.7700 Y2.0000 Z0.0000
M3S245
G4 P0.5; Tool Off

G0 Z0; move to z-safe height
G0 X13.7700 Y2.0000
M3S0
G4 P0.5; Tool On
G1 F300 Z0.0000
G1 F15000 X13.7700 Y1208.0000 Z0.0000
M3S245
G4 P0.5; Tool Off

G0 Z0; move to z-safe height
G0 X9.7700 Y1208.0000
M3S0
G4 P0.5; Tool On
G1 F300 Z0.0000
G1 F15000 X9.7700 Y2.0000 Z0.0000
M3S245
G4 P0.5; Tool Off

G0 Z0; move to z-safe height
G0 X5.7700 Y2.0000
M3S0
G4 P0.5; Tool On
G1 F300 Z0.0000
G1 F15000 X5.7700 Y1208.0000 Z0.0000
M3S245
G4 P0.5; Tool Off
; retracting back to z-safe
G0 Z0

; Plotter Mode Complete
