; GCODE Generated by cam.openbuilds.com on 2023-06-19 
G21 ; mm-mode
G54; Work Coordinates
G21; mm-mode
G90; Absolute Positioning
; Plotter Mode Active

; Operation 0: Pen Plotter: (lines fill)
; Pen Diameter: 2

G0 Z0; move to z-safe height
G0 F1000 X1207.1800 Y1209.0000
M3S0
G4 P0.5; Tool On
G1 F300 Z0.0000
G1 F15000 X1207.1800 Y1.0000 Z0.0000
M3S245
G4 P0.5; Tool Off

G0 Z0; move to z-safe height
G0 X1205.1800 Y1.0000
M3S0
G4 P0.5; Tool On
G1 F300 Z0.0000
G1 F15000 X1205.1800 Y1209.0000 Z0.0000
M3S245
G4 P0.5; Tool Off

G0 Z0; move to z-safe height
G0 X1203.1800 Y1209.0000
M3S0
G4 P0.5; Tool On
G1 F300 Z0.0000
G1 F15000 X1203.1800 Y1.0000 Z0.0000
M3S245
G4 P0.5; Tool Off

G0 Z0; move to z-safe height
G0 X1201.1800 Y1.0000
M3S0
G4 P0.5; Tool On
G1 F300 Z0.0000
G1 F15000 X1201.1800 Y1209.0000 Z0.0000
M3S245
G4 P0.5; Tool Off

G0 Z0; move to z-safe height
G0 X1199.1800 Y1209.0000
M3S0
G4 P0.5; Tool On
G1 F300 Z0.0000
G1 F15000 X1199.1800 Y1.0000 Z0.0000
M3S245
G4 P0.5; Tool Off

G0 Z0; move to z-safe height
G0 X1197.1800 Y1.0000
M3S0
G4 P0.5; Tool On
G1 F300 Z0.0000
G1 F15000 X1197.1800 Y1209.0000 Z0.0000
M3S245
G4 P0.5; Tool Off

G0 Z0; move to z-safe height
G0 X1195.1800 Y1209.0000
M3S0
G4 P0.5; Tool On
G1 F300 Z0.0000
G1 F15000 X1195.1800 Y1.0000 Z0.0000
M3S245
G4 P0.5; Tool Off

G0 Z0; move to z-safe height
G0 X1193.1800 Y1.0000
M3S0
G4 P0.5; Tool On
G1 F300 Z0.0000
G1 F15000 X1193.1800 Y1209.0000 Z0.0000
M3S245
G4 P0.5; Tool Off

G0 Z0; move to z-safe height
G0 X1191.1800 Y1209.0000
M3S0
G4 P0.5; Tool On
G1 F300 Z0.0000
G1 F15000 X1191.1800 Y1.0000 Z0.0000
M3S245
G4 P0.5; Tool Off

G0 Z0; move to z-safe height
G0 X1189.1800 Y1.0000
M3S0
G4 P0.5; Tool On
G1 F300 Z0.0000
G1 F15000 X1189.1800 Y1209.0000 Z0.0000
M3S245
G4 P0.5; Tool Off

G0 Z0; move to z-safe height
G0 X1187.1800 Y1209.0000
M3S0
G4 P0.5; Tool On
G1 F300 Z0.0000
G1 F15000 X1187.1800 Y1.0000 Z0.0000
M3S245
G4 P0.5; Tool Off

G0 Z0; move to z-safe height
G0 X1185.1800 Y1.0000
M3S0
G4 P0.5; Tool On
G1 F300 Z0.0000
G1 F15000 X1185.1800 Y1209.0000 Z0.0000
M3S245
G4 P0.5; Tool Off

G0 Z0; move to z-safe height
G0 X1183.1800 Y1209.0000
M3S0
G4 P0.5; Tool On
G1 F300 Z0.0000
G1 F15000 X1183.1800 Y1.0000 Z0.0000
M3S245
G4 P0.5; Tool Off

G0 Z0; move to z-safe height
G0 X1181.1800 Y1.0000
M3S0
G4 P0.5; Tool On
G1 F300 Z0.0000
G1 F15000 X1181.1800 Y1209.0000 Z0.0000
M3S245
G4 P0.5; Tool Off

G0 Z0; move to z-safe height
G0 X1179.1800 Y1209.0000
M3S0
G4 P0.5; Tool On
G1 F300 Z0.0000
G1 F15000 X1179.1800 Y1.0000 Z0.0000
M3S245
G4 P0.5; Tool Off

G0 Z0; move to z-safe height
G0 X1177.1800 Y1.0000
M3S0
G4 P0.5; Tool On
G1 F300 Z0.0000
G1 F15000 X1177.1800 Y1209.0000 Z0.0000
M3S245
G4 P0.5; Tool Off

G0 Z0; move to z-safe height
G0 X1175.1800 Y1209.0000
M3S0
G4 P0.5; Tool On
G1 F300 Z0.0000
G1 F15000 X1175.1800 Y1.0000 Z0.0000
M3S245
G4 P0.5; Tool Off

G0 Z0; move to z-safe height
G0 X1173.1800 Y1.0000
M3S0
G4 P0.5; Tool On
G1 F300 Z0.0000
G1 F15000 X1173.1800 Y1209.0000 Z0.0000
M3S245
G4 P0.5; Tool Off

G0 Z0; move to z-safe height
G0 X1171.1800 Y1209.0000
M3S0
G4 P0.5; Tool On
G1 F300 Z0.0000
G1 F15000 X1171.1800 Y1.0000 Z0.0000
M3S245
G4 P0.5; Tool Off

G0 Z0; move to z-safe height
G0 X1169.1800 Y1.0000
M3S0
G4 P0.5; Tool On
G1 F300 Z0.0000
G1 F15000 X1169.1800 Y1209.0000 Z0.0000
M3S245
G4 P0.5; Tool Off

G0 Z0; move to z-safe height
G0 X1167.1800 Y1209.0000
M3S0
G4 P0.5; Tool On
G1 F300 Z0.0000
G1 F15000 X1167.1800 Y1.0000 Z0.0000
M3S245
G4 P0.5; Tool Off

G0 Z0; move to z-safe height
G0 X1165.1800 Y1.0000
M3S0
G4 P0.5; Tool On
G1 F300 Z0.0000
G1 F15000 X1165.1800 Y1209.0000 Z0.0000
M3S245
G4 P0.5; Tool Off

G0 Z0; move to z-safe height
G0 X1163.1800 Y1209.0000
M3S0
G4 P0.5; Tool On
G1 F300 Z0.0000
G1 F15000 X1163.1800 Y1.0000 Z0.0000
M3S245
G4 P0.5; Tool Off

G0 Z0; move to z-safe height
G0 X1161.1800 Y1.0000
M3S0
G4 P0.5; Tool On
G1 F300 Z0.0000
G1 F15000 X1161.1800 Y1209.0000 Z0.0000
M3S245
G4 P0.5; Tool Off

G0 Z0; move to z-safe height
G0 X1159.1800 Y1209.0000
M3S0
G4 P0.5; Tool On
G1 F300 Z0.0000
G1 F15000 X1159.1800 Y1.0000 Z0.0000
M3S245
G4 P0.5; Tool Off

G0 Z0; move to z-safe height
G0 X1157.1800 Y1.0000
M3S0
G4 P0.5; Tool On
G1 F300 Z0.0000
G1 F15000 X1157.1800 Y1209.0000 Z0.0000
M3S245
G4 P0.5; Tool Off

G0 Z0; move to z-safe height
G0 X1155.1800 Y1209.0000
M3S0
G4 P0.5; Tool On
G1 F300 Z0.0000
G1 F15000 X1155.1800 Y1.0000 Z0.0000
M3S245
G4 P0.5; Tool Off

G0 Z0; move to z-safe height
G0 X1153.1800 Y1.0000
M3S0
G4 P0.5; Tool On
G1 F300 Z0.0000
G1 F15000 X1153.1800 Y1209.0000 Z0.0000
M3S245
G4 P0.5; Tool Off

G0 Z0; move to z-safe height
G0 X1151.1800 Y1209.0000
M3S0
G4 P0.5; Tool On
G1 F300 Z0.0000
G1 F15000 X1151.1800 Y1.0000 Z0.0000
M3S245
G4 P0.5; Tool Off

G0 Z0; move to z-safe height
G0 X1149.1800 Y1.0000
M3S0
G4 P0.5; Tool On
G1 F300 Z0.0000
G1 F15000 X1149.1800 Y1209.0000 Z0.0000
M3S245
G4 P0.5; Tool Off

G0 Z0; move to z-safe height
G0 X1147.1800 Y1209.0000
M3S0
G4 P0.5; Tool On
G1 F300 Z0.0000
G1 F15000 X1147.1800 Y1.0000 Z0.0000
M3S245
G4 P0.5; Tool Off

G0 Z0; move to z-safe height
G0 X1145.1800 Y1.0000
M3S0
G4 P0.5; Tool On
G1 F300 Z0.0000
G1 F15000 X1145.1800 Y1209.0000 Z0.0000
M3S245
G4 P0.5; Tool Off

G0 Z0; move to z-safe height
G0 X1143.1800 Y1209.0000
M3S0
G4 P0.5; Tool On
G1 F300 Z0.0000
G1 F15000 X1143.1800 Y1.0000 Z0.0000
M3S245
G4 P0.5; Tool Off

G0 Z0; move to z-safe height
G0 X1141.1800 Y1.0000
M3S0
G4 P0.5; Tool On
G1 F300 Z0.0000
G1 F15000 X1141.1800 Y1209.0000 Z0.0000
M3S245
G4 P0.5; Tool Off

G0 Z0; move to z-safe height
G0 X1139.1800 Y1209.0000
M3S0
G4 P0.5; Tool On
G1 F300 Z0.0000
G1 F15000 X1139.1800 Y1.0000 Z0.0000
M3S245
G4 P0.5; Tool Off

G0 Z0; move to z-safe height
G0 X1137.1800 Y1.0000
M3S0
G4 P0.5; Tool On
G1 F300 Z0.0000
G1 F15000 X1137.1800 Y1209.0000 Z0.0000
M3S245
G4 P0.5; Tool Off

G0 Z0; move to z-safe height
G0 X1135.1800 Y1209.0000
M3S0
G4 P0.5; Tool On
G1 F300 Z0.0000
G1 F15000 X1135.1800 Y1.0000 Z0.0000
M3S245
G4 P0.5; Tool Off

G0 Z0; move to z-safe height
G0 X1133.1800 Y1.0000
M3S0
G4 P0.5; Tool On
G1 F300 Z0.0000
G1 F15000 X1133.1800 Y1209.0000 Z0.0000
M3S245
G4 P0.5; Tool Off

G0 Z0; move to z-safe height
G0 X1131.1800 Y1209.0000
M3S0
G4 P0.5; Tool On
G1 F300 Z0.0000
G1 F15000 X1131.1800 Y1.0000 Z0.0000
M3S245
G4 P0.5; Tool Off

G0 Z0; move to z-safe height
G0 X1129.1800 Y1.0000
M3S0
G4 P0.5; Tool On
G1 F300 Z0.0000
G1 F15000 X1129.1800 Y1209.0000 Z0.0000
M3S245
G4 P0.5; Tool Off

G0 Z0; move to z-safe height
G0 X1127.1800 Y1209.0000
M3S0
G4 P0.5; Tool On
G1 F300 Z0.0000
G1 F15000 X1127.1800 Y1.0000 Z0.0000
M3S245
G4 P0.5; Tool Off

G0 Z0; move to z-safe height
G0 X1125.1800 Y1.0000
M3S0
G4 P0.5; Tool On
G1 F300 Z0.0000
G1 F15000 X1125.1800 Y1209.0000 Z0.0000
M3S245
G4 P0.5; Tool Off

G0 Z0; move to z-safe height
G0 X1123.1800 Y1209.0000
M3S0
G4 P0.5; Tool On
G1 F300 Z0.0000
G1 F15000 X1123.1800 Y1.0000 Z0.0000
M3S245
G4 P0.5; Tool Off

G0 Z0; move to z-safe height
G0 X1121.1800 Y1.0000
M3S0
G4 P0.5; Tool On
G1 F300 Z0.0000
G1 F15000 X1121.1800 Y1209.0000 Z0.0000
M3S245
G4 P0.5; Tool Off

G0 Z0; move to z-safe height
G0 X1119.1800 Y1209.0000
M3S0
G4 P0.5; Tool On
G1 F300 Z0.0000
G1 F15000 X1119.1800 Y1.0000 Z0.0000
M3S245
G4 P0.5; Tool Off

G0 Z0; move to z-safe height
G0 X1117.1800 Y1.0000
M3S0
G4 P0.5; Tool On
G1 F300 Z0.0000
G1 F15000 X1117.1800 Y1209.0000 Z0.0000
M3S245
G4 P0.5; Tool Off

G0 Z0; move to z-safe height
G0 X1115.1800 Y1209.0000
M3S0
G4 P0.5; Tool On
G1 F300 Z0.0000
G1 F15000 X1115.1800 Y1.0000 Z0.0000
M3S245
G4 P0.5; Tool Off

G0 Z0; move to z-safe height
G0 X1113.1800 Y1.0000
M3S0
G4 P0.5; Tool On
G1 F300 Z0.0000
G1 F15000 X1113.1800 Y1209.0000 Z0.0000
M3S245
G4 P0.5; Tool Off

G0 Z0; move to z-safe height
G0 X1111.1800 Y1209.0000
M3S0
G4 P0.5; Tool On
G1 F300 Z0.0000
G1 F15000 X1111.1800 Y1.0000 Z0.0000
M3S245
G4 P0.5; Tool Off

G0 Z0; move to z-safe height
G0 X1109.1800 Y1.0000
M3S0
G4 P0.5; Tool On
G1 F300 Z0.0000
G1 F15000 X1109.1800 Y1209.0000 Z0.0000
M3S245
G4 P0.5; Tool Off

G0 Z0; move to z-safe height
G0 X1107.1800 Y1209.0000
M3S0
G4 P0.5; Tool On
G1 F300 Z0.0000
G1 F15000 X1107.1800 Y1.0000 Z0.0000
M3S245
G4 P0.5; Tool Off

G0 Z0; move to z-safe height
G0 X1105.1800 Y1.0000
M3S0
G4 P0.5; Tool On
G1 F300 Z0.0000
G1 F15000 X1105.1800 Y1209.0000 Z0.0000
M3S245
G4 P0.5; Tool Off

G0 Z0; move to z-safe height
G0 X1103.1800 Y1209.0000
M3S0
G4 P0.5; Tool On
G1 F300 Z0.0000
G1 F15000 X1103.1800 Y1.0000 Z0.0000
M3S245
G4 P0.5; Tool Off

G0 Z0; move to z-safe height
G0 X1101.1800 Y1.0000
M3S0
G4 P0.5; Tool On
G1 F300 Z0.0000
G1 F15000 X1101.1800 Y1209.0000 Z0.0000
M3S245
G4 P0.5; Tool Off

G0 Z0; move to z-safe height
G0 X1099.1800 Y1209.0000
M3S0
G4 P0.5; Tool On
G1 F300 Z0.0000
G1 F15000 X1099.1800 Y1.0000 Z0.0000
M3S245
G4 P0.5; Tool Off

G0 Z0; move to z-safe height
G0 X1097.1800 Y1.0000
M3S0
G4 P0.5; Tool On
G1 F300 Z0.0000
G1 F15000 X1097.1800 Y1209.0000 Z0.0000
M3S245
G4 P0.5; Tool Off

G0 Z0; move to z-safe height
G0 X1095.1800 Y1209.0000
M3S0
G4 P0.5; Tool On
G1 F300 Z0.0000
G1 F15000 X1095.1800 Y1.0000 Z0.0000
M3S245
G4 P0.5; Tool Off

G0 Z0; move to z-safe height
G0 X1093.1800 Y1.0000
M3S0
G4 P0.5; Tool On
G1 F300 Z0.0000
G1 F15000 X1093.1800 Y1209.0000 Z0.0000
M3S245
G4 P0.5; Tool Off

G0 Z0; move to z-safe height
G0 X1091.1800 Y1209.0000
M3S0
G4 P0.5; Tool On
G1 F300 Z0.0000
G1 F15000 X1091.1800 Y1.0000 Z0.0000
M3S245
G4 P0.5; Tool Off

G0 Z0; move to z-safe height
G0 X1089.1800 Y1.0000
M3S0
G4 P0.5; Tool On
G1 F300 Z0.0000
G1 F15000 X1089.1800 Y1209.0000 Z0.0000
M3S245
G4 P0.5; Tool Off

G0 Z0; move to z-safe height
G0 X1087.1800 Y1209.0000
M3S0
G4 P0.5; Tool On
G1 F300 Z0.0000
G1 F15000 X1087.1800 Y1.0000 Z0.0000
M3S245
G4 P0.5; Tool Off

G0 Z0; move to z-safe height
G0 X1085.1800 Y1.0000
M3S0
G4 P0.5; Tool On
G1 F300 Z0.0000
G1 F15000 X1085.1800 Y1209.0000 Z0.0000
M3S245
G4 P0.5; Tool Off

G0 Z0; move to z-safe height
G0 X1083.1800 Y1209.0000
M3S0
G4 P0.5; Tool On
G1 F300 Z0.0000
G1 F15000 X1083.1800 Y1.0000 Z0.0000
M3S245
G4 P0.5; Tool Off

G0 Z0; move to z-safe height
G0 X1081.1800 Y1.0000
M3S0
G4 P0.5; Tool On
G1 F300 Z0.0000
G1 F15000 X1081.1800 Y1209.0000 Z0.0000
M3S245
G4 P0.5; Tool Off

G0 Z0; move to z-safe height
G0 X1079.1800 Y1209.0000
M3S0
G4 P0.5; Tool On
G1 F300 Z0.0000
G1 F15000 X1079.1800 Y1.0000 Z0.0000
M3S245
G4 P0.5; Tool Off

G0 Z0; move to z-safe height
G0 X1077.1800 Y1.0000
M3S0
G4 P0.5; Tool On
G1 F300 Z0.0000
G1 F15000 X1077.1800 Y1209.0000 Z0.0000
M3S245
G4 P0.5; Tool Off

G0 Z0; move to z-safe height
G0 X1075.1800 Y1209.0000
M3S0
G4 P0.5; Tool On
G1 F300 Z0.0000
G1 F15000 X1075.1800 Y1.0000 Z0.0000
M3S245
G4 P0.5; Tool Off

G0 Z0; move to z-safe height
G0 X1073.1800 Y1.0000
M3S0
G4 P0.5; Tool On
G1 F300 Z0.0000
G1 F15000 X1073.1800 Y1209.0000 Z0.0000
M3S245
G4 P0.5; Tool Off

G0 Z0; move to z-safe height
G0 X1071.1800 Y1209.0000
M3S0
G4 P0.5; Tool On
G1 F300 Z0.0000
G1 F15000 X1071.1800 Y1.0000 Z0.0000
M3S245
G4 P0.5; Tool Off

G0 Z0; move to z-safe height
G0 X1069.1800 Y1.0000
M3S0
G4 P0.5; Tool On
G1 F300 Z0.0000
G1 F15000 X1069.1800 Y1209.0000 Z0.0000
M3S245
G4 P0.5; Tool Off

G0 Z0; move to z-safe height
G0 X1067.1800 Y1209.0000
M3S0
G4 P0.5; Tool On
G1 F300 Z0.0000
G1 F15000 X1067.1800 Y1.0000 Z0.0000
M3S245
G4 P0.5; Tool Off

G0 Z0; move to z-safe height
G0 X1065.1800 Y1.0000
M3S0
G4 P0.5; Tool On
G1 F300 Z0.0000
G1 F15000 X1065.1800 Y1209.0000 Z0.0000
M3S245
G4 P0.5; Tool Off

G0 Z0; move to z-safe height
G0 X1063.1800 Y1209.0000
M3S0
G4 P0.5; Tool On
G1 F300 Z0.0000
G1 F15000 X1063.1800 Y1.0000 Z0.0000
M3S245
G4 P0.5; Tool Off

G0 Z0; move to z-safe height
G0 X1061.1800 Y1.0000
M3S0
G4 P0.5; Tool On
G1 F300 Z0.0000
G1 F15000 X1061.1800 Y1209.0000 Z0.0000
M3S245
G4 P0.5; Tool Off

G0 Z0; move to z-safe height
G0 X1059.1800 Y1209.0000
M3S0
G4 P0.5; Tool On
G1 F300 Z0.0000
G1 F15000 X1059.1800 Y1.0000 Z0.0000
M3S245
G4 P0.5; Tool Off

G0 Z0; move to z-safe height
G0 X1057.1800 Y1.0000
M3S0
G4 P0.5; Tool On
G1 F300 Z0.0000
G1 F15000 X1057.1800 Y1209.0000 Z0.0000
M3S245
G4 P0.5; Tool Off

G0 Z0; move to z-safe height
G0 X1055.1800 Y1209.0000
M3S0
G4 P0.5; Tool On
G1 F300 Z0.0000
G1 F15000 X1055.1800 Y1.0000 Z0.0000
M3S245
G4 P0.5; Tool Off

G0 Z0; move to z-safe height
G0 X1053.1800 Y1.0000
M3S0
G4 P0.5; Tool On
G1 F300 Z0.0000
G1 F15000 X1053.1800 Y1209.0000 Z0.0000
M3S245
G4 P0.5; Tool Off

G0 Z0; move to z-safe height
G0 X1051.1800 Y1209.0000
M3S0
G4 P0.5; Tool On
G1 F300 Z0.0000
G1 F15000 X1051.1800 Y1.0000 Z0.0000
M3S245
G4 P0.5; Tool Off

G0 Z0; move to z-safe height
G0 X1049.1800 Y1.0000
M3S0
G4 P0.5; Tool On
G1 F300 Z0.0000
G1 F15000 X1049.1800 Y1209.0000 Z0.0000
M3S245
G4 P0.5; Tool Off

G0 Z0; move to z-safe height
G0 X1047.1800 Y1209.0000
M3S0
G4 P0.5; Tool On
G1 F300 Z0.0000
G1 F15000 X1047.1800 Y1.0000 Z0.0000
M3S245
G4 P0.5; Tool Off

G0 Z0; move to z-safe height
G0 X1045.1800 Y1.0000
M3S0
G4 P0.5; Tool On
G1 F300 Z0.0000
G1 F15000 X1045.1800 Y1209.0000 Z0.0000
M3S245
G4 P0.5; Tool Off

G0 Z0; move to z-safe height
G0 X1043.1800 Y1209.0000
M3S0
G4 P0.5; Tool On
G1 F300 Z0.0000
G1 F15000 X1043.1800 Y1.0000 Z0.0000
M3S245
G4 P0.5; Tool Off

G0 Z0; move to z-safe height
G0 X1041.1800 Y1.0000
M3S0
G4 P0.5; Tool On
G1 F300 Z0.0000
G1 F15000 X1041.1800 Y1209.0000 Z0.0000
M3S245
G4 P0.5; Tool Off

G0 Z0; move to z-safe height
G0 X1039.1800 Y1209.0000
M3S0
G4 P0.5; Tool On
G1 F300 Z0.0000
G1 F15000 X1039.1800 Y1.0000 Z0.0000
M3S245
G4 P0.5; Tool Off

G0 Z0; move to z-safe height
G0 X1037.1800 Y1.0000
M3S0
G4 P0.5; Tool On
G1 F300 Z0.0000
G1 F15000 X1037.1800 Y1209.0000 Z0.0000
M3S245
G4 P0.5; Tool Off

G0 Z0; move to z-safe height
G0 X1035.1800 Y1209.0000
M3S0
G4 P0.5; Tool On
G1 F300 Z0.0000
G1 F15000 X1035.1800 Y1.0000 Z0.0000
M3S245
G4 P0.5; Tool Off

G0 Z0; move to z-safe height
G0 X1033.1800 Y1.0000
M3S0
G4 P0.5; Tool On
G1 F300 Z0.0000
G1 F15000 X1033.1800 Y1209.0000 Z0.0000
M3S245
G4 P0.5; Tool Off

G0 Z0; move to z-safe height
G0 X1031.1800 Y1209.0000
M3S0
G4 P0.5; Tool On
G1 F300 Z0.0000
G1 F15000 X1031.1800 Y1.0000 Z0.0000
M3S245
G4 P0.5; Tool Off

G0 Z0; move to z-safe height
G0 X1029.1800 Y1.0000
M3S0
G4 P0.5; Tool On
G1 F300 Z0.0000
G1 F15000 X1029.1800 Y1209.0000 Z0.0000
M3S245
G4 P0.5; Tool Off

G0 Z0; move to z-safe height
G0 X1027.1800 Y1209.0000
M3S0
G4 P0.5; Tool On
G1 F300 Z0.0000
G1 F15000 X1027.1800 Y1.0000 Z0.0000
M3S245
G4 P0.5; Tool Off

G0 Z0; move to z-safe height
G0 X1025.1800 Y1.0000
M3S0
G4 P0.5; Tool On
G1 F300 Z0.0000
G1 F15000 X1025.1800 Y1209.0000 Z0.0000
M3S245
G4 P0.5; Tool Off

G0 Z0; move to z-safe height
G0 X1023.1800 Y1209.0000
M3S0
G4 P0.5; Tool On
G1 F300 Z0.0000
G1 F15000 X1023.1800 Y1.0000 Z0.0000
M3S245
G4 P0.5; Tool Off

G0 Z0; move to z-safe height
G0 X1021.1800 Y1.0000
M3S0
G4 P0.5; Tool On
G1 F300 Z0.0000
G1 F15000 X1021.1800 Y1209.0000 Z0.0000
M3S245
G4 P0.5; Tool Off

G0 Z0; move to z-safe height
G0 X1019.1800 Y1209.0000
M3S0
G4 P0.5; Tool On
G1 F300 Z0.0000
G1 F15000 X1019.1800 Y1.0000 Z0.0000
M3S245
G4 P0.5; Tool Off

G0 Z0; move to z-safe height
G0 X1017.1800 Y1.0000
M3S0
G4 P0.5; Tool On
G1 F300 Z0.0000
G1 F15000 X1017.1800 Y1209.0000 Z0.0000
M3S245
G4 P0.5; Tool Off

G0 Z0; move to z-safe height
G0 X1015.1800 Y1209.0000
M3S0
G4 P0.5; Tool On
G1 F300 Z0.0000
G1 F15000 X1015.1800 Y1.0000 Z0.0000
M3S245
G4 P0.5; Tool Off

G0 Z0; move to z-safe height
G0 X1013.1800 Y1.0000
M3S0
G4 P0.5; Tool On
G1 F300 Z0.0000
G1 F15000 X1013.1800 Y1209.0000 Z0.0000
M3S245
G4 P0.5; Tool Off

G0 Z0; move to z-safe height
G0 X1011.1800 Y1209.0000
M3S0
G4 P0.5; Tool On
G1 F300 Z0.0000
G1 F15000 X1011.1800 Y1.0000 Z0.0000
M3S245
G4 P0.5; Tool Off

G0 Z0; move to z-safe height
G0 X1009.1800 Y1.0000
M3S0
G4 P0.5; Tool On
G1 F300 Z0.0000
G1 F15000 X1009.1800 Y1209.0000 Z0.0000
M3S245
G4 P0.5; Tool Off

G0 Z0; move to z-safe height
G0 X1007.1800 Y1209.0000
M3S0
G4 P0.5; Tool On
G1 F300 Z0.0000
G1 F15000 X1007.1800 Y1.0000 Z0.0000
M3S245
G4 P0.5; Tool Off

G0 Z0; move to z-safe height
G0 X1005.1800 Y1.0000
M3S0
G4 P0.5; Tool On
G1 F300 Z0.0000
G1 F15000 X1005.1800 Y1209.0000 Z0.0000
M3S245
G4 P0.5; Tool Off

G0 Z0; move to z-safe height
G0 X1003.1800 Y1209.0000
M3S0
G4 P0.5; Tool On
G1 F300 Z0.0000
G1 F15000 X1003.1800 Y1.0000 Z0.0000
M3S245
G4 P0.5; Tool Off

G0 Z0; move to z-safe height
G0 X1001.1800 Y1.0000
M3S0
G4 P0.5; Tool On
G1 F300 Z0.0000
G1 F15000 X1001.1800 Y1209.0000 Z0.0000
M3S245
G4 P0.5; Tool Off

G0 Z0; move to z-safe height
G0 X999.1800 Y1209.0000
M3S0
G4 P0.5; Tool On
G1 F300 Z0.0000
G1 F15000 X999.1800 Y1.0000 Z0.0000
M3S245
G4 P0.5; Tool Off

G0 Z0; move to z-safe height
G0 X997.1800 Y1.0000
M3S0
G4 P0.5; Tool On
G1 F300 Z0.0000
G1 F15000 X997.1800 Y1209.0000 Z0.0000
M3S245
G4 P0.5; Tool Off

G0 Z0; move to z-safe height
G0 X995.1800 Y1209.0000
M3S0
G4 P0.5; Tool On
G1 F300 Z0.0000
G1 F15000 X995.1800 Y1.0000 Z0.0000
M3S245
G4 P0.5; Tool Off

G0 Z0; move to z-safe height
G0 X993.1800 Y1.0000
M3S0
G4 P0.5; Tool On
G1 F300 Z0.0000
G1 F15000 X993.1800 Y1209.0000 Z0.0000
M3S245
G4 P0.5; Tool Off

G0 Z0; move to z-safe height
G0 X991.1800 Y1209.0000
M3S0
G4 P0.5; Tool On
G1 F300 Z0.0000
G1 F15000 X991.1800 Y1.0000 Z0.0000
M3S245
G4 P0.5; Tool Off

G0 Z0; move to z-safe height
G0 X989.1800 Y1.0000
M3S0
G4 P0.5; Tool On
G1 F300 Z0.0000
G1 F15000 X989.1800 Y1209.0000 Z0.0000
M3S245
G4 P0.5; Tool Off

G0 Z0; move to z-safe height
G0 X987.1800 Y1209.0000
M3S0
G4 P0.5; Tool On
G1 F300 Z0.0000
G1 F15000 X987.1800 Y1.0000 Z0.0000
M3S245
G4 P0.5; Tool Off

G0 Z0; move to z-safe height
G0 X985.1800 Y1.0000
M3S0
G4 P0.5; Tool On
G1 F300 Z0.0000
G1 F15000 X985.1800 Y1209.0000 Z0.0000
M3S245
G4 P0.5; Tool Off

G0 Z0; move to z-safe height
G0 X983.1800 Y1209.0000
M3S0
G4 P0.5; Tool On
G1 F300 Z0.0000
G1 F15000 X983.1800 Y1.0000 Z0.0000
M3S245
G4 P0.5; Tool Off

G0 Z0; move to z-safe height
G0 X981.1800 Y1.0000
M3S0
G4 P0.5; Tool On
G1 F300 Z0.0000
G1 F15000 X981.1800 Y1209.0000 Z0.0000
M3S245
G4 P0.5; Tool Off

G0 Z0; move to z-safe height
G0 X979.1800 Y1209.0000
M3S0
G4 P0.5; Tool On
G1 F300 Z0.0000
G1 F15000 X979.1800 Y1.0000 Z0.0000
M3S245
G4 P0.5; Tool Off

G0 Z0; move to z-safe height
G0 X977.1800 Y1.0000
M3S0
G4 P0.5; Tool On
G1 F300 Z0.0000
G1 F15000 X977.1800 Y1209.0000 Z0.0000
M3S245
G4 P0.5; Tool Off

G0 Z0; move to z-safe height
G0 X975.1800 Y1209.0000
M3S0
G4 P0.5; Tool On
G1 F300 Z0.0000
G1 F15000 X975.1800 Y1.0000 Z0.0000
M3S245
G4 P0.5; Tool Off

G0 Z0; move to z-safe height
G0 X973.1800 Y1.0000
M3S0
G4 P0.5; Tool On
G1 F300 Z0.0000
G1 F15000 X973.1800 Y1209.0000 Z0.0000
M3S245
G4 P0.5; Tool Off

G0 Z0; move to z-safe height
G0 X971.1800 Y1209.0000
M3S0
G4 P0.5; Tool On
G1 F300 Z0.0000
G1 F15000 X971.1800 Y1.0000 Z0.0000
M3S245
G4 P0.5; Tool Off

G0 Z0; move to z-safe height
G0 X969.1800 Y1.0000
M3S0
G4 P0.5; Tool On
G1 F300 Z0.0000
G1 F15000 X969.1800 Y1209.0000 Z0.0000
M3S245
G4 P0.5; Tool Off

G0 Z0; move to z-safe height
G0 X967.1800 Y1209.0000
M3S0
G4 P0.5; Tool On
G1 F300 Z0.0000
G1 F15000 X967.1800 Y1.0000 Z0.0000
M3S245
G4 P0.5; Tool Off

G0 Z0; move to z-safe height
G0 X965.1800 Y1.0000
M3S0
G4 P0.5; Tool On
G1 F300 Z0.0000
G1 F15000 X965.1800 Y1209.0000 Z0.0000
M3S245
G4 P0.5; Tool Off

G0 Z0; move to z-safe height
G0 X963.1800 Y1209.0000
M3S0
G4 P0.5; Tool On
G1 F300 Z0.0000
G1 F15000 X963.1800 Y1.0000 Z0.0000
M3S245
G4 P0.5; Tool Off

G0 Z0; move to z-safe height
G0 X961.1800 Y1.0000
M3S0
G4 P0.5; Tool On
G1 F300 Z0.0000
G1 F15000 X961.1800 Y1209.0000 Z0.0000
M3S245
G4 P0.5; Tool Off

G0 Z0; move to z-safe height
G0 X959.1800 Y1209.0000
M3S0
G4 P0.5; Tool On
G1 F300 Z0.0000
G1 F15000 X959.1800 Y1.0000 Z0.0000
M3S245
G4 P0.5; Tool Off

G0 Z0; move to z-safe height
G0 X957.1800 Y1.0000
M3S0
G4 P0.5; Tool On
G1 F300 Z0.0000
G1 F15000 X957.1800 Y1209.0000 Z0.0000
M3S245
G4 P0.5; Tool Off

G0 Z0; move to z-safe height
G0 X955.1800 Y1209.0000
M3S0
G4 P0.5; Tool On
G1 F300 Z0.0000
G1 F15000 X955.1800 Y1.0000 Z0.0000
M3S245
G4 P0.5; Tool Off

G0 Z0; move to z-safe height
G0 X953.1800 Y1.0000
M3S0
G4 P0.5; Tool On
G1 F300 Z0.0000
G1 F15000 X953.1800 Y1209.0000 Z0.0000
M3S245
G4 P0.5; Tool Off

G0 Z0; move to z-safe height
G0 X951.1800 Y1209.0000
M3S0
G4 P0.5; Tool On
G1 F300 Z0.0000
G1 F15000 X951.1800 Y1.0000 Z0.0000
M3S245
G4 P0.5; Tool Off

G0 Z0; move to z-safe height
G0 X949.1800 Y1.0000
M3S0
G4 P0.5; Tool On
G1 F300 Z0.0000
G1 F15000 X949.1800 Y1209.0000 Z0.0000
M3S245
G4 P0.5; Tool Off

G0 Z0; move to z-safe height
G0 X947.1800 Y1209.0000
M3S0
G4 P0.5; Tool On
G1 F300 Z0.0000
G1 F15000 X947.1800 Y1.0000 Z0.0000
M3S245
G4 P0.5; Tool Off

G0 Z0; move to z-safe height
G0 X945.1800 Y1.0000
M3S0
G4 P0.5; Tool On
G1 F300 Z0.0000
G1 F15000 X945.1800 Y1209.0000 Z0.0000
M3S245
G4 P0.5; Tool Off

G0 Z0; move to z-safe height
G0 X943.1800 Y1209.0000
M3S0
G4 P0.5; Tool On
G1 F300 Z0.0000
G1 F15000 X943.1800 Y1.0000 Z0.0000
M3S245
G4 P0.5; Tool Off

G0 Z0; move to z-safe height
G0 X941.1800 Y1.0000
M3S0
G4 P0.5; Tool On
G1 F300 Z0.0000
G1 F15000 X941.1800 Y1209.0000 Z0.0000
M3S245
G4 P0.5; Tool Off

G0 Z0; move to z-safe height
G0 X939.1800 Y1209.0000
M3S0
G4 P0.5; Tool On
G1 F300 Z0.0000
G1 F15000 X939.1800 Y1.0000 Z0.0000
M3S245
G4 P0.5; Tool Off

G0 Z0; move to z-safe height
G0 X937.1800 Y1.0000
M3S0
G4 P0.5; Tool On
G1 F300 Z0.0000
G1 F15000 X937.1800 Y1209.0000 Z0.0000
M3S245
G4 P0.5; Tool Off

G0 Z0; move to z-safe height
G0 X935.1800 Y1209.0000
M3S0
G4 P0.5; Tool On
G1 F300 Z0.0000
G1 F15000 X935.1800 Y1.0000 Z0.0000
M3S245
G4 P0.5; Tool Off

G0 Z0; move to z-safe height
G0 X933.1800 Y1.0000
M3S0
G4 P0.5; Tool On
G1 F300 Z0.0000
G1 F15000 X933.1800 Y1209.0000 Z0.0000
M3S245
G4 P0.5; Tool Off

G0 Z0; move to z-safe height
G0 X931.1800 Y1209.0000
M3S0
G4 P0.5; Tool On
G1 F300 Z0.0000
G1 F15000 X931.1800 Y1.0000 Z0.0000
M3S245
G4 P0.5; Tool Off

G0 Z0; move to z-safe height
G0 X929.1800 Y1.0000
M3S0
G4 P0.5; Tool On
G1 F300 Z0.0000
G1 F15000 X929.1800 Y1209.0000 Z0.0000
M3S245
G4 P0.5; Tool Off

G0 Z0; move to z-safe height
G0 X927.1800 Y1209.0000
M3S0
G4 P0.5; Tool On
G1 F300 Z0.0000
G1 F15000 X927.1800 Y1.0000 Z0.0000
M3S245
G4 P0.5; Tool Off

G0 Z0; move to z-safe height
G0 X925.1800 Y1.0000
M3S0
G4 P0.5; Tool On
G1 F300 Z0.0000
G1 F15000 X925.1800 Y1209.0000 Z0.0000
M3S245
G4 P0.5; Tool Off

G0 Z0; move to z-safe height
G0 X923.1800 Y1209.0000
M3S0
G4 P0.5; Tool On
G1 F300 Z0.0000
G1 F15000 X923.1800 Y1.0000 Z0.0000
M3S245
G4 P0.5; Tool Off

G0 Z0; move to z-safe height
G0 X921.1800 Y1.0000
M3S0
G4 P0.5; Tool On
G1 F300 Z0.0000
G1 F15000 X921.1800 Y1209.0000 Z0.0000
M3S245
G4 P0.5; Tool Off

G0 Z0; move to z-safe height
G0 X919.1800 Y1209.0000
M3S0
G4 P0.5; Tool On
G1 F300 Z0.0000
G1 F15000 X919.1800 Y1.0000 Z0.0000
M3S245
G4 P0.5; Tool Off

G0 Z0; move to z-safe height
G0 X917.1800 Y1.0000
M3S0
G4 P0.5; Tool On
G1 F300 Z0.0000
G1 F15000 X917.1800 Y1209.0000 Z0.0000
M3S245
G4 P0.5; Tool Off

G0 Z0; move to z-safe height
G0 X915.1800 Y1209.0000
M3S0
G4 P0.5; Tool On
G1 F300 Z0.0000
G1 F15000 X915.1800 Y1.0000 Z0.0000
M3S245
G4 P0.5; Tool Off

G0 Z0; move to z-safe height
G0 X913.1800 Y1.0000
M3S0
G4 P0.5; Tool On
G1 F300 Z0.0000
G1 F15000 X913.1800 Y1209.0000 Z0.0000
M3S245
G4 P0.5; Tool Off

G0 Z0; move to z-safe height
G0 X911.1800 Y1209.0000
M3S0
G4 P0.5; Tool On
G1 F300 Z0.0000
G1 F15000 X911.1800 Y1.0000 Z0.0000
M3S245
G4 P0.5; Tool Off

G0 Z0; move to z-safe height
G0 X909.1800 Y1.0000
M3S0
G4 P0.5; Tool On
G1 F300 Z0.0000
G1 F15000 X909.1800 Y1209.0000 Z0.0000
M3S245
G4 P0.5; Tool Off

G0 Z0; move to z-safe height
G0 X907.1800 Y1209.0000
M3S0
G4 P0.5; Tool On
G1 F300 Z0.0000
G1 F15000 X907.1800 Y1.0000 Z0.0000
M3S245
G4 P0.5; Tool Off

G0 Z0; move to z-safe height
G0 X905.1800 Y1.0000
M3S0
G4 P0.5; Tool On
G1 F300 Z0.0000
G1 F15000 X905.1800 Y1209.0000 Z0.0000
M3S245
G4 P0.5; Tool Off

G0 Z0; move to z-safe height
G0 X903.1800 Y1209.0000
M3S0
G4 P0.5; Tool On
G1 F300 Z0.0000
G1 F15000 X903.1800 Y1.0000 Z0.0000
M3S245
G4 P0.5; Tool Off

G0 Z0; move to z-safe height
G0 X901.1800 Y1.0000
M3S0
G4 P0.5; Tool On
G1 F300 Z0.0000
G1 F15000 X901.1800 Y1209.0000 Z0.0000
M3S245
G4 P0.5; Tool Off

G0 Z0; move to z-safe height
G0 X899.1800 Y1209.0000
M3S0
G4 P0.5; Tool On
G1 F300 Z0.0000
G1 F15000 X899.1800 Y1.0000 Z0.0000
M3S245
G4 P0.5; Tool Off

G0 Z0; move to z-safe height
G0 X897.1800 Y1.0000
M3S0
G4 P0.5; Tool On
G1 F300 Z0.0000
G1 F15000 X897.1800 Y1209.0000 Z0.0000
M3S245
G4 P0.5; Tool Off

G0 Z0; move to z-safe height
G0 X895.1800 Y1209.0000
M3S0
G4 P0.5; Tool On
G1 F300 Z0.0000
G1 F15000 X895.1800 Y1.0000 Z0.0000
M3S245
G4 P0.5; Tool Off

G0 Z0; move to z-safe height
G0 X893.1800 Y1.0000
M3S0
G4 P0.5; Tool On
G1 F300 Z0.0000
G1 F15000 X893.1800 Y1209.0000 Z0.0000
M3S245
G4 P0.5; Tool Off

G0 Z0; move to z-safe height
G0 X891.1800 Y1209.0000
M3S0
G4 P0.5; Tool On
G1 F300 Z0.0000
G1 F15000 X891.1800 Y1.0000 Z0.0000
M3S245
G4 P0.5; Tool Off

G0 Z0; move to z-safe height
G0 X889.1800 Y1.0000
M3S0
G4 P0.5; Tool On
G1 F300 Z0.0000
G1 F15000 X889.1800 Y1209.0000 Z0.0000
M3S245
G4 P0.5; Tool Off

G0 Z0; move to z-safe height
G0 X887.1800 Y1209.0000
M3S0
G4 P0.5; Tool On
G1 F300 Z0.0000
G1 F15000 X887.1800 Y1.0000 Z0.0000
M3S245
G4 P0.5; Tool Off

G0 Z0; move to z-safe height
G0 X885.1800 Y1.0000
M3S0
G4 P0.5; Tool On
G1 F300 Z0.0000
G1 F15000 X885.1800 Y1209.0000 Z0.0000
M3S245
G4 P0.5; Tool Off

G0 Z0; move to z-safe height
G0 X883.1800 Y1209.0000
M3S0
G4 P0.5; Tool On
G1 F300 Z0.0000
G1 F15000 X883.1800 Y1.0000 Z0.0000
M3S245
G4 P0.5; Tool Off

G0 Z0; move to z-safe height
G0 X881.1800 Y1.0000
M3S0
G4 P0.5; Tool On
G1 F300 Z0.0000
G1 F15000 X881.1800 Y1209.0000 Z0.0000
M3S245
G4 P0.5; Tool Off

G0 Z0; move to z-safe height
G0 X879.1800 Y1209.0000
M3S0
G4 P0.5; Tool On
G1 F300 Z0.0000
G1 F15000 X879.1800 Y1.0000 Z0.0000
M3S245
G4 P0.5; Tool Off

G0 Z0; move to z-safe height
G0 X877.1800 Y1.0000
M3S0
G4 P0.5; Tool On
G1 F300 Z0.0000
G1 F15000 X877.1800 Y1209.0000 Z0.0000
M3S245
G4 P0.5; Tool Off

G0 Z0; move to z-safe height
G0 X875.1800 Y1209.0000
M3S0
G4 P0.5; Tool On
G1 F300 Z0.0000
G1 F15000 X875.1800 Y1.0000 Z0.0000
M3S245
G4 P0.5; Tool Off

G0 Z0; move to z-safe height
G0 X873.1800 Y1.0000
M3S0
G4 P0.5; Tool On
G1 F300 Z0.0000
G1 F15000 X873.1800 Y1209.0000 Z0.0000
M3S245
G4 P0.5; Tool Off

G0 Z0; move to z-safe height
G0 X871.1800 Y1209.0000
M3S0
G4 P0.5; Tool On
G1 F300 Z0.0000
G1 F15000 X871.1800 Y1.0000 Z0.0000
M3S245
G4 P0.5; Tool Off

G0 Z0; move to z-safe height
G0 X869.1800 Y1.0000
M3S0
G4 P0.5; Tool On
G1 F300 Z0.0000
G1 F15000 X869.1800 Y1209.0000 Z0.0000
M3S245
G4 P0.5; Tool Off

G0 Z0; move to z-safe height
G0 X867.1800 Y1209.0000
M3S0
G4 P0.5; Tool On
G1 F300 Z0.0000
G1 F15000 X867.1800 Y1.0000 Z0.0000
M3S245
G4 P0.5; Tool Off

G0 Z0; move to z-safe height
G0 X865.1800 Y1.0000
M3S0
G4 P0.5; Tool On
G1 F300 Z0.0000
G1 F15000 X865.1800 Y1209.0000 Z0.0000
M3S245
G4 P0.5; Tool Off

G0 Z0; move to z-safe height
G0 X863.1800 Y1209.0000
M3S0
G4 P0.5; Tool On
G1 F300 Z0.0000
G1 F15000 X863.1800 Y1.0000 Z0.0000
M3S245
G4 P0.5; Tool Off

G0 Z0; move to z-safe height
G0 X861.1800 Y1.0000
M3S0
G4 P0.5; Tool On
G1 F300 Z0.0000
G1 F15000 X861.1800 Y1209.0000 Z0.0000
M3S245
G4 P0.5; Tool Off

G0 Z0; move to z-safe height
G0 X859.1800 Y1209.0000
M3S0
G4 P0.5; Tool On
G1 F300 Z0.0000
G1 F15000 X859.1800 Y1.0000 Z0.0000
M3S245
G4 P0.5; Tool Off

G0 Z0; move to z-safe height
G0 X857.1800 Y1.0000
M3S0
G4 P0.5; Tool On
G1 F300 Z0.0000
G1 F15000 X857.1800 Y1209.0000 Z0.0000
M3S245
G4 P0.5; Tool Off

G0 Z0; move to z-safe height
G0 X855.1800 Y1209.0000
M3S0
G4 P0.5; Tool On
G1 F300 Z0.0000
G1 F15000 X855.1800 Y1.0000 Z0.0000
M3S245
G4 P0.5; Tool Off

G0 Z0; move to z-safe height
G0 X853.1800 Y1.0000
M3S0
G4 P0.5; Tool On
G1 F300 Z0.0000
G1 F15000 X853.1800 Y1209.0000 Z0.0000
M3S245
G4 P0.5; Tool Off

G0 Z0; move to z-safe height
G0 X851.1800 Y1209.0000
M3S0
G4 P0.5; Tool On
G1 F300 Z0.0000
G1 F15000 X851.1800 Y1.0000 Z0.0000
M3S245
G4 P0.5; Tool Off

G0 Z0; move to z-safe height
G0 X849.1800 Y1.0000
M3S0
G4 P0.5; Tool On
G1 F300 Z0.0000
G1 F15000 X849.1800 Y1209.0000 Z0.0000
M3S245
G4 P0.5; Tool Off

G0 Z0; move to z-safe height
G0 X847.1800 Y1209.0000
M3S0
G4 P0.5; Tool On
G1 F300 Z0.0000
G1 F15000 X847.1800 Y1.0000 Z0.0000
M3S245
G4 P0.5; Tool Off

G0 Z0; move to z-safe height
G0 X845.1800 Y1.0000
M3S0
G4 P0.5; Tool On
G1 F300 Z0.0000
G1 F15000 X845.1800 Y1209.0000 Z0.0000
M3S245
G4 P0.5; Tool Off

G0 Z0; move to z-safe height
G0 X843.1800 Y1209.0000
M3S0
G4 P0.5; Tool On
G1 F300 Z0.0000
G1 F15000 X843.1800 Y1.0000 Z0.0000
M3S245
G4 P0.5; Tool Off

G0 Z0; move to z-safe height
G0 X841.1800 Y1.0000
M3S0
G4 P0.5; Tool On
G1 F300 Z0.0000
G1 F15000 X841.1800 Y1209.0000 Z0.0000
M3S245
G4 P0.5; Tool Off

G0 Z0; move to z-safe height
G0 X839.1800 Y1209.0000
M3S0
G4 P0.5; Tool On
G1 F300 Z0.0000
G1 F15000 X839.1800 Y1.0000 Z0.0000
M3S245
G4 P0.5; Tool Off

G0 Z0; move to z-safe height
G0 X837.1800 Y1.0000
M3S0
G4 P0.5; Tool On
G1 F300 Z0.0000
G1 F15000 X837.1800 Y1209.0000 Z0.0000
M3S245
G4 P0.5; Tool Off

G0 Z0; move to z-safe height
G0 X835.1800 Y1209.0000
M3S0
G4 P0.5; Tool On
G1 F300 Z0.0000
G1 F15000 X835.1800 Y1.0000 Z0.0000
M3S245
G4 P0.5; Tool Off

G0 Z0; move to z-safe height
G0 X833.1800 Y1.0000
M3S0
G4 P0.5; Tool On
G1 F300 Z0.0000
G1 F15000 X833.1800 Y1209.0000 Z0.0000
M3S245
G4 P0.5; Tool Off

G0 Z0; move to z-safe height
G0 X831.1800 Y1209.0000
M3S0
G4 P0.5; Tool On
G1 F300 Z0.0000
G1 F15000 X831.1800 Y1.0000 Z0.0000
M3S245
G4 P0.5; Tool Off

G0 Z0; move to z-safe height
G0 X829.1800 Y1.0000
M3S0
G4 P0.5; Tool On
G1 F300 Z0.0000
G1 F15000 X829.1800 Y1209.0000 Z0.0000
M3S245
G4 P0.5; Tool Off

G0 Z0; move to z-safe height
G0 X827.1800 Y1209.0000
M3S0
G4 P0.5; Tool On
G1 F300 Z0.0000
G1 F15000 X827.1800 Y1.0000 Z0.0000
M3S245
G4 P0.5; Tool Off

G0 Z0; move to z-safe height
G0 X825.1800 Y1.0000
M3S0
G4 P0.5; Tool On
G1 F300 Z0.0000
G1 F15000 X825.1800 Y1209.0000 Z0.0000
M3S245
G4 P0.5; Tool Off

G0 Z0; move to z-safe height
G0 X823.1800 Y1209.0000
M3S0
G4 P0.5; Tool On
G1 F300 Z0.0000
G1 F15000 X823.1800 Y1.0000 Z0.0000
M3S245
G4 P0.5; Tool Off

G0 Z0; move to z-safe height
G0 X821.1800 Y1.0000
M3S0
G4 P0.5; Tool On
G1 F300 Z0.0000
G1 F15000 X821.1800 Y1209.0000 Z0.0000
M3S245
G4 P0.5; Tool Off

G0 Z0; move to z-safe height
G0 X819.1800 Y1209.0000
M3S0
G4 P0.5; Tool On
G1 F300 Z0.0000
G1 F15000 X819.1800 Y1.0000 Z0.0000
M3S245
G4 P0.5; Tool Off

G0 Z0; move to z-safe height
G0 X817.1800 Y1.0000
M3S0
G4 P0.5; Tool On
G1 F300 Z0.0000
G1 F15000 X817.1800 Y1209.0000 Z0.0000
M3S245
G4 P0.5; Tool Off

G0 Z0; move to z-safe height
G0 X815.1800 Y1209.0000
M3S0
G4 P0.5; Tool On
G1 F300 Z0.0000
G1 F15000 X815.1800 Y1.0000 Z0.0000
M3S245
G4 P0.5; Tool Off

G0 Z0; move to z-safe height
G0 X813.1800 Y1.0000
M3S0
G4 P0.5; Tool On
G1 F300 Z0.0000
G1 F15000 X813.1800 Y1209.0000 Z0.0000
M3S245
G4 P0.5; Tool Off

G0 Z0; move to z-safe height
G0 X811.1800 Y1209.0000
M3S0
G4 P0.5; Tool On
G1 F300 Z0.0000
G1 F15000 X811.1800 Y1.0000 Z0.0000
M3S245
G4 P0.5; Tool Off

G0 Z0; move to z-safe height
G0 X809.1800 Y1.0000
M3S0
G4 P0.5; Tool On
G1 F300 Z0.0000
G1 F15000 X809.1800 Y1209.0000 Z0.0000
M3S245
G4 P0.5; Tool Off

G0 Z0; move to z-safe height
G0 X807.1800 Y1209.0000
M3S0
G4 P0.5; Tool On
G1 F300 Z0.0000
G1 F15000 X807.1800 Y1.0000 Z0.0000
M3S245
G4 P0.5; Tool Off

G0 Z0; move to z-safe height
G0 X805.1800 Y1.0000
M3S0
G4 P0.5; Tool On
G1 F300 Z0.0000
G1 F15000 X805.1800 Y1209.0000 Z0.0000
M3S245
G4 P0.5; Tool Off

G0 Z0; move to z-safe height
G0 X803.1800 Y1209.0000
M3S0
G4 P0.5; Tool On
G1 F300 Z0.0000
G1 F15000 X803.1800 Y1.0000 Z0.0000
M3S245
G4 P0.5; Tool Off

G0 Z0; move to z-safe height
G0 X801.1800 Y1.0000
M3S0
G4 P0.5; Tool On
G1 F300 Z0.0000
G1 F15000 X801.1800 Y1209.0000 Z0.0000
M3S245
G4 P0.5; Tool Off

G0 Z0; move to z-safe height
G0 X799.1800 Y1209.0000
M3S0
G4 P0.5; Tool On
G1 F300 Z0.0000
G1 F15000 X799.1800 Y1.0000 Z0.0000
M3S245
G4 P0.5; Tool Off

G0 Z0; move to z-safe height
G0 X797.1800 Y1.0000
M3S0
G4 P0.5; Tool On
G1 F300 Z0.0000
G1 F15000 X797.1800 Y1209.0000 Z0.0000
M3S245
G4 P0.5; Tool Off

G0 Z0; move to z-safe height
G0 X795.1800 Y1209.0000
M3S0
G4 P0.5; Tool On
G1 F300 Z0.0000
G1 F15000 X795.1800 Y1.0000 Z0.0000
M3S245
G4 P0.5; Tool Off

G0 Z0; move to z-safe height
G0 X793.1800 Y1.0000
M3S0
G4 P0.5; Tool On
G1 F300 Z0.0000
G1 F15000 X793.1800 Y1209.0000 Z0.0000
M3S245
G4 P0.5; Tool Off

G0 Z0; move to z-safe height
G0 X791.1800 Y1209.0000
M3S0
G4 P0.5; Tool On
G1 F300 Z0.0000
G1 F15000 X791.1800 Y1.0000 Z0.0000
M3S245
G4 P0.5; Tool Off

G0 Z0; move to z-safe height
G0 X789.1800 Y1.0000
M3S0
G4 P0.5; Tool On
G1 F300 Z0.0000
G1 F15000 X789.1800 Y1209.0000 Z0.0000
M3S245
G4 P0.5; Tool Off

G0 Z0; move to z-safe height
G0 X787.1800 Y1209.0000
M3S0
G4 P0.5; Tool On
G1 F300 Z0.0000
G1 F15000 X787.1800 Y1.0000 Z0.0000
M3S245
G4 P0.5; Tool Off

G0 Z0; move to z-safe height
G0 X785.1800 Y1.0000
M3S0
G4 P0.5; Tool On
G1 F300 Z0.0000
G1 F15000 X785.1800 Y1209.0000 Z0.0000
M3S245
G4 P0.5; Tool Off

G0 Z0; move to z-safe height
G0 X783.1800 Y1209.0000
M3S0
G4 P0.5; Tool On
G1 F300 Z0.0000
G1 F15000 X783.1800 Y1.0000 Z0.0000
M3S245
G4 P0.5; Tool Off

G0 Z0; move to z-safe height
G0 X781.1800 Y1.0000
M3S0
G4 P0.5; Tool On
G1 F300 Z0.0000
G1 F15000 X781.1800 Y1209.0000 Z0.0000
M3S245
G4 P0.5; Tool Off

G0 Z0; move to z-safe height
G0 X779.1800 Y1209.0000
M3S0
G4 P0.5; Tool On
G1 F300 Z0.0000
G1 F15000 X779.1800 Y1.0000 Z0.0000
M3S245
G4 P0.5; Tool Off

G0 Z0; move to z-safe height
G0 X777.1800 Y1.0000
M3S0
G4 P0.5; Tool On
G1 F300 Z0.0000
G1 F15000 X777.1800 Y1209.0000 Z0.0000
M3S245
G4 P0.5; Tool Off

G0 Z0; move to z-safe height
G0 X775.1800 Y1209.0000
M3S0
G4 P0.5; Tool On
G1 F300 Z0.0000
G1 F15000 X775.1800 Y1.0000 Z0.0000
M3S245
G4 P0.5; Tool Off

G0 Z0; move to z-safe height
G0 X773.1800 Y1.0000
M3S0
G4 P0.5; Tool On
G1 F300 Z0.0000
G1 F15000 X773.1800 Y1209.0000 Z0.0000
M3S245
G4 P0.5; Tool Off

G0 Z0; move to z-safe height
G0 X771.1800 Y1209.0000
M3S0
G4 P0.5; Tool On
G1 F300 Z0.0000
G1 F15000 X771.1800 Y1.0000 Z0.0000
M3S245
G4 P0.5; Tool Off

G0 Z0; move to z-safe height
G0 X769.1800 Y1.0000
M3S0
G4 P0.5; Tool On
G1 F300 Z0.0000
G1 F15000 X769.1800 Y1209.0000 Z0.0000
M3S245
G4 P0.5; Tool Off

G0 Z0; move to z-safe height
G0 X767.1800 Y1209.0000
M3S0
G4 P0.5; Tool On
G1 F300 Z0.0000
G1 F15000 X767.1800 Y1.0000 Z0.0000
M3S245
G4 P0.5; Tool Off

G0 Z0; move to z-safe height
G0 X765.1800 Y1.0000
M3S0
G4 P0.5; Tool On
G1 F300 Z0.0000
G1 F15000 X765.1800 Y1209.0000 Z0.0000
M3S245
G4 P0.5; Tool Off

G0 Z0; move to z-safe height
G0 X763.1800 Y1209.0000
M3S0
G4 P0.5; Tool On
G1 F300 Z0.0000
G1 F15000 X763.1800 Y1.0000 Z0.0000
M3S245
G4 P0.5; Tool Off

G0 Z0; move to z-safe height
G0 X761.1800 Y1.0000
M3S0
G4 P0.5; Tool On
G1 F300 Z0.0000
G1 F15000 X761.1800 Y1209.0000 Z0.0000
M3S245
G4 P0.5; Tool Off

G0 Z0; move to z-safe height
G0 X759.1800 Y1209.0000
M3S0
G4 P0.5; Tool On
G1 F300 Z0.0000
G1 F15000 X759.1800 Y1.0000 Z0.0000
M3S245
G4 P0.5; Tool Off

G0 Z0; move to z-safe height
G0 X757.1800 Y1.0000
M3S0
G4 P0.5; Tool On
G1 F300 Z0.0000
G1 F15000 X757.1800 Y1209.0000 Z0.0000
M3S245
G4 P0.5; Tool Off

G0 Z0; move to z-safe height
G0 X755.1800 Y1209.0000
M3S0
G4 P0.5; Tool On
G1 F300 Z0.0000
G1 F15000 X755.1800 Y1.0000 Z0.0000
M3S245
G4 P0.5; Tool Off

G0 Z0; move to z-safe height
G0 X753.1800 Y1.0000
M3S0
G4 P0.5; Tool On
G1 F300 Z0.0000
G1 F15000 X753.1800 Y1209.0000 Z0.0000
M3S245
G4 P0.5; Tool Off

G0 Z0; move to z-safe height
G0 X751.1800 Y1209.0000
M3S0
G4 P0.5; Tool On
G1 F300 Z0.0000
G1 F15000 X751.1800 Y1.0000 Z0.0000
M3S245
G4 P0.5; Tool Off

G0 Z0; move to z-safe height
G0 X749.1800 Y1.0000
M3S0
G4 P0.5; Tool On
G1 F300 Z0.0000
G1 F15000 X749.1800 Y1209.0000 Z0.0000
M3S245
G4 P0.5; Tool Off

G0 Z0; move to z-safe height
G0 X747.1800 Y1209.0000
M3S0
G4 P0.5; Tool On
G1 F300 Z0.0000
G1 F15000 X747.1800 Y1.0000 Z0.0000
M3S245
G4 P0.5; Tool Off

G0 Z0; move to z-safe height
G0 X745.1800 Y1.0000
M3S0
G4 P0.5; Tool On
G1 F300 Z0.0000
G1 F15000 X745.1800 Y1209.0000 Z0.0000
M3S245
G4 P0.5; Tool Off

G0 Z0; move to z-safe height
G0 X743.1800 Y1209.0000
M3S0
G4 P0.5; Tool On
G1 F300 Z0.0000
G1 F15000 X743.1800 Y1.0000 Z0.0000
M3S245
G4 P0.5; Tool Off

G0 Z0; move to z-safe height
G0 X741.1800 Y1.0000
M3S0
G4 P0.5; Tool On
G1 F300 Z0.0000
G1 F15000 X741.1800 Y1209.0000 Z0.0000
M3S245
G4 P0.5; Tool Off

G0 Z0; move to z-safe height
G0 X739.1800 Y1209.0000
M3S0
G4 P0.5; Tool On
G1 F300 Z0.0000
G1 F15000 X739.1800 Y1.0000 Z0.0000
M3S245
G4 P0.5; Tool Off

G0 Z0; move to z-safe height
G0 X737.1800 Y1.0000
M3S0
G4 P0.5; Tool On
G1 F300 Z0.0000
G1 F15000 X737.1800 Y1209.0000 Z0.0000
M3S245
G4 P0.5; Tool Off

G0 Z0; move to z-safe height
G0 X735.1800 Y1209.0000
M3S0
G4 P0.5; Tool On
G1 F300 Z0.0000
G1 F15000 X735.1800 Y1.0000 Z0.0000
M3S245
G4 P0.5; Tool Off

G0 Z0; move to z-safe height
G0 X733.1800 Y1.0000
M3S0
G4 P0.5; Tool On
G1 F300 Z0.0000
G1 F15000 X733.1800 Y1209.0000 Z0.0000
M3S245
G4 P0.5; Tool Off

G0 Z0; move to z-safe height
G0 X731.1800 Y1209.0000
M3S0
G4 P0.5; Tool On
G1 F300 Z0.0000
G1 F15000 X731.1800 Y1.0000 Z0.0000
M3S245
G4 P0.5; Tool Off

G0 Z0; move to z-safe height
G0 X729.1800 Y1.0000
M3S0
G4 P0.5; Tool On
G1 F300 Z0.0000
G1 F15000 X729.1800 Y1209.0000 Z0.0000
M3S245
G4 P0.5; Tool Off

G0 Z0; move to z-safe height
G0 X727.1800 Y1209.0000
M3S0
G4 P0.5; Tool On
G1 F300 Z0.0000
G1 F15000 X727.1800 Y1.0000 Z0.0000
M3S245
G4 P0.5; Tool Off

G0 Z0; move to z-safe height
G0 X725.1800 Y1.0000
M3S0
G4 P0.5; Tool On
G1 F300 Z0.0000
G1 F15000 X725.1800 Y1209.0000 Z0.0000
M3S245
G4 P0.5; Tool Off

G0 Z0; move to z-safe height
G0 X723.1800 Y1209.0000
M3S0
G4 P0.5; Tool On
G1 F300 Z0.0000
G1 F15000 X723.1800 Y1.0000 Z0.0000
M3S245
G4 P0.5; Tool Off

G0 Z0; move to z-safe height
G0 X721.1800 Y1.0000
M3S0
G4 P0.5; Tool On
G1 F300 Z0.0000
G1 F15000 X721.1800 Y1209.0000 Z0.0000
M3S245
G4 P0.5; Tool Off

G0 Z0; move to z-safe height
G0 X719.1800 Y1209.0000
M3S0
G4 P0.5; Tool On
G1 F300 Z0.0000
G1 F15000 X719.1800 Y1.0000 Z0.0000
M3S245
G4 P0.5; Tool Off

G0 Z0; move to z-safe height
G0 X717.1800 Y1.0000
M3S0
G4 P0.5; Tool On
G1 F300 Z0.0000
G1 F15000 X717.1800 Y1209.0000 Z0.0000
M3S245
G4 P0.5; Tool Off

G0 Z0; move to z-safe height
G0 X715.1800 Y1209.0000
M3S0
G4 P0.5; Tool On
G1 F300 Z0.0000
G1 F15000 X715.1800 Y1.0000 Z0.0000
M3S245
G4 P0.5; Tool Off

G0 Z0; move to z-safe height
G0 X713.1800 Y1.0000
M3S0
G4 P0.5; Tool On
G1 F300 Z0.0000
G1 F15000 X713.1800 Y1209.0000 Z0.0000
M3S245
G4 P0.5; Tool Off

G0 Z0; move to z-safe height
G0 X711.1800 Y1209.0000
M3S0
G4 P0.5; Tool On
G1 F300 Z0.0000
G1 F15000 X711.1800 Y1.0000 Z0.0000
M3S245
G4 P0.5; Tool Off

G0 Z0; move to z-safe height
G0 X709.1800 Y1.0000
M3S0
G4 P0.5; Tool On
G1 F300 Z0.0000
G1 F15000 X709.1800 Y1209.0000 Z0.0000
M3S245
G4 P0.5; Tool Off

G0 Z0; move to z-safe height
G0 X707.1800 Y1209.0000
M3S0
G4 P0.5; Tool On
G1 F300 Z0.0000
G1 F15000 X707.1800 Y1.0000 Z0.0000
M3S245
G4 P0.5; Tool Off

G0 Z0; move to z-safe height
G0 X705.1800 Y1.0000
M3S0
G4 P0.5; Tool On
G1 F300 Z0.0000
G1 F15000 X705.1800 Y1209.0000 Z0.0000
M3S245
G4 P0.5; Tool Off

G0 Z0; move to z-safe height
G0 X703.1800 Y1209.0000
M3S0
G4 P0.5; Tool On
G1 F300 Z0.0000
G1 F15000 X703.1800 Y1.0000 Z0.0000
M3S245
G4 P0.5; Tool Off

G0 Z0; move to z-safe height
G0 X701.1800 Y1.0000
M3S0
G4 P0.5; Tool On
G1 F300 Z0.0000
G1 F15000 X701.1800 Y1209.0000 Z0.0000
M3S245
G4 P0.5; Tool Off

G0 Z0; move to z-safe height
G0 X699.1800 Y1209.0000
M3S0
G4 P0.5; Tool On
G1 F300 Z0.0000
G1 F15000 X699.1800 Y1.0000 Z0.0000
M3S245
G4 P0.5; Tool Off

G0 Z0; move to z-safe height
G0 X697.1800 Y1.0000
M3S0
G4 P0.5; Tool On
G1 F300 Z0.0000
G1 F15000 X697.1800 Y1209.0000 Z0.0000
M3S245
G4 P0.5; Tool Off

G0 Z0; move to z-safe height
G0 X695.1800 Y1209.0000
M3S0
G4 P0.5; Tool On
G1 F300 Z0.0000
G1 F15000 X695.1800 Y1.0000 Z0.0000
M3S245
G4 P0.5; Tool Off

G0 Z0; move to z-safe height
G0 X693.1800 Y1.0000
M3S0
G4 P0.5; Tool On
G1 F300 Z0.0000
G1 F15000 X693.1800 Y1209.0000 Z0.0000
M3S245
G4 P0.5; Tool Off

G0 Z0; move to z-safe height
G0 X691.1800 Y1209.0000
M3S0
G4 P0.5; Tool On
G1 F300 Z0.0000
G1 F15000 X691.1800 Y1.0000 Z0.0000
M3S245
G4 P0.5; Tool Off

G0 Z0; move to z-safe height
G0 X689.1800 Y1.0000
M3S0
G4 P0.5; Tool On
G1 F300 Z0.0000
G1 F15000 X689.1800 Y1209.0000 Z0.0000
M3S245
G4 P0.5; Tool Off

G0 Z0; move to z-safe height
G0 X687.1800 Y1209.0000
M3S0
G4 P0.5; Tool On
G1 F300 Z0.0000
G1 F15000 X687.1800 Y1.0000 Z0.0000
M3S245
G4 P0.5; Tool Off

G0 Z0; move to z-safe height
G0 X685.1800 Y1.0000
M3S0
G4 P0.5; Tool On
G1 F300 Z0.0000
G1 F15000 X685.1800 Y1209.0000 Z0.0000
M3S245
G4 P0.5; Tool Off

G0 Z0; move to z-safe height
G0 X683.1800 Y1209.0000
M3S0
G4 P0.5; Tool On
G1 F300 Z0.0000
G1 F15000 X683.1800 Y1.0000 Z0.0000
M3S245
G4 P0.5; Tool Off

G0 Z0; move to z-safe height
G0 X681.1800 Y1.0000
M3S0
G4 P0.5; Tool On
G1 F300 Z0.0000
G1 F15000 X681.1800 Y1209.0000 Z0.0000
M3S245
G4 P0.5; Tool Off

G0 Z0; move to z-safe height
G0 X679.1800 Y1209.0000
M3S0
G4 P0.5; Tool On
G1 F300 Z0.0000
G1 F15000 X679.1800 Y1.0000 Z0.0000
M3S245
G4 P0.5; Tool Off

G0 Z0; move to z-safe height
G0 X677.1800 Y1.0000
M3S0
G4 P0.5; Tool On
G1 F300 Z0.0000
G1 F15000 X677.1800 Y1209.0000 Z0.0000
M3S245
G4 P0.5; Tool Off

G0 Z0; move to z-safe height
G0 X675.1800 Y1209.0000
M3S0
G4 P0.5; Tool On
G1 F300 Z0.0000
G1 F15000 X675.1800 Y1.0000 Z0.0000
M3S245
G4 P0.5; Tool Off

G0 Z0; move to z-safe height
G0 X673.1800 Y1.0000
M3S0
G4 P0.5; Tool On
G1 F300 Z0.0000
G1 F15000 X673.1800 Y1209.0000 Z0.0000
M3S245
G4 P0.5; Tool Off

G0 Z0; move to z-safe height
G0 X671.1800 Y1209.0000
M3S0
G4 P0.5; Tool On
G1 F300 Z0.0000
G1 F15000 X671.1800 Y1.0000 Z0.0000
M3S245
G4 P0.5; Tool Off

G0 Z0; move to z-safe height
G0 X669.1800 Y1.0000
M3S0
G4 P0.5; Tool On
G1 F300 Z0.0000
G1 F15000 X669.1800 Y1209.0000 Z0.0000
M3S245
G4 P0.5; Tool Off

G0 Z0; move to z-safe height
G0 X667.1800 Y1209.0000
M3S0
G4 P0.5; Tool On
G1 F300 Z0.0000
G1 F15000 X667.1800 Y1.0000 Z0.0000
M3S245
G4 P0.5; Tool Off

G0 Z0; move to z-safe height
G0 X665.1800 Y1.0000
M3S0
G4 P0.5; Tool On
G1 F300 Z0.0000
G1 F15000 X665.1800 Y1209.0000 Z0.0000
M3S245
G4 P0.5; Tool Off

G0 Z0; move to z-safe height
G0 X663.1800 Y1209.0000
M3S0
G4 P0.5; Tool On
G1 F300 Z0.0000
G1 F15000 X663.1800 Y1.0000 Z0.0000
M3S245
G4 P0.5; Tool Off

G0 Z0; move to z-safe height
G0 X661.1800 Y1.0000
M3S0
G4 P0.5; Tool On
G1 F300 Z0.0000
G1 F15000 X661.1800 Y1209.0000 Z0.0000
M3S245
G4 P0.5; Tool Off

G0 Z0; move to z-safe height
G0 X659.1800 Y1209.0000
M3S0
G4 P0.5; Tool On
G1 F300 Z0.0000
G1 F15000 X659.1800 Y1.0000 Z0.0000
M3S245
G4 P0.5; Tool Off

G0 Z0; move to z-safe height
G0 X657.1800 Y1.0000
M3S0
G4 P0.5; Tool On
G1 F300 Z0.0000
G1 F15000 X657.1800 Y1209.0000 Z0.0000
M3S245
G4 P0.5; Tool Off

G0 Z0; move to z-safe height
G0 X655.1800 Y1209.0000
M3S0
G4 P0.5; Tool On
G1 F300 Z0.0000
G1 F15000 X655.1800 Y1.0000 Z0.0000
M3S245
G4 P0.5; Tool Off

G0 Z0; move to z-safe height
G0 X653.1800 Y1.0000
M3S0
G4 P0.5; Tool On
G1 F300 Z0.0000
G1 F15000 X653.1800 Y1209.0000 Z0.0000
M3S245
G4 P0.5; Tool Off

G0 Z0; move to z-safe height
G0 X651.1800 Y1209.0000
M3S0
G4 P0.5; Tool On
G1 F300 Z0.0000
G1 F15000 X651.1800 Y1.0000 Z0.0000
M3S245
G4 P0.5; Tool Off

G0 Z0; move to z-safe height
G0 X649.1800 Y1.0000
M3S0
G4 P0.5; Tool On
G1 F300 Z0.0000
G1 F15000 X649.1800 Y1209.0000 Z0.0000
M3S245
G4 P0.5; Tool Off

G0 Z0; move to z-safe height
G0 X647.1800 Y1209.0000
M3S0
G4 P0.5; Tool On
G1 F300 Z0.0000
G1 F15000 X647.1800 Y1.0000 Z0.0000
M3S245
G4 P0.5; Tool Off

G0 Z0; move to z-safe height
G0 X645.1800 Y1.0000
M3S0
G4 P0.5; Tool On
G1 F300 Z0.0000
G1 F15000 X645.1800 Y1209.0000 Z0.0000
M3S245
G4 P0.5; Tool Off

G0 Z0; move to z-safe height
G0 X643.1800 Y1209.0000
M3S0
G4 P0.5; Tool On
G1 F300 Z0.0000
G1 F15000 X643.1800 Y1.0000 Z0.0000
M3S245
G4 P0.5; Tool Off

G0 Z0; move to z-safe height
G0 X641.1800 Y1.0000
M3S0
G4 P0.5; Tool On
G1 F300 Z0.0000
G1 F15000 X641.1800 Y1209.0000 Z0.0000
M3S245
G4 P0.5; Tool Off

G0 Z0; move to z-safe height
G0 X639.1800 Y1209.0000
M3S0
G4 P0.5; Tool On
G1 F300 Z0.0000
G1 F15000 X639.1800 Y1.0000 Z0.0000
M3S245
G4 P0.5; Tool Off

G0 Z0; move to z-safe height
G0 X637.1800 Y1.0000
M3S0
G4 P0.5; Tool On
G1 F300 Z0.0000
G1 F15000 X637.1800 Y1209.0000 Z0.0000
M3S245
G4 P0.5; Tool Off

G0 Z0; move to z-safe height
G0 X635.1800 Y1209.0000
M3S0
G4 P0.5; Tool On
G1 F300 Z0.0000
G1 F15000 X635.1800 Y1.0000 Z0.0000
M3S245
G4 P0.5; Tool Off

G0 Z0; move to z-safe height
G0 X633.1800 Y1.0000
M3S0
G4 P0.5; Tool On
G1 F300 Z0.0000
G1 F15000 X633.1800 Y1209.0000 Z0.0000
M3S245
G4 P0.5; Tool Off

G0 Z0; move to z-safe height
G0 X631.1800 Y1209.0000
M3S0
G4 P0.5; Tool On
G1 F300 Z0.0000
G1 F15000 X631.1800 Y1.0000 Z0.0000
M3S245
G4 P0.5; Tool Off

G0 Z0; move to z-safe height
G0 X629.1800 Y1.0000
M3S0
G4 P0.5; Tool On
G1 F300 Z0.0000
G1 F15000 X629.1800 Y1209.0000 Z0.0000
M3S245
G4 P0.5; Tool Off

G0 Z0; move to z-safe height
G0 X627.1800 Y1209.0000
M3S0
G4 P0.5; Tool On
G1 F300 Z0.0000
G1 F15000 X627.1800 Y1.0000 Z0.0000
M3S245
G4 P0.5; Tool Off

G0 Z0; move to z-safe height
G0 X625.1800 Y1.0000
M3S0
G4 P0.5; Tool On
G1 F300 Z0.0000
G1 F15000 X625.1800 Y1209.0000 Z0.0000
M3S245
G4 P0.5; Tool Off

G0 Z0; move to z-safe height
G0 X623.1800 Y1209.0000
M3S0
G4 P0.5; Tool On
G1 F300 Z0.0000
G1 F15000 X623.1800 Y1.0000 Z0.0000
M3S245
G4 P0.5; Tool Off

G0 Z0; move to z-safe height
G0 X621.1800 Y1.0000
M3S0
G4 P0.5; Tool On
G1 F300 Z0.0000
G1 F15000 X621.1800 Y1209.0000 Z0.0000
M3S245
G4 P0.5; Tool Off

G0 Z0; move to z-safe height
G0 X619.1800 Y1209.0000
M3S0
G4 P0.5; Tool On
G1 F300 Z0.0000
G1 F15000 X619.1800 Y1.0000 Z0.0000
M3S245
G4 P0.5; Tool Off

G0 Z0; move to z-safe height
G0 X617.1800 Y1.0000
M3S0
G4 P0.5; Tool On
G1 F300 Z0.0000
G1 F15000 X617.1800 Y1209.0000 Z0.0000
M3S245
G4 P0.5; Tool Off

G0 Z0; move to z-safe height
G0 X615.1800 Y1209.0000
M3S0
G4 P0.5; Tool On
G1 F300 Z0.0000
G1 F15000 X615.1800 Y1.0000 Z0.0000
M3S245
G4 P0.5; Tool Off

G0 Z0; move to z-safe height
G0 X613.1800 Y1.0000
M3S0
G4 P0.5; Tool On
G1 F300 Z0.0000
G1 F15000 X613.1800 Y1209.0000 Z0.0000
M3S245
G4 P0.5; Tool Off

G0 Z0; move to z-safe height
G0 X611.1800 Y1209.0000
M3S0
G4 P0.5; Tool On
G1 F300 Z0.0000
G1 F15000 X611.1800 Y1.0000 Z0.0000
M3S245
G4 P0.5; Tool Off

G0 Z0; move to z-safe height
G0 X609.1800 Y1.0000
M3S0
G4 P0.5; Tool On
G1 F300 Z0.0000
G1 F15000 X609.1800 Y1209.0000 Z0.0000
M3S245
G4 P0.5; Tool Off

G0 Z0; move to z-safe height
G0 X607.1800 Y1209.0000
M3S0
G4 P0.5; Tool On
G1 F300 Z0.0000
G1 F15000 X607.1800 Y1.0000 Z0.0000
M3S245
G4 P0.5; Tool Off

G0 Z0; move to z-safe height
G0 X605.1800 Y1.0000
M3S0
G4 P0.5; Tool On
G1 F300 Z0.0000
G1 F15000 X605.1800 Y1209.0000 Z0.0000
M3S245
G4 P0.5; Tool Off

G0 Z0; move to z-safe height
G0 X603.1800 Y1209.0000
M3S0
G4 P0.5; Tool On
G1 F300 Z0.0000
G1 F15000 X603.1800 Y1.0000 Z0.0000
M3S245
G4 P0.5; Tool Off

G0 Z0; move to z-safe height
G0 X601.1800 Y1.0000
M3S0
G4 P0.5; Tool On
G1 F300 Z0.0000
G1 F15000 X601.1800 Y1209.0000 Z0.0000
M3S245
G4 P0.5; Tool Off

G0 Z0; move to z-safe height
G0 X599.1800 Y1209.0000
M3S0
G4 P0.5; Tool On
G1 F300 Z0.0000
G1 F15000 X599.1800 Y1.0000 Z0.0000
M3S245
G4 P0.5; Tool Off

G0 Z0; move to z-safe height
G0 X597.1800 Y1.0000
M3S0
G4 P0.5; Tool On
G1 F300 Z0.0000
G1 F15000 X597.1800 Y1209.0000 Z0.0000
M3S245
G4 P0.5; Tool Off

G0 Z0; move to z-safe height
G0 X595.1800 Y1209.0000
M3S0
G4 P0.5; Tool On
G1 F300 Z0.0000
G1 F15000 X595.1800 Y1.0000 Z0.0000
M3S245
G4 P0.5; Tool Off

G0 Z0; move to z-safe height
G0 X593.1800 Y1.0000
M3S0
G4 P0.5; Tool On
G1 F300 Z0.0000
G1 F15000 X593.1800 Y1209.0000 Z0.0000
M3S245
G4 P0.5; Tool Off

G0 Z0; move to z-safe height
G0 X591.1800 Y1209.0000
M3S0
G4 P0.5; Tool On
G1 F300 Z0.0000
G1 F15000 X591.1800 Y1.0000 Z0.0000
M3S245
G4 P0.5; Tool Off

G0 Z0; move to z-safe height
G0 X589.1800 Y1.0000
M3S0
G4 P0.5; Tool On
G1 F300 Z0.0000
G1 F15000 X589.1800 Y1209.0000 Z0.0000
M3S245
G4 P0.5; Tool Off

G0 Z0; move to z-safe height
G0 X587.1800 Y1209.0000
M3S0
G4 P0.5; Tool On
G1 F300 Z0.0000
G1 F15000 X587.1800 Y1.0000 Z0.0000
M3S245
G4 P0.5; Tool Off

G0 Z0; move to z-safe height
G0 X585.1800 Y1.0000
M3S0
G4 P0.5; Tool On
G1 F300 Z0.0000
G1 F15000 X585.1800 Y1209.0000 Z0.0000
M3S245
G4 P0.5; Tool Off

G0 Z0; move to z-safe height
G0 X583.1800 Y1209.0000
M3S0
G4 P0.5; Tool On
G1 F300 Z0.0000
G1 F15000 X583.1800 Y1.0000 Z0.0000
M3S245
G4 P0.5; Tool Off

G0 Z0; move to z-safe height
G0 X581.1800 Y1.0000
M3S0
G4 P0.5; Tool On
G1 F300 Z0.0000
G1 F15000 X581.1800 Y1209.0000 Z0.0000
M3S245
G4 P0.5; Tool Off

G0 Z0; move to z-safe height
G0 X579.1800 Y1209.0000
M3S0
G4 P0.5; Tool On
G1 F300 Z0.0000
G1 F15000 X579.1800 Y1.0000 Z0.0000
M3S245
G4 P0.5; Tool Off

G0 Z0; move to z-safe height
G0 X577.1800 Y1.0000
M3S0
G4 P0.5; Tool On
G1 F300 Z0.0000
G1 F15000 X577.1800 Y1209.0000 Z0.0000
M3S245
G4 P0.5; Tool Off

G0 Z0; move to z-safe height
G0 X575.1800 Y1209.0000
M3S0
G4 P0.5; Tool On
G1 F300 Z0.0000
G1 F15000 X575.1800 Y1.0000 Z0.0000
M3S245
G4 P0.5; Tool Off

G0 Z0; move to z-safe height
G0 X573.1800 Y1.0000
M3S0
G4 P0.5; Tool On
G1 F300 Z0.0000
G1 F15000 X573.1800 Y1209.0000 Z0.0000
M3S245
G4 P0.5; Tool Off

G0 Z0; move to z-safe height
G0 X571.1800 Y1209.0000
M3S0
G4 P0.5; Tool On
G1 F300 Z0.0000
G1 F15000 X571.1800 Y1.0000 Z0.0000
M3S245
G4 P0.5; Tool Off

G0 Z0; move to z-safe height
G0 X569.1800 Y1.0000
M3S0
G4 P0.5; Tool On
G1 F300 Z0.0000
G1 F15000 X569.1800 Y1209.0000 Z0.0000
M3S245
G4 P0.5; Tool Off

G0 Z0; move to z-safe height
G0 X567.1800 Y1209.0000
M3S0
G4 P0.5; Tool On
G1 F300 Z0.0000
G1 F15000 X567.1800 Y1.0000 Z0.0000
M3S245
G4 P0.5; Tool Off

G0 Z0; move to z-safe height
G0 X565.1800 Y1.0000
M3S0
G4 P0.5; Tool On
G1 F300 Z0.0000
G1 F15000 X565.1800 Y1209.0000 Z0.0000
M3S245
G4 P0.5; Tool Off

G0 Z0; move to z-safe height
G0 X563.1800 Y1209.0000
M3S0
G4 P0.5; Tool On
G1 F300 Z0.0000
G1 F15000 X563.1800 Y1.0000 Z0.0000
M3S245
G4 P0.5; Tool Off

G0 Z0; move to z-safe height
G0 X561.1800 Y1.0000
M3S0
G4 P0.5; Tool On
G1 F300 Z0.0000
G1 F15000 X561.1800 Y1209.0000 Z0.0000
M3S245
G4 P0.5; Tool Off

G0 Z0; move to z-safe height
G0 X559.1800 Y1209.0000
M3S0
G4 P0.5; Tool On
G1 F300 Z0.0000
G1 F15000 X559.1800 Y1.0000 Z0.0000
M3S245
G4 P0.5; Tool Off

G0 Z0; move to z-safe height
G0 X557.1800 Y1.0000
M3S0
G4 P0.5; Tool On
G1 F300 Z0.0000
G1 F15000 X557.1800 Y1209.0000 Z0.0000
M3S245
G4 P0.5; Tool Off

G0 Z0; move to z-safe height
G0 X555.1800 Y1209.0000
M3S0
G4 P0.5; Tool On
G1 F300 Z0.0000
G1 F15000 X555.1800 Y1.0000 Z0.0000
M3S245
G4 P0.5; Tool Off

G0 Z0; move to z-safe height
G0 X553.1800 Y1.0000
M3S0
G4 P0.5; Tool On
G1 F300 Z0.0000
G1 F15000 X553.1800 Y1209.0000 Z0.0000
M3S245
G4 P0.5; Tool Off

G0 Z0; move to z-safe height
G0 X551.1800 Y1209.0000
M3S0
G4 P0.5; Tool On
G1 F300 Z0.0000
G1 F15000 X551.1800 Y1.0000 Z0.0000
M3S245
G4 P0.5; Tool Off

G0 Z0; move to z-safe height
G0 X549.1800 Y1.0000
M3S0
G4 P0.5; Tool On
G1 F300 Z0.0000
G1 F15000 X549.1800 Y1209.0000 Z0.0000
M3S245
G4 P0.5; Tool Off

G0 Z0; move to z-safe height
G0 X547.1800 Y1209.0000
M3S0
G4 P0.5; Tool On
G1 F300 Z0.0000
G1 F15000 X547.1800 Y1.0000 Z0.0000
M3S245
G4 P0.5; Tool Off

G0 Z0; move to z-safe height
G0 X545.1800 Y1.0000
M3S0
G4 P0.5; Tool On
G1 F300 Z0.0000
G1 F15000 X545.1800 Y1209.0000 Z0.0000
M3S245
G4 P0.5; Tool Off

G0 Z0; move to z-safe height
G0 X543.1800 Y1209.0000
M3S0
G4 P0.5; Tool On
G1 F300 Z0.0000
G1 F15000 X543.1800 Y1.0000 Z0.0000
M3S245
G4 P0.5; Tool Off

G0 Z0; move to z-safe height
G0 X541.1800 Y1.0000
M3S0
G4 P0.5; Tool On
G1 F300 Z0.0000
G1 F15000 X541.1800 Y1209.0000 Z0.0000
M3S245
G4 P0.5; Tool Off

G0 Z0; move to z-safe height
G0 X539.1800 Y1209.0000
M3S0
G4 P0.5; Tool On
G1 F300 Z0.0000
G1 F15000 X539.1800 Y1.0000 Z0.0000
M3S245
G4 P0.5; Tool Off

G0 Z0; move to z-safe height
G0 X537.1800 Y1.0000
M3S0
G4 P0.5; Tool On
G1 F300 Z0.0000
G1 F15000 X537.1800 Y1209.0000 Z0.0000
M3S245
G4 P0.5; Tool Off

G0 Z0; move to z-safe height
G0 X535.1800 Y1209.0000
M3S0
G4 P0.5; Tool On
G1 F300 Z0.0000
G1 F15000 X535.1800 Y1.0000 Z0.0000
M3S245
G4 P0.5; Tool Off

G0 Z0; move to z-safe height
G0 X533.1800 Y1.0000
M3S0
G4 P0.5; Tool On
G1 F300 Z0.0000
G1 F15000 X533.1800 Y1209.0000 Z0.0000
M3S245
G4 P0.5; Tool Off

G0 Z0; move to z-safe height
G0 X531.1800 Y1209.0000
M3S0
G4 P0.5; Tool On
G1 F300 Z0.0000
G1 F15000 X531.1800 Y1.0000 Z0.0000
M3S245
G4 P0.5; Tool Off

G0 Z0; move to z-safe height
G0 X529.1800 Y1.0000
M3S0
G4 P0.5; Tool On
G1 F300 Z0.0000
G1 F15000 X529.1800 Y1209.0000 Z0.0000
M3S245
G4 P0.5; Tool Off

G0 Z0; move to z-safe height
G0 X527.1800 Y1209.0000
M3S0
G4 P0.5; Tool On
G1 F300 Z0.0000
G1 F15000 X527.1800 Y1.0000 Z0.0000
M3S245
G4 P0.5; Tool Off

G0 Z0; move to z-safe height
G0 X525.1800 Y1.0000
M3S0
G4 P0.5; Tool On
G1 F300 Z0.0000
G1 F15000 X525.1800 Y1209.0000 Z0.0000
M3S245
G4 P0.5; Tool Off

G0 Z0; move to z-safe height
G0 X523.1800 Y1209.0000
M3S0
G4 P0.5; Tool On
G1 F300 Z0.0000
G1 F15000 X523.1800 Y1.0000 Z0.0000
M3S245
G4 P0.5; Tool Off

G0 Z0; move to z-safe height
G0 X521.1800 Y1.0000
M3S0
G4 P0.5; Tool On
G1 F300 Z0.0000
G1 F15000 X521.1800 Y1209.0000 Z0.0000
M3S245
G4 P0.5; Tool Off

G0 Z0; move to z-safe height
G0 X519.1800 Y1209.0000
M3S0
G4 P0.5; Tool On
G1 F300 Z0.0000
G1 F15000 X519.1800 Y1.0000 Z0.0000
M3S245
G4 P0.5; Tool Off

G0 Z0; move to z-safe height
G0 X517.1800 Y1.0000
M3S0
G4 P0.5; Tool On
G1 F300 Z0.0000
G1 F15000 X517.1800 Y1209.0000 Z0.0000
M3S245
G4 P0.5; Tool Off

G0 Z0; move to z-safe height
G0 X515.1800 Y1209.0000
M3S0
G4 P0.5; Tool On
G1 F300 Z0.0000
G1 F15000 X515.1800 Y1.0000 Z0.0000
M3S245
G4 P0.5; Tool Off

G0 Z0; move to z-safe height
G0 X513.1800 Y1.0000
M3S0
G4 P0.5; Tool On
G1 F300 Z0.0000
G1 F15000 X513.1800 Y1209.0000 Z0.0000
M3S245
G4 P0.5; Tool Off

G0 Z0; move to z-safe height
G0 X511.1800 Y1209.0000
M3S0
G4 P0.5; Tool On
G1 F300 Z0.0000
G1 F15000 X511.1800 Y1.0000 Z0.0000
M3S245
G4 P0.5; Tool Off

G0 Z0; move to z-safe height
G0 X509.1800 Y1.0000
M3S0
G4 P0.5; Tool On
G1 F300 Z0.0000
G1 F15000 X509.1800 Y1209.0000 Z0.0000
M3S245
G4 P0.5; Tool Off

G0 Z0; move to z-safe height
G0 X507.1800 Y1209.0000
M3S0
G4 P0.5; Tool On
G1 F300 Z0.0000
G1 F15000 X507.1800 Y1.0000 Z0.0000
M3S245
G4 P0.5; Tool Off

G0 Z0; move to z-safe height
G0 X505.1800 Y1.0000
M3S0
G4 P0.5; Tool On
G1 F300 Z0.0000
G1 F15000 X505.1800 Y1209.0000 Z0.0000
M3S245
G4 P0.5; Tool Off

G0 Z0; move to z-safe height
G0 X503.1800 Y1209.0000
M3S0
G4 P0.5; Tool On
G1 F300 Z0.0000
G1 F15000 X503.1800 Y1.0000 Z0.0000
M3S245
G4 P0.5; Tool Off

G0 Z0; move to z-safe height
G0 X501.1800 Y1.0000
M3S0
G4 P0.5; Tool On
G1 F300 Z0.0000
G1 F15000 X501.1800 Y1209.0000 Z0.0000
M3S245
G4 P0.5; Tool Off

G0 Z0; move to z-safe height
G0 X499.1800 Y1209.0000
M3S0
G4 P0.5; Tool On
G1 F300 Z0.0000
G1 F15000 X499.1800 Y1.0000 Z0.0000
M3S245
G4 P0.5; Tool Off

G0 Z0; move to z-safe height
G0 X497.1800 Y1.0000
M3S0
G4 P0.5; Tool On
G1 F300 Z0.0000
G1 F15000 X497.1800 Y1209.0000 Z0.0000
M3S245
G4 P0.5; Tool Off

G0 Z0; move to z-safe height
G0 X495.1800 Y1209.0000
M3S0
G4 P0.5; Tool On
G1 F300 Z0.0000
G1 F15000 X495.1800 Y1.0000 Z0.0000
M3S245
G4 P0.5; Tool Off

G0 Z0; move to z-safe height
G0 X493.1800 Y1.0000
M3S0
G4 P0.5; Tool On
G1 F300 Z0.0000
G1 F15000 X493.1800 Y1209.0000 Z0.0000
M3S245
G4 P0.5; Tool Off

G0 Z0; move to z-safe height
G0 X491.1800 Y1209.0000
M3S0
G4 P0.5; Tool On
G1 F300 Z0.0000
G1 F15000 X491.1800 Y1.0000 Z0.0000
M3S245
G4 P0.5; Tool Off

G0 Z0; move to z-safe height
G0 X489.1800 Y1.0000
M3S0
G4 P0.5; Tool On
G1 F300 Z0.0000
G1 F15000 X489.1800 Y1209.0000 Z0.0000
M3S245
G4 P0.5; Tool Off

G0 Z0; move to z-safe height
G0 X487.1800 Y1209.0000
M3S0
G4 P0.5; Tool On
G1 F300 Z0.0000
G1 F15000 X487.1800 Y1.0000 Z0.0000
M3S245
G4 P0.5; Tool Off

G0 Z0; move to z-safe height
G0 X485.1800 Y1.0000
M3S0
G4 P0.5; Tool On
G1 F300 Z0.0000
G1 F15000 X485.1800 Y1209.0000 Z0.0000
M3S245
G4 P0.5; Tool Off

G0 Z0; move to z-safe height
G0 X483.1800 Y1209.0000
M3S0
G4 P0.5; Tool On
G1 F300 Z0.0000
G1 F15000 X483.1800 Y1.0000 Z0.0000
M3S245
G4 P0.5; Tool Off

G0 Z0; move to z-safe height
G0 X481.1800 Y1.0000
M3S0
G4 P0.5; Tool On
G1 F300 Z0.0000
G1 F15000 X481.1800 Y1209.0000 Z0.0000
M3S245
G4 P0.5; Tool Off

G0 Z0; move to z-safe height
G0 X479.1800 Y1209.0000
M3S0
G4 P0.5; Tool On
G1 F300 Z0.0000
G1 F15000 X479.1800 Y1.0000 Z0.0000
M3S245
G4 P0.5; Tool Off

G0 Z0; move to z-safe height
G0 X477.1800 Y1.0000
M3S0
G4 P0.5; Tool On
G1 F300 Z0.0000
G1 F15000 X477.1800 Y1209.0000 Z0.0000
M3S245
G4 P0.5; Tool Off

G0 Z0; move to z-safe height
G0 X475.1800 Y1209.0000
M3S0
G4 P0.5; Tool On
G1 F300 Z0.0000
G1 F15000 X475.1800 Y1.0000 Z0.0000
M3S245
G4 P0.5; Tool Off

G0 Z0; move to z-safe height
G0 X473.1800 Y1.0000
M3S0
G4 P0.5; Tool On
G1 F300 Z0.0000
G1 F15000 X473.1800 Y1209.0000 Z0.0000
M3S245
G4 P0.5; Tool Off

G0 Z0; move to z-safe height
G0 X471.1800 Y1209.0000
M3S0
G4 P0.5; Tool On
G1 F300 Z0.0000
G1 F15000 X471.1800 Y1.0000 Z0.0000
M3S245
G4 P0.5; Tool Off

G0 Z0; move to z-safe height
G0 X469.1800 Y1.0000
M3S0
G4 P0.5; Tool On
G1 F300 Z0.0000
G1 F15000 X469.1800 Y1209.0000 Z0.0000
M3S245
G4 P0.5; Tool Off

G0 Z0; move to z-safe height
G0 X467.1800 Y1209.0000
M3S0
G4 P0.5; Tool On
G1 F300 Z0.0000
G1 F15000 X467.1800 Y1.0000 Z0.0000
M3S245
G4 P0.5; Tool Off

G0 Z0; move to z-safe height
G0 X465.1800 Y1.0000
M3S0
G4 P0.5; Tool On
G1 F300 Z0.0000
G1 F15000 X465.1800 Y1209.0000 Z0.0000
M3S245
G4 P0.5; Tool Off

G0 Z0; move to z-safe height
G0 X463.1800 Y1209.0000
M3S0
G4 P0.5; Tool On
G1 F300 Z0.0000
G1 F15000 X463.1800 Y1.0000 Z0.0000
M3S245
G4 P0.5; Tool Off

G0 Z0; move to z-safe height
G0 X461.1800 Y1.0000
M3S0
G4 P0.5; Tool On
G1 F300 Z0.0000
G1 F15000 X461.1800 Y1209.0000 Z0.0000
M3S245
G4 P0.5; Tool Off

G0 Z0; move to z-safe height
G0 X459.1800 Y1209.0000
M3S0
G4 P0.5; Tool On
G1 F300 Z0.0000
G1 F15000 X459.1800 Y1.0000 Z0.0000
M3S245
G4 P0.5; Tool Off

G0 Z0; move to z-safe height
G0 X457.1800 Y1.0000
M3S0
G4 P0.5; Tool On
G1 F300 Z0.0000
G1 F15000 X457.1800 Y1209.0000 Z0.0000
M3S245
G4 P0.5; Tool Off

G0 Z0; move to z-safe height
G0 X455.1800 Y1209.0000
M3S0
G4 P0.5; Tool On
G1 F300 Z0.0000
G1 F15000 X455.1800 Y1.0000 Z0.0000
M3S245
G4 P0.5; Tool Off

G0 Z0; move to z-safe height
G0 X453.1800 Y1.0000
M3S0
G4 P0.5; Tool On
G1 F300 Z0.0000
G1 F15000 X453.1800 Y1209.0000 Z0.0000
M3S245
G4 P0.5; Tool Off

G0 Z0; move to z-safe height
G0 X451.1800 Y1209.0000
M3S0
G4 P0.5; Tool On
G1 F300 Z0.0000
G1 F15000 X451.1800 Y1.0000 Z0.0000
M3S245
G4 P0.5; Tool Off

G0 Z0; move to z-safe height
G0 X449.1800 Y1.0000
M3S0
G4 P0.5; Tool On
G1 F300 Z0.0000
G1 F15000 X449.1800 Y1209.0000 Z0.0000
M3S245
G4 P0.5; Tool Off

G0 Z0; move to z-safe height
G0 X447.1800 Y1209.0000
M3S0
G4 P0.5; Tool On
G1 F300 Z0.0000
G1 F15000 X447.1800 Y1.0000 Z0.0000
M3S245
G4 P0.5; Tool Off

G0 Z0; move to z-safe height
G0 X445.1800 Y1.0000
M3S0
G4 P0.5; Tool On
G1 F300 Z0.0000
G1 F15000 X445.1800 Y1209.0000 Z0.0000
M3S245
G4 P0.5; Tool Off

G0 Z0; move to z-safe height
G0 X443.1800 Y1209.0000
M3S0
G4 P0.5; Tool On
G1 F300 Z0.0000
G1 F15000 X443.1800 Y1.0000 Z0.0000
M3S245
G4 P0.5; Tool Off

G0 Z0; move to z-safe height
G0 X441.1800 Y1.0000
M3S0
G4 P0.5; Tool On
G1 F300 Z0.0000
G1 F15000 X441.1800 Y1209.0000 Z0.0000
M3S245
G4 P0.5; Tool Off

G0 Z0; move to z-safe height
G0 X439.1800 Y1209.0000
M3S0
G4 P0.5; Tool On
G1 F300 Z0.0000
G1 F15000 X439.1800 Y1.0000 Z0.0000
M3S245
G4 P0.5; Tool Off

G0 Z0; move to z-safe height
G0 X437.1800 Y1.0000
M3S0
G4 P0.5; Tool On
G1 F300 Z0.0000
G1 F15000 X437.1800 Y1209.0000 Z0.0000
M3S245
G4 P0.5; Tool Off

G0 Z0; move to z-safe height
G0 X435.1800 Y1209.0000
M3S0
G4 P0.5; Tool On
G1 F300 Z0.0000
G1 F15000 X435.1800 Y1.0000 Z0.0000
M3S245
G4 P0.5; Tool Off

G0 Z0; move to z-safe height
G0 X433.1800 Y1.0000
M3S0
G4 P0.5; Tool On
G1 F300 Z0.0000
G1 F15000 X433.1800 Y1209.0000 Z0.0000
M3S245
G4 P0.5; Tool Off

G0 Z0; move to z-safe height
G0 X431.1800 Y1209.0000
M3S0
G4 P0.5; Tool On
G1 F300 Z0.0000
G1 F15000 X431.1800 Y1.0000 Z0.0000
M3S245
G4 P0.5; Tool Off

G0 Z0; move to z-safe height
G0 X429.1800 Y1.0000
M3S0
G4 P0.5; Tool On
G1 F300 Z0.0000
G1 F15000 X429.1800 Y1209.0000 Z0.0000
M3S245
G4 P0.5; Tool Off

G0 Z0; move to z-safe height
G0 X427.1800 Y1209.0000
M3S0
G4 P0.5; Tool On
G1 F300 Z0.0000
G1 F15000 X427.1800 Y1.0000 Z0.0000
M3S245
G4 P0.5; Tool Off

G0 Z0; move to z-safe height
G0 X425.1800 Y1.0000
M3S0
G4 P0.5; Tool On
G1 F300 Z0.0000
G1 F15000 X425.1800 Y1209.0000 Z0.0000
M3S245
G4 P0.5; Tool Off

G0 Z0; move to z-safe height
G0 X423.1800 Y1209.0000
M3S0
G4 P0.5; Tool On
G1 F300 Z0.0000
G1 F15000 X423.1800 Y1.0000 Z0.0000
M3S245
G4 P0.5; Tool Off

G0 Z0; move to z-safe height
G0 X421.1800 Y1.0000
M3S0
G4 P0.5; Tool On
G1 F300 Z0.0000
G1 F15000 X421.1800 Y1209.0000 Z0.0000
M3S245
G4 P0.5; Tool Off

G0 Z0; move to z-safe height
G0 X419.1800 Y1209.0000
M3S0
G4 P0.5; Tool On
G1 F300 Z0.0000
G1 F15000 X419.1800 Y1.0000 Z0.0000
M3S245
G4 P0.5; Tool Off

G0 Z0; move to z-safe height
G0 X417.1800 Y1.0000
M3S0
G4 P0.5; Tool On
G1 F300 Z0.0000
G1 F15000 X417.1800 Y1209.0000 Z0.0000
M3S245
G4 P0.5; Tool Off

G0 Z0; move to z-safe height
G0 X415.1800 Y1209.0000
M3S0
G4 P0.5; Tool On
G1 F300 Z0.0000
G1 F15000 X415.1800 Y1.0000 Z0.0000
M3S245
G4 P0.5; Tool Off

G0 Z0; move to z-safe height
G0 X413.1800 Y1.0000
M3S0
G4 P0.5; Tool On
G1 F300 Z0.0000
G1 F15000 X413.1800 Y1209.0000 Z0.0000
M3S245
G4 P0.5; Tool Off

G0 Z0; move to z-safe height
G0 X411.1800 Y1209.0000
M3S0
G4 P0.5; Tool On
G1 F300 Z0.0000
G1 F15000 X411.1800 Y1.0000 Z0.0000
M3S245
G4 P0.5; Tool Off

G0 Z0; move to z-safe height
G0 X409.1800 Y1.0000
M3S0
G4 P0.5; Tool On
G1 F300 Z0.0000
G1 F15000 X409.1800 Y1209.0000 Z0.0000
M3S245
G4 P0.5; Tool Off

G0 Z0; move to z-safe height
G0 X407.1800 Y1209.0000
M3S0
G4 P0.5; Tool On
G1 F300 Z0.0000
G1 F15000 X407.1800 Y1.0000 Z0.0000
M3S245
G4 P0.5; Tool Off

G0 Z0; move to z-safe height
G0 X405.1800 Y1.0000
M3S0
G4 P0.5; Tool On
G1 F300 Z0.0000
G1 F15000 X405.1800 Y1209.0000 Z0.0000
M3S245
G4 P0.5; Tool Off

G0 Z0; move to z-safe height
G0 X403.1800 Y1209.0000
M3S0
G4 P0.5; Tool On
G1 F300 Z0.0000
G1 F15000 X403.1800 Y1.0000 Z0.0000
M3S245
G4 P0.5; Tool Off

G0 Z0; move to z-safe height
G0 X401.1800 Y1.0000
M3S0
G4 P0.5; Tool On
G1 F300 Z0.0000
G1 F15000 X401.1800 Y1209.0000 Z0.0000
M3S245
G4 P0.5; Tool Off

G0 Z0; move to z-safe height
G0 X399.1800 Y1209.0000
M3S0
G4 P0.5; Tool On
G1 F300 Z0.0000
G1 F15000 X399.1800 Y1.0000 Z0.0000
M3S245
G4 P0.5; Tool Off

G0 Z0; move to z-safe height
G0 X397.1800 Y1.0000
M3S0
G4 P0.5; Tool On
G1 F300 Z0.0000
G1 F15000 X397.1800 Y1209.0000 Z0.0000
M3S245
G4 P0.5; Tool Off

G0 Z0; move to z-safe height
G0 X395.1800 Y1209.0000
M3S0
G4 P0.5; Tool On
G1 F300 Z0.0000
G1 F15000 X395.1800 Y1.0000 Z0.0000
M3S245
G4 P0.5; Tool Off

G0 Z0; move to z-safe height
G0 X393.1800 Y1.0000
M3S0
G4 P0.5; Tool On
G1 F300 Z0.0000
G1 F15000 X393.1800 Y1209.0000 Z0.0000
M3S245
G4 P0.5; Tool Off

G0 Z0; move to z-safe height
G0 X391.1800 Y1209.0000
M3S0
G4 P0.5; Tool On
G1 F300 Z0.0000
G1 F15000 X391.1800 Y1.0000 Z0.0000
M3S245
G4 P0.5; Tool Off

G0 Z0; move to z-safe height
G0 X389.1800 Y1.0000
M3S0
G4 P0.5; Tool On
G1 F300 Z0.0000
G1 F15000 X389.1800 Y1209.0000 Z0.0000
M3S245
G4 P0.5; Tool Off

G0 Z0; move to z-safe height
G0 X387.1800 Y1209.0000
M3S0
G4 P0.5; Tool On
G1 F300 Z0.0000
G1 F15000 X387.1800 Y1.0000 Z0.0000
M3S245
G4 P0.5; Tool Off

G0 Z0; move to z-safe height
G0 X385.1800 Y1.0000
M3S0
G4 P0.5; Tool On
G1 F300 Z0.0000
G1 F15000 X385.1800 Y1209.0000 Z0.0000
M3S245
G4 P0.5; Tool Off

G0 Z0; move to z-safe height
G0 X383.1800 Y1209.0000
M3S0
G4 P0.5; Tool On
G1 F300 Z0.0000
G1 F15000 X383.1800 Y1.0000 Z0.0000
M3S245
G4 P0.5; Tool Off

G0 Z0; move to z-safe height
G0 X381.1800 Y1.0000
M3S0
G4 P0.5; Tool On
G1 F300 Z0.0000
G1 F15000 X381.1800 Y1209.0000 Z0.0000
M3S245
G4 P0.5; Tool Off

G0 Z0; move to z-safe height
G0 X379.1800 Y1209.0000
M3S0
G4 P0.5; Tool On
G1 F300 Z0.0000
G1 F15000 X379.1800 Y1.0000 Z0.0000
M3S245
G4 P0.5; Tool Off

G0 Z0; move to z-safe height
G0 X377.1800 Y1.0000
M3S0
G4 P0.5; Tool On
G1 F300 Z0.0000
G1 F15000 X377.1800 Y1209.0000 Z0.0000
M3S245
G4 P0.5; Tool Off

G0 Z0; move to z-safe height
G0 X375.1800 Y1209.0000
M3S0
G4 P0.5; Tool On
G1 F300 Z0.0000
G1 F15000 X375.1800 Y1.0000 Z0.0000
M3S245
G4 P0.5; Tool Off

G0 Z0; move to z-safe height
G0 X373.1800 Y1.0000
M3S0
G4 P0.5; Tool On
G1 F300 Z0.0000
G1 F15000 X373.1800 Y1209.0000 Z0.0000
M3S245
G4 P0.5; Tool Off

G0 Z0; move to z-safe height
G0 X371.1800 Y1209.0000
M3S0
G4 P0.5; Tool On
G1 F300 Z0.0000
G1 F15000 X371.1800 Y1.0000 Z0.0000
M3S245
G4 P0.5; Tool Off

G0 Z0; move to z-safe height
G0 X369.1800 Y1.0000
M3S0
G4 P0.5; Tool On
G1 F300 Z0.0000
G1 F15000 X369.1800 Y1209.0000 Z0.0000
M3S245
G4 P0.5; Tool Off

G0 Z0; move to z-safe height
G0 X367.1800 Y1209.0000
M3S0
G4 P0.5; Tool On
G1 F300 Z0.0000
G1 F15000 X367.1800 Y1.0000 Z0.0000
M3S245
G4 P0.5; Tool Off

G0 Z0; move to z-safe height
G0 X365.1800 Y1.0000
M3S0
G4 P0.5; Tool On
G1 F300 Z0.0000
G1 F15000 X365.1800 Y1209.0000 Z0.0000
M3S245
G4 P0.5; Tool Off

G0 Z0; move to z-safe height
G0 X363.1800 Y1209.0000
M3S0
G4 P0.5; Tool On
G1 F300 Z0.0000
G1 F15000 X363.1800 Y1.0000 Z0.0000
M3S245
G4 P0.5; Tool Off

G0 Z0; move to z-safe height
G0 X361.1800 Y1.0000
M3S0
G4 P0.5; Tool On
G1 F300 Z0.0000
G1 F15000 X361.1800 Y1209.0000 Z0.0000
M3S245
G4 P0.5; Tool Off

G0 Z0; move to z-safe height
G0 X359.1800 Y1209.0000
M3S0
G4 P0.5; Tool On
G1 F300 Z0.0000
G1 F15000 X359.1800 Y1.0000 Z0.0000
M3S245
G4 P0.5; Tool Off

G0 Z0; move to z-safe height
G0 X357.1800 Y1.0000
M3S0
G4 P0.5; Tool On
G1 F300 Z0.0000
G1 F15000 X357.1800 Y1209.0000 Z0.0000
M3S245
G4 P0.5; Tool Off

G0 Z0; move to z-safe height
G0 X355.1800 Y1209.0000
M3S0
G4 P0.5; Tool On
G1 F300 Z0.0000
G1 F15000 X355.1800 Y1.0000 Z0.0000
M3S245
G4 P0.5; Tool Off

G0 Z0; move to z-safe height
G0 X353.1800 Y1.0000
M3S0
G4 P0.5; Tool On
G1 F300 Z0.0000
G1 F15000 X353.1800 Y1209.0000 Z0.0000
M3S245
G4 P0.5; Tool Off

G0 Z0; move to z-safe height
G0 X351.1800 Y1209.0000
M3S0
G4 P0.5; Tool On
G1 F300 Z0.0000
G1 F15000 X351.1800 Y1.0000 Z0.0000
M3S245
G4 P0.5; Tool Off

G0 Z0; move to z-safe height
G0 X349.1800 Y1.0000
M3S0
G4 P0.5; Tool On
G1 F300 Z0.0000
G1 F15000 X349.1800 Y1209.0000 Z0.0000
M3S245
G4 P0.5; Tool Off

G0 Z0; move to z-safe height
G0 X347.1800 Y1209.0000
M3S0
G4 P0.5; Tool On
G1 F300 Z0.0000
G1 F15000 X347.1800 Y1.0000 Z0.0000
M3S245
G4 P0.5; Tool Off

G0 Z0; move to z-safe height
G0 X345.1800 Y1.0000
M3S0
G4 P0.5; Tool On
G1 F300 Z0.0000
G1 F15000 X345.1800 Y1209.0000 Z0.0000
M3S245
G4 P0.5; Tool Off

G0 Z0; move to z-safe height
G0 X343.1800 Y1209.0000
M3S0
G4 P0.5; Tool On
G1 F300 Z0.0000
G1 F15000 X343.1800 Y1.0000 Z0.0000
M3S245
G4 P0.5; Tool Off

G0 Z0; move to z-safe height
G0 X341.1800 Y1.0000
M3S0
G4 P0.5; Tool On
G1 F300 Z0.0000
G1 F15000 X341.1800 Y1209.0000 Z0.0000
M3S245
G4 P0.5; Tool Off

G0 Z0; move to z-safe height
G0 X339.1800 Y1209.0000
M3S0
G4 P0.5; Tool On
G1 F300 Z0.0000
G1 F15000 X339.1800 Y1.0000 Z0.0000
M3S245
G4 P0.5; Tool Off

G0 Z0; move to z-safe height
G0 X337.1800 Y1.0000
M3S0
G4 P0.5; Tool On
G1 F300 Z0.0000
G1 F15000 X337.1800 Y1209.0000 Z0.0000
M3S245
G4 P0.5; Tool Off

G0 Z0; move to z-safe height
G0 X335.1800 Y1209.0000
M3S0
G4 P0.5; Tool On
G1 F300 Z0.0000
G1 F15000 X335.1800 Y1.0000 Z0.0000
M3S245
G4 P0.5; Tool Off

G0 Z0; move to z-safe height
G0 X333.1800 Y1.0000
M3S0
G4 P0.5; Tool On
G1 F300 Z0.0000
G1 F15000 X333.1800 Y1209.0000 Z0.0000
M3S245
G4 P0.5; Tool Off

G0 Z0; move to z-safe height
G0 X331.1800 Y1209.0000
M3S0
G4 P0.5; Tool On
G1 F300 Z0.0000
G1 F15000 X331.1800 Y1.0000 Z0.0000
M3S245
G4 P0.5; Tool Off

G0 Z0; move to z-safe height
G0 X329.1800 Y1.0000
M3S0
G4 P0.5; Tool On
G1 F300 Z0.0000
G1 F15000 X329.1800 Y1209.0000 Z0.0000
M3S245
G4 P0.5; Tool Off

G0 Z0; move to z-safe height
G0 X327.1800 Y1209.0000
M3S0
G4 P0.5; Tool On
G1 F300 Z0.0000
G1 F15000 X327.1800 Y1.0000 Z0.0000
M3S245
G4 P0.5; Tool Off

G0 Z0; move to z-safe height
G0 X325.1800 Y1.0000
M3S0
G4 P0.5; Tool On
G1 F300 Z0.0000
G1 F15000 X325.1800 Y1209.0000 Z0.0000
M3S245
G4 P0.5; Tool Off

G0 Z0; move to z-safe height
G0 X323.1800 Y1209.0000
M3S0
G4 P0.5; Tool On
G1 F300 Z0.0000
G1 F15000 X323.1800 Y1.0000 Z0.0000
M3S245
G4 P0.5; Tool Off

G0 Z0; move to z-safe height
G0 X321.1800 Y1.0000
M3S0
G4 P0.5; Tool On
G1 F300 Z0.0000
G1 F15000 X321.1800 Y1209.0000 Z0.0000
M3S245
G4 P0.5; Tool Off

G0 Z0; move to z-safe height
G0 X319.1800 Y1209.0000
M3S0
G4 P0.5; Tool On
G1 F300 Z0.0000
G1 F15000 X319.1800 Y1.0000 Z0.0000
M3S245
G4 P0.5; Tool Off

G0 Z0; move to z-safe height
G0 X317.1800 Y1.0000
M3S0
G4 P0.5; Tool On
G1 F300 Z0.0000
G1 F15000 X317.1800 Y1209.0000 Z0.0000
M3S245
G4 P0.5; Tool Off

G0 Z0; move to z-safe height
G0 X315.1800 Y1209.0000
M3S0
G4 P0.5; Tool On
G1 F300 Z0.0000
G1 F15000 X315.1800 Y1.0000 Z0.0000
M3S245
G4 P0.5; Tool Off

G0 Z0; move to z-safe height
G0 X313.1800 Y1.0000
M3S0
G4 P0.5; Tool On
G1 F300 Z0.0000
G1 F15000 X313.1800 Y1209.0000 Z0.0000
M3S245
G4 P0.5; Tool Off

G0 Z0; move to z-safe height
G0 X311.1800 Y1209.0000
M3S0
G4 P0.5; Tool On
G1 F300 Z0.0000
G1 F15000 X311.1800 Y1.0000 Z0.0000
M3S245
G4 P0.5; Tool Off

G0 Z0; move to z-safe height
G0 X309.1800 Y1.0000
M3S0
G4 P0.5; Tool On
G1 F300 Z0.0000
G1 F15000 X309.1800 Y1209.0000 Z0.0000
M3S245
G4 P0.5; Tool Off

G0 Z0; move to z-safe height
G0 X307.1800 Y1209.0000
M3S0
G4 P0.5; Tool On
G1 F300 Z0.0000
G1 F15000 X307.1800 Y1.0000 Z0.0000
M3S245
G4 P0.5; Tool Off

G0 Z0; move to z-safe height
G0 X305.1800 Y1.0000
M3S0
G4 P0.5; Tool On
G1 F300 Z0.0000
G1 F15000 X305.1800 Y1209.0000 Z0.0000
M3S245
G4 P0.5; Tool Off

G0 Z0; move to z-safe height
G0 X303.1800 Y1209.0000
M3S0
G4 P0.5; Tool On
G1 F300 Z0.0000
G1 F15000 X303.1800 Y1.0000 Z0.0000
M3S245
G4 P0.5; Tool Off

G0 Z0; move to z-safe height
G0 X301.1800 Y1.0000
M3S0
G4 P0.5; Tool On
G1 F300 Z0.0000
G1 F15000 X301.1800 Y1209.0000 Z0.0000
M3S245
G4 P0.5; Tool Off

G0 Z0; move to z-safe height
G0 X299.1800 Y1209.0000
M3S0
G4 P0.5; Tool On
G1 F300 Z0.0000
G1 F15000 X299.1800 Y1.0000 Z0.0000
M3S245
G4 P0.5; Tool Off

G0 Z0; move to z-safe height
G0 X297.1800 Y1.0000
M3S0
G4 P0.5; Tool On
G1 F300 Z0.0000
G1 F15000 X297.1800 Y1209.0000 Z0.0000
M3S245
G4 P0.5; Tool Off

G0 Z0; move to z-safe height
G0 X295.1800 Y1209.0000
M3S0
G4 P0.5; Tool On
G1 F300 Z0.0000
G1 F15000 X295.1800 Y1.0000 Z0.0000
M3S245
G4 P0.5; Tool Off

G0 Z0; move to z-safe height
G0 X293.1800 Y1.0000
M3S0
G4 P0.5; Tool On
G1 F300 Z0.0000
G1 F15000 X293.1800 Y1209.0000 Z0.0000
M3S245
G4 P0.5; Tool Off

G0 Z0; move to z-safe height
G0 X291.1800 Y1209.0000
M3S0
G4 P0.5; Tool On
G1 F300 Z0.0000
G1 F15000 X291.1800 Y1.0000 Z0.0000
M3S245
G4 P0.5; Tool Off

G0 Z0; move to z-safe height
G0 X289.1800 Y1.0000
M3S0
G4 P0.5; Tool On
G1 F300 Z0.0000
G1 F15000 X289.1800 Y1209.0000 Z0.0000
M3S245
G4 P0.5; Tool Off

G0 Z0; move to z-safe height
G0 X287.1800 Y1209.0000
M3S0
G4 P0.5; Tool On
G1 F300 Z0.0000
G1 F15000 X287.1800 Y1.0000 Z0.0000
M3S245
G4 P0.5; Tool Off

G0 Z0; move to z-safe height
G0 X285.1800 Y1.0000
M3S0
G4 P0.5; Tool On
G1 F300 Z0.0000
G1 F15000 X285.1800 Y1209.0000 Z0.0000
M3S245
G4 P0.5; Tool Off

G0 Z0; move to z-safe height
G0 X283.1800 Y1209.0000
M3S0
G4 P0.5; Tool On
G1 F300 Z0.0000
G1 F15000 X283.1800 Y1.0000 Z0.0000
M3S245
G4 P0.5; Tool Off

G0 Z0; move to z-safe height
G0 X281.1800 Y1.0000
M3S0
G4 P0.5; Tool On
G1 F300 Z0.0000
G1 F15000 X281.1800 Y1209.0000 Z0.0000
M3S245
G4 P0.5; Tool Off

G0 Z0; move to z-safe height
G0 X279.1800 Y1209.0000
M3S0
G4 P0.5; Tool On
G1 F300 Z0.0000
G1 F15000 X279.1800 Y1.0000 Z0.0000
M3S245
G4 P0.5; Tool Off

G0 Z0; move to z-safe height
G0 X277.1800 Y1.0000
M3S0
G4 P0.5; Tool On
G1 F300 Z0.0000
G1 F15000 X277.1800 Y1209.0000 Z0.0000
M3S245
G4 P0.5; Tool Off

G0 Z0; move to z-safe height
G0 X275.1800 Y1209.0000
M3S0
G4 P0.5; Tool On
G1 F300 Z0.0000
G1 F15000 X275.1800 Y1.0000 Z0.0000
M3S245
G4 P0.5; Tool Off

G0 Z0; move to z-safe height
G0 X273.1800 Y1.0000
M3S0
G4 P0.5; Tool On
G1 F300 Z0.0000
G1 F15000 X273.1800 Y1209.0000 Z0.0000
M3S245
G4 P0.5; Tool Off

G0 Z0; move to z-safe height
G0 X271.1800 Y1209.0000
M3S0
G4 P0.5; Tool On
G1 F300 Z0.0000
G1 F15000 X271.1800 Y1.0000 Z0.0000
M3S245
G4 P0.5; Tool Off

G0 Z0; move to z-safe height
G0 X269.1800 Y1.0000
M3S0
G4 P0.5; Tool On
G1 F300 Z0.0000
G1 F15000 X269.1800 Y1209.0000 Z0.0000
M3S245
G4 P0.5; Tool Off

G0 Z0; move to z-safe height
G0 X267.1800 Y1209.0000
M3S0
G4 P0.5; Tool On
G1 F300 Z0.0000
G1 F15000 X267.1800 Y1.0000 Z0.0000
M3S245
G4 P0.5; Tool Off

G0 Z0; move to z-safe height
G0 X265.1800 Y1.0000
M3S0
G4 P0.5; Tool On
G1 F300 Z0.0000
G1 F15000 X265.1800 Y1209.0000 Z0.0000
M3S245
G4 P0.5; Tool Off

G0 Z0; move to z-safe height
G0 X263.1800 Y1209.0000
M3S0
G4 P0.5; Tool On
G1 F300 Z0.0000
G1 F15000 X263.1800 Y1.0000 Z0.0000
M3S245
G4 P0.5; Tool Off

G0 Z0; move to z-safe height
G0 X261.1800 Y1.0000
M3S0
G4 P0.5; Tool On
G1 F300 Z0.0000
G1 F15000 X261.1800 Y1209.0000 Z0.0000
M3S245
G4 P0.5; Tool Off

G0 Z0; move to z-safe height
G0 X259.1800 Y1209.0000
M3S0
G4 P0.5; Tool On
G1 F300 Z0.0000
G1 F15000 X259.1800 Y1.0000 Z0.0000
M3S245
G4 P0.5; Tool Off

G0 Z0; move to z-safe height
G0 X257.1800 Y1.0000
M3S0
G4 P0.5; Tool On
G1 F300 Z0.0000
G1 F15000 X257.1800 Y1209.0000 Z0.0000
M3S245
G4 P0.5; Tool Off

G0 Z0; move to z-safe height
G0 X255.1800 Y1209.0000
M3S0
G4 P0.5; Tool On
G1 F300 Z0.0000
G1 F15000 X255.1800 Y1.0000 Z0.0000
M3S245
G4 P0.5; Tool Off

G0 Z0; move to z-safe height
G0 X253.1800 Y1.0000
M3S0
G4 P0.5; Tool On
G1 F300 Z0.0000
G1 F15000 X253.1800 Y1209.0000 Z0.0000
M3S245
G4 P0.5; Tool Off

G0 Z0; move to z-safe height
G0 X251.1800 Y1209.0000
M3S0
G4 P0.5; Tool On
G1 F300 Z0.0000
G1 F15000 X251.1800 Y1.0000 Z0.0000
M3S245
G4 P0.5; Tool Off

G0 Z0; move to z-safe height
G0 X249.1800 Y1.0000
M3S0
G4 P0.5; Tool On
G1 F300 Z0.0000
G1 F15000 X249.1800 Y1209.0000 Z0.0000
M3S245
G4 P0.5; Tool Off

G0 Z0; move to z-safe height
G0 X247.1800 Y1209.0000
M3S0
G4 P0.5; Tool On
G1 F300 Z0.0000
G1 F15000 X247.1800 Y1.0000 Z0.0000
M3S245
G4 P0.5; Tool Off

G0 Z0; move to z-safe height
G0 X245.1800 Y1.0000
M3S0
G4 P0.5; Tool On
G1 F300 Z0.0000
G1 F15000 X245.1800 Y1209.0000 Z0.0000
M3S245
G4 P0.5; Tool Off

G0 Z0; move to z-safe height
G0 X243.1800 Y1209.0000
M3S0
G4 P0.5; Tool On
G1 F300 Z0.0000
G1 F15000 X243.1800 Y1.0000 Z0.0000
M3S245
G4 P0.5; Tool Off

G0 Z0; move to z-safe height
G0 X241.1800 Y1.0000
M3S0
G4 P0.5; Tool On
G1 F300 Z0.0000
G1 F15000 X241.1800 Y1209.0000 Z0.0000
M3S245
G4 P0.5; Tool Off

G0 Z0; move to z-safe height
G0 X239.1800 Y1209.0000
M3S0
G4 P0.5; Tool On
G1 F300 Z0.0000
G1 F15000 X239.1800 Y1.0000 Z0.0000
M3S245
G4 P0.5; Tool Off

G0 Z0; move to z-safe height
G0 X237.1800 Y1.0000
M3S0
G4 P0.5; Tool On
G1 F300 Z0.0000
G1 F15000 X237.1800 Y1209.0000 Z0.0000
M3S245
G4 P0.5; Tool Off

G0 Z0; move to z-safe height
G0 X235.1800 Y1209.0000
M3S0
G4 P0.5; Tool On
G1 F300 Z0.0000
G1 F15000 X235.1800 Y1.0000 Z0.0000
M3S245
G4 P0.5; Tool Off

G0 Z0; move to z-safe height
G0 X233.1800 Y1.0000
M3S0
G4 P0.5; Tool On
G1 F300 Z0.0000
G1 F15000 X233.1800 Y1209.0000 Z0.0000
M3S245
G4 P0.5; Tool Off

G0 Z0; move to z-safe height
G0 X231.1800 Y1209.0000
M3S0
G4 P0.5; Tool On
G1 F300 Z0.0000
G1 F15000 X231.1800 Y1.0000 Z0.0000
M3S245
G4 P0.5; Tool Off

G0 Z0; move to z-safe height
G0 X229.1800 Y1.0000
M3S0
G4 P0.5; Tool On
G1 F300 Z0.0000
G1 F15000 X229.1800 Y1209.0000 Z0.0000
M3S245
G4 P0.5; Tool Off

G0 Z0; move to z-safe height
G0 X227.1800 Y1209.0000
M3S0
G4 P0.5; Tool On
G1 F300 Z0.0000
G1 F15000 X227.1800 Y1.0000 Z0.0000
M3S245
G4 P0.5; Tool Off

G0 Z0; move to z-safe height
G0 X225.1800 Y1.0000
M3S0
G4 P0.5; Tool On
G1 F300 Z0.0000
G1 F15000 X225.1800 Y1209.0000 Z0.0000
M3S245
G4 P0.5; Tool Off

G0 Z0; move to z-safe height
G0 X223.1800 Y1209.0000
M3S0
G4 P0.5; Tool On
G1 F300 Z0.0000
G1 F15000 X223.1800 Y1.0000 Z0.0000
M3S245
G4 P0.5; Tool Off

G0 Z0; move to z-safe height
G0 X221.1800 Y1.0000
M3S0
G4 P0.5; Tool On
G1 F300 Z0.0000
G1 F15000 X221.1800 Y1209.0000 Z0.0000
M3S245
G4 P0.5; Tool Off

G0 Z0; move to z-safe height
G0 X219.1800 Y1209.0000
M3S0
G4 P0.5; Tool On
G1 F300 Z0.0000
G1 F15000 X219.1800 Y1.0000 Z0.0000
M3S245
G4 P0.5; Tool Off

G0 Z0; move to z-safe height
G0 X217.1800 Y1.0000
M3S0
G4 P0.5; Tool On
G1 F300 Z0.0000
G1 F15000 X217.1800 Y1209.0000 Z0.0000
M3S245
G4 P0.5; Tool Off

G0 Z0; move to z-safe height
G0 X215.1800 Y1209.0000
M3S0
G4 P0.5; Tool On
G1 F300 Z0.0000
G1 F15000 X215.1800 Y1.0000 Z0.0000
M3S245
G4 P0.5; Tool Off

G0 Z0; move to z-safe height
G0 X213.1800 Y1.0000
M3S0
G4 P0.5; Tool On
G1 F300 Z0.0000
G1 F15000 X213.1800 Y1209.0000 Z0.0000
M3S245
G4 P0.5; Tool Off

G0 Z0; move to z-safe height
G0 X211.1800 Y1209.0000
M3S0
G4 P0.5; Tool On
G1 F300 Z0.0000
G1 F15000 X211.1800 Y1.0000 Z0.0000
M3S245
G4 P0.5; Tool Off

G0 Z0; move to z-safe height
G0 X209.1800 Y1.0000
M3S0
G4 P0.5; Tool On
G1 F300 Z0.0000
G1 F15000 X209.1800 Y1209.0000 Z0.0000
M3S245
G4 P0.5; Tool Off

G0 Z0; move to z-safe height
G0 X207.1800 Y1209.0000
M3S0
G4 P0.5; Tool On
G1 F300 Z0.0000
G1 F15000 X207.1800 Y1.0000 Z0.0000
M3S245
G4 P0.5; Tool Off

G0 Z0; move to z-safe height
G0 X205.1800 Y1.0000
M3S0
G4 P0.5; Tool On
G1 F300 Z0.0000
G1 F15000 X205.1800 Y1209.0000 Z0.0000
M3S245
G4 P0.5; Tool Off

G0 Z0; move to z-safe height
G0 X203.1800 Y1209.0000
M3S0
G4 P0.5; Tool On
G1 F300 Z0.0000
G1 F15000 X203.1800 Y1.0000 Z0.0000
M3S245
G4 P0.5; Tool Off

G0 Z0; move to z-safe height
G0 X201.1800 Y1.0000
M3S0
G4 P0.5; Tool On
G1 F300 Z0.0000
G1 F15000 X201.1800 Y1209.0000 Z0.0000
M3S245
G4 P0.5; Tool Off

G0 Z0; move to z-safe height
G0 X199.1800 Y1209.0000
M3S0
G4 P0.5; Tool On
G1 F300 Z0.0000
G1 F15000 X199.1800 Y1.0000 Z0.0000
M3S245
G4 P0.5; Tool Off

G0 Z0; move to z-safe height
G0 X197.1800 Y1.0000
M3S0
G4 P0.5; Tool On
G1 F300 Z0.0000
G1 F15000 X197.1800 Y1209.0000 Z0.0000
M3S245
G4 P0.5; Tool Off

G0 Z0; move to z-safe height
G0 X195.1800 Y1209.0000
M3S0
G4 P0.5; Tool On
G1 F300 Z0.0000
G1 F15000 X195.1800 Y1.0000 Z0.0000
M3S245
G4 P0.5; Tool Off

G0 Z0; move to z-safe height
G0 X193.1800 Y1.0000
M3S0
G4 P0.5; Tool On
G1 F300 Z0.0000
G1 F15000 X193.1800 Y1209.0000 Z0.0000
M3S245
G4 P0.5; Tool Off

G0 Z0; move to z-safe height
G0 X191.1800 Y1209.0000
M3S0
G4 P0.5; Tool On
G1 F300 Z0.0000
G1 F15000 X191.1800 Y1.0000 Z0.0000
M3S245
G4 P0.5; Tool Off

G0 Z0; move to z-safe height
G0 X189.1800 Y1.0000
M3S0
G4 P0.5; Tool On
G1 F300 Z0.0000
G1 F15000 X189.1800 Y1209.0000 Z0.0000
M3S245
G4 P0.5; Tool Off

G0 Z0; move to z-safe height
G0 X187.1800 Y1209.0000
M3S0
G4 P0.5; Tool On
G1 F300 Z0.0000
G1 F15000 X187.1800 Y1.0000 Z0.0000
M3S245
G4 P0.5; Tool Off

G0 Z0; move to z-safe height
G0 X185.1800 Y1.0000
M3S0
G4 P0.5; Tool On
G1 F300 Z0.0000
G1 F15000 X185.1800 Y1209.0000 Z0.0000
M3S245
G4 P0.5; Tool Off

G0 Z0; move to z-safe height
G0 X183.1800 Y1209.0000
M3S0
G4 P0.5; Tool On
G1 F300 Z0.0000
G1 F15000 X183.1800 Y1.0000 Z0.0000
M3S245
G4 P0.5; Tool Off

G0 Z0; move to z-safe height
G0 X181.1800 Y1.0000
M3S0
G4 P0.5; Tool On
G1 F300 Z0.0000
G1 F15000 X181.1800 Y1209.0000 Z0.0000
M3S245
G4 P0.5; Tool Off

G0 Z0; move to z-safe height
G0 X179.1800 Y1209.0000
M3S0
G4 P0.5; Tool On
G1 F300 Z0.0000
G1 F15000 X179.1800 Y1.0000 Z0.0000
M3S245
G4 P0.5; Tool Off

G0 Z0; move to z-safe height
G0 X177.1800 Y1.0000
M3S0
G4 P0.5; Tool On
G1 F300 Z0.0000
G1 F15000 X177.1800 Y1209.0000 Z0.0000
M3S245
G4 P0.5; Tool Off

G0 Z0; move to z-safe height
G0 X175.1800 Y1209.0000
M3S0
G4 P0.5; Tool On
G1 F300 Z0.0000
G1 F15000 X175.1800 Y1.0000 Z0.0000
M3S245
G4 P0.5; Tool Off

G0 Z0; move to z-safe height
G0 X173.1800 Y1.0000
M3S0
G4 P0.5; Tool On
G1 F300 Z0.0000
G1 F15000 X173.1800 Y1209.0000 Z0.0000
M3S245
G4 P0.5; Tool Off

G0 Z0; move to z-safe height
G0 X171.1800 Y1209.0000
M3S0
G4 P0.5; Tool On
G1 F300 Z0.0000
G1 F15000 X171.1800 Y1.0000 Z0.0000
M3S245
G4 P0.5; Tool Off

G0 Z0; move to z-safe height
G0 X169.1800 Y1.0000
M3S0
G4 P0.5; Tool On
G1 F300 Z0.0000
G1 F15000 X169.1800 Y1209.0000 Z0.0000
M3S245
G4 P0.5; Tool Off

G0 Z0; move to z-safe height
G0 X167.1800 Y1209.0000
M3S0
G4 P0.5; Tool On
G1 F300 Z0.0000
G1 F15000 X167.1800 Y1.0000 Z0.0000
M3S245
G4 P0.5; Tool Off

G0 Z0; move to z-safe height
G0 X165.1800 Y1.0000
M3S0
G4 P0.5; Tool On
G1 F300 Z0.0000
G1 F15000 X165.1800 Y1209.0000 Z0.0000
M3S245
G4 P0.5; Tool Off

G0 Z0; move to z-safe height
G0 X163.1800 Y1209.0000
M3S0
G4 P0.5; Tool On
G1 F300 Z0.0000
G1 F15000 X163.1800 Y1.0000 Z0.0000
M3S245
G4 P0.5; Tool Off

G0 Z0; move to z-safe height
G0 X161.1800 Y1.0000
M3S0
G4 P0.5; Tool On
G1 F300 Z0.0000
G1 F15000 X161.1800 Y1209.0000 Z0.0000
M3S245
G4 P0.5; Tool Off

G0 Z0; move to z-safe height
G0 X159.1800 Y1209.0000
M3S0
G4 P0.5; Tool On
G1 F300 Z0.0000
G1 F15000 X159.1800 Y1.0000 Z0.0000
M3S245
G4 P0.5; Tool Off

G0 Z0; move to z-safe height
G0 X157.1800 Y1.0000
M3S0
G4 P0.5; Tool On
G1 F300 Z0.0000
G1 F15000 X157.1800 Y1209.0000 Z0.0000
M3S245
G4 P0.5; Tool Off

G0 Z0; move to z-safe height
G0 X155.1800 Y1209.0000
M3S0
G4 P0.5; Tool On
G1 F300 Z0.0000
G1 F15000 X155.1800 Y1.0000 Z0.0000
M3S245
G4 P0.5; Tool Off

G0 Z0; move to z-safe height
G0 X153.1800 Y1.0000
M3S0
G4 P0.5; Tool On
G1 F300 Z0.0000
G1 F15000 X153.1800 Y1209.0000 Z0.0000
M3S245
G4 P0.5; Tool Off

G0 Z0; move to z-safe height
G0 X151.1800 Y1209.0000
M3S0
G4 P0.5; Tool On
G1 F300 Z0.0000
G1 F15000 X151.1800 Y1.0000 Z0.0000
M3S245
G4 P0.5; Tool Off

G0 Z0; move to z-safe height
G0 X149.1800 Y1.0000
M3S0
G4 P0.5; Tool On
G1 F300 Z0.0000
G1 F15000 X149.1800 Y1209.0000 Z0.0000
M3S245
G4 P0.5; Tool Off

G0 Z0; move to z-safe height
G0 X147.1800 Y1209.0000
M3S0
G4 P0.5; Tool On
G1 F300 Z0.0000
G1 F15000 X147.1800 Y1.0000 Z0.0000
M3S245
G4 P0.5; Tool Off

G0 Z0; move to z-safe height
G0 X145.1800 Y1.0000
M3S0
G4 P0.5; Tool On
G1 F300 Z0.0000
G1 F15000 X145.1800 Y1209.0000 Z0.0000
M3S245
G4 P0.5; Tool Off

G0 Z0; move to z-safe height
G0 X143.1800 Y1209.0000
M3S0
G4 P0.5; Tool On
G1 F300 Z0.0000
G1 F15000 X143.1800 Y1.0000 Z0.0000
M3S245
G4 P0.5; Tool Off

G0 Z0; move to z-safe height
G0 X141.1800 Y1.0000
M3S0
G4 P0.5; Tool On
G1 F300 Z0.0000
G1 F15000 X141.1800 Y1209.0000 Z0.0000
M3S245
G4 P0.5; Tool Off

G0 Z0; move to z-safe height
G0 X139.1800 Y1209.0000
M3S0
G4 P0.5; Tool On
G1 F300 Z0.0000
G1 F15000 X139.1800 Y1.0000 Z0.0000
M3S245
G4 P0.5; Tool Off

G0 Z0; move to z-safe height
G0 X137.1800 Y1.0000
M3S0
G4 P0.5; Tool On
G1 F300 Z0.0000
G1 F15000 X137.1800 Y1209.0000 Z0.0000
M3S245
G4 P0.5; Tool Off

G0 Z0; move to z-safe height
G0 X135.1800 Y1209.0000
M3S0
G4 P0.5; Tool On
G1 F300 Z0.0000
G1 F15000 X135.1800 Y1.0000 Z0.0000
M3S245
G4 P0.5; Tool Off

G0 Z0; move to z-safe height
G0 X133.1800 Y1.0000
M3S0
G4 P0.5; Tool On
G1 F300 Z0.0000
G1 F15000 X133.1800 Y1209.0000 Z0.0000
M3S245
G4 P0.5; Tool Off

G0 Z0; move to z-safe height
G0 X131.1800 Y1209.0000
M3S0
G4 P0.5; Tool On
G1 F300 Z0.0000
G1 F15000 X131.1800 Y1.0000 Z0.0000
M3S245
G4 P0.5; Tool Off

G0 Z0; move to z-safe height
G0 X129.1800 Y1.0000
M3S0
G4 P0.5; Tool On
G1 F300 Z0.0000
G1 F15000 X129.1800 Y1209.0000 Z0.0000
M3S245
G4 P0.5; Tool Off

G0 Z0; move to z-safe height
G0 X127.1800 Y1209.0000
M3S0
G4 P0.5; Tool On
G1 F300 Z0.0000
G1 F15000 X127.1800 Y1.0000 Z0.0000
M3S245
G4 P0.5; Tool Off

G0 Z0; move to z-safe height
G0 X125.1800 Y1.0000
M3S0
G4 P0.5; Tool On
G1 F300 Z0.0000
G1 F15000 X125.1800 Y1209.0000 Z0.0000
M3S245
G4 P0.5; Tool Off

G0 Z0; move to z-safe height
G0 X123.1800 Y1209.0000
M3S0
G4 P0.5; Tool On
G1 F300 Z0.0000
G1 F15000 X123.1800 Y1.0000 Z0.0000
M3S245
G4 P0.5; Tool Off

G0 Z0; move to z-safe height
G0 X121.1800 Y1.0000
M3S0
G4 P0.5; Tool On
G1 F300 Z0.0000
G1 F15000 X121.1800 Y1209.0000 Z0.0000
M3S245
G4 P0.5; Tool Off

G0 Z0; move to z-safe height
G0 X119.1800 Y1209.0000
M3S0
G4 P0.5; Tool On
G1 F300 Z0.0000
G1 F15000 X119.1800 Y1.0000 Z0.0000
M3S245
G4 P0.5; Tool Off

G0 Z0; move to z-safe height
G0 X117.1800 Y1.0000
M3S0
G4 P0.5; Tool On
G1 F300 Z0.0000
G1 F15000 X117.1800 Y1209.0000 Z0.0000
M3S245
G4 P0.5; Tool Off

G0 Z0; move to z-safe height
G0 X115.1800 Y1209.0000
M3S0
G4 P0.5; Tool On
G1 F300 Z0.0000
G1 F15000 X115.1800 Y1.0000 Z0.0000
M3S245
G4 P0.5; Tool Off

G0 Z0; move to z-safe height
G0 X113.1800 Y1.0000
M3S0
G4 P0.5; Tool On
G1 F300 Z0.0000
G1 F15000 X113.1800 Y1209.0000 Z0.0000
M3S245
G4 P0.5; Tool Off

G0 Z0; move to z-safe height
G0 X111.1800 Y1209.0000
M3S0
G4 P0.5; Tool On
G1 F300 Z0.0000
G1 F15000 X111.1800 Y1.0000 Z0.0000
M3S245
G4 P0.5; Tool Off

G0 Z0; move to z-safe height
G0 X109.1800 Y1.0000
M3S0
G4 P0.5; Tool On
G1 F300 Z0.0000
G1 F15000 X109.1800 Y1209.0000 Z0.0000
M3S245
G4 P0.5; Tool Off

G0 Z0; move to z-safe height
G0 X107.1800 Y1209.0000
M3S0
G4 P0.5; Tool On
G1 F300 Z0.0000
G1 F15000 X107.1800 Y1.0000 Z0.0000
M3S245
G4 P0.5; Tool Off

G0 Z0; move to z-safe height
G0 X105.1800 Y1.0000
M3S0
G4 P0.5; Tool On
G1 F300 Z0.0000
G1 F15000 X105.1800 Y1209.0000 Z0.0000
M3S245
G4 P0.5; Tool Off

G0 Z0; move to z-safe height
G0 X103.1800 Y1209.0000
M3S0
G4 P0.5; Tool On
G1 F300 Z0.0000
G1 F15000 X103.1800 Y1.0000 Z0.0000
M3S245
G4 P0.5; Tool Off

G0 Z0; move to z-safe height
G0 X101.1800 Y1.0000
M3S0
G4 P0.5; Tool On
G1 F300 Z0.0000
G1 F15000 X101.1800 Y1209.0000 Z0.0000
M3S245
G4 P0.5; Tool Off

G0 Z0; move to z-safe height
G0 X99.1800 Y1209.0000
M3S0
G4 P0.5; Tool On
G1 F300 Z0.0000
G1 F15000 X99.1800 Y1.0000 Z0.0000
M3S245
G4 P0.5; Tool Off

G0 Z0; move to z-safe height
G0 X97.1800 Y1.0000
M3S0
G4 P0.5; Tool On
G1 F300 Z0.0000
G1 F15000 X97.1800 Y1209.0000 Z0.0000
M3S245
G4 P0.5; Tool Off

G0 Z0; move to z-safe height
G0 X95.1800 Y1209.0000
M3S0
G4 P0.5; Tool On
G1 F300 Z0.0000
G1 F15000 X95.1800 Y1.0000 Z0.0000
M3S245
G4 P0.5; Tool Off

G0 Z0; move to z-safe height
G0 X93.1800 Y1.0000
M3S0
G4 P0.5; Tool On
G1 F300 Z0.0000
G1 F15000 X93.1800 Y1209.0000 Z0.0000
M3S245
G4 P0.5; Tool Off

G0 Z0; move to z-safe height
G0 X91.1800 Y1209.0000
M3S0
G4 P0.5; Tool On
G1 F300 Z0.0000
G1 F15000 X91.1800 Y1.0000 Z0.0000
M3S245
G4 P0.5; Tool Off

G0 Z0; move to z-safe height
G0 X89.1800 Y1.0000
M3S0
G4 P0.5; Tool On
G1 F300 Z0.0000
G1 F15000 X89.1800 Y1209.0000 Z0.0000
M3S245
G4 P0.5; Tool Off

G0 Z0; move to z-safe height
G0 X87.1800 Y1209.0000
M3S0
G4 P0.5; Tool On
G1 F300 Z0.0000
G1 F15000 X87.1800 Y1.0000 Z0.0000
M3S245
G4 P0.5; Tool Off

G0 Z0; move to z-safe height
G0 X85.1800 Y1.0000
M3S0
G4 P0.5; Tool On
G1 F300 Z0.0000
G1 F15000 X85.1800 Y1209.0000 Z0.0000
M3S245
G4 P0.5; Tool Off

G0 Z0; move to z-safe height
G0 X83.1800 Y1209.0000
M3S0
G4 P0.5; Tool On
G1 F300 Z0.0000
G1 F15000 X83.1800 Y1.0000 Z0.0000
M3S245
G4 P0.5; Tool Off

G0 Z0; move to z-safe height
G0 X81.1800 Y1.0000
M3S0
G4 P0.5; Tool On
G1 F300 Z0.0000
G1 F15000 X81.1800 Y1209.0000 Z0.0000
M3S245
G4 P0.5; Tool Off

G0 Z0; move to z-safe height
G0 X79.1800 Y1209.0000
M3S0
G4 P0.5; Tool On
G1 F300 Z0.0000
G1 F15000 X79.1800 Y1.0000 Z0.0000
M3S245
G4 P0.5; Tool Off

G0 Z0; move to z-safe height
G0 X77.1800 Y1.0000
M3S0
G4 P0.5; Tool On
G1 F300 Z0.0000
G1 F15000 X77.1800 Y1209.0000 Z0.0000
M3S245
G4 P0.5; Tool Off

G0 Z0; move to z-safe height
G0 X75.1800 Y1209.0000
M3S0
G4 P0.5; Tool On
G1 F300 Z0.0000
G1 F15000 X75.1800 Y1.0000 Z0.0000
M3S245
G4 P0.5; Tool Off

G0 Z0; move to z-safe height
G0 X73.1800 Y1.0000
M3S0
G4 P0.5; Tool On
G1 F300 Z0.0000
G1 F15000 X73.1800 Y1209.0000 Z0.0000
M3S245
G4 P0.5; Tool Off

G0 Z0; move to z-safe height
G0 X71.1800 Y1209.0000
M3S0
G4 P0.5; Tool On
G1 F300 Z0.0000
G1 F15000 X71.1800 Y1.0000 Z0.0000
M3S245
G4 P0.5; Tool Off

G0 Z0; move to z-safe height
G0 X69.1800 Y1.0000
M3S0
G4 P0.5; Tool On
G1 F300 Z0.0000
G1 F15000 X69.1800 Y1209.0000 Z0.0000
M3S245
G4 P0.5; Tool Off

G0 Z0; move to z-safe height
G0 X67.1800 Y1209.0000
M3S0
G4 P0.5; Tool On
G1 F300 Z0.0000
G1 F15000 X67.1800 Y1.0000 Z0.0000
M3S245
G4 P0.5; Tool Off

G0 Z0; move to z-safe height
G0 X65.1800 Y1.0000
M3S0
G4 P0.5; Tool On
G1 F300 Z0.0000
G1 F15000 X65.1800 Y1209.0000 Z0.0000
M3S245
G4 P0.5; Tool Off

G0 Z0; move to z-safe height
G0 X63.1800 Y1209.0000
M3S0
G4 P0.5; Tool On
G1 F300 Z0.0000
G1 F15000 X63.1800 Y1.0000 Z0.0000
M3S245
G4 P0.5; Tool Off

G0 Z0; move to z-safe height
G0 X61.1800 Y1.0000
M3S0
G4 P0.5; Tool On
G1 F300 Z0.0000
G1 F15000 X61.1800 Y1209.0000 Z0.0000
M3S245
G4 P0.5; Tool Off

G0 Z0; move to z-safe height
G0 X59.1800 Y1209.0000
M3S0
G4 P0.5; Tool On
G1 F300 Z0.0000
G1 F15000 X59.1800 Y1.0000 Z0.0000
M3S245
G4 P0.5; Tool Off

G0 Z0; move to z-safe height
G0 X57.1800 Y1.0000
M3S0
G4 P0.5; Tool On
G1 F300 Z0.0000
G1 F15000 X57.1800 Y1209.0000 Z0.0000
M3S245
G4 P0.5; Tool Off

G0 Z0; move to z-safe height
G0 X55.1800 Y1209.0000
M3S0
G4 P0.5; Tool On
G1 F300 Z0.0000
G1 F15000 X55.1800 Y1.0000 Z0.0000
M3S245
G4 P0.5; Tool Off

G0 Z0; move to z-safe height
G0 X53.1800 Y1.0000
M3S0
G4 P0.5; Tool On
G1 F300 Z0.0000
G1 F15000 X53.1800 Y1209.0000 Z0.0000
M3S245
G4 P0.5; Tool Off

G0 Z0; move to z-safe height
G0 X51.1800 Y1209.0000
M3S0
G4 P0.5; Tool On
G1 F300 Z0.0000
G1 F15000 X51.1800 Y1.0000 Z0.0000
M3S245
G4 P0.5; Tool Off

G0 Z0; move to z-safe height
G0 X49.1800 Y1.0000
M3S0
G4 P0.5; Tool On
G1 F300 Z0.0000
G1 F15000 X49.1800 Y1209.0000 Z0.0000
M3S245
G4 P0.5; Tool Off

G0 Z0; move to z-safe height
G0 X47.1800 Y1209.0000
M3S0
G4 P0.5; Tool On
G1 F300 Z0.0000
G1 F15000 X47.1800 Y1.0000 Z0.0000
M3S245
G4 P0.5; Tool Off

G0 Z0; move to z-safe height
G0 X45.1800 Y1.0000
M3S0
G4 P0.5; Tool On
G1 F300 Z0.0000
G1 F15000 X45.1800 Y1209.0000 Z0.0000
M3S245
G4 P0.5; Tool Off

G0 Z0; move to z-safe height
G0 X43.1800 Y1209.0000
M3S0
G4 P0.5; Tool On
G1 F300 Z0.0000
G1 F15000 X43.1800 Y1.0000 Z0.0000
M3S245
G4 P0.5; Tool Off

G0 Z0; move to z-safe height
G0 X41.1800 Y1.0000
M3S0
G4 P0.5; Tool On
G1 F300 Z0.0000
G1 F15000 X41.1800 Y1209.0000 Z0.0000
M3S245
G4 P0.5; Tool Off

G0 Z0; move to z-safe height
G0 X39.1800 Y1209.0000
M3S0
G4 P0.5; Tool On
G1 F300 Z0.0000
G1 F15000 X39.1800 Y1.0000 Z0.0000
M3S245
G4 P0.5; Tool Off

G0 Z0; move to z-safe height
G0 X37.1800 Y1.0000
M3S0
G4 P0.5; Tool On
G1 F300 Z0.0000
G1 F15000 X37.1800 Y1209.0000 Z0.0000
M3S245
G4 P0.5; Tool Off

G0 Z0; move to z-safe height
G0 X35.1800 Y1209.0000
M3S0
G4 P0.5; Tool On
G1 F300 Z0.0000
G1 F15000 X35.1800 Y1.0000 Z0.0000
M3S245
G4 P0.5; Tool Off

G0 Z0; move to z-safe height
G0 X33.1800 Y1.0000
M3S0
G4 P0.5; Tool On
G1 F300 Z0.0000
G1 F15000 X33.1800 Y1209.0000 Z0.0000
M3S245
G4 P0.5; Tool Off

G0 Z0; move to z-safe height
G0 X31.1800 Y1209.0000
M3S0
G4 P0.5; Tool On
G1 F300 Z0.0000
G1 F15000 X31.1800 Y1.0000 Z0.0000
M3S245
G4 P0.5; Tool Off

G0 Z0; move to z-safe height
G0 X29.1800 Y1.0000
M3S0
G4 P0.5; Tool On
G1 F300 Z0.0000
G1 F15000 X29.1800 Y1209.0000 Z0.0000
M3S245
G4 P0.5; Tool Off

G0 Z0; move to z-safe height
G0 X27.1800 Y1209.0000
M3S0
G4 P0.5; Tool On
G1 F300 Z0.0000
G1 F15000 X27.1800 Y1.0000 Z0.0000
M3S245
G4 P0.5; Tool Off

G0 Z0; move to z-safe height
G0 X25.1800 Y1.0000
M3S0
G4 P0.5; Tool On
G1 F300 Z0.0000
G1 F15000 X25.1800 Y1209.0000 Z0.0000
M3S245
G4 P0.5; Tool Off

G0 Z0; move to z-safe height
G0 X23.1800 Y1209.0000
M3S0
G4 P0.5; Tool On
G1 F300 Z0.0000
G1 F15000 X23.1800 Y1.0000 Z0.0000
M3S245
G4 P0.5; Tool Off

G0 Z0; move to z-safe height
G0 X21.1800 Y1.0000
M3S0
G4 P0.5; Tool On
G1 F300 Z0.0000
G1 F15000 X21.1800 Y1209.0000 Z0.0000
M3S245
G4 P0.5; Tool Off

G0 Z0; move to z-safe height
G0 X19.1800 Y1209.0000
M3S0
G4 P0.5; Tool On
G1 F300 Z0.0000
G1 F15000 X19.1800 Y1.0000 Z0.0000
M3S245
G4 P0.5; Tool Off

G0 Z0; move to z-safe height
G0 X17.1800 Y1.0000
M3S0
G4 P0.5; Tool On
G1 F300 Z0.0000
G1 F15000 X17.1800 Y1209.0000 Z0.0000
M3S245
G4 P0.5; Tool Off

G0 Z0; move to z-safe height
G0 X15.1800 Y1209.0000
M3S0
G4 P0.5; Tool On
G1 F300 Z0.0000
G1 F15000 X15.1800 Y1.0000 Z0.0000
M3S245
G4 P0.5; Tool Off

G0 Z0; move to z-safe height
G0 X13.1800 Y1.0000
M3S0
G4 P0.5; Tool On
G1 F300 Z0.0000
G1 F15000 X13.1800 Y1209.0000 Z0.0000
M3S245
G4 P0.5; Tool Off

G0 Z0; move to z-safe height
G0 X11.1800 Y1209.0000
M3S0
G4 P0.5; Tool On
G1 F300 Z0.0000
G1 F15000 X11.1800 Y1.0000 Z0.0000
M3S245
G4 P0.5; Tool Off

G0 Z0; move to z-safe height
G0 X9.1800 Y1.0000
M3S0
G4 P0.5; Tool On
G1 F300 Z0.0000
G1 F15000 X9.1800 Y1209.0000 Z0.0000
M3S245
G4 P0.5; Tool Off

G0 Z0; move to z-safe height
G0 X7.1800 Y1209.0000
M3S0
G4 P0.5; Tool On
G1 F300 Z0.0000
G1 F15000 X7.1800 Y1.0000 Z0.0000
M3S245
G4 P0.5; Tool Off

G0 Z0; move to z-safe height
G0 X5.1800 Y1.0000
M3S0
G4 P0.5; Tool On
G1 F300 Z0.0000
G1 F15000 X5.1800 Y1209.0000 Z0.0000
M3S245
G4 P0.5; Tool Off

G0 Z0; move to z-safe height
G0 X3.1800 Y1209.0000
M3S0
G4 P0.5; Tool On
G1 F300 Z0.0000
G1 F15000 X3.1800 Y1.0000 Z0.0000
M3S245
G4 P0.5; Tool Off

G0 Z0; move to z-safe height
G0 X1.1800 Y1.0000
M3S0
G4 P0.5; Tool On
G1 F300 Z0.0000
G1 F15000 X1.1800 Y1209.0000 Z0.0000
M3S245
G4 P0.5; Tool Off
; retracting back to z-safe
G0 Z0

; Plotter Mode Complete
