; GCODE Generated by cam.openbuilds.com on 2023-06-19 
G21 ; mm-mode
G54; Work Coordinates
G21; mm-mode
G90; Absolute Positioning
; Plotter Mode Active

; Operation 0: Pen Plotter: (lines fill)
; Pen Diameter: 2

G0 Z0; move to z-safe height
G0 F1000 X1198.9400 Y1206.0000
M3S0
G4 P0.5; Tool On
G1 F300 Z0.0000
G1 F15000 X1198.9400 Y4.0000 Z0.0000
M3S245
G4 P0.5; Tool Off

G0 Z0; move to z-safe height
G0 X1190.9400 Y4.0000
M3S0
G4 P0.5; Tool On
G1 F300 Z0.0000
G1 F15000 X1190.9400 Y1206.0000 Z0.0000
M3S245
G4 P0.5; Tool Off

G0 Z0; move to z-safe height
G0 X1182.9400 Y1206.0000
M3S0
G4 P0.5; Tool On
G1 F300 Z0.0000
G1 F15000 X1182.9400 Y4.0000 Z0.0000
M3S245
G4 P0.5; Tool Off

G0 Z0; move to z-safe height
G0 X1174.9400 Y4.0000
M3S0
G4 P0.5; Tool On
G1 F300 Z0.0000
G1 F15000 X1174.9400 Y1206.0000 Z0.0000
M3S245
G4 P0.5; Tool Off

G0 Z0; move to z-safe height
G0 X1166.9400 Y1206.0000
M3S0
G4 P0.5; Tool On
G1 F300 Z0.0000
G1 F15000 X1166.9400 Y4.0000 Z0.0000
M3S245
G4 P0.5; Tool Off

G0 Z0; move to z-safe height
G0 X1158.9400 Y4.0000
M3S0
G4 P0.5; Tool On
G1 F300 Z0.0000
G1 F15000 X1158.9400 Y1206.0000 Z0.0000
M3S245
G4 P0.5; Tool Off

G0 Z0; move to z-safe height
G0 X1150.9400 Y1206.0000
M3S0
G4 P0.5; Tool On
G1 F300 Z0.0000
G1 F15000 X1150.9400 Y4.0000 Z0.0000
M3S245
G4 P0.5; Tool Off

G0 Z0; move to z-safe height
G0 X1142.9400 Y4.0000
M3S0
G4 P0.5; Tool On
G1 F300 Z0.0000
G1 F15000 X1142.9400 Y1206.0000 Z0.0000
M3S245
G4 P0.5; Tool Off

G0 Z0; move to z-safe height
G0 X1134.9400 Y1206.0000
M3S0
G4 P0.5; Tool On
G1 F300 Z0.0000
G1 F15000 X1134.9400 Y4.0000 Z0.0000
M3S245
G4 P0.5; Tool Off

G0 Z0; move to z-safe height
G0 X1126.9400 Y4.0000
M3S0
G4 P0.5; Tool On
G1 F300 Z0.0000
G1 F15000 X1126.9400 Y1206.0000 Z0.0000
M3S245
G4 P0.5; Tool Off

G0 Z0; move to z-safe height
G0 X1118.9400 Y1206.0000
M3S0
G4 P0.5; Tool On
G1 F300 Z0.0000
G1 F15000 X1118.9400 Y4.0000 Z0.0000
M3S245
G4 P0.5; Tool Off

G0 Z0; move to z-safe height
G0 X1110.9400 Y4.0000
M3S0
G4 P0.5; Tool On
G1 F300 Z0.0000
G1 F15000 X1110.9400 Y1206.0000 Z0.0000
M3S245
G4 P0.5; Tool Off

G0 Z0; move to z-safe height
G0 X1102.9400 Y1206.0000
M3S0
G4 P0.5; Tool On
G1 F300 Z0.0000
G1 F15000 X1102.9400 Y4.0000 Z0.0000
M3S245
G4 P0.5; Tool Off

G0 Z0; move to z-safe height
G0 X1094.9400 Y4.0000
M3S0
G4 P0.5; Tool On
G1 F300 Z0.0000
G1 F15000 X1094.9400 Y1206.0000 Z0.0000
M3S245
G4 P0.5; Tool Off

G0 Z0; move to z-safe height
G0 X1086.9400 Y1206.0000
M3S0
G4 P0.5; Tool On
G1 F300 Z0.0000
G1 F15000 X1086.9400 Y4.0000 Z0.0000
M3S245
G4 P0.5; Tool Off

G0 Z0; move to z-safe height
G0 X1078.9400 Y4.0000
M3S0
G4 P0.5; Tool On
G1 F300 Z0.0000
G1 F15000 X1078.9400 Y1206.0000 Z0.0000
M3S245
G4 P0.5; Tool Off

G0 Z0; move to z-safe height
G0 X1070.9400 Y1206.0000
M3S0
G4 P0.5; Tool On
G1 F300 Z0.0000
G1 F15000 X1070.9400 Y4.0000 Z0.0000
M3S245
G4 P0.5; Tool Off

G0 Z0; move to z-safe height
G0 X1062.9400 Y4.0000
M3S0
G4 P0.5; Tool On
G1 F300 Z0.0000
G1 F15000 X1062.9400 Y1206.0000 Z0.0000
M3S245
G4 P0.5; Tool Off

G0 Z0; move to z-safe height
G0 X1054.9400 Y1206.0000
M3S0
G4 P0.5; Tool On
G1 F300 Z0.0000
G1 F15000 X1054.9400 Y4.0000 Z0.0000
M3S245
G4 P0.5; Tool Off

G0 Z0; move to z-safe height
G0 X1046.9400 Y4.0000
M3S0
G4 P0.5; Tool On
G1 F300 Z0.0000
G1 F15000 X1046.9400 Y1206.0000 Z0.0000
M3S245
G4 P0.5; Tool Off

G0 Z0; move to z-safe height
G0 X1038.9400 Y1206.0000
M3S0
G4 P0.5; Tool On
G1 F300 Z0.0000
G1 F15000 X1038.9400 Y4.0000 Z0.0000
M3S245
G4 P0.5; Tool Off

G0 Z0; move to z-safe height
G0 X1030.9400 Y4.0000
M3S0
G4 P0.5; Tool On
G1 F300 Z0.0000
G1 F15000 X1030.9400 Y1206.0000 Z0.0000
M3S245
G4 P0.5; Tool Off

G0 Z0; move to z-safe height
G0 X1022.9400 Y1206.0000
M3S0
G4 P0.5; Tool On
G1 F300 Z0.0000
G1 F15000 X1022.9400 Y4.0000 Z0.0000
M3S245
G4 P0.5; Tool Off

G0 Z0; move to z-safe height
G0 X1014.9400 Y4.0000
M3S0
G4 P0.5; Tool On
G1 F300 Z0.0000
G1 F15000 X1014.9400 Y1206.0000 Z0.0000
M3S245
G4 P0.5; Tool Off

G0 Z0; move to z-safe height
G0 X1006.9400 Y1206.0000
M3S0
G4 P0.5; Tool On
G1 F300 Z0.0000
G1 F15000 X1006.9400 Y4.0000 Z0.0000
M3S245
G4 P0.5; Tool Off

G0 Z0; move to z-safe height
G0 X998.9400 Y4.0000
M3S0
G4 P0.5; Tool On
G1 F300 Z0.0000
G1 F15000 X998.9400 Y1206.0000 Z0.0000
M3S245
G4 P0.5; Tool Off

G0 Z0; move to z-safe height
G0 X990.9400 Y1206.0000
M3S0
G4 P0.5; Tool On
G1 F300 Z0.0000
G1 F15000 X990.9400 Y4.0000 Z0.0000
M3S245
G4 P0.5; Tool Off

G0 Z0; move to z-safe height
G0 X982.9400 Y4.0000
M3S0
G4 P0.5; Tool On
G1 F300 Z0.0000
G1 F15000 X982.9400 Y1206.0000 Z0.0000
M3S245
G4 P0.5; Tool Off

G0 Z0; move to z-safe height
G0 X974.9400 Y1206.0000
M3S0
G4 P0.5; Tool On
G1 F300 Z0.0000
G1 F15000 X974.9400 Y4.0000 Z0.0000
M3S245
G4 P0.5; Tool Off

G0 Z0; move to z-safe height
G0 X966.9400 Y4.0000
M3S0
G4 P0.5; Tool On
G1 F300 Z0.0000
G1 F15000 X966.9400 Y1206.0000 Z0.0000
M3S245
G4 P0.5; Tool Off

G0 Z0; move to z-safe height
G0 X958.9400 Y1206.0000
M3S0
G4 P0.5; Tool On
G1 F300 Z0.0000
G1 F15000 X958.9400 Y4.0000 Z0.0000
M3S245
G4 P0.5; Tool Off

G0 Z0; move to z-safe height
G0 X950.9400 Y4.0000
M3S0
G4 P0.5; Tool On
G1 F300 Z0.0000
G1 F15000 X950.9400 Y1206.0000 Z0.0000
M3S245
G4 P0.5; Tool Off

G0 Z0; move to z-safe height
G0 X942.9400 Y1206.0000
M3S0
G4 P0.5; Tool On
G1 F300 Z0.0000
G1 F15000 X942.9400 Y4.0000 Z0.0000
M3S245
G4 P0.5; Tool Off

G0 Z0; move to z-safe height
G0 X934.9400 Y4.0000
M3S0
G4 P0.5; Tool On
G1 F300 Z0.0000
G1 F15000 X934.9400 Y1206.0000 Z0.0000
M3S245
G4 P0.5; Tool Off

G0 Z0; move to z-safe height
G0 X926.9400 Y1206.0000
M3S0
G4 P0.5; Tool On
G1 F300 Z0.0000
G1 F15000 X926.9400 Y4.0000 Z0.0000
M3S245
G4 P0.5; Tool Off

G0 Z0; move to z-safe height
G0 X918.9400 Y4.0000
M3S0
G4 P0.5; Tool On
G1 F300 Z0.0000
G1 F15000 X918.9400 Y1206.0000 Z0.0000
M3S245
G4 P0.5; Tool Off

G0 Z0; move to z-safe height
G0 X910.9400 Y1206.0000
M3S0
G4 P0.5; Tool On
G1 F300 Z0.0000
G1 F15000 X910.9400 Y4.0000 Z0.0000
M3S245
G4 P0.5; Tool Off

G0 Z0; move to z-safe height
G0 X902.9400 Y4.0000
M3S0
G4 P0.5; Tool On
G1 F300 Z0.0000
G1 F15000 X902.9400 Y1206.0000 Z0.0000
M3S245
G4 P0.5; Tool Off

G0 Z0; move to z-safe height
G0 X894.9400 Y1206.0000
M3S0
G4 P0.5; Tool On
G1 F300 Z0.0000
G1 F15000 X894.9400 Y4.0000 Z0.0000
M3S245
G4 P0.5; Tool Off

G0 Z0; move to z-safe height
G0 X886.9400 Y4.0000
M3S0
G4 P0.5; Tool On
G1 F300 Z0.0000
G1 F15000 X886.9400 Y1206.0000 Z0.0000
M3S245
G4 P0.5; Tool Off

G0 Z0; move to z-safe height
G0 X878.9400 Y1206.0000
M3S0
G4 P0.5; Tool On
G1 F300 Z0.0000
G1 F15000 X878.9400 Y4.0000 Z0.0000
M3S245
G4 P0.5; Tool Off

G0 Z0; move to z-safe height
G0 X870.9400 Y4.0000
M3S0
G4 P0.5; Tool On
G1 F300 Z0.0000
G1 F15000 X870.9400 Y1206.0000 Z0.0000
M3S245
G4 P0.5; Tool Off

G0 Z0; move to z-safe height
G0 X862.9400 Y1206.0000
M3S0
G4 P0.5; Tool On
G1 F300 Z0.0000
G1 F15000 X862.9400 Y4.0000 Z0.0000
M3S245
G4 P0.5; Tool Off

G0 Z0; move to z-safe height
G0 X854.9400 Y4.0000
M3S0
G4 P0.5; Tool On
G1 F300 Z0.0000
G1 F15000 X854.9400 Y1206.0000 Z0.0000
M3S245
G4 P0.5; Tool Off

G0 Z0; move to z-safe height
G0 X846.9400 Y1206.0000
M3S0
G4 P0.5; Tool On
G1 F300 Z0.0000
G1 F15000 X846.9400 Y4.0000 Z0.0000
M3S245
G4 P0.5; Tool Off

G0 Z0; move to z-safe height
G0 X838.9400 Y4.0000
M3S0
G4 P0.5; Tool On
G1 F300 Z0.0000
G1 F15000 X838.9400 Y1206.0000 Z0.0000
M3S245
G4 P0.5; Tool Off

G0 Z0; move to z-safe height
G0 X830.9400 Y1206.0000
M3S0
G4 P0.5; Tool On
G1 F300 Z0.0000
G1 F15000 X830.9400 Y4.0000 Z0.0000
M3S245
G4 P0.5; Tool Off

G0 Z0; move to z-safe height
G0 X822.9400 Y4.0000
M3S0
G4 P0.5; Tool On
G1 F300 Z0.0000
G1 F15000 X822.9400 Y1206.0000 Z0.0000
M3S245
G4 P0.5; Tool Off

G0 Z0; move to z-safe height
G0 X814.9400 Y1206.0000
M3S0
G4 P0.5; Tool On
G1 F300 Z0.0000
G1 F15000 X814.9400 Y4.0000 Z0.0000
M3S245
G4 P0.5; Tool Off

G0 Z0; move to z-safe height
G0 X806.9400 Y4.0000
M3S0
G4 P0.5; Tool On
G1 F300 Z0.0000
G1 F15000 X806.9400 Y1206.0000 Z0.0000
M3S245
G4 P0.5; Tool Off

G0 Z0; move to z-safe height
G0 X798.9400 Y1206.0000
M3S0
G4 P0.5; Tool On
G1 F300 Z0.0000
G1 F15000 X798.9400 Y4.0000 Z0.0000
M3S245
G4 P0.5; Tool Off

G0 Z0; move to z-safe height
G0 X790.9400 Y4.0000
M3S0
G4 P0.5; Tool On
G1 F300 Z0.0000
G1 F15000 X790.9400 Y1206.0000 Z0.0000
M3S245
G4 P0.5; Tool Off

G0 Z0; move to z-safe height
G0 X782.9400 Y1206.0000
M3S0
G4 P0.5; Tool On
G1 F300 Z0.0000
G1 F15000 X782.9400 Y4.0000 Z0.0000
M3S245
G4 P0.5; Tool Off

G0 Z0; move to z-safe height
G0 X774.9400 Y4.0000
M3S0
G4 P0.5; Tool On
G1 F300 Z0.0000
G1 F15000 X774.9400 Y1206.0000 Z0.0000
M3S245
G4 P0.5; Tool Off

G0 Z0; move to z-safe height
G0 X766.9400 Y1206.0000
M3S0
G4 P0.5; Tool On
G1 F300 Z0.0000
G1 F15000 X766.9400 Y4.0000 Z0.0000
M3S245
G4 P0.5; Tool Off

G0 Z0; move to z-safe height
G0 X758.9400 Y4.0000
M3S0
G4 P0.5; Tool On
G1 F300 Z0.0000
G1 F15000 X758.9400 Y1206.0000 Z0.0000
M3S245
G4 P0.5; Tool Off

G0 Z0; move to z-safe height
G0 X750.9400 Y1206.0000
M3S0
G4 P0.5; Tool On
G1 F300 Z0.0000
G1 F15000 X750.9400 Y4.0000 Z0.0000
M3S245
G4 P0.5; Tool Off

G0 Z0; move to z-safe height
G0 X742.9400 Y4.0000
M3S0
G4 P0.5; Tool On
G1 F300 Z0.0000
G1 F15000 X742.9400 Y1206.0000 Z0.0000
M3S245
G4 P0.5; Tool Off

G0 Z0; move to z-safe height
G0 X734.9400 Y1206.0000
M3S0
G4 P0.5; Tool On
G1 F300 Z0.0000
G1 F15000 X734.9400 Y4.0000 Z0.0000
M3S245
G4 P0.5; Tool Off

G0 Z0; move to z-safe height
G0 X726.9400 Y4.0000
M3S0
G4 P0.5; Tool On
G1 F300 Z0.0000
G1 F15000 X726.9400 Y1206.0000 Z0.0000
M3S245
G4 P0.5; Tool Off

G0 Z0; move to z-safe height
G0 X718.9400 Y1206.0000
M3S0
G4 P0.5; Tool On
G1 F300 Z0.0000
G1 F15000 X718.9400 Y4.0000 Z0.0000
M3S245
G4 P0.5; Tool Off

G0 Z0; move to z-safe height
G0 X710.9400 Y4.0000
M3S0
G4 P0.5; Tool On
G1 F300 Z0.0000
G1 F15000 X710.9400 Y1206.0000 Z0.0000
M3S245
G4 P0.5; Tool Off

G0 Z0; move to z-safe height
G0 X702.9400 Y1206.0000
M3S0
G4 P0.5; Tool On
G1 F300 Z0.0000
G1 F15000 X702.9400 Y4.0000 Z0.0000
M3S245
G4 P0.5; Tool Off

G0 Z0; move to z-safe height
G0 X694.9400 Y4.0000
M3S0
G4 P0.5; Tool On
G1 F300 Z0.0000
G1 F15000 X694.9400 Y1206.0000 Z0.0000
M3S245
G4 P0.5; Tool Off

G0 Z0; move to z-safe height
G0 X686.9400 Y1206.0000
M3S0
G4 P0.5; Tool On
G1 F300 Z0.0000
G1 F15000 X686.9400 Y4.0000 Z0.0000
M3S245
G4 P0.5; Tool Off

G0 Z0; move to z-safe height
G0 X678.9400 Y4.0000
M3S0
G4 P0.5; Tool On
G1 F300 Z0.0000
G1 F15000 X678.9400 Y1206.0000 Z0.0000
M3S245
G4 P0.5; Tool Off

G0 Z0; move to z-safe height
G0 X670.9400 Y1206.0000
M3S0
G4 P0.5; Tool On
G1 F300 Z0.0000
G1 F15000 X670.9400 Y4.0000 Z0.0000
M3S245
G4 P0.5; Tool Off

G0 Z0; move to z-safe height
G0 X662.9400 Y4.0000
M3S0
G4 P0.5; Tool On
G1 F300 Z0.0000
G1 F15000 X662.9400 Y1206.0000 Z0.0000
M3S245
G4 P0.5; Tool Off

G0 Z0; move to z-safe height
G0 X654.9400 Y1206.0000
M3S0
G4 P0.5; Tool On
G1 F300 Z0.0000
G1 F15000 X654.9400 Y4.0000 Z0.0000
M3S245
G4 P0.5; Tool Off

G0 Z0; move to z-safe height
G0 X646.9400 Y4.0000
M3S0
G4 P0.5; Tool On
G1 F300 Z0.0000
G1 F15000 X646.9400 Y1206.0000 Z0.0000
M3S245
G4 P0.5; Tool Off

G0 Z0; move to z-safe height
G0 X638.9400 Y1206.0000
M3S0
G4 P0.5; Tool On
G1 F300 Z0.0000
G1 F15000 X638.9400 Y4.0000 Z0.0000
M3S245
G4 P0.5; Tool Off

G0 Z0; move to z-safe height
G0 X630.9400 Y4.0000
M3S0
G4 P0.5; Tool On
G1 F300 Z0.0000
G1 F15000 X630.9400 Y1206.0000 Z0.0000
M3S245
G4 P0.5; Tool Off

G0 Z0; move to z-safe height
G0 X622.9400 Y1206.0000
M3S0
G4 P0.5; Tool On
G1 F300 Z0.0000
G1 F15000 X622.9400 Y4.0000 Z0.0000
M3S245
G4 P0.5; Tool Off

G0 Z0; move to z-safe height
G0 X614.9400 Y4.0000
M3S0
G4 P0.5; Tool On
G1 F300 Z0.0000
G1 F15000 X614.9400 Y1206.0000 Z0.0000
M3S245
G4 P0.5; Tool Off

G0 Z0; move to z-safe height
G0 X606.9400 Y1206.0000
M3S0
G4 P0.5; Tool On
G1 F300 Z0.0000
G1 F15000 X606.9400 Y4.0000 Z0.0000
M3S245
G4 P0.5; Tool Off

G0 Z0; move to z-safe height
G0 X598.9400 Y4.0000
M3S0
G4 P0.5; Tool On
G1 F300 Z0.0000
G1 F15000 X598.9400 Y1206.0000 Z0.0000
M3S245
G4 P0.5; Tool Off

G0 Z0; move to z-safe height
G0 X590.9400 Y1206.0000
M3S0
G4 P0.5; Tool On
G1 F300 Z0.0000
G1 F15000 X590.9400 Y4.0000 Z0.0000
M3S245
G4 P0.5; Tool Off

G0 Z0; move to z-safe height
G0 X582.9400 Y4.0000
M3S0
G4 P0.5; Tool On
G1 F300 Z0.0000
G1 F15000 X582.9400 Y1206.0000 Z0.0000
M3S245
G4 P0.5; Tool Off

G0 Z0; move to z-safe height
G0 X574.9400 Y1206.0000
M3S0
G4 P0.5; Tool On
G1 F300 Z0.0000
G1 F15000 X574.9400 Y4.0000 Z0.0000
M3S245
G4 P0.5; Tool Off

G0 Z0; move to z-safe height
G0 X566.9400 Y4.0000
M3S0
G4 P0.5; Tool On
G1 F300 Z0.0000
G1 F15000 X566.9400 Y1206.0000 Z0.0000
M3S245
G4 P0.5; Tool Off

G0 Z0; move to z-safe height
G0 X558.9400 Y1206.0000
M3S0
G4 P0.5; Tool On
G1 F300 Z0.0000
G1 F15000 X558.9400 Y4.0000 Z0.0000
M3S245
G4 P0.5; Tool Off

G0 Z0; move to z-safe height
G0 X550.9400 Y4.0000
M3S0
G4 P0.5; Tool On
G1 F300 Z0.0000
G1 F15000 X550.9400 Y1206.0000 Z0.0000
M3S245
G4 P0.5; Tool Off

G0 Z0; move to z-safe height
G0 X542.9400 Y1206.0000
M3S0
G4 P0.5; Tool On
G1 F300 Z0.0000
G1 F15000 X542.9400 Y4.0000 Z0.0000
M3S245
G4 P0.5; Tool Off

G0 Z0; move to z-safe height
G0 X534.9400 Y4.0000
M3S0
G4 P0.5; Tool On
G1 F300 Z0.0000
G1 F15000 X534.9400 Y1206.0000 Z0.0000
M3S245
G4 P0.5; Tool Off

G0 Z0; move to z-safe height
G0 X526.9400 Y1206.0000
M3S0
G4 P0.5; Tool On
G1 F300 Z0.0000
G1 F15000 X526.9400 Y4.0000 Z0.0000
M3S245
G4 P0.5; Tool Off

G0 Z0; move to z-safe height
G0 X518.9400 Y4.0000
M3S0
G4 P0.5; Tool On
G1 F300 Z0.0000
G1 F15000 X518.9400 Y1206.0000 Z0.0000
M3S245
G4 P0.5; Tool Off

G0 Z0; move to z-safe height
G0 X510.9400 Y1206.0000
M3S0
G4 P0.5; Tool On
G1 F300 Z0.0000
G1 F15000 X510.9400 Y4.0000 Z0.0000
M3S245
G4 P0.5; Tool Off

G0 Z0; move to z-safe height
G0 X502.9400 Y4.0000
M3S0
G4 P0.5; Tool On
G1 F300 Z0.0000
G1 F15000 X502.9400 Y1206.0000 Z0.0000
M3S245
G4 P0.5; Tool Off

G0 Z0; move to z-safe height
G0 X494.9400 Y1206.0000
M3S0
G4 P0.5; Tool On
G1 F300 Z0.0000
G1 F15000 X494.9400 Y4.0000 Z0.0000
M3S245
G4 P0.5; Tool Off

G0 Z0; move to z-safe height
G0 X486.9400 Y4.0000
M3S0
G4 P0.5; Tool On
G1 F300 Z0.0000
G1 F15000 X486.9400 Y1206.0000 Z0.0000
M3S245
G4 P0.5; Tool Off

G0 Z0; move to z-safe height
G0 X478.9400 Y1206.0000
M3S0
G4 P0.5; Tool On
G1 F300 Z0.0000
G1 F15000 X478.9400 Y4.0000 Z0.0000
M3S245
G4 P0.5; Tool Off

G0 Z0; move to z-safe height
G0 X470.9400 Y4.0000
M3S0
G4 P0.5; Tool On
G1 F300 Z0.0000
G1 F15000 X470.9400 Y1206.0000 Z0.0000
M3S245
G4 P0.5; Tool Off

G0 Z0; move to z-safe height
G0 X462.9400 Y1206.0000
M3S0
G4 P0.5; Tool On
G1 F300 Z0.0000
G1 F15000 X462.9400 Y4.0000 Z0.0000
M3S245
G4 P0.5; Tool Off

G0 Z0; move to z-safe height
G0 X454.9400 Y4.0000
M3S0
G4 P0.5; Tool On
G1 F300 Z0.0000
G1 F15000 X454.9400 Y1206.0000 Z0.0000
M3S245
G4 P0.5; Tool Off

G0 Z0; move to z-safe height
G0 X446.9400 Y1206.0000
M3S0
G4 P0.5; Tool On
G1 F300 Z0.0000
G1 F15000 X446.9400 Y4.0000 Z0.0000
M3S245
G4 P0.5; Tool Off

G0 Z0; move to z-safe height
G0 X438.9400 Y4.0000
M3S0
G4 P0.5; Tool On
G1 F300 Z0.0000
G1 F15000 X438.9400 Y1206.0000 Z0.0000
M3S245
G4 P0.5; Tool Off

G0 Z0; move to z-safe height
G0 X430.9400 Y1206.0000
M3S0
G4 P0.5; Tool On
G1 F300 Z0.0000
G1 F15000 X430.9400 Y4.0000 Z0.0000
M3S245
G4 P0.5; Tool Off

G0 Z0; move to z-safe height
G0 X422.9400 Y4.0000
M3S0
G4 P0.5; Tool On
G1 F300 Z0.0000
G1 F15000 X422.9400 Y1206.0000 Z0.0000
M3S245
G4 P0.5; Tool Off

G0 Z0; move to z-safe height
G0 X414.9400 Y1206.0000
M3S0
G4 P0.5; Tool On
G1 F300 Z0.0000
G1 F15000 X414.9400 Y4.0000 Z0.0000
M3S245
G4 P0.5; Tool Off

G0 Z0; move to z-safe height
G0 X406.9400 Y4.0000
M3S0
G4 P0.5; Tool On
G1 F300 Z0.0000
G1 F15000 X406.9400 Y1206.0000 Z0.0000
M3S245
G4 P0.5; Tool Off

G0 Z0; move to z-safe height
G0 X398.9400 Y1206.0000
M3S0
G4 P0.5; Tool On
G1 F300 Z0.0000
G1 F15000 X398.9400 Y4.0000 Z0.0000
M3S245
G4 P0.5; Tool Off

G0 Z0; move to z-safe height
G0 X390.9400 Y4.0000
M3S0
G4 P0.5; Tool On
G1 F300 Z0.0000
G1 F15000 X390.9400 Y1206.0000 Z0.0000
M3S245
G4 P0.5; Tool Off

G0 Z0; move to z-safe height
G0 X382.9400 Y1206.0000
M3S0
G4 P0.5; Tool On
G1 F300 Z0.0000
G1 F15000 X382.9400 Y4.0000 Z0.0000
M3S245
G4 P0.5; Tool Off

G0 Z0; move to z-safe height
G0 X374.9400 Y4.0000
M3S0
G4 P0.5; Tool On
G1 F300 Z0.0000
G1 F15000 X374.9400 Y1206.0000 Z0.0000
M3S245
G4 P0.5; Tool Off

G0 Z0; move to z-safe height
G0 X366.9400 Y1206.0000
M3S0
G4 P0.5; Tool On
G1 F300 Z0.0000
G1 F15000 X366.9400 Y4.0000 Z0.0000
M3S245
G4 P0.5; Tool Off

G0 Z0; move to z-safe height
G0 X358.9400 Y4.0000
M3S0
G4 P0.5; Tool On
G1 F300 Z0.0000
G1 F15000 X358.9400 Y1206.0000 Z0.0000
M3S245
G4 P0.5; Tool Off

G0 Z0; move to z-safe height
G0 X350.9400 Y1206.0000
M3S0
G4 P0.5; Tool On
G1 F300 Z0.0000
G1 F15000 X350.9400 Y4.0000 Z0.0000
M3S245
G4 P0.5; Tool Off

G0 Z0; move to z-safe height
G0 X342.9400 Y4.0000
M3S0
G4 P0.5; Tool On
G1 F300 Z0.0000
G1 F15000 X342.9400 Y1206.0000 Z0.0000
M3S245
G4 P0.5; Tool Off

G0 Z0; move to z-safe height
G0 X334.9400 Y1206.0000
M3S0
G4 P0.5; Tool On
G1 F300 Z0.0000
G1 F15000 X334.9400 Y4.0000 Z0.0000
M3S245
G4 P0.5; Tool Off

G0 Z0; move to z-safe height
G0 X326.9400 Y4.0000
M3S0
G4 P0.5; Tool On
G1 F300 Z0.0000
G1 F15000 X326.9400 Y1206.0000 Z0.0000
M3S245
G4 P0.5; Tool Off

G0 Z0; move to z-safe height
G0 X318.9400 Y1206.0000
M3S0
G4 P0.5; Tool On
G1 F300 Z0.0000
G1 F15000 X318.9400 Y4.0000 Z0.0000
M3S245
G4 P0.5; Tool Off

G0 Z0; move to z-safe height
G0 X310.9400 Y4.0000
M3S0
G4 P0.5; Tool On
G1 F300 Z0.0000
G1 F15000 X310.9400 Y1206.0000 Z0.0000
M3S245
G4 P0.5; Tool Off

G0 Z0; move to z-safe height
G0 X302.9400 Y1206.0000
M3S0
G4 P0.5; Tool On
G1 F300 Z0.0000
G1 F15000 X302.9400 Y4.0000 Z0.0000
M3S245
G4 P0.5; Tool Off

G0 Z0; move to z-safe height
G0 X294.9400 Y4.0000
M3S0
G4 P0.5; Tool On
G1 F300 Z0.0000
G1 F15000 X294.9400 Y1206.0000 Z0.0000
M3S245
G4 P0.5; Tool Off

G0 Z0; move to z-safe height
G0 X286.9400 Y1206.0000
M3S0
G4 P0.5; Tool On
G1 F300 Z0.0000
G1 F15000 X286.9400 Y4.0000 Z0.0000
M3S245
G4 P0.5; Tool Off

G0 Z0; move to z-safe height
G0 X278.9400 Y4.0000
M3S0
G4 P0.5; Tool On
G1 F300 Z0.0000
G1 F15000 X278.9400 Y1206.0000 Z0.0000
M3S245
G4 P0.5; Tool Off

G0 Z0; move to z-safe height
G0 X270.9400 Y1206.0000
M3S0
G4 P0.5; Tool On
G1 F300 Z0.0000
G1 F15000 X270.9400 Y4.0000 Z0.0000
M3S245
G4 P0.5; Tool Off

G0 Z0; move to z-safe height
G0 X262.9400 Y4.0000
M3S0
G4 P0.5; Tool On
G1 F300 Z0.0000
G1 F15000 X262.9400 Y1206.0000 Z0.0000
M3S245
G4 P0.5; Tool Off

G0 Z0; move to z-safe height
G0 X254.9400 Y1206.0000
M3S0
G4 P0.5; Tool On
G1 F300 Z0.0000
G1 F15000 X254.9400 Y4.0000 Z0.0000
M3S245
G4 P0.5; Tool Off

G0 Z0; move to z-safe height
G0 X246.9400 Y4.0000
M3S0
G4 P0.5; Tool On
G1 F300 Z0.0000
G1 F15000 X246.9400 Y1206.0000 Z0.0000
M3S245
G4 P0.5; Tool Off

G0 Z0; move to z-safe height
G0 X238.9400 Y1206.0000
M3S0
G4 P0.5; Tool On
G1 F300 Z0.0000
G1 F15000 X238.9400 Y4.0000 Z0.0000
M3S245
G4 P0.5; Tool Off

G0 Z0; move to z-safe height
G0 X230.9400 Y4.0000
M3S0
G4 P0.5; Tool On
G1 F300 Z0.0000
G1 F15000 X230.9400 Y1206.0000 Z0.0000
M3S245
G4 P0.5; Tool Off

G0 Z0; move to z-safe height
G0 X222.9400 Y1206.0000
M3S0
G4 P0.5; Tool On
G1 F300 Z0.0000
G1 F15000 X222.9400 Y4.0000 Z0.0000
M3S245
G4 P0.5; Tool Off

G0 Z0; move to z-safe height
G0 X214.9400 Y4.0000
M3S0
G4 P0.5; Tool On
G1 F300 Z0.0000
G1 F15000 X214.9400 Y1206.0000 Z0.0000
M3S245
G4 P0.5; Tool Off

G0 Z0; move to z-safe height
G0 X206.9400 Y1206.0000
M3S0
G4 P0.5; Tool On
G1 F300 Z0.0000
G1 F15000 X206.9400 Y4.0000 Z0.0000
M3S245
G4 P0.5; Tool Off

G0 Z0; move to z-safe height
G0 X198.9400 Y4.0000
M3S0
G4 P0.5; Tool On
G1 F300 Z0.0000
G1 F15000 X198.9400 Y1206.0000 Z0.0000
M3S245
G4 P0.5; Tool Off

G0 Z0; move to z-safe height
G0 X190.9400 Y1206.0000
M3S0
G4 P0.5; Tool On
G1 F300 Z0.0000
G1 F15000 X190.9400 Y4.0000 Z0.0000
M3S245
G4 P0.5; Tool Off

G0 Z0; move to z-safe height
G0 X182.9400 Y4.0000
M3S0
G4 P0.5; Tool On
G1 F300 Z0.0000
G1 F15000 X182.9400 Y1206.0000 Z0.0000
M3S245
G4 P0.5; Tool Off

G0 Z0; move to z-safe height
G0 X174.9400 Y1206.0000
M3S0
G4 P0.5; Tool On
G1 F300 Z0.0000
G1 F15000 X174.9400 Y4.0000 Z0.0000
M3S245
G4 P0.5; Tool Off

G0 Z0; move to z-safe height
G0 X166.9400 Y4.0000
M3S0
G4 P0.5; Tool On
G1 F300 Z0.0000
G1 F15000 X166.9400 Y1206.0000 Z0.0000
M3S245
G4 P0.5; Tool Off

G0 Z0; move to z-safe height
G0 X158.9400 Y1206.0000
M3S0
G4 P0.5; Tool On
G1 F300 Z0.0000
G1 F15000 X158.9400 Y4.0000 Z0.0000
M3S245
G4 P0.5; Tool Off

G0 Z0; move to z-safe height
G0 X150.9400 Y4.0000
M3S0
G4 P0.5; Tool On
G1 F300 Z0.0000
G1 F15000 X150.9400 Y1206.0000 Z0.0000
M3S245
G4 P0.5; Tool Off

G0 Z0; move to z-safe height
G0 X142.9400 Y1206.0000
M3S0
G4 P0.5; Tool On
G1 F300 Z0.0000
G1 F15000 X142.9400 Y4.0000 Z0.0000
M3S245
G4 P0.5; Tool Off

G0 Z0; move to z-safe height
G0 X134.9400 Y4.0000
M3S0
G4 P0.5; Tool On
G1 F300 Z0.0000
G1 F15000 X134.9400 Y1206.0000 Z0.0000
M3S245
G4 P0.5; Tool Off

G0 Z0; move to z-safe height
G0 X126.9400 Y1206.0000
M3S0
G4 P0.5; Tool On
G1 F300 Z0.0000
G1 F15000 X126.9400 Y4.0000 Z0.0000
M3S245
G4 P0.5; Tool Off

G0 Z0; move to z-safe height
G0 X118.9400 Y4.0000
M3S0
G4 P0.5; Tool On
G1 F300 Z0.0000
G1 F15000 X118.9400 Y1206.0000 Z0.0000
M3S245
G4 P0.5; Tool Off

G0 Z0; move to z-safe height
G0 X110.9400 Y1206.0000
M3S0
G4 P0.5; Tool On
G1 F300 Z0.0000
G1 F15000 X110.9400 Y4.0000 Z0.0000
M3S245
G4 P0.5; Tool Off

G0 Z0; move to z-safe height
G0 X102.9400 Y4.0000
M3S0
G4 P0.5; Tool On
G1 F300 Z0.0000
G1 F15000 X102.9400 Y1206.0000 Z0.0000
M3S245
G4 P0.5; Tool Off

G0 Z0; move to z-safe height
G0 X94.9400 Y1206.0000
M3S0
G4 P0.5; Tool On
G1 F300 Z0.0000
G1 F15000 X94.9400 Y4.0000 Z0.0000
M3S245
G4 P0.5; Tool Off

G0 Z0; move to z-safe height
G0 X86.9400 Y4.0000
M3S0
G4 P0.5; Tool On
G1 F300 Z0.0000
G1 F15000 X86.9400 Y1206.0000 Z0.0000
M3S245
G4 P0.5; Tool Off

G0 Z0; move to z-safe height
G0 X78.9400 Y1206.0000
M3S0
G4 P0.5; Tool On
G1 F300 Z0.0000
G1 F15000 X78.9400 Y4.0000 Z0.0000
M3S245
G4 P0.5; Tool Off

G0 Z0; move to z-safe height
G0 X70.9400 Y4.0000
M3S0
G4 P0.5; Tool On
G1 F300 Z0.0000
G1 F15000 X70.9400 Y1206.0000 Z0.0000
M3S245
G4 P0.5; Tool Off

G0 Z0; move to z-safe height
G0 X62.9400 Y1206.0000
M3S0
G4 P0.5; Tool On
G1 F300 Z0.0000
G1 F15000 X62.9400 Y4.0000 Z0.0000
M3S245
G4 P0.5; Tool Off

G0 Z0; move to z-safe height
G0 X54.9400 Y4.0000
M3S0
G4 P0.5; Tool On
G1 F300 Z0.0000
G1 F15000 X54.9400 Y1206.0000 Z0.0000
M3S245
G4 P0.5; Tool Off

G0 Z0; move to z-safe height
G0 X46.9400 Y1206.0000
M3S0
G4 P0.5; Tool On
G1 F300 Z0.0000
G1 F15000 X46.9400 Y4.0000 Z0.0000
M3S245
G4 P0.5; Tool Off

G0 Z0; move to z-safe height
G0 X38.9400 Y4.0000
M3S0
G4 P0.5; Tool On
G1 F300 Z0.0000
G1 F15000 X38.9400 Y1206.0000 Z0.0000
M3S245
G4 P0.5; Tool Off

G0 Z0; move to z-safe height
G0 X30.9400 Y1206.0000
M3S0
G4 P0.5; Tool On
G1 F300 Z0.0000
G1 F15000 X30.9400 Y4.0000 Z0.0000
M3S245
G4 P0.5; Tool Off

G0 Z0; move to z-safe height
G0 X22.9400 Y4.0000
M3S0
G4 P0.5; Tool On
G1 F300 Z0.0000
G1 F15000 X22.9400 Y1206.0000 Z0.0000
M3S245
G4 P0.5; Tool Off

G0 Z0; move to z-safe height
G0 X14.9400 Y1206.0000
M3S0
G4 P0.5; Tool On
G1 F300 Z0.0000
G1 F15000 X14.9400 Y4.0000 Z0.0000
M3S245
G4 P0.5; Tool Off

G0 Z0; move to z-safe height
G0 X6.9400 Y4.0000
M3S0
G4 P0.5; Tool On
G1 F300 Z0.0000
G1 F15000 X6.9400 Y1206.0000 Z0.0000
M3S245
G4 P0.5; Tool Off
; retracting back to z-safe
G0 Z0

; Plotter Mode Complete
