; GCODE Generated by cam.openbuilds.com on 2023-06-19 
G21 ; mm-mode
G54; Work Coordinates
G21; mm-mode
G90; Absolute Positioning
; Plotter Mode Active

; Operation 0: Pen Plotter: (lines fill)
; Pen Diameter: 2

G0 Z0; move to z-safe height
G0 F1000 X1204.3600 Y1207.0000
M3S0
G4 P0.5; Tool On
G1 F300 Z0.0000
G1 F15000 X1204.3600 Y3.0000 Z0.0000
M3S245
G4 P0.5; Tool Off

G0 Z0; move to z-safe height
G0 X1198.3600 Y3.0000
M3S0
G4 P0.5; Tool On
G1 F300 Z0.0000
G1 F15000 X1198.3600 Y1207.0000 Z0.0000
M3S245
G4 P0.5; Tool Off

G0 Z0; move to z-safe height
G0 X1192.3600 Y1207.0000
M3S0
G4 P0.5; Tool On
G1 F300 Z0.0000
G1 F15000 X1192.3600 Y3.0000 Z0.0000
M3S245
G4 P0.5; Tool Off

G0 Z0; move to z-safe height
G0 X1186.3600 Y3.0000
M3S0
G4 P0.5; Tool On
G1 F300 Z0.0000
G1 F15000 X1186.3600 Y1207.0000 Z0.0000
M3S245
G4 P0.5; Tool Off

G0 Z0; move to z-safe height
G0 X1180.3600 Y1207.0000
M3S0
G4 P0.5; Tool On
G1 F300 Z0.0000
G1 F15000 X1180.3600 Y3.0000 Z0.0000
M3S245
G4 P0.5; Tool Off

G0 Z0; move to z-safe height
G0 X1174.3600 Y3.0000
M3S0
G4 P0.5; Tool On
G1 F300 Z0.0000
G1 F15000 X1174.3600 Y1207.0000 Z0.0000
M3S245
G4 P0.5; Tool Off

G0 Z0; move to z-safe height
G0 X1168.3600 Y1207.0000
M3S0
G4 P0.5; Tool On
G1 F300 Z0.0000
G1 F15000 X1168.3600 Y3.0000 Z0.0000
M3S245
G4 P0.5; Tool Off

G0 Z0; move to z-safe height
G0 X1162.3600 Y3.0000
M3S0
G4 P0.5; Tool On
G1 F300 Z0.0000
G1 F15000 X1162.3600 Y1207.0000 Z0.0000
M3S245
G4 P0.5; Tool Off

G0 Z0; move to z-safe height
G0 X1156.3600 Y1207.0000
M3S0
G4 P0.5; Tool On
G1 F300 Z0.0000
G1 F15000 X1156.3600 Y3.0000 Z0.0000
M3S245
G4 P0.5; Tool Off

G0 Z0; move to z-safe height
G0 X1150.3600 Y3.0000
M3S0
G4 P0.5; Tool On
G1 F300 Z0.0000
G1 F15000 X1150.3600 Y1207.0000 Z0.0000
M3S245
G4 P0.5; Tool Off

G0 Z0; move to z-safe height
G0 X1144.3600 Y1207.0000
M3S0
G4 P0.5; Tool On
G1 F300 Z0.0000
G1 F15000 X1144.3600 Y3.0000 Z0.0000
M3S245
G4 P0.5; Tool Off

G0 Z0; move to z-safe height
G0 X1138.3600 Y3.0000
M3S0
G4 P0.5; Tool On
G1 F300 Z0.0000
G1 F15000 X1138.3600 Y1207.0000 Z0.0000
M3S245
G4 P0.5; Tool Off

G0 Z0; move to z-safe height
G0 X1132.3600 Y1207.0000
M3S0
G4 P0.5; Tool On
G1 F300 Z0.0000
G1 F15000 X1132.3600 Y3.0000 Z0.0000
M3S245
G4 P0.5; Tool Off

G0 Z0; move to z-safe height
G0 X1126.3600 Y3.0000
M3S0
G4 P0.5; Tool On
G1 F300 Z0.0000
G1 F15000 X1126.3600 Y1207.0000 Z0.0000
M3S245
G4 P0.5; Tool Off

G0 Z0; move to z-safe height
G0 X1120.3600 Y1207.0000
M3S0
G4 P0.5; Tool On
G1 F300 Z0.0000
G1 F15000 X1120.3600 Y3.0000 Z0.0000
M3S245
G4 P0.5; Tool Off

G0 Z0; move to z-safe height
G0 X1114.3600 Y3.0000
M3S0
G4 P0.5; Tool On
G1 F300 Z0.0000
G1 F15000 X1114.3600 Y1207.0000 Z0.0000
M3S245
G4 P0.5; Tool Off

G0 Z0; move to z-safe height
G0 X1108.3600 Y1207.0000
M3S0
G4 P0.5; Tool On
G1 F300 Z0.0000
G1 F15000 X1108.3600 Y3.0000 Z0.0000
M3S245
G4 P0.5; Tool Off

G0 Z0; move to z-safe height
G0 X1102.3600 Y3.0000
M3S0
G4 P0.5; Tool On
G1 F300 Z0.0000
G1 F15000 X1102.3600 Y1207.0000 Z0.0000
M3S245
G4 P0.5; Tool Off

G0 Z0; move to z-safe height
G0 X1096.3600 Y1207.0000
M3S0
G4 P0.5; Tool On
G1 F300 Z0.0000
G1 F15000 X1096.3600 Y3.0000 Z0.0000
M3S245
G4 P0.5; Tool Off

G0 Z0; move to z-safe height
G0 X1090.3600 Y3.0000
M3S0
G4 P0.5; Tool On
G1 F300 Z0.0000
G1 F15000 X1090.3600 Y1207.0000 Z0.0000
M3S245
G4 P0.5; Tool Off

G0 Z0; move to z-safe height
G0 X1084.3600 Y1207.0000
M3S0
G4 P0.5; Tool On
G1 F300 Z0.0000
G1 F15000 X1084.3600 Y3.0000 Z0.0000
M3S245
G4 P0.5; Tool Off

G0 Z0; move to z-safe height
G0 X1078.3600 Y3.0000
M3S0
G4 P0.5; Tool On
G1 F300 Z0.0000
G1 F15000 X1078.3600 Y1207.0000 Z0.0000
M3S245
G4 P0.5; Tool Off

G0 Z0; move to z-safe height
G0 X1072.3600 Y1207.0000
M3S0
G4 P0.5; Tool On
G1 F300 Z0.0000
G1 F15000 X1072.3600 Y3.0000 Z0.0000
M3S245
G4 P0.5; Tool Off

G0 Z0; move to z-safe height
G0 X1066.3600 Y3.0000
M3S0
G4 P0.5; Tool On
G1 F300 Z0.0000
G1 F15000 X1066.3600 Y1207.0000 Z0.0000
M3S245
G4 P0.5; Tool Off

G0 Z0; move to z-safe height
G0 X1060.3600 Y1207.0000
M3S0
G4 P0.5; Tool On
G1 F300 Z0.0000
G1 F15000 X1060.3600 Y3.0000 Z0.0000
M3S245
G4 P0.5; Tool Off

G0 Z0; move to z-safe height
G0 X1054.3600 Y3.0000
M3S0
G4 P0.5; Tool On
G1 F300 Z0.0000
G1 F15000 X1054.3600 Y1207.0000 Z0.0000
M3S245
G4 P0.5; Tool Off

G0 Z0; move to z-safe height
G0 X1048.3600 Y1207.0000
M3S0
G4 P0.5; Tool On
G1 F300 Z0.0000
G1 F15000 X1048.3600 Y3.0000 Z0.0000
M3S245
G4 P0.5; Tool Off

G0 Z0; move to z-safe height
G0 X1042.3600 Y3.0000
M3S0
G4 P0.5; Tool On
G1 F300 Z0.0000
G1 F15000 X1042.3600 Y1207.0000 Z0.0000
M3S245
G4 P0.5; Tool Off

G0 Z0; move to z-safe height
G0 X1036.3600 Y1207.0000
M3S0
G4 P0.5; Tool On
G1 F300 Z0.0000
G1 F15000 X1036.3600 Y3.0000 Z0.0000
M3S245
G4 P0.5; Tool Off

G0 Z0; move to z-safe height
G0 X1030.3600 Y3.0000
M3S0
G4 P0.5; Tool On
G1 F300 Z0.0000
G1 F15000 X1030.3600 Y1207.0000 Z0.0000
M3S245
G4 P0.5; Tool Off

G0 Z0; move to z-safe height
G0 X1024.3600 Y1207.0000
M3S0
G4 P0.5; Tool On
G1 F300 Z0.0000
G1 F15000 X1024.3600 Y3.0000 Z0.0000
M3S245
G4 P0.5; Tool Off

G0 Z0; move to z-safe height
G0 X1018.3600 Y3.0000
M3S0
G4 P0.5; Tool On
G1 F300 Z0.0000
G1 F15000 X1018.3600 Y1207.0000 Z0.0000
M3S245
G4 P0.5; Tool Off

G0 Z0; move to z-safe height
G0 X1012.3600 Y1207.0000
M3S0
G4 P0.5; Tool On
G1 F300 Z0.0000
G1 F15000 X1012.3600 Y3.0000 Z0.0000
M3S245
G4 P0.5; Tool Off

G0 Z0; move to z-safe height
G0 X1006.3600 Y3.0000
M3S0
G4 P0.5; Tool On
G1 F300 Z0.0000
G1 F15000 X1006.3600 Y1207.0000 Z0.0000
M3S245
G4 P0.5; Tool Off

G0 Z0; move to z-safe height
G0 X1000.3600 Y1207.0000
M3S0
G4 P0.5; Tool On
G1 F300 Z0.0000
G1 F15000 X1000.3600 Y3.0000 Z0.0000
M3S245
G4 P0.5; Tool Off

G0 Z0; move to z-safe height
G0 X994.3600 Y3.0000
M3S0
G4 P0.5; Tool On
G1 F300 Z0.0000
G1 F15000 X994.3600 Y1207.0000 Z0.0000
M3S245
G4 P0.5; Tool Off

G0 Z0; move to z-safe height
G0 X988.3600 Y1207.0000
M3S0
G4 P0.5; Tool On
G1 F300 Z0.0000
G1 F15000 X988.3600 Y3.0000 Z0.0000
M3S245
G4 P0.5; Tool Off

G0 Z0; move to z-safe height
G0 X982.3600 Y3.0000
M3S0
G4 P0.5; Tool On
G1 F300 Z0.0000
G1 F15000 X982.3600 Y1207.0000 Z0.0000
M3S245
G4 P0.5; Tool Off

G0 Z0; move to z-safe height
G0 X976.3600 Y1207.0000
M3S0
G4 P0.5; Tool On
G1 F300 Z0.0000
G1 F15000 X976.3600 Y3.0000 Z0.0000
M3S245
G4 P0.5; Tool Off

G0 Z0; move to z-safe height
G0 X970.3600 Y3.0000
M3S0
G4 P0.5; Tool On
G1 F300 Z0.0000
G1 F15000 X970.3600 Y1207.0000 Z0.0000
M3S245
G4 P0.5; Tool Off

G0 Z0; move to z-safe height
G0 X964.3600 Y1207.0000
M3S0
G4 P0.5; Tool On
G1 F300 Z0.0000
G1 F15000 X964.3600 Y3.0000 Z0.0000
M3S245
G4 P0.5; Tool Off

G0 Z0; move to z-safe height
G0 X958.3600 Y3.0000
M3S0
G4 P0.5; Tool On
G1 F300 Z0.0000
G1 F15000 X958.3600 Y1207.0000 Z0.0000
M3S245
G4 P0.5; Tool Off

G0 Z0; move to z-safe height
G0 X952.3600 Y1207.0000
M3S0
G4 P0.5; Tool On
G1 F300 Z0.0000
G1 F15000 X952.3600 Y3.0000 Z0.0000
M3S245
G4 P0.5; Tool Off

G0 Z0; move to z-safe height
G0 X946.3600 Y3.0000
M3S0
G4 P0.5; Tool On
G1 F300 Z0.0000
G1 F15000 X946.3600 Y1207.0000 Z0.0000
M3S245
G4 P0.5; Tool Off

G0 Z0; move to z-safe height
G0 X940.3600 Y1207.0000
M3S0
G4 P0.5; Tool On
G1 F300 Z0.0000
G1 F15000 X940.3600 Y3.0000 Z0.0000
M3S245
G4 P0.5; Tool Off

G0 Z0; move to z-safe height
G0 X934.3600 Y3.0000
M3S0
G4 P0.5; Tool On
G1 F300 Z0.0000
G1 F15000 X934.3600 Y1207.0000 Z0.0000
M3S245
G4 P0.5; Tool Off

G0 Z0; move to z-safe height
G0 X928.3600 Y1207.0000
M3S0
G4 P0.5; Tool On
G1 F300 Z0.0000
G1 F15000 X928.3600 Y3.0000 Z0.0000
M3S245
G4 P0.5; Tool Off

G0 Z0; move to z-safe height
G0 X922.3600 Y3.0000
M3S0
G4 P0.5; Tool On
G1 F300 Z0.0000
G1 F15000 X922.3600 Y1207.0000 Z0.0000
M3S245
G4 P0.5; Tool Off

G0 Z0; move to z-safe height
G0 X916.3600 Y1207.0000
M3S0
G4 P0.5; Tool On
G1 F300 Z0.0000
G1 F15000 X916.3600 Y3.0000 Z0.0000
M3S245
G4 P0.5; Tool Off

G0 Z0; move to z-safe height
G0 X910.3600 Y3.0000
M3S0
G4 P0.5; Tool On
G1 F300 Z0.0000
G1 F15000 X910.3600 Y1207.0000 Z0.0000
M3S245
G4 P0.5; Tool Off

G0 Z0; move to z-safe height
G0 X904.3600 Y1207.0000
M3S0
G4 P0.5; Tool On
G1 F300 Z0.0000
G1 F15000 X904.3600 Y3.0000 Z0.0000
M3S245
G4 P0.5; Tool Off

G0 Z0; move to z-safe height
G0 X898.3600 Y3.0000
M3S0
G4 P0.5; Tool On
G1 F300 Z0.0000
G1 F15000 X898.3600 Y1207.0000 Z0.0000
M3S245
G4 P0.5; Tool Off

G0 Z0; move to z-safe height
G0 X892.3600 Y1207.0000
M3S0
G4 P0.5; Tool On
G1 F300 Z0.0000
G1 F15000 X892.3600 Y3.0000 Z0.0000
M3S245
G4 P0.5; Tool Off

G0 Z0; move to z-safe height
G0 X886.3600 Y3.0000
M3S0
G4 P0.5; Tool On
G1 F300 Z0.0000
G1 F15000 X886.3600 Y1207.0000 Z0.0000
M3S245
G4 P0.5; Tool Off

G0 Z0; move to z-safe height
G0 X880.3600 Y1207.0000
M3S0
G4 P0.5; Tool On
G1 F300 Z0.0000
G1 F15000 X880.3600 Y3.0000 Z0.0000
M3S245
G4 P0.5; Tool Off

G0 Z0; move to z-safe height
G0 X874.3600 Y3.0000
M3S0
G4 P0.5; Tool On
G1 F300 Z0.0000
G1 F15000 X874.3600 Y1207.0000 Z0.0000
M3S245
G4 P0.5; Tool Off

G0 Z0; move to z-safe height
G0 X868.3600 Y1207.0000
M3S0
G4 P0.5; Tool On
G1 F300 Z0.0000
G1 F15000 X868.3600 Y3.0000 Z0.0000
M3S245
G4 P0.5; Tool Off

G0 Z0; move to z-safe height
G0 X862.3600 Y3.0000
M3S0
G4 P0.5; Tool On
G1 F300 Z0.0000
G1 F15000 X862.3600 Y1207.0000 Z0.0000
M3S245
G4 P0.5; Tool Off

G0 Z0; move to z-safe height
G0 X856.3600 Y1207.0000
M3S0
G4 P0.5; Tool On
G1 F300 Z0.0000
G1 F15000 X856.3600 Y3.0000 Z0.0000
M3S245
G4 P0.5; Tool Off

G0 Z0; move to z-safe height
G0 X850.3600 Y3.0000
M3S0
G4 P0.5; Tool On
G1 F300 Z0.0000
G1 F15000 X850.3600 Y1207.0000 Z0.0000
M3S245
G4 P0.5; Tool Off

G0 Z0; move to z-safe height
G0 X844.3600 Y1207.0000
M3S0
G4 P0.5; Tool On
G1 F300 Z0.0000
G1 F15000 X844.3600 Y3.0000 Z0.0000
M3S245
G4 P0.5; Tool Off

G0 Z0; move to z-safe height
G0 X838.3600 Y3.0000
M3S0
G4 P0.5; Tool On
G1 F300 Z0.0000
G1 F15000 X838.3600 Y1207.0000 Z0.0000
M3S245
G4 P0.5; Tool Off

G0 Z0; move to z-safe height
G0 X832.3600 Y1207.0000
M3S0
G4 P0.5; Tool On
G1 F300 Z0.0000
G1 F15000 X832.3600 Y3.0000 Z0.0000
M3S245
G4 P0.5; Tool Off

G0 Z0; move to z-safe height
G0 X826.3600 Y3.0000
M3S0
G4 P0.5; Tool On
G1 F300 Z0.0000
G1 F15000 X826.3600 Y1207.0000 Z0.0000
M3S245
G4 P0.5; Tool Off

G0 Z0; move to z-safe height
G0 X820.3600 Y1207.0000
M3S0
G4 P0.5; Tool On
G1 F300 Z0.0000
G1 F15000 X820.3600 Y3.0000 Z0.0000
M3S245
G4 P0.5; Tool Off

G0 Z0; move to z-safe height
G0 X814.3600 Y3.0000
M3S0
G4 P0.5; Tool On
G1 F300 Z0.0000
G1 F15000 X814.3600 Y1207.0000 Z0.0000
M3S245
G4 P0.5; Tool Off

G0 Z0; move to z-safe height
G0 X808.3600 Y1207.0000
M3S0
G4 P0.5; Tool On
G1 F300 Z0.0000
G1 F15000 X808.3600 Y3.0000 Z0.0000
M3S245
G4 P0.5; Tool Off

G0 Z0; move to z-safe height
G0 X802.3600 Y3.0000
M3S0
G4 P0.5; Tool On
G1 F300 Z0.0000
G1 F15000 X802.3600 Y1207.0000 Z0.0000
M3S245
G4 P0.5; Tool Off

G0 Z0; move to z-safe height
G0 X796.3600 Y1207.0000
M3S0
G4 P0.5; Tool On
G1 F300 Z0.0000
G1 F15000 X796.3600 Y3.0000 Z0.0000
M3S245
G4 P0.5; Tool Off

G0 Z0; move to z-safe height
G0 X790.3600 Y3.0000
M3S0
G4 P0.5; Tool On
G1 F300 Z0.0000
G1 F15000 X790.3600 Y1207.0000 Z0.0000
M3S245
G4 P0.5; Tool Off

G0 Z0; move to z-safe height
G0 X784.3600 Y1207.0000
M3S0
G4 P0.5; Tool On
G1 F300 Z0.0000
G1 F15000 X784.3600 Y3.0000 Z0.0000
M3S245
G4 P0.5; Tool Off

G0 Z0; move to z-safe height
G0 X778.3600 Y3.0000
M3S0
G4 P0.5; Tool On
G1 F300 Z0.0000
G1 F15000 X778.3600 Y1207.0000 Z0.0000
M3S245
G4 P0.5; Tool Off

G0 Z0; move to z-safe height
G0 X772.3600 Y1207.0000
M3S0
G4 P0.5; Tool On
G1 F300 Z0.0000
G1 F15000 X772.3600 Y3.0000 Z0.0000
M3S245
G4 P0.5; Tool Off

G0 Z0; move to z-safe height
G0 X766.3600 Y3.0000
M3S0
G4 P0.5; Tool On
G1 F300 Z0.0000
G1 F15000 X766.3600 Y1207.0000 Z0.0000
M3S245
G4 P0.5; Tool Off

G0 Z0; move to z-safe height
G0 X760.3600 Y1207.0000
M3S0
G4 P0.5; Tool On
G1 F300 Z0.0000
G1 F15000 X760.3600 Y3.0000 Z0.0000
M3S245
G4 P0.5; Tool Off

G0 Z0; move to z-safe height
G0 X754.3600 Y3.0000
M3S0
G4 P0.5; Tool On
G1 F300 Z0.0000
G1 F15000 X754.3600 Y1207.0000 Z0.0000
M3S245
G4 P0.5; Tool Off

G0 Z0; move to z-safe height
G0 X748.3600 Y1207.0000
M3S0
G4 P0.5; Tool On
G1 F300 Z0.0000
G1 F15000 X748.3600 Y3.0000 Z0.0000
M3S245
G4 P0.5; Tool Off

G0 Z0; move to z-safe height
G0 X742.3600 Y3.0000
M3S0
G4 P0.5; Tool On
G1 F300 Z0.0000
G1 F15000 X742.3600 Y1207.0000 Z0.0000
M3S245
G4 P0.5; Tool Off

G0 Z0; move to z-safe height
G0 X736.3600 Y1207.0000
M3S0
G4 P0.5; Tool On
G1 F300 Z0.0000
G1 F15000 X736.3600 Y3.0000 Z0.0000
M3S245
G4 P0.5; Tool Off

G0 Z0; move to z-safe height
G0 X730.3600 Y3.0000
M3S0
G4 P0.5; Tool On
G1 F300 Z0.0000
G1 F15000 X730.3600 Y1207.0000 Z0.0000
M3S245
G4 P0.5; Tool Off

G0 Z0; move to z-safe height
G0 X724.3600 Y1207.0000
M3S0
G4 P0.5; Tool On
G1 F300 Z0.0000
G1 F15000 X724.3600 Y3.0000 Z0.0000
M3S245
G4 P0.5; Tool Off

G0 Z0; move to z-safe height
G0 X718.3600 Y3.0000
M3S0
G4 P0.5; Tool On
G1 F300 Z0.0000
G1 F15000 X718.3600 Y1207.0000 Z0.0000
M3S245
G4 P0.5; Tool Off

G0 Z0; move to z-safe height
G0 X712.3600 Y1207.0000
M3S0
G4 P0.5; Tool On
G1 F300 Z0.0000
G1 F15000 X712.3600 Y3.0000 Z0.0000
M3S245
G4 P0.5; Tool Off

G0 Z0; move to z-safe height
G0 X706.3600 Y3.0000
M3S0
G4 P0.5; Tool On
G1 F300 Z0.0000
G1 F15000 X706.3600 Y1207.0000 Z0.0000
M3S245
G4 P0.5; Tool Off

G0 Z0; move to z-safe height
G0 X700.3600 Y1207.0000
M3S0
G4 P0.5; Tool On
G1 F300 Z0.0000
G1 F15000 X700.3600 Y3.0000 Z0.0000
M3S245
G4 P0.5; Tool Off

G0 Z0; move to z-safe height
G0 X694.3600 Y3.0000
M3S0
G4 P0.5; Tool On
G1 F300 Z0.0000
G1 F15000 X694.3600 Y1207.0000 Z0.0000
M3S245
G4 P0.5; Tool Off

G0 Z0; move to z-safe height
G0 X688.3600 Y1207.0000
M3S0
G4 P0.5; Tool On
G1 F300 Z0.0000
G1 F15000 X688.3600 Y3.0000 Z0.0000
M3S245
G4 P0.5; Tool Off

G0 Z0; move to z-safe height
G0 X682.3600 Y3.0000
M3S0
G4 P0.5; Tool On
G1 F300 Z0.0000
G1 F15000 X682.3600 Y1207.0000 Z0.0000
M3S245
G4 P0.5; Tool Off

G0 Z0; move to z-safe height
G0 X676.3600 Y1207.0000
M3S0
G4 P0.5; Tool On
G1 F300 Z0.0000
G1 F15000 X676.3600 Y3.0000 Z0.0000
M3S245
G4 P0.5; Tool Off

G0 Z0; move to z-safe height
G0 X670.3600 Y3.0000
M3S0
G4 P0.5; Tool On
G1 F300 Z0.0000
G1 F15000 X670.3600 Y1207.0000 Z0.0000
M3S245
G4 P0.5; Tool Off

G0 Z0; move to z-safe height
G0 X664.3600 Y1207.0000
M3S0
G4 P0.5; Tool On
G1 F300 Z0.0000
G1 F15000 X664.3600 Y3.0000 Z0.0000
M3S245
G4 P0.5; Tool Off

G0 Z0; move to z-safe height
G0 X658.3600 Y3.0000
M3S0
G4 P0.5; Tool On
G1 F300 Z0.0000
G1 F15000 X658.3600 Y1207.0000 Z0.0000
M3S245
G4 P0.5; Tool Off

G0 Z0; move to z-safe height
G0 X652.3600 Y1207.0000
M3S0
G4 P0.5; Tool On
G1 F300 Z0.0000
G1 F15000 X652.3600 Y3.0000 Z0.0000
M3S245
G4 P0.5; Tool Off

G0 Z0; move to z-safe height
G0 X646.3600 Y3.0000
M3S0
G4 P0.5; Tool On
G1 F300 Z0.0000
G1 F15000 X646.3600 Y1207.0000 Z0.0000
M3S245
G4 P0.5; Tool Off

G0 Z0; move to z-safe height
G0 X640.3600 Y1207.0000
M3S0
G4 P0.5; Tool On
G1 F300 Z0.0000
G1 F15000 X640.3600 Y3.0000 Z0.0000
M3S245
G4 P0.5; Tool Off

G0 Z0; move to z-safe height
G0 X634.3600 Y3.0000
M3S0
G4 P0.5; Tool On
G1 F300 Z0.0000
G1 F15000 X634.3600 Y1207.0000 Z0.0000
M3S245
G4 P0.5; Tool Off

G0 Z0; move to z-safe height
G0 X628.3600 Y1207.0000
M3S0
G4 P0.5; Tool On
G1 F300 Z0.0000
G1 F15000 X628.3600 Y3.0000 Z0.0000
M3S245
G4 P0.5; Tool Off

G0 Z0; move to z-safe height
G0 X622.3600 Y3.0000
M3S0
G4 P0.5; Tool On
G1 F300 Z0.0000
G1 F15000 X622.3600 Y1207.0000 Z0.0000
M3S245
G4 P0.5; Tool Off

G0 Z0; move to z-safe height
G0 X616.3600 Y1207.0000
M3S0
G4 P0.5; Tool On
G1 F300 Z0.0000
G1 F15000 X616.3600 Y3.0000 Z0.0000
M3S245
G4 P0.5; Tool Off

G0 Z0; move to z-safe height
G0 X610.3600 Y3.0000
M3S0
G4 P0.5; Tool On
G1 F300 Z0.0000
G1 F15000 X610.3600 Y1207.0000 Z0.0000
M3S245
G4 P0.5; Tool Off

G0 Z0; move to z-safe height
G0 X604.3600 Y1207.0000
M3S0
G4 P0.5; Tool On
G1 F300 Z0.0000
G1 F15000 X604.3600 Y3.0000 Z0.0000
M3S245
G4 P0.5; Tool Off

G0 Z0; move to z-safe height
G0 X598.3600 Y3.0000
M3S0
G4 P0.5; Tool On
G1 F300 Z0.0000
G1 F15000 X598.3600 Y1207.0000 Z0.0000
M3S245
G4 P0.5; Tool Off

G0 Z0; move to z-safe height
G0 X592.3600 Y1207.0000
M3S0
G4 P0.5; Tool On
G1 F300 Z0.0000
G1 F15000 X592.3600 Y3.0000 Z0.0000
M3S245
G4 P0.5; Tool Off

G0 Z0; move to z-safe height
G0 X586.3600 Y3.0000
M3S0
G4 P0.5; Tool On
G1 F300 Z0.0000
G1 F15000 X586.3600 Y1207.0000 Z0.0000
M3S245
G4 P0.5; Tool Off

G0 Z0; move to z-safe height
G0 X580.3600 Y1207.0000
M3S0
G4 P0.5; Tool On
G1 F300 Z0.0000
G1 F15000 X580.3600 Y3.0000 Z0.0000
M3S245
G4 P0.5; Tool Off

G0 Z0; move to z-safe height
G0 X574.3600 Y3.0000
M3S0
G4 P0.5; Tool On
G1 F300 Z0.0000
G1 F15000 X574.3600 Y1207.0000 Z0.0000
M3S245
G4 P0.5; Tool Off

G0 Z0; move to z-safe height
G0 X568.3600 Y1207.0000
M3S0
G4 P0.5; Tool On
G1 F300 Z0.0000
G1 F15000 X568.3600 Y3.0000 Z0.0000
M3S245
G4 P0.5; Tool Off

G0 Z0; move to z-safe height
G0 X562.3600 Y3.0000
M3S0
G4 P0.5; Tool On
G1 F300 Z0.0000
G1 F15000 X562.3600 Y1207.0000 Z0.0000
M3S245
G4 P0.5; Tool Off

G0 Z0; move to z-safe height
G0 X556.3600 Y1207.0000
M3S0
G4 P0.5; Tool On
G1 F300 Z0.0000
G1 F15000 X556.3600 Y3.0000 Z0.0000
M3S245
G4 P0.5; Tool Off

G0 Z0; move to z-safe height
G0 X550.3600 Y3.0000
M3S0
G4 P0.5; Tool On
G1 F300 Z0.0000
G1 F15000 X550.3600 Y1207.0000 Z0.0000
M3S245
G4 P0.5; Tool Off

G0 Z0; move to z-safe height
G0 X544.3600 Y1207.0000
M3S0
G4 P0.5; Tool On
G1 F300 Z0.0000
G1 F15000 X544.3600 Y3.0000 Z0.0000
M3S245
G4 P0.5; Tool Off

G0 Z0; move to z-safe height
G0 X538.3600 Y3.0000
M3S0
G4 P0.5; Tool On
G1 F300 Z0.0000
G1 F15000 X538.3600 Y1207.0000 Z0.0000
M3S245
G4 P0.5; Tool Off

G0 Z0; move to z-safe height
G0 X532.3600 Y1207.0000
M3S0
G4 P0.5; Tool On
G1 F300 Z0.0000
G1 F15000 X532.3600 Y3.0000 Z0.0000
M3S245
G4 P0.5; Tool Off

G0 Z0; move to z-safe height
G0 X526.3600 Y3.0000
M3S0
G4 P0.5; Tool On
G1 F300 Z0.0000
G1 F15000 X526.3600 Y1207.0000 Z0.0000
M3S245
G4 P0.5; Tool Off

G0 Z0; move to z-safe height
G0 X520.3600 Y1207.0000
M3S0
G4 P0.5; Tool On
G1 F300 Z0.0000
G1 F15000 X520.3600 Y3.0000 Z0.0000
M3S245
G4 P0.5; Tool Off

G0 Z0; move to z-safe height
G0 X514.3600 Y3.0000
M3S0
G4 P0.5; Tool On
G1 F300 Z0.0000
G1 F15000 X514.3600 Y1207.0000 Z0.0000
M3S245
G4 P0.5; Tool Off

G0 Z0; move to z-safe height
G0 X508.3600 Y1207.0000
M3S0
G4 P0.5; Tool On
G1 F300 Z0.0000
G1 F15000 X508.3600 Y3.0000 Z0.0000
M3S245
G4 P0.5; Tool Off

G0 Z0; move to z-safe height
G0 X502.3600 Y3.0000
M3S0
G4 P0.5; Tool On
G1 F300 Z0.0000
G1 F15000 X502.3600 Y1207.0000 Z0.0000
M3S245
G4 P0.5; Tool Off

G0 Z0; move to z-safe height
G0 X496.3600 Y1207.0000
M3S0
G4 P0.5; Tool On
G1 F300 Z0.0000
G1 F15000 X496.3600 Y3.0000 Z0.0000
M3S245
G4 P0.5; Tool Off

G0 Z0; move to z-safe height
G0 X490.3600 Y3.0000
M3S0
G4 P0.5; Tool On
G1 F300 Z0.0000
G1 F15000 X490.3600 Y1207.0000 Z0.0000
M3S245
G4 P0.5; Tool Off

G0 Z0; move to z-safe height
G0 X484.3600 Y1207.0000
M3S0
G4 P0.5; Tool On
G1 F300 Z0.0000
G1 F15000 X484.3600 Y3.0000 Z0.0000
M3S245
G4 P0.5; Tool Off

G0 Z0; move to z-safe height
G0 X478.3600 Y3.0000
M3S0
G4 P0.5; Tool On
G1 F300 Z0.0000
G1 F15000 X478.3600 Y1207.0000 Z0.0000
M3S245
G4 P0.5; Tool Off

G0 Z0; move to z-safe height
G0 X472.3600 Y1207.0000
M3S0
G4 P0.5; Tool On
G1 F300 Z0.0000
G1 F15000 X472.3600 Y3.0000 Z0.0000
M3S245
G4 P0.5; Tool Off

G0 Z0; move to z-safe height
G0 X466.3600 Y3.0000
M3S0
G4 P0.5; Tool On
G1 F300 Z0.0000
G1 F15000 X466.3600 Y1207.0000 Z0.0000
M3S245
G4 P0.5; Tool Off

G0 Z0; move to z-safe height
G0 X460.3600 Y1207.0000
M3S0
G4 P0.5; Tool On
G1 F300 Z0.0000
G1 F15000 X460.3600 Y3.0000 Z0.0000
M3S245
G4 P0.5; Tool Off

G0 Z0; move to z-safe height
G0 X454.3600 Y3.0000
M3S0
G4 P0.5; Tool On
G1 F300 Z0.0000
G1 F15000 X454.3600 Y1207.0000 Z0.0000
M3S245
G4 P0.5; Tool Off

G0 Z0; move to z-safe height
G0 X448.3600 Y1207.0000
M3S0
G4 P0.5; Tool On
G1 F300 Z0.0000
G1 F15000 X448.3600 Y3.0000 Z0.0000
M3S245
G4 P0.5; Tool Off

G0 Z0; move to z-safe height
G0 X442.3600 Y3.0000
M3S0
G4 P0.5; Tool On
G1 F300 Z0.0000
G1 F15000 X442.3600 Y1207.0000 Z0.0000
M3S245
G4 P0.5; Tool Off

G0 Z0; move to z-safe height
G0 X436.3600 Y1207.0000
M3S0
G4 P0.5; Tool On
G1 F300 Z0.0000
G1 F15000 X436.3600 Y3.0000 Z0.0000
M3S245
G4 P0.5; Tool Off

G0 Z0; move to z-safe height
G0 X430.3600 Y3.0000
M3S0
G4 P0.5; Tool On
G1 F300 Z0.0000
G1 F15000 X430.3600 Y1207.0000 Z0.0000
M3S245
G4 P0.5; Tool Off

G0 Z0; move to z-safe height
G0 X424.3600 Y1207.0000
M3S0
G4 P0.5; Tool On
G1 F300 Z0.0000
G1 F15000 X424.3600 Y3.0000 Z0.0000
M3S245
G4 P0.5; Tool Off

G0 Z0; move to z-safe height
G0 X418.3600 Y3.0000
M3S0
G4 P0.5; Tool On
G1 F300 Z0.0000
G1 F15000 X418.3600 Y1207.0000 Z0.0000
M3S245
G4 P0.5; Tool Off

G0 Z0; move to z-safe height
G0 X412.3600 Y1207.0000
M3S0
G4 P0.5; Tool On
G1 F300 Z0.0000
G1 F15000 X412.3600 Y3.0000 Z0.0000
M3S245
G4 P0.5; Tool Off

G0 Z0; move to z-safe height
G0 X406.3600 Y3.0000
M3S0
G4 P0.5; Tool On
G1 F300 Z0.0000
G1 F15000 X406.3600 Y1207.0000 Z0.0000
M3S245
G4 P0.5; Tool Off

G0 Z0; move to z-safe height
G0 X400.3600 Y1207.0000
M3S0
G4 P0.5; Tool On
G1 F300 Z0.0000
G1 F15000 X400.3600 Y3.0000 Z0.0000
M3S245
G4 P0.5; Tool Off

G0 Z0; move to z-safe height
G0 X394.3600 Y3.0000
M3S0
G4 P0.5; Tool On
G1 F300 Z0.0000
G1 F15000 X394.3600 Y1207.0000 Z0.0000
M3S245
G4 P0.5; Tool Off

G0 Z0; move to z-safe height
G0 X388.3600 Y1207.0000
M3S0
G4 P0.5; Tool On
G1 F300 Z0.0000
G1 F15000 X388.3600 Y3.0000 Z0.0000
M3S245
G4 P0.5; Tool Off

G0 Z0; move to z-safe height
G0 X382.3600 Y3.0000
M3S0
G4 P0.5; Tool On
G1 F300 Z0.0000
G1 F15000 X382.3600 Y1207.0000 Z0.0000
M3S245
G4 P0.5; Tool Off

G0 Z0; move to z-safe height
G0 X376.3600 Y1207.0000
M3S0
G4 P0.5; Tool On
G1 F300 Z0.0000
G1 F15000 X376.3600 Y3.0000 Z0.0000
M3S245
G4 P0.5; Tool Off

G0 Z0; move to z-safe height
G0 X370.3600 Y3.0000
M3S0
G4 P0.5; Tool On
G1 F300 Z0.0000
G1 F15000 X370.3600 Y1207.0000 Z0.0000
M3S245
G4 P0.5; Tool Off

G0 Z0; move to z-safe height
G0 X364.3600 Y1207.0000
M3S0
G4 P0.5; Tool On
G1 F300 Z0.0000
G1 F15000 X364.3600 Y3.0000 Z0.0000
M3S245
G4 P0.5; Tool Off

G0 Z0; move to z-safe height
G0 X358.3600 Y3.0000
M3S0
G4 P0.5; Tool On
G1 F300 Z0.0000
G1 F15000 X358.3600 Y1207.0000 Z0.0000
M3S245
G4 P0.5; Tool Off

G0 Z0; move to z-safe height
G0 X352.3600 Y1207.0000
M3S0
G4 P0.5; Tool On
G1 F300 Z0.0000
G1 F15000 X352.3600 Y3.0000 Z0.0000
M3S245
G4 P0.5; Tool Off

G0 Z0; move to z-safe height
G0 X346.3600 Y3.0000
M3S0
G4 P0.5; Tool On
G1 F300 Z0.0000
G1 F15000 X346.3600 Y1207.0000 Z0.0000
M3S245
G4 P0.5; Tool Off

G0 Z0; move to z-safe height
G0 X340.3600 Y1207.0000
M3S0
G4 P0.5; Tool On
G1 F300 Z0.0000
G1 F15000 X340.3600 Y3.0000 Z0.0000
M3S245
G4 P0.5; Tool Off

G0 Z0; move to z-safe height
G0 X334.3600 Y3.0000
M3S0
G4 P0.5; Tool On
G1 F300 Z0.0000
G1 F15000 X334.3600 Y1207.0000 Z0.0000
M3S245
G4 P0.5; Tool Off

G0 Z0; move to z-safe height
G0 X328.3600 Y1207.0000
M3S0
G4 P0.5; Tool On
G1 F300 Z0.0000
G1 F15000 X328.3600 Y3.0000 Z0.0000
M3S245
G4 P0.5; Tool Off

G0 Z0; move to z-safe height
G0 X322.3600 Y3.0000
M3S0
G4 P0.5; Tool On
G1 F300 Z0.0000
G1 F15000 X322.3600 Y1207.0000 Z0.0000
M3S245
G4 P0.5; Tool Off

G0 Z0; move to z-safe height
G0 X316.3600 Y1207.0000
M3S0
G4 P0.5; Tool On
G1 F300 Z0.0000
G1 F15000 X316.3600 Y3.0000 Z0.0000
M3S245
G4 P0.5; Tool Off

G0 Z0; move to z-safe height
G0 X310.3600 Y3.0000
M3S0
G4 P0.5; Tool On
G1 F300 Z0.0000
G1 F15000 X310.3600 Y1207.0000 Z0.0000
M3S245
G4 P0.5; Tool Off

G0 Z0; move to z-safe height
G0 X304.3600 Y1207.0000
M3S0
G4 P0.5; Tool On
G1 F300 Z0.0000
G1 F15000 X304.3600 Y3.0000 Z0.0000
M3S245
G4 P0.5; Tool Off

G0 Z0; move to z-safe height
G0 X298.3600 Y3.0000
M3S0
G4 P0.5; Tool On
G1 F300 Z0.0000
G1 F15000 X298.3600 Y1207.0000 Z0.0000
M3S245
G4 P0.5; Tool Off

G0 Z0; move to z-safe height
G0 X292.3600 Y1207.0000
M3S0
G4 P0.5; Tool On
G1 F300 Z0.0000
G1 F15000 X292.3600 Y3.0000 Z0.0000
M3S245
G4 P0.5; Tool Off

G0 Z0; move to z-safe height
G0 X286.3600 Y3.0000
M3S0
G4 P0.5; Tool On
G1 F300 Z0.0000
G1 F15000 X286.3600 Y1207.0000 Z0.0000
M3S245
G4 P0.5; Tool Off

G0 Z0; move to z-safe height
G0 X280.3600 Y1207.0000
M3S0
G4 P0.5; Tool On
G1 F300 Z0.0000
G1 F15000 X280.3600 Y3.0000 Z0.0000
M3S245
G4 P0.5; Tool Off

G0 Z0; move to z-safe height
G0 X274.3600 Y3.0000
M3S0
G4 P0.5; Tool On
G1 F300 Z0.0000
G1 F15000 X274.3600 Y1207.0000 Z0.0000
M3S245
G4 P0.5; Tool Off

G0 Z0; move to z-safe height
G0 X268.3600 Y1207.0000
M3S0
G4 P0.5; Tool On
G1 F300 Z0.0000
G1 F15000 X268.3600 Y3.0000 Z0.0000
M3S245
G4 P0.5; Tool Off

G0 Z0; move to z-safe height
G0 X262.3600 Y3.0000
M3S0
G4 P0.5; Tool On
G1 F300 Z0.0000
G1 F15000 X262.3600 Y1207.0000 Z0.0000
M3S245
G4 P0.5; Tool Off

G0 Z0; move to z-safe height
G0 X256.3600 Y1207.0000
M3S0
G4 P0.5; Tool On
G1 F300 Z0.0000
G1 F15000 X256.3600 Y3.0000 Z0.0000
M3S245
G4 P0.5; Tool Off

G0 Z0; move to z-safe height
G0 X250.3600 Y3.0000
M3S0
G4 P0.5; Tool On
G1 F300 Z0.0000
G1 F15000 X250.3600 Y1207.0000 Z0.0000
M3S245
G4 P0.5; Tool Off

G0 Z0; move to z-safe height
G0 X244.3600 Y1207.0000
M3S0
G4 P0.5; Tool On
G1 F300 Z0.0000
G1 F15000 X244.3600 Y3.0000 Z0.0000
M3S245
G4 P0.5; Tool Off

G0 Z0; move to z-safe height
G0 X238.3600 Y3.0000
M3S0
G4 P0.5; Tool On
G1 F300 Z0.0000
G1 F15000 X238.3600 Y1207.0000 Z0.0000
M3S245
G4 P0.5; Tool Off

G0 Z0; move to z-safe height
G0 X232.3600 Y1207.0000
M3S0
G4 P0.5; Tool On
G1 F300 Z0.0000
G1 F15000 X232.3600 Y3.0000 Z0.0000
M3S245
G4 P0.5; Tool Off

G0 Z0; move to z-safe height
G0 X226.3600 Y3.0000
M3S0
G4 P0.5; Tool On
G1 F300 Z0.0000
G1 F15000 X226.3600 Y1207.0000 Z0.0000
M3S245
G4 P0.5; Tool Off

G0 Z0; move to z-safe height
G0 X220.3600 Y1207.0000
M3S0
G4 P0.5; Tool On
G1 F300 Z0.0000
G1 F15000 X220.3600 Y3.0000 Z0.0000
M3S245
G4 P0.5; Tool Off

G0 Z0; move to z-safe height
G0 X214.3600 Y3.0000
M3S0
G4 P0.5; Tool On
G1 F300 Z0.0000
G1 F15000 X214.3600 Y1207.0000 Z0.0000
M3S245
G4 P0.5; Tool Off

G0 Z0; move to z-safe height
G0 X208.3600 Y1207.0000
M3S0
G4 P0.5; Tool On
G1 F300 Z0.0000
G1 F15000 X208.3600 Y3.0000 Z0.0000
M3S245
G4 P0.5; Tool Off

G0 Z0; move to z-safe height
G0 X202.3600 Y3.0000
M3S0
G4 P0.5; Tool On
G1 F300 Z0.0000
G1 F15000 X202.3600 Y1207.0000 Z0.0000
M3S245
G4 P0.5; Tool Off

G0 Z0; move to z-safe height
G0 X196.3600 Y1207.0000
M3S0
G4 P0.5; Tool On
G1 F300 Z0.0000
G1 F15000 X196.3600 Y3.0000 Z0.0000
M3S245
G4 P0.5; Tool Off

G0 Z0; move to z-safe height
G0 X190.3600 Y3.0000
M3S0
G4 P0.5; Tool On
G1 F300 Z0.0000
G1 F15000 X190.3600 Y1207.0000 Z0.0000
M3S245
G4 P0.5; Tool Off

G0 Z0; move to z-safe height
G0 X184.3600 Y1207.0000
M3S0
G4 P0.5; Tool On
G1 F300 Z0.0000
G1 F15000 X184.3600 Y3.0000 Z0.0000
M3S245
G4 P0.5; Tool Off

G0 Z0; move to z-safe height
G0 X178.3600 Y3.0000
M3S0
G4 P0.5; Tool On
G1 F300 Z0.0000
G1 F15000 X178.3600 Y1207.0000 Z0.0000
M3S245
G4 P0.5; Tool Off

G0 Z0; move to z-safe height
G0 X172.3600 Y1207.0000
M3S0
G4 P0.5; Tool On
G1 F300 Z0.0000
G1 F15000 X172.3600 Y3.0000 Z0.0000
M3S245
G4 P0.5; Tool Off

G0 Z0; move to z-safe height
G0 X166.3600 Y3.0000
M3S0
G4 P0.5; Tool On
G1 F300 Z0.0000
G1 F15000 X166.3600 Y1207.0000 Z0.0000
M3S245
G4 P0.5; Tool Off

G0 Z0; move to z-safe height
G0 X160.3600 Y1207.0000
M3S0
G4 P0.5; Tool On
G1 F300 Z0.0000
G1 F15000 X160.3600 Y3.0000 Z0.0000
M3S245
G4 P0.5; Tool Off

G0 Z0; move to z-safe height
G0 X154.3600 Y3.0000
M3S0
G4 P0.5; Tool On
G1 F300 Z0.0000
G1 F15000 X154.3600 Y1207.0000 Z0.0000
M3S245
G4 P0.5; Tool Off

G0 Z0; move to z-safe height
G0 X148.3600 Y1207.0000
M3S0
G4 P0.5; Tool On
G1 F300 Z0.0000
G1 F15000 X148.3600 Y3.0000 Z0.0000
M3S245
G4 P0.5; Tool Off

G0 Z0; move to z-safe height
G0 X142.3600 Y3.0000
M3S0
G4 P0.5; Tool On
G1 F300 Z0.0000
G1 F15000 X142.3600 Y1207.0000 Z0.0000
M3S245
G4 P0.5; Tool Off

G0 Z0; move to z-safe height
G0 X136.3600 Y1207.0000
M3S0
G4 P0.5; Tool On
G1 F300 Z0.0000
G1 F15000 X136.3600 Y3.0000 Z0.0000
M3S245
G4 P0.5; Tool Off

G0 Z0; move to z-safe height
G0 X130.3600 Y3.0000
M3S0
G4 P0.5; Tool On
G1 F300 Z0.0000
G1 F15000 X130.3600 Y1207.0000 Z0.0000
M3S245
G4 P0.5; Tool Off

G0 Z0; move to z-safe height
G0 X124.3600 Y1207.0000
M3S0
G4 P0.5; Tool On
G1 F300 Z0.0000
G1 F15000 X124.3600 Y3.0000 Z0.0000
M3S245
G4 P0.5; Tool Off

G0 Z0; move to z-safe height
G0 X118.3600 Y3.0000
M3S0
G4 P0.5; Tool On
G1 F300 Z0.0000
G1 F15000 X118.3600 Y1207.0000 Z0.0000
M3S245
G4 P0.5; Tool Off

G0 Z0; move to z-safe height
G0 X112.3600 Y1207.0000
M3S0
G4 P0.5; Tool On
G1 F300 Z0.0000
G1 F15000 X112.3600 Y3.0000 Z0.0000
M3S245
G4 P0.5; Tool Off

G0 Z0; move to z-safe height
G0 X106.3600 Y3.0000
M3S0
G4 P0.5; Tool On
G1 F300 Z0.0000
G1 F15000 X106.3600 Y1207.0000 Z0.0000
M3S245
G4 P0.5; Tool Off

G0 Z0; move to z-safe height
G0 X100.3600 Y1207.0000
M3S0
G4 P0.5; Tool On
G1 F300 Z0.0000
G1 F15000 X100.3600 Y3.0000 Z0.0000
M3S245
G4 P0.5; Tool Off

G0 Z0; move to z-safe height
G0 X94.3600 Y3.0000
M3S0
G4 P0.5; Tool On
G1 F300 Z0.0000
G1 F15000 X94.3600 Y1207.0000 Z0.0000
M3S245
G4 P0.5; Tool Off

G0 Z0; move to z-safe height
G0 X88.3600 Y1207.0000
M3S0
G4 P0.5; Tool On
G1 F300 Z0.0000
G1 F15000 X88.3600 Y3.0000 Z0.0000
M3S245
G4 P0.5; Tool Off

G0 Z0; move to z-safe height
G0 X82.3600 Y3.0000
M3S0
G4 P0.5; Tool On
G1 F300 Z0.0000
G1 F15000 X82.3600 Y1207.0000 Z0.0000
M3S245
G4 P0.5; Tool Off

G0 Z0; move to z-safe height
G0 X76.3600 Y1207.0000
M3S0
G4 P0.5; Tool On
G1 F300 Z0.0000
G1 F15000 X76.3600 Y3.0000 Z0.0000
M3S245
G4 P0.5; Tool Off

G0 Z0; move to z-safe height
G0 X70.3600 Y3.0000
M3S0
G4 P0.5; Tool On
G1 F300 Z0.0000
G1 F15000 X70.3600 Y1207.0000 Z0.0000
M3S245
G4 P0.5; Tool Off

G0 Z0; move to z-safe height
G0 X64.3600 Y1207.0000
M3S0
G4 P0.5; Tool On
G1 F300 Z0.0000
G1 F15000 X64.3600 Y3.0000 Z0.0000
M3S245
G4 P0.5; Tool Off

G0 Z0; move to z-safe height
G0 X58.3600 Y3.0000
M3S0
G4 P0.5; Tool On
G1 F300 Z0.0000
G1 F15000 X58.3600 Y1207.0000 Z0.0000
M3S245
G4 P0.5; Tool Off

G0 Z0; move to z-safe height
G0 X52.3600 Y1207.0000
M3S0
G4 P0.5; Tool On
G1 F300 Z0.0000
G1 F15000 X52.3600 Y3.0000 Z0.0000
M3S245
G4 P0.5; Tool Off

G0 Z0; move to z-safe height
G0 X46.3600 Y3.0000
M3S0
G4 P0.5; Tool On
G1 F300 Z0.0000
G1 F15000 X46.3600 Y1207.0000 Z0.0000
M3S245
G4 P0.5; Tool Off

G0 Z0; move to z-safe height
G0 X40.3600 Y1207.0000
M3S0
G4 P0.5; Tool On
G1 F300 Z0.0000
G1 F15000 X40.3600 Y3.0000 Z0.0000
M3S245
G4 P0.5; Tool Off

G0 Z0; move to z-safe height
G0 X34.3600 Y3.0000
M3S0
G4 P0.5; Tool On
G1 F300 Z0.0000
G1 F15000 X34.3600 Y1207.0000 Z0.0000
M3S245
G4 P0.5; Tool Off

G0 Z0; move to z-safe height
G0 X28.3600 Y1207.0000
M3S0
G4 P0.5; Tool On
G1 F300 Z0.0000
G1 F15000 X28.3600 Y3.0000 Z0.0000
M3S245
G4 P0.5; Tool Off

G0 Z0; move to z-safe height
G0 X22.3600 Y3.0000
M3S0
G4 P0.5; Tool On
G1 F300 Z0.0000
G1 F15000 X22.3600 Y1207.0000 Z0.0000
M3S245
G4 P0.5; Tool Off

G0 Z0; move to z-safe height
G0 X16.3600 Y1207.0000
M3S0
G4 P0.5; Tool On
G1 F300 Z0.0000
G1 F15000 X16.3600 Y3.0000 Z0.0000
M3S245
G4 P0.5; Tool Off

G0 Z0; move to z-safe height
G0 X10.3600 Y3.0000
M3S0
G4 P0.5; Tool On
G1 F300 Z0.0000
G1 F15000 X10.3600 Y1207.0000 Z0.0000
M3S245
G4 P0.5; Tool Off

G0 Z0; move to z-safe height
G0 X4.3600 Y1207.0000
M3S0
G4 P0.5; Tool On
G1 F300 Z0.0000
G1 F15000 X4.3600 Y3.0000 Z0.0000
M3S245
G4 P0.5; Tool Off
; retracting back to z-safe
G0 Z0

; Plotter Mode Complete
