; GCODE Generated by cam.openbuilds.com on 2023-06-19 
G21 ; mm-mode
G54; Work Coordinates
G21; mm-mode
G90; Absolute Positioning
; Plotter Mode Active

; Operation 0: Pen Plotter: (lines fill)
; Pen Diameter: 2

G0 Z0; move to z-safe height
G0 F1000 X1203.5300 Y5.0000
M3S0
G4 P0.5; Tool On
G1 F300 Z0.0000
G1 F15000 X1203.5300 Y1205.0000 Z0.0000
M3S245
G4 P0.5; Tool Off

G0 Z0; move to z-safe height
G0 X1193.5300 Y1205.0000
M3S0
G4 P0.5; Tool On
G1 F300 Z0.0000
G1 F15000 X1193.5300 Y5.0000 Z0.0000
M3S245
G4 P0.5; Tool Off

G0 Z0; move to z-safe height
G0 X1183.5300 Y5.0000
M3S0
G4 P0.5; Tool On
G1 F300 Z0.0000
G1 F15000 X1183.5300 Y1205.0000 Z0.0000
M3S245
G4 P0.5; Tool Off

G0 Z0; move to z-safe height
G0 X1173.5300 Y1205.0000
M3S0
G4 P0.5; Tool On
G1 F300 Z0.0000
G1 F15000 X1173.5300 Y5.0000 Z0.0000
M3S245
G4 P0.5; Tool Off

G0 Z0; move to z-safe height
G0 X1163.5300 Y5.0000
M3S0
G4 P0.5; Tool On
G1 F300 Z0.0000
G1 F15000 X1163.5300 Y1205.0000 Z0.0000
M3S245
G4 P0.5; Tool Off

G0 Z0; move to z-safe height
G0 X1153.5300 Y1205.0000
M3S0
G4 P0.5; Tool On
G1 F300 Z0.0000
G1 F15000 X1153.5300 Y5.0000 Z0.0000
M3S245
G4 P0.5; Tool Off

G0 Z0; move to z-safe height
G0 X1143.5300 Y5.0000
M3S0
G4 P0.5; Tool On
G1 F300 Z0.0000
G1 F15000 X1143.5300 Y1205.0000 Z0.0000
M3S245
G4 P0.5; Tool Off

G0 Z0; move to z-safe height
G0 X1133.5300 Y1205.0000
M3S0
G4 P0.5; Tool On
G1 F300 Z0.0000
G1 F15000 X1133.5300 Y5.0000 Z0.0000
M3S245
G4 P0.5; Tool Off

G0 Z0; move to z-safe height
G0 X1123.5300 Y5.0000
M3S0
G4 P0.5; Tool On
G1 F300 Z0.0000
G1 F15000 X1123.5300 Y1205.0000 Z0.0000
M3S245
G4 P0.5; Tool Off

G0 Z0; move to z-safe height
G0 X1113.5300 Y1205.0000
M3S0
G4 P0.5; Tool On
G1 F300 Z0.0000
G1 F15000 X1113.5300 Y5.0000 Z0.0000
M3S245
G4 P0.5; Tool Off

G0 Z0; move to z-safe height
G0 X1103.5300 Y5.0000
M3S0
G4 P0.5; Tool On
G1 F300 Z0.0000
G1 F15000 X1103.5300 Y1205.0000 Z0.0000
M3S245
G4 P0.5; Tool Off

G0 Z0; move to z-safe height
G0 X1093.5300 Y1205.0000
M3S0
G4 P0.5; Tool On
G1 F300 Z0.0000
G1 F15000 X1093.5300 Y5.0000 Z0.0000
M3S245
G4 P0.5; Tool Off

G0 Z0; move to z-safe height
G0 X1083.5300 Y5.0000
M3S0
G4 P0.5; Tool On
G1 F300 Z0.0000
G1 F15000 X1083.5300 Y1205.0000 Z0.0000
M3S245
G4 P0.5; Tool Off

G0 Z0; move to z-safe height
G0 X1073.5300 Y1205.0000
M3S0
G4 P0.5; Tool On
G1 F300 Z0.0000
G1 F15000 X1073.5300 Y5.0000 Z0.0000
M3S245
G4 P0.5; Tool Off

G0 Z0; move to z-safe height
G0 X1063.5300 Y5.0000
M3S0
G4 P0.5; Tool On
G1 F300 Z0.0000
G1 F15000 X1063.5300 Y1205.0000 Z0.0000
M3S245
G4 P0.5; Tool Off

G0 Z0; move to z-safe height
G0 X1053.5300 Y1205.0000
M3S0
G4 P0.5; Tool On
G1 F300 Z0.0000
G1 F15000 X1053.5300 Y5.0000 Z0.0000
M3S245
G4 P0.5; Tool Off

G0 Z0; move to z-safe height
G0 X1043.5300 Y5.0000
M3S0
G4 P0.5; Tool On
G1 F300 Z0.0000
G1 F15000 X1043.5300 Y1205.0000 Z0.0000
M3S245
G4 P0.5; Tool Off

G0 Z0; move to z-safe height
G0 X1033.5300 Y1205.0000
M3S0
G4 P0.5; Tool On
G1 F300 Z0.0000
G1 F15000 X1033.5300 Y5.0000 Z0.0000
M3S245
G4 P0.5; Tool Off

G0 Z0; move to z-safe height
G0 X1023.5300 Y5.0000
M3S0
G4 P0.5; Tool On
G1 F300 Z0.0000
G1 F15000 X1023.5300 Y1205.0000 Z0.0000
M3S245
G4 P0.5; Tool Off

G0 Z0; move to z-safe height
G0 X1013.5300 Y1205.0000
M3S0
G4 P0.5; Tool On
G1 F300 Z0.0000
G1 F15000 X1013.5300 Y5.0000 Z0.0000
M3S245
G4 P0.5; Tool Off

G0 Z0; move to z-safe height
G0 X1003.5300 Y5.0000
M3S0
G4 P0.5; Tool On
G1 F300 Z0.0000
G1 F15000 X1003.5300 Y1205.0000 Z0.0000
M3S245
G4 P0.5; Tool Off

G0 Z0; move to z-safe height
G0 X993.5300 Y1205.0000
M3S0
G4 P0.5; Tool On
G1 F300 Z0.0000
G1 F15000 X993.5300 Y5.0000 Z0.0000
M3S245
G4 P0.5; Tool Off

G0 Z0; move to z-safe height
G0 X983.5300 Y5.0000
M3S0
G4 P0.5; Tool On
G1 F300 Z0.0000
G1 F15000 X983.5300 Y1205.0000 Z0.0000
M3S245
G4 P0.5; Tool Off

G0 Z0; move to z-safe height
G0 X973.5300 Y1205.0000
M3S0
G4 P0.5; Tool On
G1 F300 Z0.0000
G1 F15000 X973.5300 Y5.0000 Z0.0000
M3S245
G4 P0.5; Tool Off

G0 Z0; move to z-safe height
G0 X963.5300 Y5.0000
M3S0
G4 P0.5; Tool On
G1 F300 Z0.0000
G1 F15000 X963.5300 Y1205.0000 Z0.0000
M3S245
G4 P0.5; Tool Off

G0 Z0; move to z-safe height
G0 X953.5300 Y1205.0000
M3S0
G4 P0.5; Tool On
G1 F300 Z0.0000
G1 F15000 X953.5300 Y5.0000 Z0.0000
M3S245
G4 P0.5; Tool Off

G0 Z0; move to z-safe height
G0 X943.5300 Y5.0000
M3S0
G4 P0.5; Tool On
G1 F300 Z0.0000
G1 F15000 X943.5300 Y1205.0000 Z0.0000
M3S245
G4 P0.5; Tool Off

G0 Z0; move to z-safe height
G0 X933.5300 Y1205.0000
M3S0
G4 P0.5; Tool On
G1 F300 Z0.0000
G1 F15000 X933.5300 Y5.0000 Z0.0000
M3S245
G4 P0.5; Tool Off

G0 Z0; move to z-safe height
G0 X923.5300 Y5.0000
M3S0
G4 P0.5; Tool On
G1 F300 Z0.0000
G1 F15000 X923.5300 Y1205.0000 Z0.0000
M3S245
G4 P0.5; Tool Off

G0 Z0; move to z-safe height
G0 X913.5300 Y1205.0000
M3S0
G4 P0.5; Tool On
G1 F300 Z0.0000
G1 F15000 X913.5300 Y5.0000 Z0.0000
M3S245
G4 P0.5; Tool Off

G0 Z0; move to z-safe height
G0 X903.5300 Y5.0000
M3S0
G4 P0.5; Tool On
G1 F300 Z0.0000
G1 F15000 X903.5300 Y1205.0000 Z0.0000
M3S245
G4 P0.5; Tool Off

G0 Z0; move to z-safe height
G0 X893.5300 Y1205.0000
M3S0
G4 P0.5; Tool On
G1 F300 Z0.0000
G1 F15000 X893.5300 Y5.0000 Z0.0000
M3S245
G4 P0.5; Tool Off

G0 Z0; move to z-safe height
G0 X883.5300 Y5.0000
M3S0
G4 P0.5; Tool On
G1 F300 Z0.0000
G1 F15000 X883.5300 Y1205.0000 Z0.0000
M3S245
G4 P0.5; Tool Off

G0 Z0; move to z-safe height
G0 X873.5300 Y1205.0000
M3S0
G4 P0.5; Tool On
G1 F300 Z0.0000
G1 F15000 X873.5300 Y5.0000 Z0.0000
M3S245
G4 P0.5; Tool Off

G0 Z0; move to z-safe height
G0 X863.5300 Y5.0000
M3S0
G4 P0.5; Tool On
G1 F300 Z0.0000
G1 F15000 X863.5300 Y1205.0000 Z0.0000
M3S245
G4 P0.5; Tool Off

G0 Z0; move to z-safe height
G0 X853.5300 Y1205.0000
M3S0
G4 P0.5; Tool On
G1 F300 Z0.0000
G1 F15000 X853.5300 Y5.0000 Z0.0000
M3S245
G4 P0.5; Tool Off

G0 Z0; move to z-safe height
G0 X843.5300 Y5.0000
M3S0
G4 P0.5; Tool On
G1 F300 Z0.0000
G1 F15000 X843.5300 Y1205.0000 Z0.0000
M3S245
G4 P0.5; Tool Off

G0 Z0; move to z-safe height
G0 X833.5300 Y1205.0000
M3S0
G4 P0.5; Tool On
G1 F300 Z0.0000
G1 F15000 X833.5300 Y5.0000 Z0.0000
M3S245
G4 P0.5; Tool Off

G0 Z0; move to z-safe height
G0 X823.5300 Y5.0000
M3S0
G4 P0.5; Tool On
G1 F300 Z0.0000
G1 F15000 X823.5300 Y1205.0000 Z0.0000
M3S245
G4 P0.5; Tool Off

G0 Z0; move to z-safe height
G0 X813.5300 Y1205.0000
M3S0
G4 P0.5; Tool On
G1 F300 Z0.0000
G1 F15000 X813.5300 Y5.0000 Z0.0000
M3S245
G4 P0.5; Tool Off

G0 Z0; move to z-safe height
G0 X803.5300 Y5.0000
M3S0
G4 P0.5; Tool On
G1 F300 Z0.0000
G1 F15000 X803.5300 Y1205.0000 Z0.0000
M3S245
G4 P0.5; Tool Off

G0 Z0; move to z-safe height
G0 X793.5300 Y1205.0000
M3S0
G4 P0.5; Tool On
G1 F300 Z0.0000
G1 F15000 X793.5300 Y5.0000 Z0.0000
M3S245
G4 P0.5; Tool Off

G0 Z0; move to z-safe height
G0 X783.5300 Y5.0000
M3S0
G4 P0.5; Tool On
G1 F300 Z0.0000
G1 F15000 X783.5300 Y1205.0000 Z0.0000
M3S245
G4 P0.5; Tool Off

G0 Z0; move to z-safe height
G0 X773.5300 Y1205.0000
M3S0
G4 P0.5; Tool On
G1 F300 Z0.0000
G1 F15000 X773.5300 Y5.0000 Z0.0000
M3S245
G4 P0.5; Tool Off

G0 Z0; move to z-safe height
G0 X763.5300 Y5.0000
M3S0
G4 P0.5; Tool On
G1 F300 Z0.0000
G1 F15000 X763.5300 Y1205.0000 Z0.0000
M3S245
G4 P0.5; Tool Off

G0 Z0; move to z-safe height
G0 X753.5300 Y1205.0000
M3S0
G4 P0.5; Tool On
G1 F300 Z0.0000
G1 F15000 X753.5300 Y5.0000 Z0.0000
M3S245
G4 P0.5; Tool Off

G0 Z0; move to z-safe height
G0 X743.5300 Y5.0000
M3S0
G4 P0.5; Tool On
G1 F300 Z0.0000
G1 F15000 X743.5300 Y1205.0000 Z0.0000
M3S245
G4 P0.5; Tool Off

G0 Z0; move to z-safe height
G0 X733.5300 Y1205.0000
M3S0
G4 P0.5; Tool On
G1 F300 Z0.0000
G1 F15000 X733.5300 Y5.0000 Z0.0000
M3S245
G4 P0.5; Tool Off

G0 Z0; move to z-safe height
G0 X723.5300 Y5.0000
M3S0
G4 P0.5; Tool On
G1 F300 Z0.0000
G1 F15000 X723.5300 Y1205.0000 Z0.0000
M3S245
G4 P0.5; Tool Off

G0 Z0; move to z-safe height
G0 X713.5300 Y1205.0000
M3S0
G4 P0.5; Tool On
G1 F300 Z0.0000
G1 F15000 X713.5300 Y5.0000 Z0.0000
M3S245
G4 P0.5; Tool Off

G0 Z0; move to z-safe height
G0 X703.5300 Y5.0000
M3S0
G4 P0.5; Tool On
G1 F300 Z0.0000
G1 F15000 X703.5300 Y1205.0000 Z0.0000
M3S245
G4 P0.5; Tool Off

G0 Z0; move to z-safe height
G0 X693.5300 Y1205.0000
M3S0
G4 P0.5; Tool On
G1 F300 Z0.0000
G1 F15000 X693.5300 Y5.0000 Z0.0000
M3S245
G4 P0.5; Tool Off

G0 Z0; move to z-safe height
G0 X683.5300 Y5.0000
M3S0
G4 P0.5; Tool On
G1 F300 Z0.0000
G1 F15000 X683.5300 Y1205.0000 Z0.0000
M3S245
G4 P0.5; Tool Off

G0 Z0; move to z-safe height
G0 X673.5300 Y1205.0000
M3S0
G4 P0.5; Tool On
G1 F300 Z0.0000
G1 F15000 X673.5300 Y5.0000 Z0.0000
M3S245
G4 P0.5; Tool Off

G0 Z0; move to z-safe height
G0 X663.5300 Y5.0000
M3S0
G4 P0.5; Tool On
G1 F300 Z0.0000
G1 F15000 X663.5300 Y1205.0000 Z0.0000
M3S245
G4 P0.5; Tool Off

G0 Z0; move to z-safe height
G0 X653.5300 Y1205.0000
M3S0
G4 P0.5; Tool On
G1 F300 Z0.0000
G1 F15000 X653.5300 Y5.0000 Z0.0000
M3S245
G4 P0.5; Tool Off

G0 Z0; move to z-safe height
G0 X643.5300 Y5.0000
M3S0
G4 P0.5; Tool On
G1 F300 Z0.0000
G1 F15000 X643.5300 Y1205.0000 Z0.0000
M3S245
G4 P0.5; Tool Off

G0 Z0; move to z-safe height
G0 X633.5300 Y1205.0000
M3S0
G4 P0.5; Tool On
G1 F300 Z0.0000
G1 F15000 X633.5300 Y5.0000 Z0.0000
M3S245
G4 P0.5; Tool Off

G0 Z0; move to z-safe height
G0 X623.5300 Y5.0000
M3S0
G4 P0.5; Tool On
G1 F300 Z0.0000
G1 F15000 X623.5300 Y1205.0000 Z0.0000
M3S245
G4 P0.5; Tool Off

G0 Z0; move to z-safe height
G0 X613.5300 Y1205.0000
M3S0
G4 P0.5; Tool On
G1 F300 Z0.0000
G1 F15000 X613.5300 Y5.0000 Z0.0000
M3S245
G4 P0.5; Tool Off

G0 Z0; move to z-safe height
G0 X603.5300 Y5.0000
M3S0
G4 P0.5; Tool On
G1 F300 Z0.0000
G1 F15000 X603.5300 Y1205.0000 Z0.0000
M3S245
G4 P0.5; Tool Off

G0 Z0; move to z-safe height
G0 X593.5300 Y1205.0000
M3S0
G4 P0.5; Tool On
G1 F300 Z0.0000
G1 F15000 X593.5300 Y5.0000 Z0.0000
M3S245
G4 P0.5; Tool Off

G0 Z0; move to z-safe height
G0 X583.5300 Y5.0000
M3S0
G4 P0.5; Tool On
G1 F300 Z0.0000
G1 F15000 X583.5300 Y1205.0000 Z0.0000
M3S245
G4 P0.5; Tool Off

G0 Z0; move to z-safe height
G0 X573.5300 Y1205.0000
M3S0
G4 P0.5; Tool On
G1 F300 Z0.0000
G1 F15000 X573.5300 Y5.0000 Z0.0000
M3S245
G4 P0.5; Tool Off

G0 Z0; move to z-safe height
G0 X563.5300 Y5.0000
M3S0
G4 P0.5; Tool On
G1 F300 Z0.0000
G1 F15000 X563.5300 Y1205.0000 Z0.0000
M3S245
G4 P0.5; Tool Off

G0 Z0; move to z-safe height
G0 X553.5300 Y1205.0000
M3S0
G4 P0.5; Tool On
G1 F300 Z0.0000
G1 F15000 X553.5300 Y5.0000 Z0.0000
M3S245
G4 P0.5; Tool Off

G0 Z0; move to z-safe height
G0 X543.5300 Y5.0000
M3S0
G4 P0.5; Tool On
G1 F300 Z0.0000
G1 F15000 X543.5300 Y1205.0000 Z0.0000
M3S245
G4 P0.5; Tool Off

G0 Z0; move to z-safe height
G0 X533.5300 Y1205.0000
M3S0
G4 P0.5; Tool On
G1 F300 Z0.0000
G1 F15000 X533.5300 Y5.0000 Z0.0000
M3S245
G4 P0.5; Tool Off

G0 Z0; move to z-safe height
G0 X523.5300 Y5.0000
M3S0
G4 P0.5; Tool On
G1 F300 Z0.0000
G1 F15000 X523.5300 Y1205.0000 Z0.0000
M3S245
G4 P0.5; Tool Off

G0 Z0; move to z-safe height
G0 X513.5300 Y1205.0000
M3S0
G4 P0.5; Tool On
G1 F300 Z0.0000
G1 F15000 X513.5300 Y5.0000 Z0.0000
M3S245
G4 P0.5; Tool Off

G0 Z0; move to z-safe height
G0 X503.5300 Y5.0000
M3S0
G4 P0.5; Tool On
G1 F300 Z0.0000
G1 F15000 X503.5300 Y1205.0000 Z0.0000
M3S245
G4 P0.5; Tool Off

G0 Z0; move to z-safe height
G0 X493.5300 Y1205.0000
M3S0
G4 P0.5; Tool On
G1 F300 Z0.0000
G1 F15000 X493.5300 Y5.0000 Z0.0000
M3S245
G4 P0.5; Tool Off

G0 Z0; move to z-safe height
G0 X483.5300 Y5.0000
M3S0
G4 P0.5; Tool On
G1 F300 Z0.0000
G1 F15000 X483.5300 Y1205.0000 Z0.0000
M3S245
G4 P0.5; Tool Off

G0 Z0; move to z-safe height
G0 X473.5300 Y1205.0000
M3S0
G4 P0.5; Tool On
G1 F300 Z0.0000
G1 F15000 X473.5300 Y5.0000 Z0.0000
M3S245
G4 P0.5; Tool Off

G0 Z0; move to z-safe height
G0 X463.5300 Y5.0000
M3S0
G4 P0.5; Tool On
G1 F300 Z0.0000
G1 F15000 X463.5300 Y1205.0000 Z0.0000
M3S245
G4 P0.5; Tool Off

G0 Z0; move to z-safe height
G0 X453.5300 Y1205.0000
M3S0
G4 P0.5; Tool On
G1 F300 Z0.0000
G1 F15000 X453.5300 Y5.0000 Z0.0000
M3S245
G4 P0.5; Tool Off

G0 Z0; move to z-safe height
G0 X443.5300 Y5.0000
M3S0
G4 P0.5; Tool On
G1 F300 Z0.0000
G1 F15000 X443.5300 Y1205.0000 Z0.0000
M3S245
G4 P0.5; Tool Off

G0 Z0; move to z-safe height
G0 X433.5300 Y1205.0000
M3S0
G4 P0.5; Tool On
G1 F300 Z0.0000
G1 F15000 X433.5300 Y5.0000 Z0.0000
M3S245
G4 P0.5; Tool Off

G0 Z0; move to z-safe height
G0 X423.5300 Y5.0000
M3S0
G4 P0.5; Tool On
G1 F300 Z0.0000
G1 F15000 X423.5300 Y1205.0000 Z0.0000
M3S245
G4 P0.5; Tool Off

G0 Z0; move to z-safe height
G0 X413.5300 Y1205.0000
M3S0
G4 P0.5; Tool On
G1 F300 Z0.0000
G1 F15000 X413.5300 Y5.0000 Z0.0000
M3S245
G4 P0.5; Tool Off

G0 Z0; move to z-safe height
G0 X403.5300 Y5.0000
M3S0
G4 P0.5; Tool On
G1 F300 Z0.0000
G1 F15000 X403.5300 Y1205.0000 Z0.0000
M3S245
G4 P0.5; Tool Off

G0 Z0; move to z-safe height
G0 X393.5300 Y1205.0000
M3S0
G4 P0.5; Tool On
G1 F300 Z0.0000
G1 F15000 X393.5300 Y5.0000 Z0.0000
M3S245
G4 P0.5; Tool Off

G0 Z0; move to z-safe height
G0 X383.5300 Y5.0000
M3S0
G4 P0.5; Tool On
G1 F300 Z0.0000
G1 F15000 X383.5300 Y1205.0000 Z0.0000
M3S245
G4 P0.5; Tool Off

G0 Z0; move to z-safe height
G0 X373.5300 Y1205.0000
M3S0
G4 P0.5; Tool On
G1 F300 Z0.0000
G1 F15000 X373.5300 Y5.0000 Z0.0000
M3S245
G4 P0.5; Tool Off

G0 Z0; move to z-safe height
G0 X363.5300 Y5.0000
M3S0
G4 P0.5; Tool On
G1 F300 Z0.0000
G1 F15000 X363.5300 Y1205.0000 Z0.0000
M3S245
G4 P0.5; Tool Off

G0 Z0; move to z-safe height
G0 X353.5300 Y1205.0000
M3S0
G4 P0.5; Tool On
G1 F300 Z0.0000
G1 F15000 X353.5300 Y5.0000 Z0.0000
M3S245
G4 P0.5; Tool Off

G0 Z0; move to z-safe height
G0 X343.5300 Y5.0000
M3S0
G4 P0.5; Tool On
G1 F300 Z0.0000
G1 F15000 X343.5300 Y1205.0000 Z0.0000
M3S245
G4 P0.5; Tool Off

G0 Z0; move to z-safe height
G0 X333.5300 Y1205.0000
M3S0
G4 P0.5; Tool On
G1 F300 Z0.0000
G1 F15000 X333.5300 Y5.0000 Z0.0000
M3S245
G4 P0.5; Tool Off

G0 Z0; move to z-safe height
G0 X323.5300 Y5.0000
M3S0
G4 P0.5; Tool On
G1 F300 Z0.0000
G1 F15000 X323.5300 Y1205.0000 Z0.0000
M3S245
G4 P0.5; Tool Off

G0 Z0; move to z-safe height
G0 X313.5300 Y1205.0000
M3S0
G4 P0.5; Tool On
G1 F300 Z0.0000
G1 F15000 X313.5300 Y5.0000 Z0.0000
M3S245
G4 P0.5; Tool Off

G0 Z0; move to z-safe height
G0 X303.5300 Y5.0000
M3S0
G4 P0.5; Tool On
G1 F300 Z0.0000
G1 F15000 X303.5300 Y1205.0000 Z0.0000
M3S245
G4 P0.5; Tool Off

G0 Z0; move to z-safe height
G0 X293.5300 Y1205.0000
M3S0
G4 P0.5; Tool On
G1 F300 Z0.0000
G1 F15000 X293.5300 Y5.0000 Z0.0000
M3S245
G4 P0.5; Tool Off

G0 Z0; move to z-safe height
G0 X283.5300 Y5.0000
M3S0
G4 P0.5; Tool On
G1 F300 Z0.0000
G1 F15000 X283.5300 Y1205.0000 Z0.0000
M3S245
G4 P0.5; Tool Off

G0 Z0; move to z-safe height
G0 X273.5300 Y1205.0000
M3S0
G4 P0.5; Tool On
G1 F300 Z0.0000
G1 F15000 X273.5300 Y5.0000 Z0.0000
M3S245
G4 P0.5; Tool Off

G0 Z0; move to z-safe height
G0 X263.5300 Y5.0000
M3S0
G4 P0.5; Tool On
G1 F300 Z0.0000
G1 F15000 X263.5300 Y1205.0000 Z0.0000
M3S245
G4 P0.5; Tool Off

G0 Z0; move to z-safe height
G0 X253.5300 Y1205.0000
M3S0
G4 P0.5; Tool On
G1 F300 Z0.0000
G1 F15000 X253.5300 Y5.0000 Z0.0000
M3S245
G4 P0.5; Tool Off

G0 Z0; move to z-safe height
G0 X243.5300 Y5.0000
M3S0
G4 P0.5; Tool On
G1 F300 Z0.0000
G1 F15000 X243.5300 Y1205.0000 Z0.0000
M3S245
G4 P0.5; Tool Off

G0 Z0; move to z-safe height
G0 X233.5300 Y1205.0000
M3S0
G4 P0.5; Tool On
G1 F300 Z0.0000
G1 F15000 X233.5300 Y5.0000 Z0.0000
M3S245
G4 P0.5; Tool Off

G0 Z0; move to z-safe height
G0 X223.5300 Y5.0000
M3S0
G4 P0.5; Tool On
G1 F300 Z0.0000
G1 F15000 X223.5300 Y1205.0000 Z0.0000
M3S245
G4 P0.5; Tool Off

G0 Z0; move to z-safe height
G0 X213.5300 Y1205.0000
M3S0
G4 P0.5; Tool On
G1 F300 Z0.0000
G1 F15000 X213.5300 Y5.0000 Z0.0000
M3S245
G4 P0.5; Tool Off

G0 Z0; move to z-safe height
G0 X203.5300 Y5.0000
M3S0
G4 P0.5; Tool On
G1 F300 Z0.0000
G1 F15000 X203.5300 Y1205.0000 Z0.0000
M3S245
G4 P0.5; Tool Off

G0 Z0; move to z-safe height
G0 X193.5300 Y1205.0000
M3S0
G4 P0.5; Tool On
G1 F300 Z0.0000
G1 F15000 X193.5300 Y5.0000 Z0.0000
M3S245
G4 P0.5; Tool Off

G0 Z0; move to z-safe height
G0 X183.5300 Y5.0000
M3S0
G4 P0.5; Tool On
G1 F300 Z0.0000
G1 F15000 X183.5300 Y1205.0000 Z0.0000
M3S245
G4 P0.5; Tool Off

G0 Z0; move to z-safe height
G0 X173.5300 Y1205.0000
M3S0
G4 P0.5; Tool On
G1 F300 Z0.0000
G1 F15000 X173.5300 Y5.0000 Z0.0000
M3S245
G4 P0.5; Tool Off

G0 Z0; move to z-safe height
G0 X163.5300 Y5.0000
M3S0
G4 P0.5; Tool On
G1 F300 Z0.0000
G1 F15000 X163.5300 Y1205.0000 Z0.0000
M3S245
G4 P0.5; Tool Off

G0 Z0; move to z-safe height
G0 X153.5300 Y1205.0000
M3S0
G4 P0.5; Tool On
G1 F300 Z0.0000
G1 F15000 X153.5300 Y5.0000 Z0.0000
M3S245
G4 P0.5; Tool Off

G0 Z0; move to z-safe height
G0 X143.5300 Y5.0000
M3S0
G4 P0.5; Tool On
G1 F300 Z0.0000
G1 F15000 X143.5300 Y1205.0000 Z0.0000
M3S245
G4 P0.5; Tool Off

G0 Z0; move to z-safe height
G0 X133.5300 Y1205.0000
M3S0
G4 P0.5; Tool On
G1 F300 Z0.0000
G1 F15000 X133.5300 Y5.0000 Z0.0000
M3S245
G4 P0.5; Tool Off

G0 Z0; move to z-safe height
G0 X123.5300 Y5.0000
M3S0
G4 P0.5; Tool On
G1 F300 Z0.0000
G1 F15000 X123.5300 Y1205.0000 Z0.0000
M3S245
G4 P0.5; Tool Off

G0 Z0; move to z-safe height
G0 X113.5300 Y1205.0000
M3S0
G4 P0.5; Tool On
G1 F300 Z0.0000
G1 F15000 X113.5300 Y5.0000 Z0.0000
M3S245
G4 P0.5; Tool Off

G0 Z0; move to z-safe height
G0 X103.5300 Y5.0000
M3S0
G4 P0.5; Tool On
G1 F300 Z0.0000
G1 F15000 X103.5300 Y1205.0000 Z0.0000
M3S245
G4 P0.5; Tool Off

G0 Z0; move to z-safe height
G0 X93.5300 Y1205.0000
M3S0
G4 P0.5; Tool On
G1 F300 Z0.0000
G1 F15000 X93.5300 Y5.0000 Z0.0000
M3S245
G4 P0.5; Tool Off

G0 Z0; move to z-safe height
G0 X83.5300 Y5.0000
M3S0
G4 P0.5; Tool On
G1 F300 Z0.0000
G1 F15000 X83.5300 Y1205.0000 Z0.0000
M3S245
G4 P0.5; Tool Off

G0 Z0; move to z-safe height
G0 X73.5300 Y1205.0000
M3S0
G4 P0.5; Tool On
G1 F300 Z0.0000
G1 F15000 X73.5300 Y5.0000 Z0.0000
M3S245
G4 P0.5; Tool Off

G0 Z0; move to z-safe height
G0 X63.5300 Y5.0000
M3S0
G4 P0.5; Tool On
G1 F300 Z0.0000
G1 F15000 X63.5300 Y1205.0000 Z0.0000
M3S245
G4 P0.5; Tool Off

G0 Z0; move to z-safe height
G0 X53.5300 Y1205.0000
M3S0
G4 P0.5; Tool On
G1 F300 Z0.0000
G1 F15000 X53.5300 Y5.0000 Z0.0000
M3S245
G4 P0.5; Tool Off

G0 Z0; move to z-safe height
G0 X43.5300 Y5.0000
M3S0
G4 P0.5; Tool On
G1 F300 Z0.0000
G1 F15000 X43.5300 Y1205.0000 Z0.0000
M3S245
G4 P0.5; Tool Off

G0 Z0; move to z-safe height
G0 X33.5300 Y1205.0000
M3S0
G4 P0.5; Tool On
G1 F300 Z0.0000
G1 F15000 X33.5300 Y5.0000 Z0.0000
M3S245
G4 P0.5; Tool Off

G0 Z0; move to z-safe height
G0 X23.5300 Y5.0000
M3S0
G4 P0.5; Tool On
G1 F300 Z0.0000
G1 F15000 X23.5300 Y1205.0000 Z0.0000
M3S245
G4 P0.5; Tool Off

G0 Z0; move to z-safe height
G0 X13.5300 Y1205.0000
M3S0
G4 P0.5; Tool On
G1 F300 Z0.0000
G1 F15000 X13.5300 Y5.0000 Z0.0000
M3S245
G4 P0.5; Tool Off
; retracting back to z-safe
G0 Z0

; Plotter Mode Complete
