; GCODE Generated by cam.openbuilds.com on 2023-04-02 
G21 ; mm-mode
G54; Work Coordinates
G21; mm-mode
G90; Absolute Positioning
; Plotter Mode Active

; Operation 0: Pen Plotter: (lines fill)
; Pen Diameter: 2

G0 Z0; move to z-safe height
G0 F1000 X4.0000 Y7.2000
M3S0
G4 P0.5; Tool On
G1 F300 Z0.0000
G1 F15000 X224.0000 Y7.2000 Z0.0000
M3S245
G4 P0.5; Tool Off

G0 Z0; move to z-safe height
G0 X224.0000 Y15.2000
M3S0
G4 P0.5; Tool On
G1 F300 Z0.0000
G1 F15000 X4.0000 Y15.2000 Z0.0000
M3S245
G4 P0.5; Tool Off

G0 Z0; move to z-safe height
G0 X4.0000 Y23.2000
M3S0
G4 P0.5; Tool On
G1 F300 Z0.0000
G1 F15000 X224.0000 Y23.2000 Z0.0000
M3S245
G4 P0.5; Tool Off

G0 Z0; move to z-safe height
G0 X224.0000 Y31.2000
M3S0
G4 P0.5; Tool On
G1 F300 Z0.0000
G1 F15000 X4.0000 Y31.2000 Z0.0000
M3S245
G4 P0.5; Tool Off

G0 Z0; move to z-safe height
G0 X4.0000 Y39.2000
M3S0
G4 P0.5; Tool On
G1 F300 Z0.0000
G1 F15000 X224.0000 Y39.2000 Z0.0000
M3S245
G4 P0.5; Tool Off

G0 Z0; move to z-safe height
G0 X224.0000 Y47.2000
M3S0
G4 P0.5; Tool On
G1 F300 Z0.0000
G1 F15000 X4.0000 Y47.2000 Z0.0000
M3S245
G4 P0.5; Tool Off

G0 Z0; move to z-safe height
G0 X4.0000 Y55.2000
M3S0
G4 P0.5; Tool On
G1 F300 Z0.0000
G1 F15000 X224.0000 Y55.2000 Z0.0000
M3S245
G4 P0.5; Tool Off

G0 Z0; move to z-safe height
G0 X224.0000 Y63.2000
M3S0
G4 P0.5; Tool On
G1 F300 Z0.0000
G1 F15000 X4.0000 Y63.2000 Z0.0000
M3S245
G4 P0.5; Tool Off

G0 Z0; move to z-safe height
G0 X4.0000 Y71.2000
M3S0
G4 P0.5; Tool On
G1 F300 Z0.0000
G1 F15000 X224.0000 Y71.2000 Z0.0000
M3S245
G4 P0.5; Tool Off

G0 Z0; move to z-safe height
G0 X224.0000 Y79.2000
M3S0
G4 P0.5; Tool On
G1 F300 Z0.0000
G1 F15000 X4.0000 Y79.2000 Z0.0000
M3S245
G4 P0.5; Tool Off

G0 Z0; move to z-safe height
G0 X4.0000 Y87.2000
M3S0
G4 P0.5; Tool On
G1 F300 Z0.0000
G1 F15000 X224.0000 Y87.2000 Z0.0000
M3S245
G4 P0.5; Tool Off

G0 Z0; move to z-safe height
G0 X224.0000 Y95.2000
M3S0
G4 P0.5; Tool On
G1 F300 Z0.0000
G1 F15000 X4.0000 Y95.2000 Z0.0000
M3S245
G4 P0.5; Tool Off

G0 Z0; move to z-safe height
G0 X4.0000 Y103.2000
M3S0
G4 P0.5; Tool On
G1 F300 Z0.0000
G1 F15000 X224.0000 Y103.2000 Z0.0000
M3S245
G4 P0.5; Tool Off

G0 Z0; move to z-safe height
G0 X224.0000 Y111.2000
M3S0
G4 P0.5; Tool On
G1 F300 Z0.0000
G1 F15000 X4.0000 Y111.2000 Z0.0000
M3S245
G4 P0.5; Tool Off

G0 Z0; move to z-safe height
G0 X4.0000 Y119.2000
M3S0
G4 P0.5; Tool On
G1 F300 Z0.0000
G1 F15000 X224.0000 Y119.2000 Z0.0000
M3S245
G4 P0.5; Tool Off

G0 Z0; move to z-safe height
G0 X224.0000 Y127.2000
M3S0
G4 P0.5; Tool On
G1 F300 Z0.0000
G1 F15000 X4.0000 Y127.2000 Z0.0000
M3S245
G4 P0.5; Tool Off

G0 Z0; move to z-safe height
G0 X4.0000 Y135.2000
M3S0
G4 P0.5; Tool On
G1 F300 Z0.0000
G1 F15000 X224.0000 Y135.2000 Z0.0000
M3S245
G4 P0.5; Tool Off

G0 Z0; move to z-safe height
G0 X224.0000 Y143.2000
M3S0
G4 P0.5; Tool On
G1 F300 Z0.0000
G1 F15000 X4.0000 Y143.2000 Z0.0000
M3S245
G4 P0.5; Tool Off

G0 Z0; move to z-safe height
G0 X4.0000 Y151.2000
M3S0
G4 P0.5; Tool On
G1 F300 Z0.0000
G1 F15000 X224.0000 Y151.2000 Z0.0000
M3S245
G4 P0.5; Tool Off

G0 Z0; move to z-safe height
G0 X224.0000 Y159.2000
M3S0
G4 P0.5; Tool On
G1 F300 Z0.0000
G1 F15000 X4.0000 Y159.2000 Z0.0000
M3S245
G4 P0.5; Tool Off

G0 Z0; move to z-safe height
G0 X4.0000 Y167.2000
M3S0
G4 P0.5; Tool On
G1 F300 Z0.0000
G1 F15000 X224.0000 Y167.2000 Z0.0000
M3S245
G4 P0.5; Tool Off

G0 Z0; move to z-safe height
G0 X224.0000 Y175.2000
M3S0
G4 P0.5; Tool On
G1 F300 Z0.0000
G1 F15000 X4.0000 Y175.2000 Z0.0000
M3S245
G4 P0.5; Tool Off

G0 Z0; move to z-safe height
G0 X4.0000 Y183.2000
M3S0
G4 P0.5; Tool On
G1 F300 Z0.0000
G1 F15000 X224.0000 Y183.2000 Z0.0000
M3S245
G4 P0.5; Tool Off

G0 Z0; move to z-safe height
G0 X224.0000 Y191.2000
M3S0
G4 P0.5; Tool On
G1 F300 Z0.0000
G1 F15000 X4.0000 Y191.2000 Z0.0000
M3S245
G4 P0.5; Tool Off

G0 Z0; move to z-safe height
G0 X4.0000 Y199.2000
M3S0
G4 P0.5; Tool On
G1 F300 Z0.0000
G1 F15000 X224.0000 Y199.2000 Z0.0000
M3S245
G4 P0.5; Tool Off

G0 Z0; move to z-safe height
G0 X224.0000 Y207.2000
M3S0
G4 P0.5; Tool On
G1 F300 Z0.0000
G1 F15000 X4.0000 Y207.2000 Z0.0000
M3S245
G4 P0.5; Tool Off

G0 Z0; move to z-safe height
G0 X4.0000 Y215.2000
M3S0
G4 P0.5; Tool On
G1 F300 Z0.0000
G1 F15000 X224.0000 Y215.2000 Z0.0000
M3S245
G4 P0.5; Tool Off

G0 Z0; move to z-safe height
G0 X224.0000 Y223.2000
M3S0
G4 P0.5; Tool On
G1 F300 Z0.0000
G1 F15000 X4.0000 Y223.2000 Z0.0000
M3S245
G4 P0.5; Tool Off

G0 Z0; move to z-safe height
G0 X4.0000 Y231.2000
M3S0
G4 P0.5; Tool On
G1 F300 Z0.0000
G1 F15000 X224.0000 Y231.2000 Z0.0000
M3S245
G4 P0.5; Tool Off

G0 Z0; move to z-safe height
G0 X224.0000 Y239.2000
M3S0
G4 P0.5; Tool On
G1 F300 Z0.0000
G1 F15000 X4.0000 Y239.2000 Z0.0000
M3S245
G4 P0.5; Tool Off

G0 Z0; move to z-safe height
G0 X4.0000 Y247.2000
M3S0
G4 P0.5; Tool On
G1 F300 Z0.0000
G1 F15000 X224.0000 Y247.2000 Z0.0000
M3S245
G4 P0.5; Tool Off

G0 Z0; move to z-safe height
G0 X224.0000 Y255.2000
M3S0
G4 P0.5; Tool On
G1 F300 Z0.0000
G1 F15000 X4.0000 Y255.2000 Z0.0000
M3S245
G4 P0.5; Tool Off

G0 Z0; move to z-safe height
G0 X4.0000 Y263.2000
M3S0
G4 P0.5; Tool On
G1 F300 Z0.0000
G1 F15000 X224.0000 Y263.2000 Z0.0000
M3S245
G4 P0.5; Tool Off

G0 Z0; move to z-safe height
G0 X224.0000 Y271.2000
M3S0
G4 P0.5; Tool On
G1 F300 Z0.0000
G1 F15000 X4.0000 Y271.2000 Z0.0000
M3S245
G4 P0.5; Tool Off

G0 Z0; move to z-safe height
G0 X4.0000 Y279.2000
M3S0
G4 P0.5; Tool On
G1 F300 Z0.0000
G1 F15000 X224.0000 Y279.2000 Z0.0000
M3S245
G4 P0.5; Tool Off

G0 Z0; move to z-safe height
G0 X224.0000 Y287.2000
M3S0
G4 P0.5; Tool On
G1 F300 Z0.0000
G1 F15000 X4.0000 Y287.2000 Z0.0000
M3S245
G4 P0.5; Tool Off

G0 Z0; move to z-safe height
G0 X4.0000 Y295.2000
M3S0
G4 P0.5; Tool On
G1 F300 Z0.0000
G1 F15000 X224.0000 Y295.2000 Z0.0000
M3S245
G4 P0.5; Tool Off
; retracting back to z-safe
G0 Z0

; Plotter Mode Complete
