; GCODE Generated by cam.openbuilds.com on 2023-04-04 
G21 ; mm-mode
G54; Work Coordinates
G21; mm-mode
G90; Absolute Positioning
; Plotter Mode Active

; Operation 0: Pen Plotter: (lines fill)
; Pen Diameter: 2

G0 Z0; move to z-safe height
G0 F1000 X497.0000 Y8.6900
M3S0
G4 P0.5; Tool On
G1 F300 Z0.0000
G1 F15000 X3.0000 Y8.6900 Z0.0000
M3S245
G4 P0.5; Tool Off

G0 Z0; move to z-safe height
G0 X3.0000 Y14.6900
M3S0
G4 P0.5; Tool On
G1 F300 Z0.0000
G1 F15000 X497.0000 Y14.6900 Z0.0000
M3S245
G4 P0.5; Tool Off

G0 Z0; move to z-safe height
G0 X497.0000 Y20.6900
M3S0
G4 P0.5; Tool On
G1 F300 Z0.0000
G1 F15000 X3.0000 Y20.6900 Z0.0000
M3S245
G4 P0.5; Tool Off

G0 Z0; move to z-safe height
G0 X3.0000 Y26.6900
M3S0
G4 P0.5; Tool On
G1 F300 Z0.0000
G1 F15000 X497.0000 Y26.6900 Z0.0000
M3S245
G4 P0.5; Tool Off

G0 Z0; move to z-safe height
G0 X497.0000 Y32.6900
M3S0
G4 P0.5; Tool On
G1 F300 Z0.0000
G1 F15000 X3.0000 Y32.6900 Z0.0000
M3S245
G4 P0.5; Tool Off

G0 Z0; move to z-safe height
G0 X3.0000 Y38.6900
M3S0
G4 P0.5; Tool On
G1 F300 Z0.0000
G1 F15000 X497.0000 Y38.6900 Z0.0000
M3S245
G4 P0.5; Tool Off

G0 Z0; move to z-safe height
G0 X497.0000 Y44.6900
M3S0
G4 P0.5; Tool On
G1 F300 Z0.0000
G1 F15000 X3.0000 Y44.6900 Z0.0000
M3S245
G4 P0.5; Tool Off

G0 Z0; move to z-safe height
G0 X3.0000 Y50.6900
M3S0
G4 P0.5; Tool On
G1 F300 Z0.0000
G1 F15000 X497.0000 Y50.6900 Z0.0000
M3S245
G4 P0.5; Tool Off

G0 Z0; move to z-safe height
G0 X497.0000 Y56.6900
M3S0
G4 P0.5; Tool On
G1 F300 Z0.0000
G1 F15000 X3.0000 Y56.6900 Z0.0000
M3S245
G4 P0.5; Tool Off

G0 Z0; move to z-safe height
G0 X3.0000 Y62.6900
M3S0
G4 P0.5; Tool On
G1 F300 Z0.0000
G1 F15000 X497.0000 Y62.6900 Z0.0000
M3S245
G4 P0.5; Tool Off

G0 Z0; move to z-safe height
G0 X497.0000 Y68.6900
M3S0
G4 P0.5; Tool On
G1 F300 Z0.0000
G1 F15000 X3.0000 Y68.6900 Z0.0000
M3S245
G4 P0.5; Tool Off

G0 Z0; move to z-safe height
G0 X3.0000 Y74.6900
M3S0
G4 P0.5; Tool On
G1 F300 Z0.0000
G1 F15000 X497.0000 Y74.6900 Z0.0000
M3S245
G4 P0.5; Tool Off

G0 Z0; move to z-safe height
G0 X497.0000 Y80.6900
M3S0
G4 P0.5; Tool On
G1 F300 Z0.0000
G1 F15000 X3.0000 Y80.6900 Z0.0000
M3S245
G4 P0.5; Tool Off

G0 Z0; move to z-safe height
G0 X3.0000 Y86.6900
M3S0
G4 P0.5; Tool On
G1 F300 Z0.0000
G1 F15000 X497.0000 Y86.6900 Z0.0000
M3S245
G4 P0.5; Tool Off

G0 Z0; move to z-safe height
G0 X497.0000 Y92.6900
M3S0
G4 P0.5; Tool On
G1 F300 Z0.0000
G1 F15000 X3.0000 Y92.6900 Z0.0000
M3S245
G4 P0.5; Tool Off

G0 Z0; move to z-safe height
G0 X3.0000 Y98.6900
M3S0
G4 P0.5; Tool On
G1 F300 Z0.0000
G1 F15000 X497.0000 Y98.6900 Z0.0000
M3S245
G4 P0.5; Tool Off

G0 Z0; move to z-safe height
G0 X497.0000 Y104.6900
M3S0
G4 P0.5; Tool On
G1 F300 Z0.0000
G1 F15000 X3.0000 Y104.6900 Z0.0000
M3S245
G4 P0.5; Tool Off

G0 Z0; move to z-safe height
G0 X3.0000 Y110.6900
M3S0
G4 P0.5; Tool On
G1 F300 Z0.0000
G1 F15000 X497.0000 Y110.6900 Z0.0000
M3S245
G4 P0.5; Tool Off

G0 Z0; move to z-safe height
G0 X497.0000 Y116.6900
M3S0
G4 P0.5; Tool On
G1 F300 Z0.0000
G1 F15000 X3.0000 Y116.6900 Z0.0000
M3S245
G4 P0.5; Tool Off

G0 Z0; move to z-safe height
G0 X3.0000 Y122.6900
M3S0
G4 P0.5; Tool On
G1 F300 Z0.0000
G1 F15000 X497.0000 Y122.6900 Z0.0000
M3S245
G4 P0.5; Tool Off

G0 Z0; move to z-safe height
G0 X497.0000 Y128.6900
M3S0
G4 P0.5; Tool On
G1 F300 Z0.0000
G1 F15000 X3.0000 Y128.6900 Z0.0000
M3S245
G4 P0.5; Tool Off

G0 Z0; move to z-safe height
G0 X3.0000 Y134.6900
M3S0
G4 P0.5; Tool On
G1 F300 Z0.0000
G1 F15000 X497.0000 Y134.6900 Z0.0000
M3S245
G4 P0.5; Tool Off

G0 Z0; move to z-safe height
G0 X497.0000 Y140.6900
M3S0
G4 P0.5; Tool On
G1 F300 Z0.0000
G1 F15000 X3.0000 Y140.6900 Z0.0000
M3S245
G4 P0.5; Tool Off

G0 Z0; move to z-safe height
G0 X3.0000 Y146.6900
M3S0
G4 P0.5; Tool On
G1 F300 Z0.0000
G1 F15000 X497.0000 Y146.6900 Z0.0000
M3S245
G4 P0.5; Tool Off

G0 Z0; move to z-safe height
G0 X497.0000 Y152.6900
M3S0
G4 P0.5; Tool On
G1 F300 Z0.0000
G1 F15000 X3.0000 Y152.6900 Z0.0000
M3S245
G4 P0.5; Tool Off

G0 Z0; move to z-safe height
G0 X3.0000 Y158.6900
M3S0
G4 P0.5; Tool On
G1 F300 Z0.0000
G1 F15000 X497.0000 Y158.6900 Z0.0000
M3S245
G4 P0.5; Tool Off

G0 Z0; move to z-safe height
G0 X497.0000 Y164.6900
M3S0
G4 P0.5; Tool On
G1 F300 Z0.0000
G1 F15000 X3.0000 Y164.6900 Z0.0000
M3S245
G4 P0.5; Tool Off

G0 Z0; move to z-safe height
G0 X3.0000 Y170.6900
M3S0
G4 P0.5; Tool On
G1 F300 Z0.0000
G1 F15000 X497.0000 Y170.6900 Z0.0000
M3S245
G4 P0.5; Tool Off

G0 Z0; move to z-safe height
G0 X497.0000 Y176.6900
M3S0
G4 P0.5; Tool On
G1 F300 Z0.0000
G1 F15000 X3.0000 Y176.6900 Z0.0000
M3S245
G4 P0.5; Tool Off

G0 Z0; move to z-safe height
G0 X3.0000 Y182.6900
M3S0
G4 P0.5; Tool On
G1 F300 Z0.0000
G1 F15000 X497.0000 Y182.6900 Z0.0000
M3S245
G4 P0.5; Tool Off

G0 Z0; move to z-safe height
G0 X497.0000 Y188.6900
M3S0
G4 P0.5; Tool On
G1 F300 Z0.0000
G1 F15000 X3.0000 Y188.6900 Z0.0000
M3S245
G4 P0.5; Tool Off

G0 Z0; move to z-safe height
G0 X3.0000 Y194.6900
M3S0
G4 P0.5; Tool On
G1 F300 Z0.0000
G1 F15000 X497.0000 Y194.6900 Z0.0000
M3S245
G4 P0.5; Tool Off

G0 Z0; move to z-safe height
G0 X497.0000 Y200.6900
M3S0
G4 P0.5; Tool On
G1 F300 Z0.0000
G1 F15000 X3.0000 Y200.6900 Z0.0000
M3S245
G4 P0.5; Tool Off

G0 Z0; move to z-safe height
G0 X3.0000 Y206.6900
M3S0
G4 P0.5; Tool On
G1 F300 Z0.0000
G1 F15000 X497.0000 Y206.6900 Z0.0000
M3S245
G4 P0.5; Tool Off

G0 Z0; move to z-safe height
G0 X497.0000 Y212.6900
M3S0
G4 P0.5; Tool On
G1 F300 Z0.0000
G1 F15000 X3.0000 Y212.6900 Z0.0000
M3S245
G4 P0.5; Tool Off

G0 Z0; move to z-safe height
G0 X3.0000 Y218.6900
M3S0
G4 P0.5; Tool On
G1 F300 Z0.0000
G1 F15000 X497.0000 Y218.6900 Z0.0000
M3S245
G4 P0.5; Tool Off

G0 Z0; move to z-safe height
G0 X497.0000 Y224.6900
M3S0
G4 P0.5; Tool On
G1 F300 Z0.0000
G1 F15000 X3.0000 Y224.6900 Z0.0000
M3S245
G4 P0.5; Tool Off

G0 Z0; move to z-safe height
G0 X3.0000 Y230.6900
M3S0
G4 P0.5; Tool On
G1 F300 Z0.0000
G1 F15000 X497.0000 Y230.6900 Z0.0000
M3S245
G4 P0.5; Tool Off

G0 Z0; move to z-safe height
G0 X497.0000 Y236.6900
M3S0
G4 P0.5; Tool On
G1 F300 Z0.0000
G1 F15000 X3.0000 Y236.6900 Z0.0000
M3S245
G4 P0.5; Tool Off

G0 Z0; move to z-safe height
G0 X3.0000 Y242.6900
M3S0
G4 P0.5; Tool On
G1 F300 Z0.0000
G1 F15000 X497.0000 Y242.6900 Z0.0000
M3S245
G4 P0.5; Tool Off

G0 Z0; move to z-safe height
G0 X497.0000 Y248.6900
M3S0
G4 P0.5; Tool On
G1 F300 Z0.0000
G1 F15000 X3.0000 Y248.6900 Z0.0000
M3S245
G4 P0.5; Tool Off

G0 Z0; move to z-safe height
G0 X3.0000 Y254.6900
M3S0
G4 P0.5; Tool On
G1 F300 Z0.0000
G1 F15000 X497.0000 Y254.6900 Z0.0000
M3S245
G4 P0.5; Tool Off

G0 Z0; move to z-safe height
G0 X497.0000 Y260.6900
M3S0
G4 P0.5; Tool On
G1 F300 Z0.0000
G1 F15000 X3.0000 Y260.6900 Z0.0000
M3S245
G4 P0.5; Tool Off

G0 Z0; move to z-safe height
G0 X3.0000 Y266.6900
M3S0
G4 P0.5; Tool On
G1 F300 Z0.0000
G1 F15000 X497.0000 Y266.6900 Z0.0000
M3S245
G4 P0.5; Tool Off

G0 Z0; move to z-safe height
G0 X497.0000 Y272.6900
M3S0
G4 P0.5; Tool On
G1 F300 Z0.0000
G1 F15000 X3.0000 Y272.6900 Z0.0000
M3S245
G4 P0.5; Tool Off

G0 Z0; move to z-safe height
G0 X3.0000 Y278.6900
M3S0
G4 P0.5; Tool On
G1 F300 Z0.0000
G1 F15000 X497.0000 Y278.6900 Z0.0000
M3S245
G4 P0.5; Tool Off

G0 Z0; move to z-safe height
G0 X497.0000 Y284.6900
M3S0
G4 P0.5; Tool On
G1 F300 Z0.0000
G1 F15000 X3.0000 Y284.6900 Z0.0000
M3S245
G4 P0.5; Tool Off

G0 Z0; move to z-safe height
G0 X3.0000 Y290.6900
M3S0
G4 P0.5; Tool On
G1 F300 Z0.0000
G1 F15000 X497.0000 Y290.6900 Z0.0000
M3S245
G4 P0.5; Tool Off

G0 Z0; move to z-safe height
G0 X497.0000 Y296.6900
M3S0
G4 P0.5; Tool On
G1 F300 Z0.0000
G1 F15000 X3.0000 Y296.6900 Z0.0000
M3S245
G4 P0.5; Tool Off

G0 Z0; move to z-safe height
G0 X3.0000 Y302.6900
M3S0
G4 P0.5; Tool On
G1 F300 Z0.0000
G1 F15000 X497.0000 Y302.6900 Z0.0000
M3S245
G4 P0.5; Tool Off

G0 Z0; move to z-safe height
G0 X497.0000 Y308.6900
M3S0
G4 P0.5; Tool On
G1 F300 Z0.0000
G1 F15000 X3.0000 Y308.6900 Z0.0000
M3S245
G4 P0.5; Tool Off

G0 Z0; move to z-safe height
G0 X3.0000 Y314.6900
M3S0
G4 P0.5; Tool On
G1 F300 Z0.0000
G1 F15000 X497.0000 Y314.6900 Z0.0000
M3S245
G4 P0.5; Tool Off

G0 Z0; move to z-safe height
G0 X497.0000 Y320.6900
M3S0
G4 P0.5; Tool On
G1 F300 Z0.0000
G1 F15000 X3.0000 Y320.6900 Z0.0000
M3S245
G4 P0.5; Tool Off

G0 Z0; move to z-safe height
G0 X3.0000 Y326.6900
M3S0
G4 P0.5; Tool On
G1 F300 Z0.0000
G1 F15000 X497.0000 Y326.6900 Z0.0000
M3S245
G4 P0.5; Tool Off

G0 Z0; move to z-safe height
G0 X497.0000 Y332.6900
M3S0
G4 P0.5; Tool On
G1 F300 Z0.0000
G1 F15000 X3.0000 Y332.6900 Z0.0000
M3S245
G4 P0.5; Tool Off

G0 Z0; move to z-safe height
G0 X3.0000 Y338.6900
M3S0
G4 P0.5; Tool On
G1 F300 Z0.0000
G1 F15000 X497.0000 Y338.6900 Z0.0000
M3S245
G4 P0.5; Tool Off

G0 Z0; move to z-safe height
G0 X497.0000 Y344.6900
M3S0
G4 P0.5; Tool On
G1 F300 Z0.0000
G1 F15000 X3.0000 Y344.6900 Z0.0000
M3S245
G4 P0.5; Tool Off

G0 Z0; move to z-safe height
G0 X3.0000 Y350.6900
M3S0
G4 P0.5; Tool On
G1 F300 Z0.0000
G1 F15000 X497.0000 Y350.6900 Z0.0000
M3S245
G4 P0.5; Tool Off

G0 Z0; move to z-safe height
G0 X497.0000 Y356.6900
M3S0
G4 P0.5; Tool On
G1 F300 Z0.0000
G1 F15000 X3.0000 Y356.6900 Z0.0000
M3S245
G4 P0.5; Tool Off

G0 Z0; move to z-safe height
G0 X3.0000 Y362.6900
M3S0
G4 P0.5; Tool On
G1 F300 Z0.0000
G1 F15000 X497.0000 Y362.6900 Z0.0000
M3S245
G4 P0.5; Tool Off

G0 Z0; move to z-safe height
G0 X497.0000 Y368.6900
M3S0
G4 P0.5; Tool On
G1 F300 Z0.0000
G1 F15000 X3.0000 Y368.6900 Z0.0000
M3S245
G4 P0.5; Tool Off

G0 Z0; move to z-safe height
G0 X3.0000 Y374.6900
M3S0
G4 P0.5; Tool On
G1 F300 Z0.0000
G1 F15000 X497.0000 Y374.6900 Z0.0000
M3S245
G4 P0.5; Tool Off

G0 Z0; move to z-safe height
G0 X497.0000 Y380.6900
M3S0
G4 P0.5; Tool On
G1 F300 Z0.0000
G1 F15000 X3.0000 Y380.6900 Z0.0000
M3S245
G4 P0.5; Tool Off

G0 Z0; move to z-safe height
G0 X3.0000 Y386.6900
M3S0
G4 P0.5; Tool On
G1 F300 Z0.0000
G1 F15000 X497.0000 Y386.6900 Z0.0000
M3S245
G4 P0.5; Tool Off

G0 Z0; move to z-safe height
G0 X497.0000 Y392.6900
M3S0
G4 P0.5; Tool On
G1 F300 Z0.0000
G1 F15000 X3.0000 Y392.6900 Z0.0000
M3S245
G4 P0.5; Tool Off

G0 Z0; move to z-safe height
G0 X3.0000 Y398.6900
M3S0
G4 P0.5; Tool On
G1 F300 Z0.0000
G1 F15000 X497.0000 Y398.6900 Z0.0000
M3S245
G4 P0.5; Tool Off

G0 Z0; move to z-safe height
G0 X497.0000 Y404.6900
M3S0
G4 P0.5; Tool On
G1 F300 Z0.0000
G1 F15000 X3.0000 Y404.6900 Z0.0000
M3S245
G4 P0.5; Tool Off

G0 Z0; move to z-safe height
G0 X3.0000 Y410.6900
M3S0
G4 P0.5; Tool On
G1 F300 Z0.0000
G1 F15000 X497.0000 Y410.6900 Z0.0000
M3S245
G4 P0.5; Tool Off

G0 Z0; move to z-safe height
G0 X497.0000 Y416.6900
M3S0
G4 P0.5; Tool On
G1 F300 Z0.0000
G1 F15000 X3.0000 Y416.6900 Z0.0000
M3S245
G4 P0.5; Tool Off

G0 Z0; move to z-safe height
G0 X3.0000 Y422.6900
M3S0
G4 P0.5; Tool On
G1 F300 Z0.0000
G1 F15000 X497.0000 Y422.6900 Z0.0000
M3S245
G4 P0.5; Tool Off

G0 Z0; move to z-safe height
G0 X497.0000 Y428.6900
M3S0
G4 P0.5; Tool On
G1 F300 Z0.0000
G1 F15000 X3.0000 Y428.6900 Z0.0000
M3S245
G4 P0.5; Tool Off

G0 Z0; move to z-safe height
G0 X3.0000 Y434.6900
M3S0
G4 P0.5; Tool On
G1 F300 Z0.0000
G1 F15000 X497.0000 Y434.6900 Z0.0000
M3S245
G4 P0.5; Tool Off

G0 Z0; move to z-safe height
G0 X497.0000 Y440.6900
M3S0
G4 P0.5; Tool On
G1 F300 Z0.0000
G1 F15000 X3.0000 Y440.6900 Z0.0000
M3S245
G4 P0.5; Tool Off

G0 Z0; move to z-safe height
G0 X3.0000 Y446.6900
M3S0
G4 P0.5; Tool On
G1 F300 Z0.0000
G1 F15000 X497.0000 Y446.6900 Z0.0000
M3S245
G4 P0.5; Tool Off

G0 Z0; move to z-safe height
G0 X497.0000 Y452.6900
M3S0
G4 P0.5; Tool On
G1 F300 Z0.0000
G1 F15000 X3.0000 Y452.6900 Z0.0000
M3S245
G4 P0.5; Tool Off

G0 Z0; move to z-safe height
G0 X3.0000 Y458.6900
M3S0
G4 P0.5; Tool On
G1 F300 Z0.0000
G1 F15000 X497.0000 Y458.6900 Z0.0000
M3S245
G4 P0.5; Tool Off

G0 Z0; move to z-safe height
G0 X497.0000 Y464.6900
M3S0
G4 P0.5; Tool On
G1 F300 Z0.0000
G1 F15000 X3.0000 Y464.6900 Z0.0000
M3S245
G4 P0.5; Tool Off

G0 Z0; move to z-safe height
G0 X3.0000 Y470.6900
M3S0
G4 P0.5; Tool On
G1 F300 Z0.0000
G1 F15000 X497.0000 Y470.6900 Z0.0000
M3S245
G4 P0.5; Tool Off

G0 Z0; move to z-safe height
G0 X497.0000 Y476.6900
M3S0
G4 P0.5; Tool On
G1 F300 Z0.0000
G1 F15000 X3.0000 Y476.6900 Z0.0000
M3S245
G4 P0.5; Tool Off

G0 Z0; move to z-safe height
G0 X3.0000 Y482.6900
M3S0
G4 P0.5; Tool On
G1 F300 Z0.0000
G1 F15000 X497.0000 Y482.6900 Z0.0000
M3S245
G4 P0.5; Tool Off

G0 Z0; move to z-safe height
G0 X497.0000 Y488.6900
M3S0
G4 P0.5; Tool On
G1 F300 Z0.0000
G1 F15000 X3.0000 Y488.6900 Z0.0000
M3S245
G4 P0.5; Tool Off

G0 Z0; move to z-safe height
G0 X3.0000 Y494.6900
M3S0
G4 P0.5; Tool On
G1 F300 Z0.0000
G1 F15000 X497.0000 Y494.6900 Z0.0000
M3S245
G4 P0.5; Tool Off
; retracting back to z-safe
G0 Z0

; Plotter Mode Complete
