; GCODE Generated by cam.openbuilds.com on 2023-04-04 
G21 ; mm-mode
G54; Work Coordinates
G21; mm-mode
G90; Absolute Positioning
; Plotter Mode Active

; Operation 0: Pen Plotter: (lines fill)
; Pen Diameter: 2

G0 Z0; move to z-safe height
G0 F1000 X498.0000 Y3.2800
M3S0
G4 P0.5; Tool On
G1 F300 Z0.0000
G1 F15000 X2.0000 Y3.2800 Z0.0000
M3S245
G4 P0.5; Tool Off

G0 Z0; move to z-safe height
G0 X2.0000 Y7.2800
M3S0
G4 P0.5; Tool On
G1 F300 Z0.0000
G1 F15000 X498.0000 Y7.2800 Z0.0000
M3S245
G4 P0.5; Tool Off

G0 Z0; move to z-safe height
G0 X498.0000 Y11.2800
M3S0
G4 P0.5; Tool On
G1 F300 Z0.0000
G1 F15000 X2.0000 Y11.2800 Z0.0000
M3S245
G4 P0.5; Tool Off

G0 Z0; move to z-safe height
G0 X2.0000 Y15.2800
M3S0
G4 P0.5; Tool On
G1 F300 Z0.0000
G1 F15000 X498.0000 Y15.2800 Z0.0000
M3S245
G4 P0.5; Tool Off

G0 Z0; move to z-safe height
G0 X498.0000 Y19.2800
M3S0
G4 P0.5; Tool On
G1 F300 Z0.0000
G1 F15000 X2.0000 Y19.2800 Z0.0000
M3S245
G4 P0.5; Tool Off

G0 Z0; move to z-safe height
G0 X2.0000 Y23.2800
M3S0
G4 P0.5; Tool On
G1 F300 Z0.0000
G1 F15000 X498.0000 Y23.2800 Z0.0000
M3S245
G4 P0.5; Tool Off

G0 Z0; move to z-safe height
G0 X498.0000 Y27.2800
M3S0
G4 P0.5; Tool On
G1 F300 Z0.0000
G1 F15000 X2.0000 Y27.2800 Z0.0000
M3S245
G4 P0.5; Tool Off

G0 Z0; move to z-safe height
G0 X2.0000 Y31.2800
M3S0
G4 P0.5; Tool On
G1 F300 Z0.0000
G1 F15000 X498.0000 Y31.2800 Z0.0000
M3S245
G4 P0.5; Tool Off

G0 Z0; move to z-safe height
G0 X498.0000 Y35.2800
M3S0
G4 P0.5; Tool On
G1 F300 Z0.0000
G1 F15000 X2.0000 Y35.2800 Z0.0000
M3S245
G4 P0.5; Tool Off

G0 Z0; move to z-safe height
G0 X2.0000 Y39.2800
M3S0
G4 P0.5; Tool On
G1 F300 Z0.0000
G1 F15000 X498.0000 Y39.2800 Z0.0000
M3S245
G4 P0.5; Tool Off

G0 Z0; move to z-safe height
G0 X498.0000 Y43.2800
M3S0
G4 P0.5; Tool On
G1 F300 Z0.0000
G1 F15000 X2.0000 Y43.2800 Z0.0000
M3S245
G4 P0.5; Tool Off

G0 Z0; move to z-safe height
G0 X2.0000 Y47.2800
M3S0
G4 P0.5; Tool On
G1 F300 Z0.0000
G1 F15000 X498.0000 Y47.2800 Z0.0000
M3S245
G4 P0.5; Tool Off

G0 Z0; move to z-safe height
G0 X498.0000 Y51.2800
M3S0
G4 P0.5; Tool On
G1 F300 Z0.0000
G1 F15000 X2.0000 Y51.2800 Z0.0000
M3S245
G4 P0.5; Tool Off

G0 Z0; move to z-safe height
G0 X2.0000 Y55.2800
M3S0
G4 P0.5; Tool On
G1 F300 Z0.0000
G1 F15000 X498.0000 Y55.2800 Z0.0000
M3S245
G4 P0.5; Tool Off

G0 Z0; move to z-safe height
G0 X498.0000 Y59.2800
M3S0
G4 P0.5; Tool On
G1 F300 Z0.0000
G1 F15000 X2.0000 Y59.2800 Z0.0000
M3S245
G4 P0.5; Tool Off

G0 Z0; move to z-safe height
G0 X2.0000 Y63.2800
M3S0
G4 P0.5; Tool On
G1 F300 Z0.0000
G1 F15000 X498.0000 Y63.2800 Z0.0000
M3S245
G4 P0.5; Tool Off

G0 Z0; move to z-safe height
G0 X498.0000 Y67.2800
M3S0
G4 P0.5; Tool On
G1 F300 Z0.0000
G1 F15000 X2.0000 Y67.2800 Z0.0000
M3S245
G4 P0.5; Tool Off

G0 Z0; move to z-safe height
G0 X2.0000 Y71.2800
M3S0
G4 P0.5; Tool On
G1 F300 Z0.0000
G1 F15000 X498.0000 Y71.2800 Z0.0000
M3S245
G4 P0.5; Tool Off

G0 Z0; move to z-safe height
G0 X498.0000 Y75.2800
M3S0
G4 P0.5; Tool On
G1 F300 Z0.0000
G1 F15000 X2.0000 Y75.2800 Z0.0000
M3S245
G4 P0.5; Tool Off

G0 Z0; move to z-safe height
G0 X2.0000 Y79.2800
M3S0
G4 P0.5; Tool On
G1 F300 Z0.0000
G1 F15000 X498.0000 Y79.2800 Z0.0000
M3S245
G4 P0.5; Tool Off

G0 Z0; move to z-safe height
G0 X498.0000 Y83.2800
M3S0
G4 P0.5; Tool On
G1 F300 Z0.0000
G1 F15000 X2.0000 Y83.2800 Z0.0000
M3S245
G4 P0.5; Tool Off

G0 Z0; move to z-safe height
G0 X2.0000 Y87.2800
M3S0
G4 P0.5; Tool On
G1 F300 Z0.0000
G1 F15000 X498.0000 Y87.2800 Z0.0000
M3S245
G4 P0.5; Tool Off

G0 Z0; move to z-safe height
G0 X498.0000 Y91.2800
M3S0
G4 P0.5; Tool On
G1 F300 Z0.0000
G1 F15000 X2.0000 Y91.2800 Z0.0000
M3S245
G4 P0.5; Tool Off

G0 Z0; move to z-safe height
G0 X2.0000 Y95.2800
M3S0
G4 P0.5; Tool On
G1 F300 Z0.0000
G1 F15000 X498.0000 Y95.2800 Z0.0000
M3S245
G4 P0.5; Tool Off

G0 Z0; move to z-safe height
G0 X498.0000 Y99.2800
M3S0
G4 P0.5; Tool On
G1 F300 Z0.0000
G1 F15000 X2.0000 Y99.2800 Z0.0000
M3S245
G4 P0.5; Tool Off

G0 Z0; move to z-safe height
G0 X2.0000 Y103.2800
M3S0
G4 P0.5; Tool On
G1 F300 Z0.0000
G1 F15000 X498.0000 Y103.2800 Z0.0000
M3S245
G4 P0.5; Tool Off

G0 Z0; move to z-safe height
G0 X498.0000 Y107.2800
M3S0
G4 P0.5; Tool On
G1 F300 Z0.0000
G1 F15000 X2.0000 Y107.2800 Z0.0000
M3S245
G4 P0.5; Tool Off

G0 Z0; move to z-safe height
G0 X2.0000 Y111.2800
M3S0
G4 P0.5; Tool On
G1 F300 Z0.0000
G1 F15000 X498.0000 Y111.2800 Z0.0000
M3S245
G4 P0.5; Tool Off

G0 Z0; move to z-safe height
G0 X498.0000 Y115.2800
M3S0
G4 P0.5; Tool On
G1 F300 Z0.0000
G1 F15000 X2.0000 Y115.2800 Z0.0000
M3S245
G4 P0.5; Tool Off

G0 Z0; move to z-safe height
G0 X2.0000 Y119.2800
M3S0
G4 P0.5; Tool On
G1 F300 Z0.0000
G1 F15000 X498.0000 Y119.2800 Z0.0000
M3S245
G4 P0.5; Tool Off

G0 Z0; move to z-safe height
G0 X498.0000 Y123.2800
M3S0
G4 P0.5; Tool On
G1 F300 Z0.0000
G1 F15000 X2.0000 Y123.2800 Z0.0000
M3S245
G4 P0.5; Tool Off

G0 Z0; move to z-safe height
G0 X2.0000 Y127.2800
M3S0
G4 P0.5; Tool On
G1 F300 Z0.0000
G1 F15000 X498.0000 Y127.2800 Z0.0000
M3S245
G4 P0.5; Tool Off

G0 Z0; move to z-safe height
G0 X498.0000 Y131.2800
M3S0
G4 P0.5; Tool On
G1 F300 Z0.0000
G1 F15000 X2.0000 Y131.2800 Z0.0000
M3S245
G4 P0.5; Tool Off

G0 Z0; move to z-safe height
G0 X2.0000 Y135.2800
M3S0
G4 P0.5; Tool On
G1 F300 Z0.0000
G1 F15000 X498.0000 Y135.2800 Z0.0000
M3S245
G4 P0.5; Tool Off

G0 Z0; move to z-safe height
G0 X498.0000 Y139.2800
M3S0
G4 P0.5; Tool On
G1 F300 Z0.0000
G1 F15000 X2.0000 Y139.2800 Z0.0000
M3S245
G4 P0.5; Tool Off

G0 Z0; move to z-safe height
G0 X2.0000 Y143.2800
M3S0
G4 P0.5; Tool On
G1 F300 Z0.0000
G1 F15000 X498.0000 Y143.2800 Z0.0000
M3S245
G4 P0.5; Tool Off

G0 Z0; move to z-safe height
G0 X498.0000 Y147.2800
M3S0
G4 P0.5; Tool On
G1 F300 Z0.0000
G1 F15000 X2.0000 Y147.2800 Z0.0000
M3S245
G4 P0.5; Tool Off

G0 Z0; move to z-safe height
G0 X2.0000 Y151.2800
M3S0
G4 P0.5; Tool On
G1 F300 Z0.0000
G1 F15000 X498.0000 Y151.2800 Z0.0000
M3S245
G4 P0.5; Tool Off

G0 Z0; move to z-safe height
G0 X498.0000 Y155.2800
M3S0
G4 P0.5; Tool On
G1 F300 Z0.0000
G1 F15000 X2.0000 Y155.2800 Z0.0000
M3S245
G4 P0.5; Tool Off

G0 Z0; move to z-safe height
G0 X2.0000 Y159.2800
M3S0
G4 P0.5; Tool On
G1 F300 Z0.0000
G1 F15000 X498.0000 Y159.2800 Z0.0000
M3S245
G4 P0.5; Tool Off

G0 Z0; move to z-safe height
G0 X498.0000 Y163.2800
M3S0
G4 P0.5; Tool On
G1 F300 Z0.0000
G1 F15000 X2.0000 Y163.2800 Z0.0000
M3S245
G4 P0.5; Tool Off

G0 Z0; move to z-safe height
G0 X2.0000 Y167.2800
M3S0
G4 P0.5; Tool On
G1 F300 Z0.0000
G1 F15000 X498.0000 Y167.2800 Z0.0000
M3S245
G4 P0.5; Tool Off

G0 Z0; move to z-safe height
G0 X498.0000 Y171.2800
M3S0
G4 P0.5; Tool On
G1 F300 Z0.0000
G1 F15000 X2.0000 Y171.2800 Z0.0000
M3S245
G4 P0.5; Tool Off

G0 Z0; move to z-safe height
G0 X2.0000 Y175.2800
M3S0
G4 P0.5; Tool On
G1 F300 Z0.0000
G1 F15000 X498.0000 Y175.2800 Z0.0000
M3S245
G4 P0.5; Tool Off

G0 Z0; move to z-safe height
G0 X498.0000 Y179.2800
M3S0
G4 P0.5; Tool On
G1 F300 Z0.0000
G1 F15000 X2.0000 Y179.2800 Z0.0000
M3S245
G4 P0.5; Tool Off

G0 Z0; move to z-safe height
G0 X2.0000 Y183.2800
M3S0
G4 P0.5; Tool On
G1 F300 Z0.0000
G1 F15000 X498.0000 Y183.2800 Z0.0000
M3S245
G4 P0.5; Tool Off

G0 Z0; move to z-safe height
G0 X498.0000 Y187.2800
M3S0
G4 P0.5; Tool On
G1 F300 Z0.0000
G1 F15000 X2.0000 Y187.2800 Z0.0000
M3S245
G4 P0.5; Tool Off

G0 Z0; move to z-safe height
G0 X2.0000 Y191.2800
M3S0
G4 P0.5; Tool On
G1 F300 Z0.0000
G1 F15000 X498.0000 Y191.2800 Z0.0000
M3S245
G4 P0.5; Tool Off

G0 Z0; move to z-safe height
G0 X498.0000 Y195.2800
M3S0
G4 P0.5; Tool On
G1 F300 Z0.0000
G1 F15000 X2.0000 Y195.2800 Z0.0000
M3S245
G4 P0.5; Tool Off

G0 Z0; move to z-safe height
G0 X2.0000 Y199.2800
M3S0
G4 P0.5; Tool On
G1 F300 Z0.0000
G1 F15000 X498.0000 Y199.2800 Z0.0000
M3S245
G4 P0.5; Tool Off

G0 Z0; move to z-safe height
G0 X498.0000 Y203.2800
M3S0
G4 P0.5; Tool On
G1 F300 Z0.0000
G1 F15000 X2.0000 Y203.2800 Z0.0000
M3S245
G4 P0.5; Tool Off

G0 Z0; move to z-safe height
G0 X2.0000 Y207.2800
M3S0
G4 P0.5; Tool On
G1 F300 Z0.0000
G1 F15000 X498.0000 Y207.2800 Z0.0000
M3S245
G4 P0.5; Tool Off

G0 Z0; move to z-safe height
G0 X498.0000 Y211.2800
M3S0
G4 P0.5; Tool On
G1 F300 Z0.0000
G1 F15000 X2.0000 Y211.2800 Z0.0000
M3S245
G4 P0.5; Tool Off

G0 Z0; move to z-safe height
G0 X2.0000 Y215.2800
M3S0
G4 P0.5; Tool On
G1 F300 Z0.0000
G1 F15000 X498.0000 Y215.2800 Z0.0000
M3S245
G4 P0.5; Tool Off

G0 Z0; move to z-safe height
G0 X498.0000 Y219.2800
M3S0
G4 P0.5; Tool On
G1 F300 Z0.0000
G1 F15000 X2.0000 Y219.2800 Z0.0000
M3S245
G4 P0.5; Tool Off

G0 Z0; move to z-safe height
G0 X2.0000 Y223.2800
M3S0
G4 P0.5; Tool On
G1 F300 Z0.0000
G1 F15000 X498.0000 Y223.2800 Z0.0000
M3S245
G4 P0.5; Tool Off

G0 Z0; move to z-safe height
G0 X498.0000 Y227.2800
M3S0
G4 P0.5; Tool On
G1 F300 Z0.0000
G1 F15000 X2.0000 Y227.2800 Z0.0000
M3S245
G4 P0.5; Tool Off

G0 Z0; move to z-safe height
G0 X2.0000 Y231.2800
M3S0
G4 P0.5; Tool On
G1 F300 Z0.0000
G1 F15000 X498.0000 Y231.2800 Z0.0000
M3S245
G4 P0.5; Tool Off

G0 Z0; move to z-safe height
G0 X498.0000 Y235.2800
M3S0
G4 P0.5; Tool On
G1 F300 Z0.0000
G1 F15000 X2.0000 Y235.2800 Z0.0000
M3S245
G4 P0.5; Tool Off

G0 Z0; move to z-safe height
G0 X2.0000 Y239.2800
M3S0
G4 P0.5; Tool On
G1 F300 Z0.0000
G1 F15000 X498.0000 Y239.2800 Z0.0000
M3S245
G4 P0.5; Tool Off

G0 Z0; move to z-safe height
G0 X498.0000 Y243.2800
M3S0
G4 P0.5; Tool On
G1 F300 Z0.0000
G1 F15000 X2.0000 Y243.2800 Z0.0000
M3S245
G4 P0.5; Tool Off

G0 Z0; move to z-safe height
G0 X2.0000 Y247.2800
M3S0
G4 P0.5; Tool On
G1 F300 Z0.0000
G1 F15000 X498.0000 Y247.2800 Z0.0000
M3S245
G4 P0.5; Tool Off

G0 Z0; move to z-safe height
G0 X498.0000 Y251.2800
M3S0
G4 P0.5; Tool On
G1 F300 Z0.0000
G1 F15000 X2.0000 Y251.2800 Z0.0000
M3S245
G4 P0.5; Tool Off

G0 Z0; move to z-safe height
G0 X2.0000 Y255.2800
M3S0
G4 P0.5; Tool On
G1 F300 Z0.0000
G1 F15000 X498.0000 Y255.2800 Z0.0000
M3S245
G4 P0.5; Tool Off

G0 Z0; move to z-safe height
G0 X498.0000 Y259.2800
M3S0
G4 P0.5; Tool On
G1 F300 Z0.0000
G1 F15000 X2.0000 Y259.2800 Z0.0000
M3S245
G4 P0.5; Tool Off

G0 Z0; move to z-safe height
G0 X2.0000 Y263.2800
M3S0
G4 P0.5; Tool On
G1 F300 Z0.0000
G1 F15000 X498.0000 Y263.2800 Z0.0000
M3S245
G4 P0.5; Tool Off

G0 Z0; move to z-safe height
G0 X498.0000 Y267.2800
M3S0
G4 P0.5; Tool On
G1 F300 Z0.0000
G1 F15000 X2.0000 Y267.2800 Z0.0000
M3S245
G4 P0.5; Tool Off

G0 Z0; move to z-safe height
G0 X2.0000 Y271.2800
M3S0
G4 P0.5; Tool On
G1 F300 Z0.0000
G1 F15000 X498.0000 Y271.2800 Z0.0000
M3S245
G4 P0.5; Tool Off

G0 Z0; move to z-safe height
G0 X498.0000 Y275.2800
M3S0
G4 P0.5; Tool On
G1 F300 Z0.0000
G1 F15000 X2.0000 Y275.2800 Z0.0000
M3S245
G4 P0.5; Tool Off

G0 Z0; move to z-safe height
G0 X2.0000 Y279.2800
M3S0
G4 P0.5; Tool On
G1 F300 Z0.0000
G1 F15000 X498.0000 Y279.2800 Z0.0000
M3S245
G4 P0.5; Tool Off

G0 Z0; move to z-safe height
G0 X498.0000 Y283.2800
M3S0
G4 P0.5; Tool On
G1 F300 Z0.0000
G1 F15000 X2.0000 Y283.2800 Z0.0000
M3S245
G4 P0.5; Tool Off

G0 Z0; move to z-safe height
G0 X2.0000 Y287.2800
M3S0
G4 P0.5; Tool On
G1 F300 Z0.0000
G1 F15000 X498.0000 Y287.2800 Z0.0000
M3S245
G4 P0.5; Tool Off

G0 Z0; move to z-safe height
G0 X498.0000 Y291.2800
M3S0
G4 P0.5; Tool On
G1 F300 Z0.0000
G1 F15000 X2.0000 Y291.2800 Z0.0000
M3S245
G4 P0.5; Tool Off

G0 Z0; move to z-safe height
G0 X2.0000 Y295.2800
M3S0
G4 P0.5; Tool On
G1 F300 Z0.0000
G1 F15000 X498.0000 Y295.2800 Z0.0000
M3S245
G4 P0.5; Tool Off

G0 Z0; move to z-safe height
G0 X498.0000 Y299.2800
M3S0
G4 P0.5; Tool On
G1 F300 Z0.0000
G1 F15000 X2.0000 Y299.2800 Z0.0000
M3S245
G4 P0.5; Tool Off

G0 Z0; move to z-safe height
G0 X2.0000 Y303.2800
M3S0
G4 P0.5; Tool On
G1 F300 Z0.0000
G1 F15000 X498.0000 Y303.2800 Z0.0000
M3S245
G4 P0.5; Tool Off

G0 Z0; move to z-safe height
G0 X498.0000 Y307.2800
M3S0
G4 P0.5; Tool On
G1 F300 Z0.0000
G1 F15000 X2.0000 Y307.2800 Z0.0000
M3S245
G4 P0.5; Tool Off

G0 Z0; move to z-safe height
G0 X2.0000 Y311.2800
M3S0
G4 P0.5; Tool On
G1 F300 Z0.0000
G1 F15000 X498.0000 Y311.2800 Z0.0000
M3S245
G4 P0.5; Tool Off

G0 Z0; move to z-safe height
G0 X498.0000 Y315.2800
M3S0
G4 P0.5; Tool On
G1 F300 Z0.0000
G1 F15000 X2.0000 Y315.2800 Z0.0000
M3S245
G4 P0.5; Tool Off

G0 Z0; move to z-safe height
G0 X2.0000 Y319.2800
M3S0
G4 P0.5; Tool On
G1 F300 Z0.0000
G1 F15000 X498.0000 Y319.2800 Z0.0000
M3S245
G4 P0.5; Tool Off

G0 Z0; move to z-safe height
G0 X498.0000 Y323.2800
M3S0
G4 P0.5; Tool On
G1 F300 Z0.0000
G1 F15000 X2.0000 Y323.2800 Z0.0000
M3S245
G4 P0.5; Tool Off

G0 Z0; move to z-safe height
G0 X2.0000 Y327.2800
M3S0
G4 P0.5; Tool On
G1 F300 Z0.0000
G1 F15000 X498.0000 Y327.2800 Z0.0000
M3S245
G4 P0.5; Tool Off

G0 Z0; move to z-safe height
G0 X498.0000 Y331.2800
M3S0
G4 P0.5; Tool On
G1 F300 Z0.0000
G1 F15000 X2.0000 Y331.2800 Z0.0000
M3S245
G4 P0.5; Tool Off

G0 Z0; move to z-safe height
G0 X2.0000 Y335.2800
M3S0
G4 P0.5; Tool On
G1 F300 Z0.0000
G1 F15000 X498.0000 Y335.2800 Z0.0000
M3S245
G4 P0.5; Tool Off

G0 Z0; move to z-safe height
G0 X498.0000 Y339.2800
M3S0
G4 P0.5; Tool On
G1 F300 Z0.0000
G1 F15000 X2.0000 Y339.2800 Z0.0000
M3S245
G4 P0.5; Tool Off

G0 Z0; move to z-safe height
G0 X2.0000 Y343.2800
M3S0
G4 P0.5; Tool On
G1 F300 Z0.0000
G1 F15000 X498.0000 Y343.2800 Z0.0000
M3S245
G4 P0.5; Tool Off

G0 Z0; move to z-safe height
G0 X498.0000 Y347.2800
M3S0
G4 P0.5; Tool On
G1 F300 Z0.0000
G1 F15000 X2.0000 Y347.2800 Z0.0000
M3S245
G4 P0.5; Tool Off

G0 Z0; move to z-safe height
G0 X2.0000 Y351.2800
M3S0
G4 P0.5; Tool On
G1 F300 Z0.0000
G1 F15000 X498.0000 Y351.2800 Z0.0000
M3S245
G4 P0.5; Tool Off

G0 Z0; move to z-safe height
G0 X498.0000 Y355.2800
M3S0
G4 P0.5; Tool On
G1 F300 Z0.0000
G1 F15000 X2.0000 Y355.2800 Z0.0000
M3S245
G4 P0.5; Tool Off

G0 Z0; move to z-safe height
G0 X2.0000 Y359.2800
M3S0
G4 P0.5; Tool On
G1 F300 Z0.0000
G1 F15000 X498.0000 Y359.2800 Z0.0000
M3S245
G4 P0.5; Tool Off

G0 Z0; move to z-safe height
G0 X498.0000 Y363.2800
M3S0
G4 P0.5; Tool On
G1 F300 Z0.0000
G1 F15000 X2.0000 Y363.2800 Z0.0000
M3S245
G4 P0.5; Tool Off

G0 Z0; move to z-safe height
G0 X2.0000 Y367.2800
M3S0
G4 P0.5; Tool On
G1 F300 Z0.0000
G1 F15000 X498.0000 Y367.2800 Z0.0000
M3S245
G4 P0.5; Tool Off

G0 Z0; move to z-safe height
G0 X498.0000 Y371.2800
M3S0
G4 P0.5; Tool On
G1 F300 Z0.0000
G1 F15000 X2.0000 Y371.2800 Z0.0000
M3S245
G4 P0.5; Tool Off

G0 Z0; move to z-safe height
G0 X2.0000 Y375.2800
M3S0
G4 P0.5; Tool On
G1 F300 Z0.0000
G1 F15000 X498.0000 Y375.2800 Z0.0000
M3S245
G4 P0.5; Tool Off

G0 Z0; move to z-safe height
G0 X498.0000 Y379.2800
M3S0
G4 P0.5; Tool On
G1 F300 Z0.0000
G1 F15000 X2.0000 Y379.2800 Z0.0000
M3S245
G4 P0.5; Tool Off

G0 Z0; move to z-safe height
G0 X2.0000 Y383.2800
M3S0
G4 P0.5; Tool On
G1 F300 Z0.0000
G1 F15000 X498.0000 Y383.2800 Z0.0000
M3S245
G4 P0.5; Tool Off

G0 Z0; move to z-safe height
G0 X498.0000 Y387.2800
M3S0
G4 P0.5; Tool On
G1 F300 Z0.0000
G1 F15000 X2.0000 Y387.2800 Z0.0000
M3S245
G4 P0.5; Tool Off

G0 Z0; move to z-safe height
G0 X2.0000 Y391.2800
M3S0
G4 P0.5; Tool On
G1 F300 Z0.0000
G1 F15000 X498.0000 Y391.2800 Z0.0000
M3S245
G4 P0.5; Tool Off

G0 Z0; move to z-safe height
G0 X498.0000 Y395.2800
M3S0
G4 P0.5; Tool On
G1 F300 Z0.0000
G1 F15000 X2.0000 Y395.2800 Z0.0000
M3S245
G4 P0.5; Tool Off

G0 Z0; move to z-safe height
G0 X2.0000 Y399.2800
M3S0
G4 P0.5; Tool On
G1 F300 Z0.0000
G1 F15000 X498.0000 Y399.2800 Z0.0000
M3S245
G4 P0.5; Tool Off

G0 Z0; move to z-safe height
G0 X498.0000 Y403.2800
M3S0
G4 P0.5; Tool On
G1 F300 Z0.0000
G1 F15000 X2.0000 Y403.2800 Z0.0000
M3S245
G4 P0.5; Tool Off

G0 Z0; move to z-safe height
G0 X2.0000 Y407.2800
M3S0
G4 P0.5; Tool On
G1 F300 Z0.0000
G1 F15000 X498.0000 Y407.2800 Z0.0000
M3S245
G4 P0.5; Tool Off

G0 Z0; move to z-safe height
G0 X498.0000 Y411.2800
M3S0
G4 P0.5; Tool On
G1 F300 Z0.0000
G1 F15000 X2.0000 Y411.2800 Z0.0000
M3S245
G4 P0.5; Tool Off

G0 Z0; move to z-safe height
G0 X2.0000 Y415.2800
M3S0
G4 P0.5; Tool On
G1 F300 Z0.0000
G1 F15000 X498.0000 Y415.2800 Z0.0000
M3S245
G4 P0.5; Tool Off

G0 Z0; move to z-safe height
G0 X498.0000 Y419.2800
M3S0
G4 P0.5; Tool On
G1 F300 Z0.0000
G1 F15000 X2.0000 Y419.2800 Z0.0000
M3S245
G4 P0.5; Tool Off

G0 Z0; move to z-safe height
G0 X2.0000 Y423.2800
M3S0
G4 P0.5; Tool On
G1 F300 Z0.0000
G1 F15000 X498.0000 Y423.2800 Z0.0000
M3S245
G4 P0.5; Tool Off

G0 Z0; move to z-safe height
G0 X498.0000 Y427.2800
M3S0
G4 P0.5; Tool On
G1 F300 Z0.0000
G1 F15000 X2.0000 Y427.2800 Z0.0000
M3S245
G4 P0.5; Tool Off

G0 Z0; move to z-safe height
G0 X2.0000 Y431.2800
M3S0
G4 P0.5; Tool On
G1 F300 Z0.0000
G1 F15000 X498.0000 Y431.2800 Z0.0000
M3S245
G4 P0.5; Tool Off

G0 Z0; move to z-safe height
G0 X498.0000 Y435.2800
M3S0
G4 P0.5; Tool On
G1 F300 Z0.0000
G1 F15000 X2.0000 Y435.2800 Z0.0000
M3S245
G4 P0.5; Tool Off

G0 Z0; move to z-safe height
G0 X2.0000 Y439.2800
M3S0
G4 P0.5; Tool On
G1 F300 Z0.0000
G1 F15000 X498.0000 Y439.2800 Z0.0000
M3S245
G4 P0.5; Tool Off

G0 Z0; move to z-safe height
G0 X498.0000 Y443.2800
M3S0
G4 P0.5; Tool On
G1 F300 Z0.0000
G1 F15000 X2.0000 Y443.2800 Z0.0000
M3S245
G4 P0.5; Tool Off

G0 Z0; move to z-safe height
G0 X2.0000 Y447.2800
M3S0
G4 P0.5; Tool On
G1 F300 Z0.0000
G1 F15000 X498.0000 Y447.2800 Z0.0000
M3S245
G4 P0.5; Tool Off

G0 Z0; move to z-safe height
G0 X498.0000 Y451.2800
M3S0
G4 P0.5; Tool On
G1 F300 Z0.0000
G1 F15000 X2.0000 Y451.2800 Z0.0000
M3S245
G4 P0.5; Tool Off

G0 Z0; move to z-safe height
G0 X2.0000 Y455.2800
M3S0
G4 P0.5; Tool On
G1 F300 Z0.0000
G1 F15000 X498.0000 Y455.2800 Z0.0000
M3S245
G4 P0.5; Tool Off

G0 Z0; move to z-safe height
G0 X498.0000 Y459.2800
M3S0
G4 P0.5; Tool On
G1 F300 Z0.0000
G1 F15000 X2.0000 Y459.2800 Z0.0000
M3S245
G4 P0.5; Tool Off

G0 Z0; move to z-safe height
G0 X2.0000 Y463.2800
M3S0
G4 P0.5; Tool On
G1 F300 Z0.0000
G1 F15000 X498.0000 Y463.2800 Z0.0000
M3S245
G4 P0.5; Tool Off

G0 Z0; move to z-safe height
G0 X498.0000 Y467.2800
M3S0
G4 P0.5; Tool On
G1 F300 Z0.0000
G1 F15000 X2.0000 Y467.2800 Z0.0000
M3S245
G4 P0.5; Tool Off

G0 Z0; move to z-safe height
G0 X2.0000 Y471.2800
M3S0
G4 P0.5; Tool On
G1 F300 Z0.0000
G1 F15000 X498.0000 Y471.2800 Z0.0000
M3S245
G4 P0.5; Tool Off

G0 Z0; move to z-safe height
G0 X498.0000 Y475.2800
M3S0
G4 P0.5; Tool On
G1 F300 Z0.0000
G1 F15000 X2.0000 Y475.2800 Z0.0000
M3S245
G4 P0.5; Tool Off

G0 Z0; move to z-safe height
G0 X2.0000 Y479.2800
M3S0
G4 P0.5; Tool On
G1 F300 Z0.0000
G1 F15000 X498.0000 Y479.2800 Z0.0000
M3S245
G4 P0.5; Tool Off

G0 Z0; move to z-safe height
G0 X498.0000 Y483.2800
M3S0
G4 P0.5; Tool On
G1 F300 Z0.0000
G1 F15000 X2.0000 Y483.2800 Z0.0000
M3S245
G4 P0.5; Tool Off

G0 Z0; move to z-safe height
G0 X2.0000 Y487.2800
M3S0
G4 P0.5; Tool On
G1 F300 Z0.0000
G1 F15000 X498.0000 Y487.2800 Z0.0000
M3S245
G4 P0.5; Tool Off

G0 Z0; move to z-safe height
G0 X498.0000 Y491.2800
M3S0
G4 P0.5; Tool On
G1 F300 Z0.0000
G1 F15000 X2.0000 Y491.2800 Z0.0000
M3S245
G4 P0.5; Tool Off

G0 Z0; move to z-safe height
G0 X2.0000 Y495.2800
M3S0
G4 P0.5; Tool On
G1 F300 Z0.0000
G1 F15000 X498.0000 Y495.2800 Z0.0000
M3S245
G4 P0.5; Tool Off
; retracting back to z-safe
G0 Z0

; Plotter Mode Complete
