; GCODE Generated by cam.openbuilds.com on 2023-04-05 
G21 ; mm-mode
G54; Work Coordinates
G21; mm-mode
G90; Absolute Positioning
; Plotter Mode Active

; Operation 0: Pen Plotter: (lines fill)
; Pen Diameter: 2

G0 Z0; move to z-safe height
G0 F1000 X493.0000 Y18.3500
M3S0
G4 P0.5; Tool On
G1 F300 Z0.0000
G1 F15000 X7.0000 Y18.3500 Z0.0000
M3S245
G4 P0.5; Tool Off

G0 Z0; move to z-safe height
G0 X7.0000 Y32.3500
M3S0
G4 P0.5; Tool On
G1 F300 Z0.0000
G1 F15000 X493.0000 Y32.3500 Z0.0000
M3S245
G4 P0.5; Tool Off

G0 Z0; move to z-safe height
G0 X493.0000 Y46.3500
M3S0
G4 P0.5; Tool On
G1 F300 Z0.0000
G1 F15000 X7.0000 Y46.3500 Z0.0000
M3S245
G4 P0.5; Tool Off

G0 Z0; move to z-safe height
G0 X7.0000 Y60.3500
M3S0
G4 P0.5; Tool On
G1 F300 Z0.0000
G1 F15000 X493.0000 Y60.3500 Z0.0000
M3S245
G4 P0.5; Tool Off

G0 Z0; move to z-safe height
G0 X493.0000 Y74.3500
M3S0
G4 P0.5; Tool On
G1 F300 Z0.0000
G1 F15000 X7.0000 Y74.3500 Z0.0000
M3S245
G4 P0.5; Tool Off

G0 Z0; move to z-safe height
G0 X7.0000 Y88.3500
M3S0
G4 P0.5; Tool On
G1 F300 Z0.0000
G1 F15000 X493.0000 Y88.3500 Z0.0000
M3S245
G4 P0.5; Tool Off

G0 Z0; move to z-safe height
G0 X493.0000 Y102.3500
M3S0
G4 P0.5; Tool On
G1 F300 Z0.0000
G1 F15000 X7.0000 Y102.3500 Z0.0000
M3S245
G4 P0.5; Tool Off

G0 Z0; move to z-safe height
G0 X7.0000 Y116.3500
M3S0
G4 P0.5; Tool On
G1 F300 Z0.0000
G1 F15000 X493.0000 Y116.3500 Z0.0000
M3S245
G4 P0.5; Tool Off

G0 Z0; move to z-safe height
G0 X493.0000 Y130.3500
M3S0
G4 P0.5; Tool On
G1 F300 Z0.0000
G1 F15000 X7.0000 Y130.3500 Z0.0000
M3S245
G4 P0.5; Tool Off

G0 Z0; move to z-safe height
G0 X7.0000 Y144.3500
M3S0
G4 P0.5; Tool On
G1 F300 Z0.0000
G1 F15000 X493.0000 Y144.3500 Z0.0000
M3S245
G4 P0.5; Tool Off

G0 Z0; move to z-safe height
G0 X493.0000 Y158.3500
M3S0
G4 P0.5; Tool On
G1 F300 Z0.0000
G1 F15000 X7.0000 Y158.3500 Z0.0000
M3S245
G4 P0.5; Tool Off

G0 Z0; move to z-safe height
G0 X7.0000 Y172.3500
M3S0
G4 P0.5; Tool On
G1 F300 Z0.0000
G1 F15000 X493.0000 Y172.3500 Z0.0000
M3S245
G4 P0.5; Tool Off

G0 Z0; move to z-safe height
G0 X493.0000 Y186.3500
M3S0
G4 P0.5; Tool On
G1 F300 Z0.0000
G1 F15000 X7.0000 Y186.3500 Z0.0000
M3S245
G4 P0.5; Tool Off

G0 Z0; move to z-safe height
G0 X7.0000 Y200.3500
M3S0
G4 P0.5; Tool On
G1 F300 Z0.0000
G1 F15000 X493.0000 Y200.3500 Z0.0000
M3S245
G4 P0.5; Tool Off

G0 Z0; move to z-safe height
G0 X493.0000 Y214.3500
M3S0
G4 P0.5; Tool On
G1 F300 Z0.0000
G1 F15000 X7.0000 Y214.3500 Z0.0000
M3S245
G4 P0.5; Tool Off

G0 Z0; move to z-safe height
G0 X7.0000 Y228.3500
M3S0
G4 P0.5; Tool On
G1 F300 Z0.0000
G1 F15000 X493.0000 Y228.3500 Z0.0000
M3S245
G4 P0.5; Tool Off

G0 Z0; move to z-safe height
G0 X493.0000 Y242.3500
M3S0
G4 P0.5; Tool On
G1 F300 Z0.0000
G1 F15000 X7.0000 Y242.3500 Z0.0000
M3S245
G4 P0.5; Tool Off

G0 Z0; move to z-safe height
G0 X7.0000 Y256.3500
M3S0
G4 P0.5; Tool On
G1 F300 Z0.0000
G1 F15000 X493.0000 Y256.3500 Z0.0000
M3S245
G4 P0.5; Tool Off

G0 Z0; move to z-safe height
G0 X493.0000 Y270.3500
M3S0
G4 P0.5; Tool On
G1 F300 Z0.0000
G1 F15000 X7.0000 Y270.3500 Z0.0000
M3S245
G4 P0.5; Tool Off

G0 Z0; move to z-safe height
G0 X7.0000 Y284.3500
M3S0
G4 P0.5; Tool On
G1 F300 Z0.0000
G1 F15000 X493.0000 Y284.3500 Z0.0000
M3S245
G4 P0.5; Tool Off

G0 Z0; move to z-safe height
G0 X493.0000 Y298.3500
M3S0
G4 P0.5; Tool On
G1 F300 Z0.0000
G1 F15000 X7.0000 Y298.3500 Z0.0000
M3S245
G4 P0.5; Tool Off

G0 Z0; move to z-safe height
G0 X7.0000 Y312.3500
M3S0
G4 P0.5; Tool On
G1 F300 Z0.0000
G1 F15000 X493.0000 Y312.3500 Z0.0000
M3S245
G4 P0.5; Tool Off

G0 Z0; move to z-safe height
G0 X493.0000 Y326.3500
M3S0
G4 P0.5; Tool On
G1 F300 Z0.0000
G1 F15000 X7.0000 Y326.3500 Z0.0000
M3S245
G4 P0.5; Tool Off

G0 Z0; move to z-safe height
G0 X7.0000 Y340.3500
M3S0
G4 P0.5; Tool On
G1 F300 Z0.0000
G1 F15000 X493.0000 Y340.3500 Z0.0000
M3S245
G4 P0.5; Tool Off

G0 Z0; move to z-safe height
G0 X493.0000 Y354.3500
M3S0
G4 P0.5; Tool On
G1 F300 Z0.0000
G1 F15000 X7.0000 Y354.3500 Z0.0000
M3S245
G4 P0.5; Tool Off

G0 Z0; move to z-safe height
G0 X7.0000 Y368.3500
M3S0
G4 P0.5; Tool On
G1 F300 Z0.0000
G1 F15000 X493.0000 Y368.3500 Z0.0000
M3S245
G4 P0.5; Tool Off

G0 Z0; move to z-safe height
G0 X493.0000 Y382.3500
M3S0
G4 P0.5; Tool On
G1 F300 Z0.0000
G1 F15000 X7.0000 Y382.3500 Z0.0000
M3S245
G4 P0.5; Tool Off

G0 Z0; move to z-safe height
G0 X7.0000 Y396.3500
M3S0
G4 P0.5; Tool On
G1 F300 Z0.0000
G1 F15000 X493.0000 Y396.3500 Z0.0000
M3S245
G4 P0.5; Tool Off

G0 Z0; move to z-safe height
G0 X493.0000 Y410.3500
M3S0
G4 P0.5; Tool On
G1 F300 Z0.0000
G1 F15000 X7.0000 Y410.3500 Z0.0000
M3S245
G4 P0.5; Tool Off

G0 Z0; move to z-safe height
G0 X7.0000 Y424.3500
M3S0
G4 P0.5; Tool On
G1 F300 Z0.0000
G1 F15000 X493.0000 Y424.3500 Z0.0000
M3S245
G4 P0.5; Tool Off

G0 Z0; move to z-safe height
G0 X493.0000 Y438.3500
M3S0
G4 P0.5; Tool On
G1 F300 Z0.0000
G1 F15000 X7.0000 Y438.3500 Z0.0000
M3S245
G4 P0.5; Tool Off

G0 Z0; move to z-safe height
G0 X7.0000 Y452.3500
M3S0
G4 P0.5; Tool On
G1 F300 Z0.0000
G1 F15000 X493.0000 Y452.3500 Z0.0000
M3S245
G4 P0.5; Tool Off

G0 Z0; move to z-safe height
G0 X493.0000 Y466.3500
M3S0
G4 P0.5; Tool On
G1 F300 Z0.0000
G1 F15000 X7.0000 Y466.3500 Z0.0000
M3S245
G4 P0.5; Tool Off

G0 Z0; move to z-safe height
G0 X7.0000 Y480.3500
M3S0
G4 P0.5; Tool On
G1 F300 Z0.0000
G1 F15000 X493.0000 Y480.3500 Z0.0000
M3S245
G4 P0.5; Tool Off
; retracting back to z-safe
G0 Z0

; Plotter Mode Complete
