; GCODE Generated by cam.openbuilds.com on 2023-04-07 
G21 ; mm-mode
G54; Work Coordinates
G21; mm-mode
G90; Absolute Positioning
; Plotter Mode Active

; Operation 0: Pen Plotter: (lines fill)
; Pen Diameter: 2

G0 Z0; move to z-safe height
G0 F1000 X5.0000 Y13.5200
M3S0
G4 P0.5; Tool On
G1 F300 Z0.0000
G1 F15000 X495.0000 Y13.5200 Z0.0000
M3S245
G4 P0.5; Tool Off

G0 Z0; move to z-safe height
G0 X495.0000 Y23.5200
M3S0
G4 P0.5; Tool On
G1 F300 Z0.0000
G1 F15000 X5.0000 Y23.5200 Z0.0000
M3S245
G4 P0.5; Tool Off

G0 Z0; move to z-safe height
G0 X5.0000 Y33.5200
M3S0
G4 P0.5; Tool On
G1 F300 Z0.0000
G1 F15000 X495.0000 Y33.5200 Z0.0000
M3S245
G4 P0.5; Tool Off

G0 Z0; move to z-safe height
G0 X495.0000 Y43.5200
M3S0
G4 P0.5; Tool On
G1 F300 Z0.0000
G1 F15000 X5.0000 Y43.5200 Z0.0000
M3S245
G4 P0.5; Tool Off

G0 Z0; move to z-safe height
G0 X5.0000 Y53.5200
M3S0
G4 P0.5; Tool On
G1 F300 Z0.0000
G1 F15000 X495.0000 Y53.5200 Z0.0000
M3S245
G4 P0.5; Tool Off

G0 Z0; move to z-safe height
G0 X495.0000 Y63.5200
M3S0
G4 P0.5; Tool On
G1 F300 Z0.0000
G1 F15000 X5.0000 Y63.5200 Z0.0000
M3S245
G4 P0.5; Tool Off

G0 Z0; move to z-safe height
G0 X5.0000 Y73.5200
M3S0
G4 P0.5; Tool On
G1 F300 Z0.0000
G1 F15000 X495.0000 Y73.5200 Z0.0000
M3S245
G4 P0.5; Tool Off

G0 Z0; move to z-safe height
G0 X495.0000 Y83.5200
M3S0
G4 P0.5; Tool On
G1 F300 Z0.0000
G1 F15000 X5.0000 Y83.5200 Z0.0000
M3S245
G4 P0.5; Tool Off

G0 Z0; move to z-safe height
G0 X5.0000 Y93.5200
M3S0
G4 P0.5; Tool On
G1 F300 Z0.0000
G1 F15000 X495.0000 Y93.5200 Z0.0000
M3S245
G4 P0.5; Tool Off

G0 Z0; move to z-safe height
G0 X495.0000 Y103.5200
M3S0
G4 P0.5; Tool On
G1 F300 Z0.0000
G1 F15000 X5.0000 Y103.5200 Z0.0000
M3S245
G4 P0.5; Tool Off

G0 Z0; move to z-safe height
G0 X5.0000 Y113.5200
M3S0
G4 P0.5; Tool On
G1 F300 Z0.0000
G1 F15000 X495.0000 Y113.5200 Z0.0000
M3S245
G4 P0.5; Tool Off

G0 Z0; move to z-safe height
G0 X495.0000 Y123.5200
M3S0
G4 P0.5; Tool On
G1 F300 Z0.0000
G1 F15000 X5.0000 Y123.5200 Z0.0000
M3S245
G4 P0.5; Tool Off

G0 Z0; move to z-safe height
G0 X5.0000 Y133.5200
M3S0
G4 P0.5; Tool On
G1 F300 Z0.0000
G1 F15000 X495.0000 Y133.5200 Z0.0000
M3S245
G4 P0.5; Tool Off

G0 Z0; move to z-safe height
G0 X495.0000 Y143.5200
M3S0
G4 P0.5; Tool On
G1 F300 Z0.0000
G1 F15000 X5.0000 Y143.5200 Z0.0000
M3S245
G4 P0.5; Tool Off

G0 Z0; move to z-safe height
G0 X5.0000 Y153.5200
M3S0
G4 P0.5; Tool On
G1 F300 Z0.0000
G1 F15000 X495.0000 Y153.5200 Z0.0000
M3S245
G4 P0.5; Tool Off

G0 Z0; move to z-safe height
G0 X495.0000 Y163.5200
M3S0
G4 P0.5; Tool On
G1 F300 Z0.0000
G1 F15000 X5.0000 Y163.5200 Z0.0000
M3S245
G4 P0.5; Tool Off

G0 Z0; move to z-safe height
G0 X5.0000 Y173.5200
M3S0
G4 P0.5; Tool On
G1 F300 Z0.0000
G1 F15000 X495.0000 Y173.5200 Z0.0000
M3S245
G4 P0.5; Tool Off

G0 Z0; move to z-safe height
G0 X495.0000 Y183.5200
M3S0
G4 P0.5; Tool On
G1 F300 Z0.0000
G1 F15000 X5.0000 Y183.5200 Z0.0000
M3S245
G4 P0.5; Tool Off

G0 Z0; move to z-safe height
G0 X5.0000 Y193.5200
M3S0
G4 P0.5; Tool On
G1 F300 Z0.0000
G1 F15000 X495.0000 Y193.5200 Z0.0000
M3S245
G4 P0.5; Tool Off

G0 Z0; move to z-safe height
G0 X495.0000 Y203.5200
M3S0
G4 P0.5; Tool On
G1 F300 Z0.0000
G1 F15000 X5.0000 Y203.5200 Z0.0000
M3S245
G4 P0.5; Tool Off

G0 Z0; move to z-safe height
G0 X5.0000 Y213.5200
M3S0
G4 P0.5; Tool On
G1 F300 Z0.0000
G1 F15000 X495.0000 Y213.5200 Z0.0000
M3S245
G4 P0.5; Tool Off

G0 Z0; move to z-safe height
G0 X495.0000 Y223.5200
M3S0
G4 P0.5; Tool On
G1 F300 Z0.0000
G1 F15000 X5.0000 Y223.5200 Z0.0000
M3S245
G4 P0.5; Tool Off

G0 Z0; move to z-safe height
G0 X5.0000 Y233.5200
M3S0
G4 P0.5; Tool On
G1 F300 Z0.0000
G1 F15000 X495.0000 Y233.5200 Z0.0000
M3S245
G4 P0.5; Tool Off

G0 Z0; move to z-safe height
G0 X495.0000 Y243.5200
M3S0
G4 P0.5; Tool On
G1 F300 Z0.0000
G1 F15000 X5.0000 Y243.5200 Z0.0000
M3S245
G4 P0.5; Tool Off

G0 Z0; move to z-safe height
G0 X5.0000 Y253.5200
M3S0
G4 P0.5; Tool On
G1 F300 Z0.0000
G1 F15000 X495.0000 Y253.5200 Z0.0000
M3S245
G4 P0.5; Tool Off

G0 Z0; move to z-safe height
G0 X495.0000 Y263.5200
M3S0
G4 P0.5; Tool On
G1 F300 Z0.0000
G1 F15000 X5.0000 Y263.5200 Z0.0000
M3S245
G4 P0.5; Tool Off

G0 Z0; move to z-safe height
G0 X5.0000 Y273.5200
M3S0
G4 P0.5; Tool On
G1 F300 Z0.0000
G1 F15000 X495.0000 Y273.5200 Z0.0000
M3S245
G4 P0.5; Tool Off

G0 Z0; move to z-safe height
G0 X495.0000 Y283.5200
M3S0
G4 P0.5; Tool On
G1 F300 Z0.0000
G1 F15000 X5.0000 Y283.5200 Z0.0000
M3S245
G4 P0.5; Tool Off

G0 Z0; move to z-safe height
G0 X5.0000 Y293.5200
M3S0
G4 P0.5; Tool On
G1 F300 Z0.0000
G1 F15000 X495.0000 Y293.5200 Z0.0000
M3S245
G4 P0.5; Tool Off

G0 Z0; move to z-safe height
G0 X495.0000 Y303.5200
M3S0
G4 P0.5; Tool On
G1 F300 Z0.0000
G1 F15000 X5.0000 Y303.5200 Z0.0000
M3S245
G4 P0.5; Tool Off

G0 Z0; move to z-safe height
G0 X5.0000 Y313.5200
M3S0
G4 P0.5; Tool On
G1 F300 Z0.0000
G1 F15000 X495.0000 Y313.5200 Z0.0000
M3S245
G4 P0.5; Tool Off

G0 Z0; move to z-safe height
G0 X495.0000 Y323.5200
M3S0
G4 P0.5; Tool On
G1 F300 Z0.0000
G1 F15000 X5.0000 Y323.5200 Z0.0000
M3S245
G4 P0.5; Tool Off

G0 Z0; move to z-safe height
G0 X5.0000 Y333.5200
M3S0
G4 P0.5; Tool On
G1 F300 Z0.0000
G1 F15000 X495.0000 Y333.5200 Z0.0000
M3S245
G4 P0.5; Tool Off

G0 Z0; move to z-safe height
G0 X495.0000 Y343.5200
M3S0
G4 P0.5; Tool On
G1 F300 Z0.0000
G1 F15000 X5.0000 Y343.5200 Z0.0000
M3S245
G4 P0.5; Tool Off

G0 Z0; move to z-safe height
G0 X5.0000 Y353.5200
M3S0
G4 P0.5; Tool On
G1 F300 Z0.0000
G1 F15000 X495.0000 Y353.5200 Z0.0000
M3S245
G4 P0.5; Tool Off

G0 Z0; move to z-safe height
G0 X495.0000 Y363.5200
M3S0
G4 P0.5; Tool On
G1 F300 Z0.0000
G1 F15000 X5.0000 Y363.5200 Z0.0000
M3S245
G4 P0.5; Tool Off

G0 Z0; move to z-safe height
G0 X5.0000 Y373.5200
M3S0
G4 P0.5; Tool On
G1 F300 Z0.0000
G1 F15000 X495.0000 Y373.5200 Z0.0000
M3S245
G4 P0.5; Tool Off

G0 Z0; move to z-safe height
G0 X495.0000 Y383.5200
M3S0
G4 P0.5; Tool On
G1 F300 Z0.0000
G1 F15000 X5.0000 Y383.5200 Z0.0000
M3S245
G4 P0.5; Tool Off

G0 Z0; move to z-safe height
G0 X5.0000 Y393.5200
M3S0
G4 P0.5; Tool On
G1 F300 Z0.0000
G1 F15000 X495.0000 Y393.5200 Z0.0000
M3S245
G4 P0.5; Tool Off

G0 Z0; move to z-safe height
G0 X495.0000 Y403.5200
M3S0
G4 P0.5; Tool On
G1 F300 Z0.0000
G1 F15000 X5.0000 Y403.5200 Z0.0000
M3S245
G4 P0.5; Tool Off

G0 Z0; move to z-safe height
G0 X5.0000 Y413.5200
M3S0
G4 P0.5; Tool On
G1 F300 Z0.0000
G1 F15000 X495.0000 Y413.5200 Z0.0000
M3S245
G4 P0.5; Tool Off

G0 Z0; move to z-safe height
G0 X495.0000 Y423.5200
M3S0
G4 P0.5; Tool On
G1 F300 Z0.0000
G1 F15000 X5.0000 Y423.5200 Z0.0000
M3S245
G4 P0.5; Tool Off

G0 Z0; move to z-safe height
G0 X5.0000 Y433.5200
M3S0
G4 P0.5; Tool On
G1 F300 Z0.0000
G1 F15000 X495.0000 Y433.5200 Z0.0000
M3S245
G4 P0.5; Tool Off

G0 Z0; move to z-safe height
G0 X495.0000 Y443.5200
M3S0
G4 P0.5; Tool On
G1 F300 Z0.0000
G1 F15000 X5.0000 Y443.5200 Z0.0000
M3S245
G4 P0.5; Tool Off

G0 Z0; move to z-safe height
G0 X5.0000 Y453.5200
M3S0
G4 P0.5; Tool On
G1 F300 Z0.0000
G1 F15000 X495.0000 Y453.5200 Z0.0000
M3S245
G4 P0.5; Tool Off

G0 Z0; move to z-safe height
G0 X495.0000 Y463.5200
M3S0
G4 P0.5; Tool On
G1 F300 Z0.0000
G1 F15000 X5.0000 Y463.5200 Z0.0000
M3S245
G4 P0.5; Tool Off

G0 Z0; move to z-safe height
G0 X5.0000 Y473.5200
M3S0
G4 P0.5; Tool On
G1 F300 Z0.0000
G1 F15000 X495.0000 Y473.5200 Z0.0000
M3S245
G4 P0.5; Tool Off

G0 Z0; move to z-safe height
G0 X495.0000 Y483.5200
M3S0
G4 P0.5; Tool On
G1 F300 Z0.0000
G1 F15000 X5.0000 Y483.5200 Z0.0000
M3S245
G4 P0.5; Tool Off

G0 Z0; move to z-safe height
G0 X5.0000 Y493.5200
M3S0
G4 P0.5; Tool On
G1 F300 Z0.0000
G1 F15000 X495.0000 Y493.5200 Z0.0000
M3S245
G4 P0.5; Tool Off
; retracting back to z-safe
G0 Z0

; Plotter Mode Complete
