; GCODE Generated by cam.openbuilds.com on 2023-03-29 
G21 ; mm-mode
G54; Work Coordinates
G21; mm-mode
G90; Absolute Positioning
; Plotter Mode Active

; Operation 0: Pen Plotter: (lines fill)
; Pen Diameter: 2

G0 Z0; move to z-safe height
G0 F1000 X1.0000 Y2.9400
M3S0
G4 P0.5; Tool On
G1 F300 Z0.0000
G1 F15000 X279.0000 Y2.9400 Z0.0000
M3S245
G4 P0.5; Tool Off

G0 Z0; move to z-safe height
G0 X279.0000 Y4.9400
M3S0
G4 P0.5; Tool On
G1 F300 Z0.0000
G1 F15000 X1.0000 Y4.9400 Z0.0000
M3S245
G4 P0.5; Tool Off

G0 Z0; move to z-safe height
G0 X1.0000 Y6.9400
M3S0
G4 P0.5; Tool On
G1 F300 Z0.0000
G1 F15000 X279.0000 Y6.9400 Z0.0000
M3S245
G4 P0.5; Tool Off

G0 Z0; move to z-safe height
G0 X279.0000 Y8.9400
M3S0
G4 P0.5; Tool On
G1 F300 Z0.0000
G1 F15000 X1.0000 Y8.9400 Z0.0000
M3S245
G4 P0.5; Tool Off

G0 Z0; move to z-safe height
G0 X1.0000 Y10.9400
M3S0
G4 P0.5; Tool On
G1 F300 Z0.0000
G1 F15000 X279.0000 Y10.9400 Z0.0000
M3S245
G4 P0.5; Tool Off

G0 Z0; move to z-safe height
G0 X279.0000 Y12.9400
M3S0
G4 P0.5; Tool On
G1 F300 Z0.0000
G1 F15000 X1.0000 Y12.9400 Z0.0000
M3S245
G4 P0.5; Tool Off

G0 Z0; move to z-safe height
G0 X1.0000 Y14.9400
M3S0
G4 P0.5; Tool On
G1 F300 Z0.0000
G1 F15000 X279.0000 Y14.9400 Z0.0000
M3S245
G4 P0.5; Tool Off

G0 Z0; move to z-safe height
G0 X279.0000 Y16.9400
M3S0
G4 P0.5; Tool On
G1 F300 Z0.0000
G1 F15000 X1.0000 Y16.9400 Z0.0000
M3S245
G4 P0.5; Tool Off

G0 Z0; move to z-safe height
G0 X1.0000 Y18.9400
M3S0
G4 P0.5; Tool On
G1 F300 Z0.0000
G1 F15000 X279.0000 Y18.9400 Z0.0000
M3S245
G4 P0.5; Tool Off

G0 Z0; move to z-safe height
G0 X279.0000 Y20.9400
M3S0
G4 P0.5; Tool On
G1 F300 Z0.0000
G1 F15000 X1.0000 Y20.9400 Z0.0000
M3S245
G4 P0.5; Tool Off

G0 Z0; move to z-safe height
G0 X1.0000 Y22.9400
M3S0
G4 P0.5; Tool On
G1 F300 Z0.0000
G1 F15000 X279.0000 Y22.9400 Z0.0000
M3S245
G4 P0.5; Tool Off

G0 Z0; move to z-safe height
G0 X279.0000 Y24.9400
M3S0
G4 P0.5; Tool On
G1 F300 Z0.0000
G1 F15000 X1.0000 Y24.9400 Z0.0000
M3S245
G4 P0.5; Tool Off

G0 Z0; move to z-safe height
G0 X1.0000 Y26.9400
M3S0
G4 P0.5; Tool On
G1 F300 Z0.0000
G1 F15000 X279.0000 Y26.9400 Z0.0000
M3S245
G4 P0.5; Tool Off

G0 Z0; move to z-safe height
G0 X279.0000 Y28.9400
M3S0
G4 P0.5; Tool On
G1 F300 Z0.0000
G1 F15000 X1.0000 Y28.9400 Z0.0000
M3S245
G4 P0.5; Tool Off

G0 Z0; move to z-safe height
G0 X1.0000 Y30.9400
M3S0
G4 P0.5; Tool On
G1 F300 Z0.0000
G1 F15000 X279.0000 Y30.9400 Z0.0000
M3S245
G4 P0.5; Tool Off

G0 Z0; move to z-safe height
G0 X279.0000 Y32.9400
M3S0
G4 P0.5; Tool On
G1 F300 Z0.0000
G1 F15000 X1.0000 Y32.9400 Z0.0000
M3S245
G4 P0.5; Tool Off

G0 Z0; move to z-safe height
G0 X1.0000 Y34.9400
M3S0
G4 P0.5; Tool On
G1 F300 Z0.0000
G1 F15000 X279.0000 Y34.9400 Z0.0000
M3S245
G4 P0.5; Tool Off

G0 Z0; move to z-safe height
G0 X279.0000 Y36.9400
M3S0
G4 P0.5; Tool On
G1 F300 Z0.0000
G1 F15000 X1.0000 Y36.9400 Z0.0000
M3S245
G4 P0.5; Tool Off

G0 Z0; move to z-safe height
G0 X1.0000 Y38.9400
M3S0
G4 P0.5; Tool On
G1 F300 Z0.0000
G1 F15000 X279.0000 Y38.9400 Z0.0000
M3S245
G4 P0.5; Tool Off

G0 Z0; move to z-safe height
G0 X279.0000 Y40.9400
M3S0
G4 P0.5; Tool On
G1 F300 Z0.0000
G1 F15000 X1.0000 Y40.9400 Z0.0000
M3S245
G4 P0.5; Tool Off

G0 Z0; move to z-safe height
G0 X1.0000 Y42.9400
M3S0
G4 P0.5; Tool On
G1 F300 Z0.0000
G1 F15000 X279.0000 Y42.9400 Z0.0000
M3S245
G4 P0.5; Tool Off

G0 Z0; move to z-safe height
G0 X279.0000 Y44.9400
M3S0
G4 P0.5; Tool On
G1 F300 Z0.0000
G1 F15000 X1.0000 Y44.9400 Z0.0000
M3S245
G4 P0.5; Tool Off

G0 Z0; move to z-safe height
G0 X1.0000 Y46.9400
M3S0
G4 P0.5; Tool On
G1 F300 Z0.0000
G1 F15000 X279.0000 Y46.9400 Z0.0000
M3S245
G4 P0.5; Tool Off

G0 Z0; move to z-safe height
G0 X279.0000 Y48.9400
M3S0
G4 P0.5; Tool On
G1 F300 Z0.0000
G1 F15000 X1.0000 Y48.9400 Z0.0000
M3S245
G4 P0.5; Tool Off

G0 Z0; move to z-safe height
G0 X1.0000 Y50.9400
M3S0
G4 P0.5; Tool On
G1 F300 Z0.0000
G1 F15000 X279.0000 Y50.9400 Z0.0000
M3S245
G4 P0.5; Tool Off

G0 Z0; move to z-safe height
G0 X279.0000 Y52.9400
M3S0
G4 P0.5; Tool On
G1 F300 Z0.0000
G1 F15000 X1.0000 Y52.9400 Z0.0000
M3S245
G4 P0.5; Tool Off

G0 Z0; move to z-safe height
G0 X1.0000 Y54.9400
M3S0
G4 P0.5; Tool On
G1 F300 Z0.0000
G1 F15000 X279.0000 Y54.9400 Z0.0000
M3S245
G4 P0.5; Tool Off

G0 Z0; move to z-safe height
G0 X279.0000 Y56.9400
M3S0
G4 P0.5; Tool On
G1 F300 Z0.0000
G1 F15000 X1.0000 Y56.9400 Z0.0000
M3S245
G4 P0.5; Tool Off

G0 Z0; move to z-safe height
G0 X1.0000 Y58.9400
M3S0
G4 P0.5; Tool On
G1 F300 Z0.0000
G1 F15000 X279.0000 Y58.9400 Z0.0000
M3S245
G4 P0.5; Tool Off

G0 Z0; move to z-safe height
G0 X279.0000 Y60.9400
M3S0
G4 P0.5; Tool On
G1 F300 Z0.0000
G1 F15000 X1.0000 Y60.9400 Z0.0000
M3S245
G4 P0.5; Tool Off

G0 Z0; move to z-safe height
G0 X1.0000 Y62.9400
M3S0
G4 P0.5; Tool On
G1 F300 Z0.0000
G1 F15000 X279.0000 Y62.9400 Z0.0000
M3S245
G4 P0.5; Tool Off

G0 Z0; move to z-safe height
G0 X279.0000 Y64.9400
M3S0
G4 P0.5; Tool On
G1 F300 Z0.0000
G1 F15000 X1.0000 Y64.9400 Z0.0000
M3S245
G4 P0.5; Tool Off

G0 Z0; move to z-safe height
G0 X1.0000 Y66.9400
M3S0
G4 P0.5; Tool On
G1 F300 Z0.0000
G1 F15000 X279.0000 Y66.9400 Z0.0000
M3S245
G4 P0.5; Tool Off

G0 Z0; move to z-safe height
G0 X279.0000 Y68.9400
M3S0
G4 P0.5; Tool On
G1 F300 Z0.0000
G1 F15000 X1.0000 Y68.9400 Z0.0000
M3S245
G4 P0.5; Tool Off

G0 Z0; move to z-safe height
G0 X1.0000 Y70.9400
M3S0
G4 P0.5; Tool On
G1 F300 Z0.0000
G1 F15000 X279.0000 Y70.9400 Z0.0000
M3S245
G4 P0.5; Tool Off

G0 Z0; move to z-safe height
G0 X279.0000 Y72.9400
M3S0
G4 P0.5; Tool On
G1 F300 Z0.0000
G1 F15000 X1.0000 Y72.9400 Z0.0000
M3S245
G4 P0.5; Tool Off

G0 Z0; move to z-safe height
G0 X1.0000 Y74.9400
M3S0
G4 P0.5; Tool On
G1 F300 Z0.0000
G1 F15000 X279.0000 Y74.9400 Z0.0000
M3S245
G4 P0.5; Tool Off

G0 Z0; move to z-safe height
G0 X279.0000 Y76.9400
M3S0
G4 P0.5; Tool On
G1 F300 Z0.0000
G1 F15000 X1.0000 Y76.9400 Z0.0000
M3S245
G4 P0.5; Tool Off

G0 Z0; move to z-safe height
G0 X1.0000 Y78.9400
M3S0
G4 P0.5; Tool On
G1 F300 Z0.0000
G1 F15000 X279.0000 Y78.9400 Z0.0000
M3S245
G4 P0.5; Tool Off

G0 Z0; move to z-safe height
G0 X279.0000 Y80.9400
M3S0
G4 P0.5; Tool On
G1 F300 Z0.0000
G1 F15000 X1.0000 Y80.9400 Z0.0000
M3S245
G4 P0.5; Tool Off

G0 Z0; move to z-safe height
G0 X1.0000 Y82.9400
M3S0
G4 P0.5; Tool On
G1 F300 Z0.0000
G1 F15000 X279.0000 Y82.9400 Z0.0000
M3S245
G4 P0.5; Tool Off

G0 Z0; move to z-safe height
G0 X279.0000 Y84.9400
M3S0
G4 P0.5; Tool On
G1 F300 Z0.0000
G1 F15000 X1.0000 Y84.9400 Z0.0000
M3S245
G4 P0.5; Tool Off

G0 Z0; move to z-safe height
G0 X1.0000 Y86.9400
M3S0
G4 P0.5; Tool On
G1 F300 Z0.0000
G1 F15000 X279.0000 Y86.9400 Z0.0000
M3S245
G4 P0.5; Tool Off

G0 Z0; move to z-safe height
G0 X279.0000 Y88.9400
M3S0
G4 P0.5; Tool On
G1 F300 Z0.0000
G1 F15000 X1.0000 Y88.9400 Z0.0000
M3S245
G4 P0.5; Tool Off

G0 Z0; move to z-safe height
G0 X1.0000 Y90.9400
M3S0
G4 P0.5; Tool On
G1 F300 Z0.0000
G1 F15000 X279.0000 Y90.9400 Z0.0000
M3S245
G4 P0.5; Tool Off

G0 Z0; move to z-safe height
G0 X279.0000 Y92.9400
M3S0
G4 P0.5; Tool On
G1 F300 Z0.0000
G1 F15000 X1.0000 Y92.9400 Z0.0000
M3S245
G4 P0.5; Tool Off

G0 Z0; move to z-safe height
G0 X1.0000 Y94.9400
M3S0
G4 P0.5; Tool On
G1 F300 Z0.0000
G1 F15000 X279.0000 Y94.9400 Z0.0000
M3S245
G4 P0.5; Tool Off

G0 Z0; move to z-safe height
G0 X279.0000 Y96.9400
M3S0
G4 P0.5; Tool On
G1 F300 Z0.0000
G1 F15000 X1.0000 Y96.9400 Z0.0000
M3S245
G4 P0.5; Tool Off

G0 Z0; move to z-safe height
G0 X1.0000 Y98.9400
M3S0
G4 P0.5; Tool On
G1 F300 Z0.0000
G1 F15000 X279.0000 Y98.9400 Z0.0000
M3S245
G4 P0.5; Tool Off

G0 Z0; move to z-safe height
G0 X279.0000 Y100.9400
M3S0
G4 P0.5; Tool On
G1 F300 Z0.0000
G1 F15000 X1.0000 Y100.9400 Z0.0000
M3S245
G4 P0.5; Tool Off

G0 Z0; move to z-safe height
G0 X1.0000 Y102.9400
M3S0
G4 P0.5; Tool On
G1 F300 Z0.0000
G1 F15000 X279.0000 Y102.9400 Z0.0000
M3S245
G4 P0.5; Tool Off

G0 Z0; move to z-safe height
G0 X279.0000 Y104.9400
M3S0
G4 P0.5; Tool On
G1 F300 Z0.0000
G1 F15000 X1.0000 Y104.9400 Z0.0000
M3S245
G4 P0.5; Tool Off

G0 Z0; move to z-safe height
G0 X1.0000 Y106.9400
M3S0
G4 P0.5; Tool On
G1 F300 Z0.0000
G1 F15000 X279.0000 Y106.9400 Z0.0000
M3S245
G4 P0.5; Tool Off

G0 Z0; move to z-safe height
G0 X279.0000 Y108.9400
M3S0
G4 P0.5; Tool On
G1 F300 Z0.0000
G1 F15000 X1.0000 Y108.9400 Z0.0000
M3S245
G4 P0.5; Tool Off

G0 Z0; move to z-safe height
G0 X1.0000 Y110.9400
M3S0
G4 P0.5; Tool On
G1 F300 Z0.0000
G1 F15000 X279.0000 Y110.9400 Z0.0000
M3S245
G4 P0.5; Tool Off

G0 Z0; move to z-safe height
G0 X279.0000 Y112.9400
M3S0
G4 P0.5; Tool On
G1 F300 Z0.0000
G1 F15000 X1.0000 Y112.9400 Z0.0000
M3S245
G4 P0.5; Tool Off

G0 Z0; move to z-safe height
G0 X1.0000 Y114.9400
M3S0
G4 P0.5; Tool On
G1 F300 Z0.0000
G1 F15000 X279.0000 Y114.9400 Z0.0000
M3S245
G4 P0.5; Tool Off

G0 Z0; move to z-safe height
G0 X279.0000 Y116.9400
M3S0
G4 P0.5; Tool On
G1 F300 Z0.0000
G1 F15000 X1.0000 Y116.9400 Z0.0000
M3S245
G4 P0.5; Tool Off

G0 Z0; move to z-safe height
G0 X1.0000 Y118.9400
M3S0
G4 P0.5; Tool On
G1 F300 Z0.0000
G1 F15000 X279.0000 Y118.9400 Z0.0000
M3S245
G4 P0.5; Tool Off

G0 Z0; move to z-safe height
G0 X279.0000 Y120.9400
M3S0
G4 P0.5; Tool On
G1 F300 Z0.0000
G1 F15000 X1.0000 Y120.9400 Z0.0000
M3S245
G4 P0.5; Tool Off

G0 Z0; move to z-safe height
G0 X1.0000 Y122.9400
M3S0
G4 P0.5; Tool On
G1 F300 Z0.0000
G1 F15000 X279.0000 Y122.9400 Z0.0000
M3S245
G4 P0.5; Tool Off

G0 Z0; move to z-safe height
G0 X279.0000 Y124.9400
M3S0
G4 P0.5; Tool On
G1 F300 Z0.0000
G1 F15000 X1.0000 Y124.9400 Z0.0000
M3S245
G4 P0.5; Tool Off

G0 Z0; move to z-safe height
G0 X1.0000 Y126.9400
M3S0
G4 P0.5; Tool On
G1 F300 Z0.0000
G1 F15000 X279.0000 Y126.9400 Z0.0000
M3S245
G4 P0.5; Tool Off

G0 Z0; move to z-safe height
G0 X279.0000 Y128.9400
M3S0
G4 P0.5; Tool On
G1 F300 Z0.0000
G1 F15000 X1.0000 Y128.9400 Z0.0000
M3S245
G4 P0.5; Tool Off

G0 Z0; move to z-safe height
G0 X1.0000 Y130.9400
M3S0
G4 P0.5; Tool On
G1 F300 Z0.0000
G1 F15000 X279.0000 Y130.9400 Z0.0000
M3S245
G4 P0.5; Tool Off

G0 Z0; move to z-safe height
G0 X279.0000 Y132.9400
M3S0
G4 P0.5; Tool On
G1 F300 Z0.0000
G1 F15000 X1.0000 Y132.9400 Z0.0000
M3S245
G4 P0.5; Tool Off

G0 Z0; move to z-safe height
G0 X1.0000 Y134.9400
M3S0
G4 P0.5; Tool On
G1 F300 Z0.0000
G1 F15000 X279.0000 Y134.9400 Z0.0000
M3S245
G4 P0.5; Tool Off

G0 Z0; move to z-safe height
G0 X279.0000 Y136.9400
M3S0
G4 P0.5; Tool On
G1 F300 Z0.0000
G1 F15000 X1.0000 Y136.9400 Z0.0000
M3S245
G4 P0.5; Tool Off

G0 Z0; move to z-safe height
G0 X1.0000 Y138.9400
M3S0
G4 P0.5; Tool On
G1 F300 Z0.0000
G1 F15000 X279.0000 Y138.9400 Z0.0000
M3S245
G4 P0.5; Tool Off

G0 Z0; move to z-safe height
G0 X279.0000 Y140.9400
M3S0
G4 P0.5; Tool On
G1 F300 Z0.0000
G1 F15000 X1.0000 Y140.9400 Z0.0000
M3S245
G4 P0.5; Tool Off

G0 Z0; move to z-safe height
G0 X1.0000 Y142.9400
M3S0
G4 P0.5; Tool On
G1 F300 Z0.0000
G1 F15000 X279.0000 Y142.9400 Z0.0000
M3S245
G4 P0.5; Tool Off

G0 Z0; move to z-safe height
G0 X279.0000 Y144.9400
M3S0
G4 P0.5; Tool On
G1 F300 Z0.0000
G1 F15000 X1.0000 Y144.9400 Z0.0000
M3S245
G4 P0.5; Tool Off

G0 Z0; move to z-safe height
G0 X1.0000 Y146.9400
M3S0
G4 P0.5; Tool On
G1 F300 Z0.0000
G1 F15000 X279.0000 Y146.9400 Z0.0000
M3S245
G4 P0.5; Tool Off

G0 Z0; move to z-safe height
G0 X279.0000 Y148.9400
M3S0
G4 P0.5; Tool On
G1 F300 Z0.0000
G1 F15000 X1.0000 Y148.9400 Z0.0000
M3S245
G4 P0.5; Tool Off

G0 Z0; move to z-safe height
G0 X1.0000 Y150.9400
M3S0
G4 P0.5; Tool On
G1 F300 Z0.0000
G1 F15000 X279.0000 Y150.9400 Z0.0000
M3S245
G4 P0.5; Tool Off

G0 Z0; move to z-safe height
G0 X279.0000 Y152.9400
M3S0
G4 P0.5; Tool On
G1 F300 Z0.0000
G1 F15000 X1.0000 Y152.9400 Z0.0000
M3S245
G4 P0.5; Tool Off

G0 Z0; move to z-safe height
G0 X1.0000 Y154.9400
M3S0
G4 P0.5; Tool On
G1 F300 Z0.0000
G1 F15000 X279.0000 Y154.9400 Z0.0000
M3S245
G4 P0.5; Tool Off

G0 Z0; move to z-safe height
G0 X279.0000 Y156.9400
M3S0
G4 P0.5; Tool On
G1 F300 Z0.0000
G1 F15000 X1.0000 Y156.9400 Z0.0000
M3S245
G4 P0.5; Tool Off

G0 Z0; move to z-safe height
G0 X1.0000 Y158.9400
M3S0
G4 P0.5; Tool On
G1 F300 Z0.0000
G1 F15000 X279.0000 Y158.9400 Z0.0000
M3S245
G4 P0.5; Tool Off

G0 Z0; move to z-safe height
G0 X279.0000 Y160.9400
M3S0
G4 P0.5; Tool On
G1 F300 Z0.0000
G1 F15000 X1.0000 Y160.9400 Z0.0000
M3S245
G4 P0.5; Tool Off

G0 Z0; move to z-safe height
G0 X1.0000 Y162.9400
M3S0
G4 P0.5; Tool On
G1 F300 Z0.0000
G1 F15000 X279.0000 Y162.9400 Z0.0000
M3S245
G4 P0.5; Tool Off

G0 Z0; move to z-safe height
G0 X279.0000 Y164.9400
M3S0
G4 P0.5; Tool On
G1 F300 Z0.0000
G1 F15000 X1.0000 Y164.9400 Z0.0000
M3S245
G4 P0.5; Tool Off

G0 Z0; move to z-safe height
G0 X1.0000 Y166.9400
M3S0
G4 P0.5; Tool On
G1 F300 Z0.0000
G1 F15000 X279.0000 Y166.9400 Z0.0000
M3S245
G4 P0.5; Tool Off

G0 Z0; move to z-safe height
G0 X279.0000 Y168.9400
M3S0
G4 P0.5; Tool On
G1 F300 Z0.0000
G1 F15000 X1.0000 Y168.9400 Z0.0000
M3S245
G4 P0.5; Tool Off

G0 Z0; move to z-safe height
G0 X1.0000 Y170.9400
M3S0
G4 P0.5; Tool On
G1 F300 Z0.0000
G1 F15000 X279.0000 Y170.9400 Z0.0000
M3S245
G4 P0.5; Tool Off

G0 Z0; move to z-safe height
G0 X279.0000 Y172.9400
M3S0
G4 P0.5; Tool On
G1 F300 Z0.0000
G1 F15000 X1.0000 Y172.9400 Z0.0000
M3S245
G4 P0.5; Tool Off

G0 Z0; move to z-safe height
G0 X1.0000 Y174.9400
M3S0
G4 P0.5; Tool On
G1 F300 Z0.0000
G1 F15000 X279.0000 Y174.9400 Z0.0000
M3S245
G4 P0.5; Tool Off

G0 Z0; move to z-safe height
G0 X279.0000 Y176.9400
M3S0
G4 P0.5; Tool On
G1 F300 Z0.0000
G1 F15000 X1.0000 Y176.9400 Z0.0000
M3S245
G4 P0.5; Tool Off

G0 Z0; move to z-safe height
G0 X1.0000 Y178.9400
M3S0
G4 P0.5; Tool On
G1 F300 Z0.0000
G1 F15000 X279.0000 Y178.9400 Z0.0000
M3S245
G4 P0.5; Tool Off

G0 Z0; move to z-safe height
G0 X279.0000 Y180.9400
M3S0
G4 P0.5; Tool On
G1 F300 Z0.0000
G1 F15000 X1.0000 Y180.9400 Z0.0000
M3S245
G4 P0.5; Tool Off

G0 Z0; move to z-safe height
G0 X1.0000 Y182.9400
M3S0
G4 P0.5; Tool On
G1 F300 Z0.0000
G1 F15000 X279.0000 Y182.9400 Z0.0000
M3S245
G4 P0.5; Tool Off

G0 Z0; move to z-safe height
G0 X279.0000 Y184.9400
M3S0
G4 P0.5; Tool On
G1 F300 Z0.0000
G1 F15000 X1.0000 Y184.9400 Z0.0000
M3S245
G4 P0.5; Tool Off

G0 Z0; move to z-safe height
G0 X1.0000 Y186.9400
M3S0
G4 P0.5; Tool On
G1 F300 Z0.0000
G1 F15000 X279.0000 Y186.9400 Z0.0000
M3S245
G4 P0.5; Tool Off

G0 Z0; move to z-safe height
G0 X279.0000 Y188.9400
M3S0
G4 P0.5; Tool On
G1 F300 Z0.0000
G1 F15000 X1.0000 Y188.9400 Z0.0000
M3S245
G4 P0.5; Tool Off

G0 Z0; move to z-safe height
G0 X1.0000 Y190.9400
M3S0
G4 P0.5; Tool On
G1 F300 Z0.0000
G1 F15000 X279.0000 Y190.9400 Z0.0000
M3S245
G4 P0.5; Tool Off

G0 Z0; move to z-safe height
G0 X279.0000 Y192.9400
M3S0
G4 P0.5; Tool On
G1 F300 Z0.0000
G1 F15000 X1.0000 Y192.9400 Z0.0000
M3S245
G4 P0.5; Tool Off

G0 Z0; move to z-safe height
G0 X1.0000 Y194.9400
M3S0
G4 P0.5; Tool On
G1 F300 Z0.0000
G1 F15000 X279.0000 Y194.9400 Z0.0000
M3S245
G4 P0.5; Tool Off

G0 Z0; move to z-safe height
G0 X279.0000 Y196.9400
M3S0
G4 P0.5; Tool On
G1 F300 Z0.0000
G1 F15000 X1.0000 Y196.9400 Z0.0000
M3S245
G4 P0.5; Tool Off

G0 Z0; move to z-safe height
G0 X1.0000 Y198.9400
M3S0
G4 P0.5; Tool On
G1 F300 Z0.0000
G1 F15000 X279.0000 Y198.9400 Z0.0000
M3S245
G4 P0.5; Tool Off

G0 Z0; move to z-safe height
G0 X279.0000 Y200.9400
M3S0
G4 P0.5; Tool On
G1 F300 Z0.0000
G1 F15000 X1.0000 Y200.9400 Z0.0000
M3S245
G4 P0.5; Tool Off

G0 Z0; move to z-safe height
G0 X1.0000 Y202.9400
M3S0
G4 P0.5; Tool On
G1 F300 Z0.0000
G1 F15000 X279.0000 Y202.9400 Z0.0000
M3S245
G4 P0.5; Tool Off

G0 Z0; move to z-safe height
G0 X279.0000 Y204.9400
M3S0
G4 P0.5; Tool On
G1 F300 Z0.0000
G1 F15000 X1.0000 Y204.9400 Z0.0000
M3S245
G4 P0.5; Tool Off

G0 Z0; move to z-safe height
G0 X1.0000 Y206.9400
M3S0
G4 P0.5; Tool On
G1 F300 Z0.0000
G1 F15000 X279.0000 Y206.9400 Z0.0000
M3S245
G4 P0.5; Tool Off

G0 Z0; move to z-safe height
G0 X279.0000 Y208.9400
M3S0
G4 P0.5; Tool On
G1 F300 Z0.0000
G1 F15000 X1.0000 Y208.9400 Z0.0000
M3S245
G4 P0.5; Tool Off

G0 Z0; move to z-safe height
G0 X1.0000 Y210.9400
M3S0
G4 P0.5; Tool On
G1 F300 Z0.0000
G1 F15000 X279.0000 Y210.9400 Z0.0000
M3S245
G4 P0.5; Tool Off

G0 Z0; move to z-safe height
G0 X279.0000 Y212.9400
M3S0
G4 P0.5; Tool On
G1 F300 Z0.0000
G1 F15000 X1.0000 Y212.9400 Z0.0000
M3S245
G4 P0.5; Tool Off

G0 Z0; move to z-safe height
G0 X1.0000 Y214.9400
M3S0
G4 P0.5; Tool On
G1 F300 Z0.0000
G1 F15000 X279.0000 Y214.9400 Z0.0000
M3S245
G4 P0.5; Tool Off

G0 Z0; move to z-safe height
G0 X279.0000 Y216.9400
M3S0
G4 P0.5; Tool On
G1 F300 Z0.0000
G1 F15000 X1.0000 Y216.9400 Z0.0000
M3S245
G4 P0.5; Tool Off

G0 Z0; move to z-safe height
G0 X1.0000 Y218.9400
M3S0
G4 P0.5; Tool On
G1 F300 Z0.0000
G1 F15000 X279.0000 Y218.9400 Z0.0000
M3S245
G4 P0.5; Tool Off

G0 Z0; move to z-safe height
G0 X279.0000 Y220.9400
M3S0
G4 P0.5; Tool On
G1 F300 Z0.0000
G1 F15000 X1.0000 Y220.9400 Z0.0000
M3S245
G4 P0.5; Tool Off

G0 Z0; move to z-safe height
G0 X1.0000 Y222.9400
M3S0
G4 P0.5; Tool On
G1 F300 Z0.0000
G1 F15000 X279.0000 Y222.9400 Z0.0000
M3S245
G4 P0.5; Tool Off

G0 Z0; move to z-safe height
G0 X279.0000 Y224.9400
M3S0
G4 P0.5; Tool On
G1 F300 Z0.0000
G1 F15000 X1.0000 Y224.9400 Z0.0000
M3S245
G4 P0.5; Tool Off

G0 Z0; move to z-safe height
G0 X1.0000 Y226.9400
M3S0
G4 P0.5; Tool On
G1 F300 Z0.0000
G1 F15000 X279.0000 Y226.9400 Z0.0000
M3S245
G4 P0.5; Tool Off

G0 Z0; move to z-safe height
G0 X279.0000 Y228.9400
M3S0
G4 P0.5; Tool On
G1 F300 Z0.0000
G1 F15000 X1.0000 Y228.9400 Z0.0000
M3S245
G4 P0.5; Tool Off

G0 Z0; move to z-safe height
G0 X1.0000 Y230.9400
M3S0
G4 P0.5; Tool On
G1 F300 Z0.0000
G1 F15000 X279.0000 Y230.9400 Z0.0000
M3S245
G4 P0.5; Tool Off

G0 Z0; move to z-safe height
G0 X279.0000 Y232.9400
M3S0
G4 P0.5; Tool On
G1 F300 Z0.0000
G1 F15000 X1.0000 Y232.9400 Z0.0000
M3S245
G4 P0.5; Tool Off

G0 Z0; move to z-safe height
G0 X1.0000 Y234.9400
M3S0
G4 P0.5; Tool On
G1 F300 Z0.0000
G1 F15000 X279.0000 Y234.9400 Z0.0000
M3S245
G4 P0.5; Tool Off

G0 Z0; move to z-safe height
G0 X279.0000 Y236.9400
M3S0
G4 P0.5; Tool On
G1 F300 Z0.0000
G1 F15000 X1.0000 Y236.9400 Z0.0000
M3S245
G4 P0.5; Tool Off

G0 Z0; move to z-safe height
G0 X1.0000 Y238.9400
M3S0
G4 P0.5; Tool On
G1 F300 Z0.0000
G1 F15000 X279.0000 Y238.9400 Z0.0000
M3S245
G4 P0.5; Tool Off

G0 Z0; move to z-safe height
G0 X279.0000 Y240.9400
M3S0
G4 P0.5; Tool On
G1 F300 Z0.0000
G1 F15000 X1.0000 Y240.9400 Z0.0000
M3S245
G4 P0.5; Tool Off

G0 Z0; move to z-safe height
G0 X1.0000 Y242.9400
M3S0
G4 P0.5; Tool On
G1 F300 Z0.0000
G1 F15000 X279.0000 Y242.9400 Z0.0000
M3S245
G4 P0.5; Tool Off

G0 Z0; move to z-safe height
G0 X279.0000 Y244.9400
M3S0
G4 P0.5; Tool On
G1 F300 Z0.0000
G1 F15000 X1.0000 Y244.9400 Z0.0000
M3S245
G4 P0.5; Tool Off

G0 Z0; move to z-safe height
G0 X1.0000 Y246.9400
M3S0
G4 P0.5; Tool On
G1 F300 Z0.0000
G1 F15000 X279.0000 Y246.9400 Z0.0000
M3S245
G4 P0.5; Tool Off

G0 Z0; move to z-safe height
G0 X279.0000 Y248.9400
M3S0
G4 P0.5; Tool On
G1 F300 Z0.0000
G1 F15000 X1.0000 Y248.9400 Z0.0000
M3S245
G4 P0.5; Tool Off

G0 Z0; move to z-safe height
G0 X1.0000 Y250.9400
M3S0
G4 P0.5; Tool On
G1 F300 Z0.0000
G1 F15000 X279.0000 Y250.9400 Z0.0000
M3S245
G4 P0.5; Tool Off

G0 Z0; move to z-safe height
G0 X279.0000 Y252.9400
M3S0
G4 P0.5; Tool On
G1 F300 Z0.0000
G1 F15000 X1.0000 Y252.9400 Z0.0000
M3S245
G4 P0.5; Tool Off

G0 Z0; move to z-safe height
G0 X1.0000 Y254.9400
M3S0
G4 P0.5; Tool On
G1 F300 Z0.0000
G1 F15000 X279.0000 Y254.9400 Z0.0000
M3S245
G4 P0.5; Tool Off

G0 Z0; move to z-safe height
G0 X279.0000 Y256.9400
M3S0
G4 P0.5; Tool On
G1 F300 Z0.0000
G1 F15000 X1.0000 Y256.9400 Z0.0000
M3S245
G4 P0.5; Tool Off

G0 Z0; move to z-safe height
G0 X1.0000 Y258.9400
M3S0
G4 P0.5; Tool On
G1 F300 Z0.0000
G1 F15000 X279.0000 Y258.9400 Z0.0000
M3S245
G4 P0.5; Tool Off

G0 Z0; move to z-safe height
G0 X279.0000 Y260.9400
M3S0
G4 P0.5; Tool On
G1 F300 Z0.0000
G1 F15000 X1.0000 Y260.9400 Z0.0000
M3S245
G4 P0.5; Tool Off

G0 Z0; move to z-safe height
G0 X1.0000 Y262.9400
M3S0
G4 P0.5; Tool On
G1 F300 Z0.0000
G1 F15000 X279.0000 Y262.9400 Z0.0000
M3S245
G4 P0.5; Tool Off

G0 Z0; move to z-safe height
G0 X279.0000 Y264.9400
M3S0
G4 P0.5; Tool On
G1 F300 Z0.0000
G1 F15000 X1.0000 Y264.9400 Z0.0000
M3S245
G4 P0.5; Tool Off

G0 Z0; move to z-safe height
G0 X1.0000 Y266.9400
M3S0
G4 P0.5; Tool On
G1 F300 Z0.0000
G1 F15000 X279.0000 Y266.9400 Z0.0000
M3S245
G4 P0.5; Tool Off

G0 Z0; move to z-safe height
G0 X279.0000 Y268.9400
M3S0
G4 P0.5; Tool On
G1 F300 Z0.0000
G1 F15000 X1.0000 Y268.9400 Z0.0000
M3S245
G4 P0.5; Tool Off

G0 Z0; move to z-safe height
G0 X1.0000 Y270.9400
M3S0
G4 P0.5; Tool On
G1 F300 Z0.0000
G1 F15000 X279.0000 Y270.9400 Z0.0000
M3S245
G4 P0.5; Tool Off

G0 Z0; move to z-safe height
G0 X279.0000 Y272.9400
M3S0
G4 P0.5; Tool On
G1 F300 Z0.0000
G1 F15000 X1.0000 Y272.9400 Z0.0000
M3S245
G4 P0.5; Tool Off

G0 Z0; move to z-safe height
G0 X1.0000 Y274.9400
M3S0
G4 P0.5; Tool On
G1 F300 Z0.0000
G1 F15000 X279.0000 Y274.9400 Z0.0000
M3S245
G4 P0.5; Tool Off

G0 Z0; move to z-safe height
G0 X279.0000 Y276.9400
M3S0
G4 P0.5; Tool On
G1 F300 Z0.0000
G1 F15000 X1.0000 Y276.9400 Z0.0000
M3S245
G4 P0.5; Tool Off

G0 Z0; move to z-safe height
G0 X1.0000 Y278.9400
M3S0
G4 P0.5; Tool On
G1 F300 Z0.0000
G1 F15000 X279.0000 Y278.9400 Z0.0000
M3S245
G4 P0.5; Tool Off

G0 Z0; move to z-safe height
G0 X279.0000 Y280.9400
M3S0
G4 P0.5; Tool On
G1 F300 Z0.0000
G1 F15000 X1.0000 Y280.9400 Z0.0000
M3S245
G4 P0.5; Tool Off

G0 Z0; move to z-safe height
G0 X1.0000 Y282.9400
M3S0
G4 P0.5; Tool On
G1 F300 Z0.0000
G1 F15000 X279.0000 Y282.9400 Z0.0000
M3S245
G4 P0.5; Tool Off

G0 Z0; move to z-safe height
G0 X279.0000 Y284.9400
M3S0
G4 P0.5; Tool On
G1 F300 Z0.0000
G1 F15000 X1.0000 Y284.9400 Z0.0000
M3S245
G4 P0.5; Tool Off

G0 Z0; move to z-safe height
G0 X1.0000 Y286.9400
M3S0
G4 P0.5; Tool On
G1 F300 Z0.0000
G1 F15000 X279.0000 Y286.9400 Z0.0000
M3S245
G4 P0.5; Tool Off

G0 Z0; move to z-safe height
G0 X279.0000 Y288.9400
M3S0
G4 P0.5; Tool On
G1 F300 Z0.0000
G1 F15000 X1.0000 Y288.9400 Z0.0000
M3S245
G4 P0.5; Tool Off

G0 Z0; move to z-safe height
G0 X1.0000 Y290.9400
M3S0
G4 P0.5; Tool On
G1 F300 Z0.0000
G1 F15000 X279.0000 Y290.9400 Z0.0000
M3S245
G4 P0.5; Tool Off

G0 Z0; move to z-safe height
G0 X279.0000 Y292.9400
M3S0
G4 P0.5; Tool On
G1 F300 Z0.0000
G1 F15000 X1.0000 Y292.9400 Z0.0000
M3S245
G4 P0.5; Tool Off

G0 Z0; move to z-safe height
G0 X1.0000 Y294.9400
M3S0
G4 P0.5; Tool On
G1 F300 Z0.0000
G1 F15000 X279.0000 Y294.9400 Z0.0000
M3S245
G4 P0.5; Tool Off

G0 Z0; move to z-safe height
G0 X279.0000 Y296.9400
M3S0
G4 P0.5; Tool On
G1 F300 Z0.0000
G1 F15000 X1.0000 Y296.9400 Z0.0000
M3S245
G4 P0.5; Tool Off

G0 Z0; move to z-safe height
G0 X1.0000 Y298.9400
M3S0
G4 P0.5; Tool On
G1 F300 Z0.0000
G1 F15000 X279.0000 Y298.9400 Z0.0000
M3S245
G4 P0.5; Tool Off

G0 Z0; move to z-safe height
G0 X279.0000 Y300.9400
M3S0
G4 P0.5; Tool On
G1 F300 Z0.0000
G1 F15000 X1.0000 Y300.9400 Z0.0000
M3S245
G4 P0.5; Tool Off

G0 Z0; move to z-safe height
G0 X1.0000 Y302.9400
M3S0
G4 P0.5; Tool On
G1 F300 Z0.0000
G1 F15000 X279.0000 Y302.9400 Z0.0000
M3S245
G4 P0.5; Tool Off

G0 Z0; move to z-safe height
G0 X279.0000 Y304.9400
M3S0
G4 P0.5; Tool On
G1 F300 Z0.0000
G1 F15000 X1.0000 Y304.9400 Z0.0000
M3S245
G4 P0.5; Tool Off

G0 Z0; move to z-safe height
G0 X1.0000 Y306.9400
M3S0
G4 P0.5; Tool On
G1 F300 Z0.0000
G1 F15000 X279.0000 Y306.9400 Z0.0000
M3S245
G4 P0.5; Tool Off

G0 Z0; move to z-safe height
G0 X279.0000 Y308.9400
M3S0
G4 P0.5; Tool On
G1 F300 Z0.0000
G1 F15000 X1.0000 Y308.9400 Z0.0000
M3S245
G4 P0.5; Tool Off

G0 Z0; move to z-safe height
G0 X1.0000 Y310.9400
M3S0
G4 P0.5; Tool On
G1 F300 Z0.0000
G1 F15000 X279.0000 Y310.9400 Z0.0000
M3S245
G4 P0.5; Tool Off

G0 Z0; move to z-safe height
G0 X279.0000 Y312.9400
M3S0
G4 P0.5; Tool On
G1 F300 Z0.0000
G1 F15000 X1.0000 Y312.9400 Z0.0000
M3S245
G4 P0.5; Tool Off

G0 Z0; move to z-safe height
G0 X1.0000 Y314.9400
M3S0
G4 P0.5; Tool On
G1 F300 Z0.0000
G1 F15000 X279.0000 Y314.9400 Z0.0000
M3S245
G4 P0.5; Tool Off

G0 Z0; move to z-safe height
G0 X279.0000 Y316.9400
M3S0
G4 P0.5; Tool On
G1 F300 Z0.0000
G1 F15000 X1.0000 Y316.9400 Z0.0000
M3S245
G4 P0.5; Tool Off

G0 Z0; move to z-safe height
G0 X1.0000 Y318.9400
M3S0
G4 P0.5; Tool On
G1 F300 Z0.0000
G1 F15000 X279.0000 Y318.9400 Z0.0000
M3S245
G4 P0.5; Tool Off

G0 Z0; move to z-safe height
G0 X279.0000 Y320.9400
M3S0
G4 P0.5; Tool On
G1 F300 Z0.0000
G1 F15000 X1.0000 Y320.9400 Z0.0000
M3S245
G4 P0.5; Tool Off

G0 Z0; move to z-safe height
G0 X1.0000 Y322.9400
M3S0
G4 P0.5; Tool On
G1 F300 Z0.0000
G1 F15000 X279.0000 Y322.9400 Z0.0000
M3S245
G4 P0.5; Tool Off

G0 Z0; move to z-safe height
G0 X279.0000 Y324.9400
M3S0
G4 P0.5; Tool On
G1 F300 Z0.0000
G1 F15000 X1.0000 Y324.9400 Z0.0000
M3S245
G4 P0.5; Tool Off

G0 Z0; move to z-safe height
G0 X1.0000 Y326.9400
M3S0
G4 P0.5; Tool On
G1 F300 Z0.0000
G1 F15000 X279.0000 Y326.9400 Z0.0000
M3S245
G4 P0.5; Tool Off

G0 Z0; move to z-safe height
G0 X279.0000 Y328.9400
M3S0
G4 P0.5; Tool On
G1 F300 Z0.0000
G1 F15000 X1.0000 Y328.9400 Z0.0000
M3S245
G4 P0.5; Tool Off

G0 Z0; move to z-safe height
G0 X1.0000 Y330.9400
M3S0
G4 P0.5; Tool On
G1 F300 Z0.0000
G1 F15000 X279.0000 Y330.9400 Z0.0000
M3S245
G4 P0.5; Tool Off

G0 Z0; move to z-safe height
G0 X279.0000 Y332.9400
M3S0
G4 P0.5; Tool On
G1 F300 Z0.0000
G1 F15000 X1.0000 Y332.9400 Z0.0000
M3S245
G4 P0.5; Tool Off

G0 Z0; move to z-safe height
G0 X1.0000 Y334.9400
M3S0
G4 P0.5; Tool On
G1 F300 Z0.0000
G1 F15000 X279.0000 Y334.9400 Z0.0000
M3S245
G4 P0.5; Tool Off

G0 Z0; move to z-safe height
G0 X279.0000 Y336.9400
M3S0
G4 P0.5; Tool On
G1 F300 Z0.0000
G1 F15000 X1.0000 Y336.9400 Z0.0000
M3S245
G4 P0.5; Tool Off

G0 Z0; move to z-safe height
G0 X1.0000 Y338.9400
M3S0
G4 P0.5; Tool On
G1 F300 Z0.0000
G1 F15000 X279.0000 Y338.9400 Z0.0000
M3S245
G4 P0.5; Tool Off

G0 Z0; move to z-safe height
G0 X279.0000 Y340.9400
M3S0
G4 P0.5; Tool On
G1 F300 Z0.0000
G1 F15000 X1.0000 Y340.9400 Z0.0000
M3S245
G4 P0.5; Tool Off

G0 Z0; move to z-safe height
G0 X1.0000 Y342.9400
M3S0
G4 P0.5; Tool On
G1 F300 Z0.0000
G1 F15000 X279.0000 Y342.9400 Z0.0000
M3S245
G4 P0.5; Tool Off

G0 Z0; move to z-safe height
G0 X279.0000 Y344.9400
M3S0
G4 P0.5; Tool On
G1 F300 Z0.0000
G1 F15000 X1.0000 Y344.9400 Z0.0000
M3S245
G4 P0.5; Tool Off

G0 Z0; move to z-safe height
G0 X1.0000 Y346.9400
M3S0
G4 P0.5; Tool On
G1 F300 Z0.0000
G1 F15000 X279.0000 Y346.9400 Z0.0000
M3S245
G4 P0.5; Tool Off

G0 Z0; move to z-safe height
G0 X279.0000 Y348.9400
M3S0
G4 P0.5; Tool On
G1 F300 Z0.0000
G1 F15000 X1.0000 Y348.9400 Z0.0000
M3S245
G4 P0.5; Tool Off

G0 Z0; move to z-safe height
G0 X1.0000 Y350.9400
M3S0
G4 P0.5; Tool On
G1 F300 Z0.0000
G1 F15000 X279.0000 Y350.9400 Z0.0000
M3S245
G4 P0.5; Tool Off

G0 Z0; move to z-safe height
G0 X279.0000 Y352.9400
M3S0
G4 P0.5; Tool On
G1 F300 Z0.0000
G1 F15000 X1.0000 Y352.9400 Z0.0000
M3S245
G4 P0.5; Tool Off

G0 Z0; move to z-safe height
G0 X1.0000 Y354.9400
M3S0
G4 P0.5; Tool On
G1 F300 Z0.0000
G1 F15000 X279.0000 Y354.9400 Z0.0000
M3S245
G4 P0.5; Tool Off
; retracting back to z-safe
G0 Z0

; Plotter Mode Complete
