; GCODE Generated by cam.openbuilds.com on 2023-03-29 
G21 ; mm-mode
G54; Work Coordinates
G21; mm-mode
G90; Absolute Positioning
; Plotter Mode Active

; Operation 0: Pen Plotter: (lines fill)
; Pen Diameter: 2

G0 Z0; move to z-safe height
G0 F1000 X5.0000 Y8.5600
M3S0
G4 P0.5; Tool On
G1 F300 Z0.0000
G1 F15000 X275.0000 Y8.5600 Z0.0000
M3S245
G4 P0.5; Tool Off

G0 Z0; move to z-safe height
G0 X275.0000 Y18.5600
M3S0
G4 P0.5; Tool On
G1 F300 Z0.0000
G1 F15000 X5.0000 Y18.5600 Z0.0000
M3S245
G4 P0.5; Tool Off

G0 Z0; move to z-safe height
G0 X5.0000 Y28.5600
M3S0
G4 P0.5; Tool On
G1 F300 Z0.0000
G1 F15000 X275.0000 Y28.5600 Z0.0000
M3S245
G4 P0.5; Tool Off

G0 Z0; move to z-safe height
G0 X275.0000 Y38.5600
M3S0
G4 P0.5; Tool On
G1 F300 Z0.0000
G1 F15000 X5.0000 Y38.5600 Z0.0000
M3S245
G4 P0.5; Tool Off

G0 Z0; move to z-safe height
G0 X5.0000 Y48.5600
M3S0
G4 P0.5; Tool On
G1 F300 Z0.0000
G1 F15000 X275.0000 Y48.5600 Z0.0000
M3S245
G4 P0.5; Tool Off

G0 Z0; move to z-safe height
G0 X275.0000 Y58.5600
M3S0
G4 P0.5; Tool On
G1 F300 Z0.0000
G1 F15000 X5.0000 Y58.5600 Z0.0000
M3S245
G4 P0.5; Tool Off

G0 Z0; move to z-safe height
G0 X5.0000 Y68.5600
M3S0
G4 P0.5; Tool On
G1 F300 Z0.0000
G1 F15000 X275.0000 Y68.5600 Z0.0000
M3S245
G4 P0.5; Tool Off

G0 Z0; move to z-safe height
G0 X275.0000 Y78.5600
M3S0
G4 P0.5; Tool On
G1 F300 Z0.0000
G1 F15000 X5.0000 Y78.5600 Z0.0000
M3S245
G4 P0.5; Tool Off

G0 Z0; move to z-safe height
G0 X5.0000 Y88.5600
M3S0
G4 P0.5; Tool On
G1 F300 Z0.0000
G1 F15000 X275.0000 Y88.5600 Z0.0000
M3S245
G4 P0.5; Tool Off

G0 Z0; move to z-safe height
G0 X275.0000 Y98.5600
M3S0
G4 P0.5; Tool On
G1 F300 Z0.0000
G1 F15000 X5.0000 Y98.5600 Z0.0000
M3S245
G4 P0.5; Tool Off

G0 Z0; move to z-safe height
G0 X5.0000 Y108.5600
M3S0
G4 P0.5; Tool On
G1 F300 Z0.0000
G1 F15000 X275.0000 Y108.5600 Z0.0000
M3S245
G4 P0.5; Tool Off

G0 Z0; move to z-safe height
G0 X275.0000 Y118.5600
M3S0
G4 P0.5; Tool On
G1 F300 Z0.0000
G1 F15000 X5.0000 Y118.5600 Z0.0000
M3S245
G4 P0.5; Tool Off

G0 Z0; move to z-safe height
G0 X5.0000 Y128.5600
M3S0
G4 P0.5; Tool On
G1 F300 Z0.0000
G1 F15000 X275.0000 Y128.5600 Z0.0000
M3S245
G4 P0.5; Tool Off

G0 Z0; move to z-safe height
G0 X275.0000 Y138.5600
M3S0
G4 P0.5; Tool On
G1 F300 Z0.0000
G1 F15000 X5.0000 Y138.5600 Z0.0000
M3S245
G4 P0.5; Tool Off

G0 Z0; move to z-safe height
G0 X5.0000 Y148.5600
M3S0
G4 P0.5; Tool On
G1 F300 Z0.0000
G1 F15000 X275.0000 Y148.5600 Z0.0000
M3S245
G4 P0.5; Tool Off

G0 Z0; move to z-safe height
G0 X275.0000 Y158.5600
M3S0
G4 P0.5; Tool On
G1 F300 Z0.0000
G1 F15000 X5.0000 Y158.5600 Z0.0000
M3S245
G4 P0.5; Tool Off

G0 Z0; move to z-safe height
G0 X5.0000 Y168.5600
M3S0
G4 P0.5; Tool On
G1 F300 Z0.0000
G1 F15000 X275.0000 Y168.5600 Z0.0000
M3S245
G4 P0.5; Tool Off

G0 Z0; move to z-safe height
G0 X275.0000 Y178.5600
M3S0
G4 P0.5; Tool On
G1 F300 Z0.0000
G1 F15000 X5.0000 Y178.5600 Z0.0000
M3S245
G4 P0.5; Tool Off

G0 Z0; move to z-safe height
G0 X5.0000 Y188.5600
M3S0
G4 P0.5; Tool On
G1 F300 Z0.0000
G1 F15000 X275.0000 Y188.5600 Z0.0000
M3S245
G4 P0.5; Tool Off

G0 Z0; move to z-safe height
G0 X275.0000 Y198.5600
M3S0
G4 P0.5; Tool On
G1 F300 Z0.0000
G1 F15000 X5.0000 Y198.5600 Z0.0000
M3S245
G4 P0.5; Tool Off

G0 Z0; move to z-safe height
G0 X5.0000 Y208.5600
M3S0
G4 P0.5; Tool On
G1 F300 Z0.0000
G1 F15000 X275.0000 Y208.5600 Z0.0000
M3S245
G4 P0.5; Tool Off

G0 Z0; move to z-safe height
G0 X275.0000 Y218.5600
M3S0
G4 P0.5; Tool On
G1 F300 Z0.0000
G1 F15000 X5.0000 Y218.5600 Z0.0000
M3S245
G4 P0.5; Tool Off

G0 Z0; move to z-safe height
G0 X5.0000 Y228.5600
M3S0
G4 P0.5; Tool On
G1 F300 Z0.0000
G1 F15000 X275.0000 Y228.5600 Z0.0000
M3S245
G4 P0.5; Tool Off

G0 Z0; move to z-safe height
G0 X275.0000 Y238.5600
M3S0
G4 P0.5; Tool On
G1 F300 Z0.0000
G1 F15000 X5.0000 Y238.5600 Z0.0000
M3S245
G4 P0.5; Tool Off

G0 Z0; move to z-safe height
G0 X5.0000 Y248.5600
M3S0
G4 P0.5; Tool On
G1 F300 Z0.0000
G1 F15000 X275.0000 Y248.5600 Z0.0000
M3S245
G4 P0.5; Tool Off

G0 Z0; move to z-safe height
G0 X275.0000 Y258.5600
M3S0
G4 P0.5; Tool On
G1 F300 Z0.0000
G1 F15000 X5.0000 Y258.5600 Z0.0000
M3S245
G4 P0.5; Tool Off

G0 Z0; move to z-safe height
G0 X5.0000 Y268.5600
M3S0
G4 P0.5; Tool On
G1 F300 Z0.0000
G1 F15000 X275.0000 Y268.5600 Z0.0000
M3S245
G4 P0.5; Tool Off

G0 Z0; move to z-safe height
G0 X275.0000 Y278.5600
M3S0
G4 P0.5; Tool On
G1 F300 Z0.0000
G1 F15000 X5.0000 Y278.5600 Z0.0000
M3S245
G4 P0.5; Tool Off

G0 Z0; move to z-safe height
G0 X5.0000 Y288.5600
M3S0
G4 P0.5; Tool On
G1 F300 Z0.0000
G1 F15000 X275.0000 Y288.5600 Z0.0000
M3S245
G4 P0.5; Tool Off

G0 Z0; move to z-safe height
G0 X275.0000 Y298.5600
M3S0
G4 P0.5; Tool On
G1 F300 Z0.0000
G1 F15000 X5.0000 Y298.5600 Z0.0000
M3S245
G4 P0.5; Tool Off

G0 Z0; move to z-safe height
G0 X5.0000 Y308.5600
M3S0
G4 P0.5; Tool On
G1 F300 Z0.0000
G1 F15000 X275.0000 Y308.5600 Z0.0000
M3S245
G4 P0.5; Tool Off

G0 Z0; move to z-safe height
G0 X275.0000 Y318.5600
M3S0
G4 P0.5; Tool On
G1 F300 Z0.0000
G1 F15000 X5.0000 Y318.5600 Z0.0000
M3S245
G4 P0.5; Tool Off

G0 Z0; move to z-safe height
G0 X5.0000 Y328.5600
M3S0
G4 P0.5; Tool On
G1 F300 Z0.0000
G1 F15000 X275.0000 Y328.5600 Z0.0000
M3S245
G4 P0.5; Tool Off

G0 Z0; move to z-safe height
G0 X275.0000 Y338.5600
M3S0
G4 P0.5; Tool On
G1 F300 Z0.0000
G1 F15000 X5.0000 Y338.5600 Z0.0000
M3S245
G4 P0.5; Tool Off

G0 Z0; move to z-safe height
G0 X5.0000 Y348.5600
M3S0
G4 P0.5; Tool On
G1 F300 Z0.0000
G1 F15000 X275.0000 Y348.5600 Z0.0000
M3S245
G4 P0.5; Tool Off
; retracting back to z-safe
G0 Z0

; Plotter Mode Complete
