; GCODE Generated by cam.openbuilds.com on 2023-03-29 
G21 ; mm-mode
G54; Work Coordinates
G21; mm-mode
G90; Absolute Positioning
; Plotter Mode Active

; Operation 0: Pen Plotter: (lines fill)
; Pen Diameter: 2

G0 Z0; move to z-safe height
G0 F1000 X276.0000 Y5.1600
M3S0
G4 P0.5; Tool On
G1 F300 Z0.0000
G1 F15000 X4.0000 Y5.1600 Z0.0000
M3S245
G4 P0.5; Tool Off

G0 Z0; move to z-safe height
G0 X4.0000 Y13.1600
M3S0
G4 P0.5; Tool On
G1 F300 Z0.0000
G1 F15000 X276.0000 Y13.1600 Z0.0000
M3S245
G4 P0.5; Tool Off

G0 Z0; move to z-safe height
G0 X276.0000 Y21.1600
M3S0
G4 P0.5; Tool On
G1 F300 Z0.0000
G1 F15000 X4.0000 Y21.1600 Z0.0000
M3S245
G4 P0.5; Tool Off

G0 Z0; move to z-safe height
G0 X4.0000 Y29.1600
M3S0
G4 P0.5; Tool On
G1 F300 Z0.0000
G1 F15000 X276.0000 Y29.1600 Z0.0000
M3S245
G4 P0.5; Tool Off

G0 Z0; move to z-safe height
G0 X276.0000 Y37.1600
M3S0
G4 P0.5; Tool On
G1 F300 Z0.0000
G1 F15000 X4.0000 Y37.1600 Z0.0000
M3S245
G4 P0.5; Tool Off

G0 Z0; move to z-safe height
G0 X4.0000 Y45.1600
M3S0
G4 P0.5; Tool On
G1 F300 Z0.0000
G1 F15000 X276.0000 Y45.1600 Z0.0000
M3S245
G4 P0.5; Tool Off

G0 Z0; move to z-safe height
G0 X276.0000 Y53.1600
M3S0
G4 P0.5; Tool On
G1 F300 Z0.0000
G1 F15000 X4.0000 Y53.1600 Z0.0000
M3S245
G4 P0.5; Tool Off

G0 Z0; move to z-safe height
G0 X4.0000 Y61.1600
M3S0
G4 P0.5; Tool On
G1 F300 Z0.0000
G1 F15000 X276.0000 Y61.1600 Z0.0000
M3S245
G4 P0.5; Tool Off

G0 Z0; move to z-safe height
G0 X276.0000 Y69.1600
M3S0
G4 P0.5; Tool On
G1 F300 Z0.0000
G1 F15000 X4.0000 Y69.1600 Z0.0000
M3S245
G4 P0.5; Tool Off

G0 Z0; move to z-safe height
G0 X4.0000 Y77.1600
M3S0
G4 P0.5; Tool On
G1 F300 Z0.0000
G1 F15000 X276.0000 Y77.1600 Z0.0000
M3S245
G4 P0.5; Tool Off

G0 Z0; move to z-safe height
G0 X276.0000 Y85.1600
M3S0
G4 P0.5; Tool On
G1 F300 Z0.0000
G1 F15000 X4.0000 Y85.1600 Z0.0000
M3S245
G4 P0.5; Tool Off

G0 Z0; move to z-safe height
G0 X4.0000 Y93.1600
M3S0
G4 P0.5; Tool On
G1 F300 Z0.0000
G1 F15000 X276.0000 Y93.1600 Z0.0000
M3S245
G4 P0.5; Tool Off

G0 Z0; move to z-safe height
G0 X276.0000 Y101.1600
M3S0
G4 P0.5; Tool On
G1 F300 Z0.0000
G1 F15000 X4.0000 Y101.1600 Z0.0000
M3S245
G4 P0.5; Tool Off

G0 Z0; move to z-safe height
G0 X4.0000 Y109.1600
M3S0
G4 P0.5; Tool On
G1 F300 Z0.0000
G1 F15000 X276.0000 Y109.1600 Z0.0000
M3S245
G4 P0.5; Tool Off

G0 Z0; move to z-safe height
G0 X276.0000 Y117.1600
M3S0
G4 P0.5; Tool On
G1 F300 Z0.0000
G1 F15000 X4.0000 Y117.1600 Z0.0000
M3S245
G4 P0.5; Tool Off

G0 Z0; move to z-safe height
G0 X4.0000 Y125.1600
M3S0
G4 P0.5; Tool On
G1 F300 Z0.0000
G1 F15000 X276.0000 Y125.1600 Z0.0000
M3S245
G4 P0.5; Tool Off

G0 Z0; move to z-safe height
G0 X276.0000 Y133.1600
M3S0
G4 P0.5; Tool On
G1 F300 Z0.0000
G1 F15000 X4.0000 Y133.1600 Z0.0000
M3S245
G4 P0.5; Tool Off

G0 Z0; move to z-safe height
G0 X4.0000 Y141.1600
M3S0
G4 P0.5; Tool On
G1 F300 Z0.0000
G1 F15000 X276.0000 Y141.1600 Z0.0000
M3S245
G4 P0.5; Tool Off

G0 Z0; move to z-safe height
G0 X276.0000 Y149.1600
M3S0
G4 P0.5; Tool On
G1 F300 Z0.0000
G1 F15000 X4.0000 Y149.1600 Z0.0000
M3S245
G4 P0.5; Tool Off

G0 Z0; move to z-safe height
G0 X4.0000 Y157.1600
M3S0
G4 P0.5; Tool On
G1 F300 Z0.0000
G1 F15000 X276.0000 Y157.1600 Z0.0000
M3S245
G4 P0.5; Tool Off

G0 Z0; move to z-safe height
G0 X276.0000 Y165.1600
M3S0
G4 P0.5; Tool On
G1 F300 Z0.0000
G1 F15000 X4.0000 Y165.1600 Z0.0000
M3S245
G4 P0.5; Tool Off

G0 Z0; move to z-safe height
G0 X4.0000 Y173.1600
M3S0
G4 P0.5; Tool On
G1 F300 Z0.0000
G1 F15000 X276.0000 Y173.1600 Z0.0000
M3S245
G4 P0.5; Tool Off

G0 Z0; move to z-safe height
G0 X276.0000 Y181.1600
M3S0
G4 P0.5; Tool On
G1 F300 Z0.0000
G1 F15000 X4.0000 Y181.1600 Z0.0000
M3S245
G4 P0.5; Tool Off

G0 Z0; move to z-safe height
G0 X4.0000 Y189.1600
M3S0
G4 P0.5; Tool On
G1 F300 Z0.0000
G1 F15000 X276.0000 Y189.1600 Z0.0000
M3S245
G4 P0.5; Tool Off

G0 Z0; move to z-safe height
G0 X276.0000 Y197.1600
M3S0
G4 P0.5; Tool On
G1 F300 Z0.0000
G1 F15000 X4.0000 Y197.1600 Z0.0000
M3S245
G4 P0.5; Tool Off

G0 Z0; move to z-safe height
G0 X4.0000 Y205.1600
M3S0
G4 P0.5; Tool On
G1 F300 Z0.0000
G1 F15000 X276.0000 Y205.1600 Z0.0000
M3S245
G4 P0.5; Tool Off

G0 Z0; move to z-safe height
G0 X276.0000 Y213.1600
M3S0
G4 P0.5; Tool On
G1 F300 Z0.0000
G1 F15000 X4.0000 Y213.1600 Z0.0000
M3S245
G4 P0.5; Tool Off

G0 Z0; move to z-safe height
G0 X4.0000 Y221.1600
M3S0
G4 P0.5; Tool On
G1 F300 Z0.0000
G1 F15000 X276.0000 Y221.1600 Z0.0000
M3S245
G4 P0.5; Tool Off

G0 Z0; move to z-safe height
G0 X276.0000 Y229.1600
M3S0
G4 P0.5; Tool On
G1 F300 Z0.0000
G1 F15000 X4.0000 Y229.1600 Z0.0000
M3S245
G4 P0.5; Tool Off

G0 Z0; move to z-safe height
G0 X4.0000 Y237.1600
M3S0
G4 P0.5; Tool On
G1 F300 Z0.0000
G1 F15000 X276.0000 Y237.1600 Z0.0000
M3S245
G4 P0.5; Tool Off

G0 Z0; move to z-safe height
G0 X276.0000 Y245.1600
M3S0
G4 P0.5; Tool On
G1 F300 Z0.0000
G1 F15000 X4.0000 Y245.1600 Z0.0000
M3S245
G4 P0.5; Tool Off

G0 Z0; move to z-safe height
G0 X4.0000 Y253.1600
M3S0
G4 P0.5; Tool On
G1 F300 Z0.0000
G1 F15000 X276.0000 Y253.1600 Z0.0000
M3S245
G4 P0.5; Tool Off

G0 Z0; move to z-safe height
G0 X276.0000 Y261.1600
M3S0
G4 P0.5; Tool On
G1 F300 Z0.0000
G1 F15000 X4.0000 Y261.1600 Z0.0000
M3S245
G4 P0.5; Tool Off

G0 Z0; move to z-safe height
G0 X4.0000 Y269.1600
M3S0
G4 P0.5; Tool On
G1 F300 Z0.0000
G1 F15000 X276.0000 Y269.1600 Z0.0000
M3S245
G4 P0.5; Tool Off

G0 Z0; move to z-safe height
G0 X276.0000 Y277.1600
M3S0
G4 P0.5; Tool On
G1 F300 Z0.0000
G1 F15000 X4.0000 Y277.1600 Z0.0000
M3S245
G4 P0.5; Tool Off

G0 Z0; move to z-safe height
G0 X4.0000 Y285.1600
M3S0
G4 P0.5; Tool On
G1 F300 Z0.0000
G1 F15000 X276.0000 Y285.1600 Z0.0000
M3S245
G4 P0.5; Tool Off

G0 Z0; move to z-safe height
G0 X276.0000 Y293.1600
M3S0
G4 P0.5; Tool On
G1 F300 Z0.0000
G1 F15000 X4.0000 Y293.1600 Z0.0000
M3S245
G4 P0.5; Tool Off

G0 Z0; move to z-safe height
G0 X4.0000 Y301.1600
M3S0
G4 P0.5; Tool On
G1 F300 Z0.0000
G1 F15000 X276.0000 Y301.1600 Z0.0000
M3S245
G4 P0.5; Tool Off

G0 Z0; move to z-safe height
G0 X276.0000 Y309.1600
M3S0
G4 P0.5; Tool On
G1 F300 Z0.0000
G1 F15000 X4.0000 Y309.1600 Z0.0000
M3S245
G4 P0.5; Tool Off

G0 Z0; move to z-safe height
G0 X4.0000 Y317.1600
M3S0
G4 P0.5; Tool On
G1 F300 Z0.0000
G1 F15000 X276.0000 Y317.1600 Z0.0000
M3S245
G4 P0.5; Tool Off

G0 Z0; move to z-safe height
G0 X276.0000 Y325.1600
M3S0
G4 P0.5; Tool On
G1 F300 Z0.0000
G1 F15000 X4.0000 Y325.1600 Z0.0000
M3S245
G4 P0.5; Tool Off

G0 Z0; move to z-safe height
G0 X4.0000 Y333.1600
M3S0
G4 P0.5; Tool On
G1 F300 Z0.0000
G1 F15000 X276.0000 Y333.1600 Z0.0000
M3S245
G4 P0.5; Tool Off

G0 Z0; move to z-safe height
G0 X276.0000 Y341.1600
M3S0
G4 P0.5; Tool On
G1 F300 Z0.0000
G1 F15000 X4.0000 Y341.1600 Z0.0000
M3S245
G4 P0.5; Tool Off

G0 Z0; move to z-safe height
G0 X4.0000 Y349.1600
M3S0
G4 P0.5; Tool On
G1 F300 Z0.0000
G1 F15000 X276.0000 Y349.1600 Z0.0000
M3S245
G4 P0.5; Tool Off
; retracting back to z-safe
G0 Z0

; Plotter Mode Complete
