; GCODE Generated by cam.openbuilds.com on 2023-03-29 
G21 ; mm-mode
G54; Work Coordinates
G21; mm-mode
G90; Absolute Positioning
; Plotter Mode Active

; Operation 0: Pen Plotter: (lines fill)
; Pen Diameter: 2

G0 Z0; move to z-safe height
G0 F1000 X277.0000 Y3.7500
M3S0
G4 P0.5; Tool On
G1 F300 Z0.0000
G1 F15000 X3.0000 Y3.7500 Z0.0000
M3S245
G4 P0.5; Tool Off

G0 Z0; move to z-safe height
G0 X3.0000 Y9.7500
M3S0
G4 P0.5; Tool On
G1 F300 Z0.0000
G1 F15000 X277.0000 Y9.7500 Z0.0000
M3S245
G4 P0.5; Tool Off

G0 Z0; move to z-safe height
G0 X277.0000 Y15.7500
M3S0
G4 P0.5; Tool On
G1 F300 Z0.0000
G1 F15000 X3.0000 Y15.7500 Z0.0000
M3S245
G4 P0.5; Tool Off

G0 Z0; move to z-safe height
G0 X3.0000 Y21.7500
M3S0
G4 P0.5; Tool On
G1 F300 Z0.0000
G1 F15000 X277.0000 Y21.7500 Z0.0000
M3S245
G4 P0.5; Tool Off

G0 Z0; move to z-safe height
G0 X277.0000 Y27.7500
M3S0
G4 P0.5; Tool On
G1 F300 Z0.0000
G1 F15000 X3.0000 Y27.7500 Z0.0000
M3S245
G4 P0.5; Tool Off

G0 Z0; move to z-safe height
G0 X3.0000 Y33.7500
M3S0
G4 P0.5; Tool On
G1 F300 Z0.0000
G1 F15000 X277.0000 Y33.7500 Z0.0000
M3S245
G4 P0.5; Tool Off

G0 Z0; move to z-safe height
G0 X277.0000 Y39.7500
M3S0
G4 P0.5; Tool On
G1 F300 Z0.0000
G1 F15000 X3.0000 Y39.7500 Z0.0000
M3S245
G4 P0.5; Tool Off

G0 Z0; move to z-safe height
G0 X3.0000 Y45.7500
M3S0
G4 P0.5; Tool On
G1 F300 Z0.0000
G1 F15000 X277.0000 Y45.7500 Z0.0000
M3S245
G4 P0.5; Tool Off

G0 Z0; move to z-safe height
G0 X277.0000 Y51.7500
M3S0
G4 P0.5; Tool On
G1 F300 Z0.0000
G1 F15000 X3.0000 Y51.7500 Z0.0000
M3S245
G4 P0.5; Tool Off

G0 Z0; move to z-safe height
G0 X3.0000 Y57.7500
M3S0
G4 P0.5; Tool On
G1 F300 Z0.0000
G1 F15000 X277.0000 Y57.7500 Z0.0000
M3S245
G4 P0.5; Tool Off

G0 Z0; move to z-safe height
G0 X277.0000 Y63.7500
M3S0
G4 P0.5; Tool On
G1 F300 Z0.0000
G1 F15000 X3.0000 Y63.7500 Z0.0000
M3S245
G4 P0.5; Tool Off

G0 Z0; move to z-safe height
G0 X3.0000 Y69.7500
M3S0
G4 P0.5; Tool On
G1 F300 Z0.0000
G1 F15000 X277.0000 Y69.7500 Z0.0000
M3S245
G4 P0.5; Tool Off

G0 Z0; move to z-safe height
G0 X277.0000 Y75.7500
M3S0
G4 P0.5; Tool On
G1 F300 Z0.0000
G1 F15000 X3.0000 Y75.7500 Z0.0000
M3S245
G4 P0.5; Tool Off

G0 Z0; move to z-safe height
G0 X3.0000 Y81.7500
M3S0
G4 P0.5; Tool On
G1 F300 Z0.0000
G1 F15000 X277.0000 Y81.7500 Z0.0000
M3S245
G4 P0.5; Tool Off

G0 Z0; move to z-safe height
G0 X277.0000 Y87.7500
M3S0
G4 P0.5; Tool On
G1 F300 Z0.0000
G1 F15000 X3.0000 Y87.7500 Z0.0000
M3S245
G4 P0.5; Tool Off

G0 Z0; move to z-safe height
G0 X3.0000 Y93.7500
M3S0
G4 P0.5; Tool On
G1 F300 Z0.0000
G1 F15000 X277.0000 Y93.7500 Z0.0000
M3S245
G4 P0.5; Tool Off

G0 Z0; move to z-safe height
G0 X277.0000 Y99.7500
M3S0
G4 P0.5; Tool On
G1 F300 Z0.0000
G1 F15000 X3.0000 Y99.7500 Z0.0000
M3S245
G4 P0.5; Tool Off

G0 Z0; move to z-safe height
G0 X3.0000 Y105.7500
M3S0
G4 P0.5; Tool On
G1 F300 Z0.0000
G1 F15000 X277.0000 Y105.7500 Z0.0000
M3S245
G4 P0.5; Tool Off

G0 Z0; move to z-safe height
G0 X277.0000 Y111.7500
M3S0
G4 P0.5; Tool On
G1 F300 Z0.0000
G1 F15000 X3.0000 Y111.7500 Z0.0000
M3S245
G4 P0.5; Tool Off

G0 Z0; move to z-safe height
G0 X3.0000 Y117.7500
M3S0
G4 P0.5; Tool On
G1 F300 Z0.0000
G1 F15000 X277.0000 Y117.7500 Z0.0000
M3S245
G4 P0.5; Tool Off

G0 Z0; move to z-safe height
G0 X277.0000 Y123.7500
M3S0
G4 P0.5; Tool On
G1 F300 Z0.0000
G1 F15000 X3.0000 Y123.7500 Z0.0000
M3S245
G4 P0.5; Tool Off

G0 Z0; move to z-safe height
G0 X3.0000 Y129.7500
M3S0
G4 P0.5; Tool On
G1 F300 Z0.0000
G1 F15000 X277.0000 Y129.7500 Z0.0000
M3S245
G4 P0.5; Tool Off

G0 Z0; move to z-safe height
G0 X277.0000 Y135.7500
M3S0
G4 P0.5; Tool On
G1 F300 Z0.0000
G1 F15000 X3.0000 Y135.7500 Z0.0000
M3S245
G4 P0.5; Tool Off

G0 Z0; move to z-safe height
G0 X3.0000 Y141.7500
M3S0
G4 P0.5; Tool On
G1 F300 Z0.0000
G1 F15000 X277.0000 Y141.7500 Z0.0000
M3S245
G4 P0.5; Tool Off

G0 Z0; move to z-safe height
G0 X277.0000 Y147.7500
M3S0
G4 P0.5; Tool On
G1 F300 Z0.0000
G1 F15000 X3.0000 Y147.7500 Z0.0000
M3S245
G4 P0.5; Tool Off

G0 Z0; move to z-safe height
G0 X3.0000 Y153.7500
M3S0
G4 P0.5; Tool On
G1 F300 Z0.0000
G1 F15000 X277.0000 Y153.7500 Z0.0000
M3S245
G4 P0.5; Tool Off

G0 Z0; move to z-safe height
G0 X277.0000 Y159.7500
M3S0
G4 P0.5; Tool On
G1 F300 Z0.0000
G1 F15000 X3.0000 Y159.7500 Z0.0000
M3S245
G4 P0.5; Tool Off

G0 Z0; move to z-safe height
G0 X3.0000 Y165.7500
M3S0
G4 P0.5; Tool On
G1 F300 Z0.0000
G1 F15000 X277.0000 Y165.7500 Z0.0000
M3S245
G4 P0.5; Tool Off

G0 Z0; move to z-safe height
G0 X277.0000 Y171.7500
M3S0
G4 P0.5; Tool On
G1 F300 Z0.0000
G1 F15000 X3.0000 Y171.7500 Z0.0000
M3S245
G4 P0.5; Tool Off

G0 Z0; move to z-safe height
G0 X3.0000 Y177.7500
M3S0
G4 P0.5; Tool On
G1 F300 Z0.0000
G1 F15000 X277.0000 Y177.7500 Z0.0000
M3S245
G4 P0.5; Tool Off

G0 Z0; move to z-safe height
G0 X277.0000 Y183.7500
M3S0
G4 P0.5; Tool On
G1 F300 Z0.0000
G1 F15000 X3.0000 Y183.7500 Z0.0000
M3S245
G4 P0.5; Tool Off

G0 Z0; move to z-safe height
G0 X3.0000 Y189.7500
M3S0
G4 P0.5; Tool On
G1 F300 Z0.0000
G1 F15000 X277.0000 Y189.7500 Z0.0000
M3S245
G4 P0.5; Tool Off

G0 Z0; move to z-safe height
G0 X277.0000 Y195.7500
M3S0
G4 P0.5; Tool On
G1 F300 Z0.0000
G1 F15000 X3.0000 Y195.7500 Z0.0000
M3S245
G4 P0.5; Tool Off

G0 Z0; move to z-safe height
G0 X3.0000 Y201.7500
M3S0
G4 P0.5; Tool On
G1 F300 Z0.0000
G1 F15000 X277.0000 Y201.7500 Z0.0000
M3S245
G4 P0.5; Tool Off

G0 Z0; move to z-safe height
G0 X277.0000 Y207.7500
M3S0
G4 P0.5; Tool On
G1 F300 Z0.0000
G1 F15000 X3.0000 Y207.7500 Z0.0000
M3S245
G4 P0.5; Tool Off

G0 Z0; move to z-safe height
G0 X3.0000 Y213.7500
M3S0
G4 P0.5; Tool On
G1 F300 Z0.0000
G1 F15000 X277.0000 Y213.7500 Z0.0000
M3S245
G4 P0.5; Tool Off

G0 Z0; move to z-safe height
G0 X277.0000 Y219.7500
M3S0
G4 P0.5; Tool On
G1 F300 Z0.0000
G1 F15000 X3.0000 Y219.7500 Z0.0000
M3S245
G4 P0.5; Tool Off

G0 Z0; move to z-safe height
G0 X3.0000 Y225.7500
M3S0
G4 P0.5; Tool On
G1 F300 Z0.0000
G1 F15000 X277.0000 Y225.7500 Z0.0000
M3S245
G4 P0.5; Tool Off

G0 Z0; move to z-safe height
G0 X277.0000 Y231.7500
M3S0
G4 P0.5; Tool On
G1 F300 Z0.0000
G1 F15000 X3.0000 Y231.7500 Z0.0000
M3S245
G4 P0.5; Tool Off

G0 Z0; move to z-safe height
G0 X3.0000 Y237.7500
M3S0
G4 P0.5; Tool On
G1 F300 Z0.0000
G1 F15000 X277.0000 Y237.7500 Z0.0000
M3S245
G4 P0.5; Tool Off

G0 Z0; move to z-safe height
G0 X277.0000 Y243.7500
M3S0
G4 P0.5; Tool On
G1 F300 Z0.0000
G1 F15000 X3.0000 Y243.7500 Z0.0000
M3S245
G4 P0.5; Tool Off

G0 Z0; move to z-safe height
G0 X3.0000 Y249.7500
M3S0
G4 P0.5; Tool On
G1 F300 Z0.0000
G1 F15000 X277.0000 Y249.7500 Z0.0000
M3S245
G4 P0.5; Tool Off

G0 Z0; move to z-safe height
G0 X277.0000 Y255.7500
M3S0
G4 P0.5; Tool On
G1 F300 Z0.0000
G1 F15000 X3.0000 Y255.7500 Z0.0000
M3S245
G4 P0.5; Tool Off

G0 Z0; move to z-safe height
G0 X3.0000 Y261.7500
M3S0
G4 P0.5; Tool On
G1 F300 Z0.0000
G1 F15000 X277.0000 Y261.7500 Z0.0000
M3S245
G4 P0.5; Tool Off

G0 Z0; move to z-safe height
G0 X277.0000 Y267.7500
M3S0
G4 P0.5; Tool On
G1 F300 Z0.0000
G1 F15000 X3.0000 Y267.7500 Z0.0000
M3S245
G4 P0.5; Tool Off

G0 Z0; move to z-safe height
G0 X3.0000 Y273.7500
M3S0
G4 P0.5; Tool On
G1 F300 Z0.0000
G1 F15000 X277.0000 Y273.7500 Z0.0000
M3S245
G4 P0.5; Tool Off

G0 Z0; move to z-safe height
G0 X277.0000 Y279.7500
M3S0
G4 P0.5; Tool On
G1 F300 Z0.0000
G1 F15000 X3.0000 Y279.7500 Z0.0000
M3S245
G4 P0.5; Tool Off

G0 Z0; move to z-safe height
G0 X3.0000 Y285.7500
M3S0
G4 P0.5; Tool On
G1 F300 Z0.0000
G1 F15000 X277.0000 Y285.7500 Z0.0000
M3S245
G4 P0.5; Tool Off

G0 Z0; move to z-safe height
G0 X277.0000 Y291.7500
M3S0
G4 P0.5; Tool On
G1 F300 Z0.0000
G1 F15000 X3.0000 Y291.7500 Z0.0000
M3S245
G4 P0.5; Tool Off

G0 Z0; move to z-safe height
G0 X3.0000 Y297.7500
M3S0
G4 P0.5; Tool On
G1 F300 Z0.0000
G1 F15000 X277.0000 Y297.7500 Z0.0000
M3S245
G4 P0.5; Tool Off

G0 Z0; move to z-safe height
G0 X277.0000 Y303.7500
M3S0
G4 P0.5; Tool On
G1 F300 Z0.0000
G1 F15000 X3.0000 Y303.7500 Z0.0000
M3S245
G4 P0.5; Tool Off

G0 Z0; move to z-safe height
G0 X3.0000 Y309.7500
M3S0
G4 P0.5; Tool On
G1 F300 Z0.0000
G1 F15000 X277.0000 Y309.7500 Z0.0000
M3S245
G4 P0.5; Tool Off

G0 Z0; move to z-safe height
G0 X277.0000 Y315.7500
M3S0
G4 P0.5; Tool On
G1 F300 Z0.0000
G1 F15000 X3.0000 Y315.7500 Z0.0000
M3S245
G4 P0.5; Tool Off

G0 Z0; move to z-safe height
G0 X3.0000 Y321.7500
M3S0
G4 P0.5; Tool On
G1 F300 Z0.0000
G1 F15000 X277.0000 Y321.7500 Z0.0000
M3S245
G4 P0.5; Tool Off

G0 Z0; move to z-safe height
G0 X277.0000 Y327.7500
M3S0
G4 P0.5; Tool On
G1 F300 Z0.0000
G1 F15000 X3.0000 Y327.7500 Z0.0000
M3S245
G4 P0.5; Tool Off

G0 Z0; move to z-safe height
G0 X3.0000 Y333.7500
M3S0
G4 P0.5; Tool On
G1 F300 Z0.0000
G1 F15000 X277.0000 Y333.7500 Z0.0000
M3S245
G4 P0.5; Tool Off

G0 Z0; move to z-safe height
G0 X277.0000 Y339.7500
M3S0
G4 P0.5; Tool On
G1 F300 Z0.0000
G1 F15000 X3.0000 Y339.7500 Z0.0000
M3S245
G4 P0.5; Tool Off

G0 Z0; move to z-safe height
G0 X3.0000 Y345.7500
M3S0
G4 P0.5; Tool On
G1 F300 Z0.0000
G1 F15000 X277.0000 Y345.7500 Z0.0000
M3S245
G4 P0.5; Tool Off

G0 Z0; move to z-safe height
G0 X277.0000 Y351.7500
M3S0
G4 P0.5; Tool On
G1 F300 Z0.0000
G1 F15000 X3.0000 Y351.7500 Z0.0000
M3S245
G4 P0.5; Tool Off
; retracting back to z-safe
G0 Z0

; Plotter Mode Complete
