; GCODE Generated by cam.openbuilds.com on 2023-03-29 
G21 ; mm-mode
G54; Work Coordinates
G21; mm-mode
G90; Absolute Positioning
; Plotter Mode Active

; Operation 0: Pen Plotter: (lines fill)
; Pen Diameter: 2

G0 Z0; move to z-safe height
G0 F1000 X278.0000 Y2.3500
M3S0
G4 P0.5; Tool On
G1 F300 Z0.0000
G1 F15000 X2.0000 Y2.3500 Z0.0000
M3S245
G4 P0.5; Tool Off

G0 Z0; move to z-safe height
G0 X2.0000 Y6.3500
M3S0
G4 P0.5; Tool On
G1 F300 Z0.0000
G1 F15000 X278.0000 Y6.3500 Z0.0000
M3S245
G4 P0.5; Tool Off

G0 Z0; move to z-safe height
G0 X278.0000 Y10.3500
M3S0
G4 P0.5; Tool On
G1 F300 Z0.0000
G1 F15000 X2.0000 Y10.3500 Z0.0000
M3S245
G4 P0.5; Tool Off

G0 Z0; move to z-safe height
G0 X2.0000 Y14.3500
M3S0
G4 P0.5; Tool On
G1 F300 Z0.0000
G1 F15000 X278.0000 Y14.3500 Z0.0000
M3S245
G4 P0.5; Tool Off

G0 Z0; move to z-safe height
G0 X278.0000 Y18.3500
M3S0
G4 P0.5; Tool On
G1 F300 Z0.0000
G1 F15000 X2.0000 Y18.3500 Z0.0000
M3S245
G4 P0.5; Tool Off

G0 Z0; move to z-safe height
G0 X2.0000 Y22.3500
M3S0
G4 P0.5; Tool On
G1 F300 Z0.0000
G1 F15000 X278.0000 Y22.3500 Z0.0000
M3S245
G4 P0.5; Tool Off

G0 Z0; move to z-safe height
G0 X278.0000 Y26.3500
M3S0
G4 P0.5; Tool On
G1 F300 Z0.0000
G1 F15000 X2.0000 Y26.3500 Z0.0000
M3S245
G4 P0.5; Tool Off

G0 Z0; move to z-safe height
G0 X2.0000 Y30.3500
M3S0
G4 P0.5; Tool On
G1 F300 Z0.0000
G1 F15000 X278.0000 Y30.3500 Z0.0000
M3S245
G4 P0.5; Tool Off

G0 Z0; move to z-safe height
G0 X278.0000 Y34.3500
M3S0
G4 P0.5; Tool On
G1 F300 Z0.0000
G1 F15000 X2.0000 Y34.3500 Z0.0000
M3S245
G4 P0.5; Tool Off

G0 Z0; move to z-safe height
G0 X2.0000 Y38.3500
M3S0
G4 P0.5; Tool On
G1 F300 Z0.0000
G1 F15000 X278.0000 Y38.3500 Z0.0000
M3S245
G4 P0.5; Tool Off

G0 Z0; move to z-safe height
G0 X278.0000 Y42.3500
M3S0
G4 P0.5; Tool On
G1 F300 Z0.0000
G1 F15000 X2.0000 Y42.3500 Z0.0000
M3S245
G4 P0.5; Tool Off

G0 Z0; move to z-safe height
G0 X2.0000 Y46.3500
M3S0
G4 P0.5; Tool On
G1 F300 Z0.0000
G1 F15000 X278.0000 Y46.3500 Z0.0000
M3S245
G4 P0.5; Tool Off

G0 Z0; move to z-safe height
G0 X278.0000 Y50.3500
M3S0
G4 P0.5; Tool On
G1 F300 Z0.0000
G1 F15000 X2.0000 Y50.3500 Z0.0000
M3S245
G4 P0.5; Tool Off

G0 Z0; move to z-safe height
G0 X2.0000 Y54.3500
M3S0
G4 P0.5; Tool On
G1 F300 Z0.0000
G1 F15000 X278.0000 Y54.3500 Z0.0000
M3S245
G4 P0.5; Tool Off

G0 Z0; move to z-safe height
G0 X278.0000 Y58.3500
M3S0
G4 P0.5; Tool On
G1 F300 Z0.0000
G1 F15000 X2.0000 Y58.3500 Z0.0000
M3S245
G4 P0.5; Tool Off

G0 Z0; move to z-safe height
G0 X2.0000 Y62.3500
M3S0
G4 P0.5; Tool On
G1 F300 Z0.0000
G1 F15000 X278.0000 Y62.3500 Z0.0000
M3S245
G4 P0.5; Tool Off

G0 Z0; move to z-safe height
G0 X278.0000 Y66.3500
M3S0
G4 P0.5; Tool On
G1 F300 Z0.0000
G1 F15000 X2.0000 Y66.3500 Z0.0000
M3S245
G4 P0.5; Tool Off

G0 Z0; move to z-safe height
G0 X2.0000 Y70.3500
M3S0
G4 P0.5; Tool On
G1 F300 Z0.0000
G1 F15000 X278.0000 Y70.3500 Z0.0000
M3S245
G4 P0.5; Tool Off

G0 Z0; move to z-safe height
G0 X278.0000 Y74.3500
M3S0
G4 P0.5; Tool On
G1 F300 Z0.0000
G1 F15000 X2.0000 Y74.3500 Z0.0000
M3S245
G4 P0.5; Tool Off

G0 Z0; move to z-safe height
G0 X2.0000 Y78.3500
M3S0
G4 P0.5; Tool On
G1 F300 Z0.0000
G1 F15000 X278.0000 Y78.3500 Z0.0000
M3S245
G4 P0.5; Tool Off

G0 Z0; move to z-safe height
G0 X278.0000 Y82.3500
M3S0
G4 P0.5; Tool On
G1 F300 Z0.0000
G1 F15000 X2.0000 Y82.3500 Z0.0000
M3S245
G4 P0.5; Tool Off

G0 Z0; move to z-safe height
G0 X2.0000 Y86.3500
M3S0
G4 P0.5; Tool On
G1 F300 Z0.0000
G1 F15000 X278.0000 Y86.3500 Z0.0000
M3S245
G4 P0.5; Tool Off

G0 Z0; move to z-safe height
G0 X278.0000 Y90.3500
M3S0
G4 P0.5; Tool On
G1 F300 Z0.0000
G1 F15000 X2.0000 Y90.3500 Z0.0000
M3S245
G4 P0.5; Tool Off

G0 Z0; move to z-safe height
G0 X2.0000 Y94.3500
M3S0
G4 P0.5; Tool On
G1 F300 Z0.0000
G1 F15000 X278.0000 Y94.3500 Z0.0000
M3S245
G4 P0.5; Tool Off

G0 Z0; move to z-safe height
G0 X278.0000 Y98.3500
M3S0
G4 P0.5; Tool On
G1 F300 Z0.0000
G1 F15000 X2.0000 Y98.3500 Z0.0000
M3S245
G4 P0.5; Tool Off

G0 Z0; move to z-safe height
G0 X2.0000 Y102.3500
M3S0
G4 P0.5; Tool On
G1 F300 Z0.0000
G1 F15000 X278.0000 Y102.3500 Z0.0000
M3S245
G4 P0.5; Tool Off

G0 Z0; move to z-safe height
G0 X278.0000 Y106.3500
M3S0
G4 P0.5; Tool On
G1 F300 Z0.0000
G1 F15000 X2.0000 Y106.3500 Z0.0000
M3S245
G4 P0.5; Tool Off

G0 Z0; move to z-safe height
G0 X2.0000 Y110.3500
M3S0
G4 P0.5; Tool On
G1 F300 Z0.0000
G1 F15000 X278.0000 Y110.3500 Z0.0000
M3S245
G4 P0.5; Tool Off

G0 Z0; move to z-safe height
G0 X278.0000 Y114.3500
M3S0
G4 P0.5; Tool On
G1 F300 Z0.0000
G1 F15000 X2.0000 Y114.3500 Z0.0000
M3S245
G4 P0.5; Tool Off

G0 Z0; move to z-safe height
G0 X2.0000 Y118.3500
M3S0
G4 P0.5; Tool On
G1 F300 Z0.0000
G1 F15000 X278.0000 Y118.3500 Z0.0000
M3S245
G4 P0.5; Tool Off

G0 Z0; move to z-safe height
G0 X278.0000 Y122.3500
M3S0
G4 P0.5; Tool On
G1 F300 Z0.0000
G1 F15000 X2.0000 Y122.3500 Z0.0000
M3S245
G4 P0.5; Tool Off

G0 Z0; move to z-safe height
G0 X2.0000 Y126.3500
M3S0
G4 P0.5; Tool On
G1 F300 Z0.0000
G1 F15000 X278.0000 Y126.3500 Z0.0000
M3S245
G4 P0.5; Tool Off

G0 Z0; move to z-safe height
G0 X278.0000 Y130.3500
M3S0
G4 P0.5; Tool On
G1 F300 Z0.0000
G1 F15000 X2.0000 Y130.3500 Z0.0000
M3S245
G4 P0.5; Tool Off

G0 Z0; move to z-safe height
G0 X2.0000 Y134.3500
M3S0
G4 P0.5; Tool On
G1 F300 Z0.0000
G1 F15000 X278.0000 Y134.3500 Z0.0000
M3S245
G4 P0.5; Tool Off

G0 Z0; move to z-safe height
G0 X278.0000 Y138.3500
M3S0
G4 P0.5; Tool On
G1 F300 Z0.0000
G1 F15000 X2.0000 Y138.3500 Z0.0000
M3S245
G4 P0.5; Tool Off

G0 Z0; move to z-safe height
G0 X2.0000 Y142.3500
M3S0
G4 P0.5; Tool On
G1 F300 Z0.0000
G1 F15000 X278.0000 Y142.3500 Z0.0000
M3S245
G4 P0.5; Tool Off

G0 Z0; move to z-safe height
G0 X278.0000 Y146.3500
M3S0
G4 P0.5; Tool On
G1 F300 Z0.0000
G1 F15000 X2.0000 Y146.3500 Z0.0000
M3S245
G4 P0.5; Tool Off

G0 Z0; move to z-safe height
G0 X2.0000 Y150.3500
M3S0
G4 P0.5; Tool On
G1 F300 Z0.0000
G1 F15000 X278.0000 Y150.3500 Z0.0000
M3S245
G4 P0.5; Tool Off

G0 Z0; move to z-safe height
G0 X278.0000 Y154.3500
M3S0
G4 P0.5; Tool On
G1 F300 Z0.0000
G1 F15000 X2.0000 Y154.3500 Z0.0000
M3S245
G4 P0.5; Tool Off

G0 Z0; move to z-safe height
G0 X2.0000 Y158.3500
M3S0
G4 P0.5; Tool On
G1 F300 Z0.0000
G1 F15000 X278.0000 Y158.3500 Z0.0000
M3S245
G4 P0.5; Tool Off

G0 Z0; move to z-safe height
G0 X278.0000 Y162.3500
M3S0
G4 P0.5; Tool On
G1 F300 Z0.0000
G1 F15000 X2.0000 Y162.3500 Z0.0000
M3S245
G4 P0.5; Tool Off

G0 Z0; move to z-safe height
G0 X2.0000 Y166.3500
M3S0
G4 P0.5; Tool On
G1 F300 Z0.0000
G1 F15000 X278.0000 Y166.3500 Z0.0000
M3S245
G4 P0.5; Tool Off

G0 Z0; move to z-safe height
G0 X278.0000 Y170.3500
M3S0
G4 P0.5; Tool On
G1 F300 Z0.0000
G1 F15000 X2.0000 Y170.3500 Z0.0000
M3S245
G4 P0.5; Tool Off

G0 Z0; move to z-safe height
G0 X2.0000 Y174.3500
M3S0
G4 P0.5; Tool On
G1 F300 Z0.0000
G1 F15000 X278.0000 Y174.3500 Z0.0000
M3S245
G4 P0.5; Tool Off

G0 Z0; move to z-safe height
G0 X278.0000 Y178.3500
M3S0
G4 P0.5; Tool On
G1 F300 Z0.0000
G1 F15000 X2.0000 Y178.3500 Z0.0000
M3S245
G4 P0.5; Tool Off

G0 Z0; move to z-safe height
G0 X2.0000 Y182.3500
M3S0
G4 P0.5; Tool On
G1 F300 Z0.0000
G1 F15000 X278.0000 Y182.3500 Z0.0000
M3S245
G4 P0.5; Tool Off

G0 Z0; move to z-safe height
G0 X278.0000 Y186.3500
M3S0
G4 P0.5; Tool On
G1 F300 Z0.0000
G1 F15000 X2.0000 Y186.3500 Z0.0000
M3S245
G4 P0.5; Tool Off

G0 Z0; move to z-safe height
G0 X2.0000 Y190.3500
M3S0
G4 P0.5; Tool On
G1 F300 Z0.0000
G1 F15000 X278.0000 Y190.3500 Z0.0000
M3S245
G4 P0.5; Tool Off

G0 Z0; move to z-safe height
G0 X278.0000 Y194.3500
M3S0
G4 P0.5; Tool On
G1 F300 Z0.0000
G1 F15000 X2.0000 Y194.3500 Z0.0000
M3S245
G4 P0.5; Tool Off

G0 Z0; move to z-safe height
G0 X2.0000 Y198.3500
M3S0
G4 P0.5; Tool On
G1 F300 Z0.0000
G1 F15000 X278.0000 Y198.3500 Z0.0000
M3S245
G4 P0.5; Tool Off

G0 Z0; move to z-safe height
G0 X278.0000 Y202.3500
M3S0
G4 P0.5; Tool On
G1 F300 Z0.0000
G1 F15000 X2.0000 Y202.3500 Z0.0000
M3S245
G4 P0.5; Tool Off

G0 Z0; move to z-safe height
G0 X2.0000 Y206.3500
M3S0
G4 P0.5; Tool On
G1 F300 Z0.0000
G1 F15000 X278.0000 Y206.3500 Z0.0000
M3S245
G4 P0.5; Tool Off

G0 Z0; move to z-safe height
G0 X278.0000 Y210.3500
M3S0
G4 P0.5; Tool On
G1 F300 Z0.0000
G1 F15000 X2.0000 Y210.3500 Z0.0000
M3S245
G4 P0.5; Tool Off

G0 Z0; move to z-safe height
G0 X2.0000 Y214.3500
M3S0
G4 P0.5; Tool On
G1 F300 Z0.0000
G1 F15000 X278.0000 Y214.3500 Z0.0000
M3S245
G4 P0.5; Tool Off

G0 Z0; move to z-safe height
G0 X278.0000 Y218.3500
M3S0
G4 P0.5; Tool On
G1 F300 Z0.0000
G1 F15000 X2.0000 Y218.3500 Z0.0000
M3S245
G4 P0.5; Tool Off

G0 Z0; move to z-safe height
G0 X2.0000 Y222.3500
M3S0
G4 P0.5; Tool On
G1 F300 Z0.0000
G1 F15000 X278.0000 Y222.3500 Z0.0000
M3S245
G4 P0.5; Tool Off

G0 Z0; move to z-safe height
G0 X278.0000 Y226.3500
M3S0
G4 P0.5; Tool On
G1 F300 Z0.0000
G1 F15000 X2.0000 Y226.3500 Z0.0000
M3S245
G4 P0.5; Tool Off

G0 Z0; move to z-safe height
G0 X2.0000 Y230.3500
M3S0
G4 P0.5; Tool On
G1 F300 Z0.0000
G1 F15000 X278.0000 Y230.3500 Z0.0000
M3S245
G4 P0.5; Tool Off

G0 Z0; move to z-safe height
G0 X278.0000 Y234.3500
M3S0
G4 P0.5; Tool On
G1 F300 Z0.0000
G1 F15000 X2.0000 Y234.3500 Z0.0000
M3S245
G4 P0.5; Tool Off

G0 Z0; move to z-safe height
G0 X2.0000 Y238.3500
M3S0
G4 P0.5; Tool On
G1 F300 Z0.0000
G1 F15000 X278.0000 Y238.3500 Z0.0000
M3S245
G4 P0.5; Tool Off

G0 Z0; move to z-safe height
G0 X278.0000 Y242.3500
M3S0
G4 P0.5; Tool On
G1 F300 Z0.0000
G1 F15000 X2.0000 Y242.3500 Z0.0000
M3S245
G4 P0.5; Tool Off

G0 Z0; move to z-safe height
G0 X2.0000 Y246.3500
M3S0
G4 P0.5; Tool On
G1 F300 Z0.0000
G1 F15000 X278.0000 Y246.3500 Z0.0000
M3S245
G4 P0.5; Tool Off

G0 Z0; move to z-safe height
G0 X278.0000 Y250.3500
M3S0
G4 P0.5; Tool On
G1 F300 Z0.0000
G1 F15000 X2.0000 Y250.3500 Z0.0000
M3S245
G4 P0.5; Tool Off

G0 Z0; move to z-safe height
G0 X2.0000 Y254.3500
M3S0
G4 P0.5; Tool On
G1 F300 Z0.0000
G1 F15000 X278.0000 Y254.3500 Z0.0000
M3S245
G4 P0.5; Tool Off

G0 Z0; move to z-safe height
G0 X278.0000 Y258.3500
M3S0
G4 P0.5; Tool On
G1 F300 Z0.0000
G1 F15000 X2.0000 Y258.3500 Z0.0000
M3S245
G4 P0.5; Tool Off

G0 Z0; move to z-safe height
G0 X2.0000 Y262.3500
M3S0
G4 P0.5; Tool On
G1 F300 Z0.0000
G1 F15000 X278.0000 Y262.3500 Z0.0000
M3S245
G4 P0.5; Tool Off

G0 Z0; move to z-safe height
G0 X278.0000 Y266.3500
M3S0
G4 P0.5; Tool On
G1 F300 Z0.0000
G1 F15000 X2.0000 Y266.3500 Z0.0000
M3S245
G4 P0.5; Tool Off

G0 Z0; move to z-safe height
G0 X2.0000 Y270.3500
M3S0
G4 P0.5; Tool On
G1 F300 Z0.0000
G1 F15000 X278.0000 Y270.3500 Z0.0000
M3S245
G4 P0.5; Tool Off

G0 Z0; move to z-safe height
G0 X278.0000 Y274.3500
M3S0
G4 P0.5; Tool On
G1 F300 Z0.0000
G1 F15000 X2.0000 Y274.3500 Z0.0000
M3S245
G4 P0.5; Tool Off

G0 Z0; move to z-safe height
G0 X2.0000 Y278.3500
M3S0
G4 P0.5; Tool On
G1 F300 Z0.0000
G1 F15000 X278.0000 Y278.3500 Z0.0000
M3S245
G4 P0.5; Tool Off

G0 Z0; move to z-safe height
G0 X278.0000 Y282.3500
M3S0
G4 P0.5; Tool On
G1 F300 Z0.0000
G1 F15000 X2.0000 Y282.3500 Z0.0000
M3S245
G4 P0.5; Tool Off

G0 Z0; move to z-safe height
G0 X2.0000 Y286.3500
M3S0
G4 P0.5; Tool On
G1 F300 Z0.0000
G1 F15000 X278.0000 Y286.3500 Z0.0000
M3S245
G4 P0.5; Tool Off

G0 Z0; move to z-safe height
G0 X278.0000 Y290.3500
M3S0
G4 P0.5; Tool On
G1 F300 Z0.0000
G1 F15000 X2.0000 Y290.3500 Z0.0000
M3S245
G4 P0.5; Tool Off

G0 Z0; move to z-safe height
G0 X2.0000 Y294.3500
M3S0
G4 P0.5; Tool On
G1 F300 Z0.0000
G1 F15000 X278.0000 Y294.3500 Z0.0000
M3S245
G4 P0.5; Tool Off

G0 Z0; move to z-safe height
G0 X278.0000 Y298.3500
M3S0
G4 P0.5; Tool On
G1 F300 Z0.0000
G1 F15000 X2.0000 Y298.3500 Z0.0000
M3S245
G4 P0.5; Tool Off

G0 Z0; move to z-safe height
G0 X2.0000 Y302.3500
M3S0
G4 P0.5; Tool On
G1 F300 Z0.0000
G1 F15000 X278.0000 Y302.3500 Z0.0000
M3S245
G4 P0.5; Tool Off

G0 Z0; move to z-safe height
G0 X278.0000 Y306.3500
M3S0
G4 P0.5; Tool On
G1 F300 Z0.0000
G1 F15000 X2.0000 Y306.3500 Z0.0000
M3S245
G4 P0.5; Tool Off

G0 Z0; move to z-safe height
G0 X2.0000 Y310.3500
M3S0
G4 P0.5; Tool On
G1 F300 Z0.0000
G1 F15000 X278.0000 Y310.3500 Z0.0000
M3S245
G4 P0.5; Tool Off

G0 Z0; move to z-safe height
G0 X278.0000 Y314.3500
M3S0
G4 P0.5; Tool On
G1 F300 Z0.0000
G1 F15000 X2.0000 Y314.3500 Z0.0000
M3S245
G4 P0.5; Tool Off

G0 Z0; move to z-safe height
G0 X2.0000 Y318.3500
M3S0
G4 P0.5; Tool On
G1 F300 Z0.0000
G1 F15000 X278.0000 Y318.3500 Z0.0000
M3S245
G4 P0.5; Tool Off

G0 Z0; move to z-safe height
G0 X278.0000 Y322.3500
M3S0
G4 P0.5; Tool On
G1 F300 Z0.0000
G1 F15000 X2.0000 Y322.3500 Z0.0000
M3S245
G4 P0.5; Tool Off

G0 Z0; move to z-safe height
G0 X2.0000 Y326.3500
M3S0
G4 P0.5; Tool On
G1 F300 Z0.0000
G1 F15000 X278.0000 Y326.3500 Z0.0000
M3S245
G4 P0.5; Tool Off

G0 Z0; move to z-safe height
G0 X278.0000 Y330.3500
M3S0
G4 P0.5; Tool On
G1 F300 Z0.0000
G1 F15000 X2.0000 Y330.3500 Z0.0000
M3S245
G4 P0.5; Tool Off

G0 Z0; move to z-safe height
G0 X2.0000 Y334.3500
M3S0
G4 P0.5; Tool On
G1 F300 Z0.0000
G1 F15000 X278.0000 Y334.3500 Z0.0000
M3S245
G4 P0.5; Tool Off

G0 Z0; move to z-safe height
G0 X278.0000 Y338.3500
M3S0
G4 P0.5; Tool On
G1 F300 Z0.0000
G1 F15000 X2.0000 Y338.3500 Z0.0000
M3S245
G4 P0.5; Tool Off

G0 Z0; move to z-safe height
G0 X2.0000 Y342.3500
M3S0
G4 P0.5; Tool On
G1 F300 Z0.0000
G1 F15000 X278.0000 Y342.3500 Z0.0000
M3S245
G4 P0.5; Tool Off

G0 Z0; move to z-safe height
G0 X278.0000 Y346.3500
M3S0
G4 P0.5; Tool On
G1 F300 Z0.0000
G1 F15000 X2.0000 Y346.3500 Z0.0000
M3S245
G4 P0.5; Tool Off

G0 Z0; move to z-safe height
G0 X2.0000 Y350.3500
M3S0
G4 P0.5; Tool On
G1 F300 Z0.0000
G1 F15000 X278.0000 Y350.3500 Z0.0000
M3S245
G4 P0.5; Tool Off
; retracting back to z-safe
G0 Z0

; Plotter Mode Complete
