; GCODE Generated by cam.openbuilds.com on 2023-06-13 
G21 ; mm-mode
G54; Work Coordinates
G21; mm-mode
G90; Absolute Positioning
; Plotter Mode Active

; Operation 0: Pen Plotter: (lines fill)
; Pen Diameter: 2

G0 Z0; move to z-safe height
G0 F1000 X8.0000 Y18.9000
M3S0
G4 P0.5; Tool On
G1 F300 Z0.0000
G1 F15000 X1142.0000 Y18.9000 Z0.0000
M3S245
G4 P0.5; Tool Off

G0 Z0; move to z-safe height
G0 X1142.0000 Y34.9000
M3S0
G4 P0.5; Tool On
G1 F300 Z0.0000
G1 F15000 X8.0000 Y34.9000 Z0.0000
M3S245
G4 P0.5; Tool Off

G0 Z0; move to z-safe height
G0 X8.0000 Y50.9000
M3S0
G4 P0.5; Tool On
G1 F300 Z0.0000
G1 F15000 X1142.0000 Y50.9000 Z0.0000
M3S245
G4 P0.5; Tool Off

G0 Z0; move to z-safe height
G0 X1142.0000 Y66.9000
M3S0
G4 P0.5; Tool On
G1 F300 Z0.0000
G1 F15000 X8.0000 Y66.9000 Z0.0000
M3S245
G4 P0.5; Tool Off

G0 Z0; move to z-safe height
G0 X8.0000 Y82.9000
M3S0
G4 P0.5; Tool On
G1 F300 Z0.0000
G1 F15000 X1142.0000 Y82.9000 Z0.0000
M3S245
G4 P0.5; Tool Off

G0 Z0; move to z-safe height
G0 X1142.0000 Y98.9000
M3S0
G4 P0.5; Tool On
G1 F300 Z0.0000
G1 F15000 X8.0000 Y98.9000 Z0.0000
M3S245
G4 P0.5; Tool Off

G0 Z0; move to z-safe height
G0 X8.0000 Y114.9000
M3S0
G4 P0.5; Tool On
G1 F300 Z0.0000
G1 F15000 X1142.0000 Y114.9000 Z0.0000
M3S245
G4 P0.5; Tool Off

G0 Z0; move to z-safe height
G0 X1142.0000 Y130.9000
M3S0
G4 P0.5; Tool On
G1 F300 Z0.0000
G1 F15000 X8.0000 Y130.9000 Z0.0000
M3S245
G4 P0.5; Tool Off

G0 Z0; move to z-safe height
G0 X8.0000 Y146.9000
M3S0
G4 P0.5; Tool On
G1 F300 Z0.0000
G1 F15000 X1142.0000 Y146.9000 Z0.0000
M3S245
G4 P0.5; Tool Off

G0 Z0; move to z-safe height
G0 X1142.0000 Y162.9000
M3S0
G4 P0.5; Tool On
G1 F300 Z0.0000
G1 F15000 X8.0000 Y162.9000 Z0.0000
M3S245
G4 P0.5; Tool Off

G0 Z0; move to z-safe height
G0 X8.0000 Y178.9000
M3S0
G4 P0.5; Tool On
G1 F300 Z0.0000
G1 F15000 X1142.0000 Y178.9000 Z0.0000
M3S245
G4 P0.5; Tool Off

G0 Z0; move to z-safe height
G0 X1142.0000 Y194.9000
M3S0
G4 P0.5; Tool On
G1 F300 Z0.0000
G1 F15000 X8.0000 Y194.9000 Z0.0000
M3S245
G4 P0.5; Tool Off

G0 Z0; move to z-safe height
G0 X8.0000 Y210.9000
M3S0
G4 P0.5; Tool On
G1 F300 Z0.0000
G1 F15000 X1142.0000 Y210.9000 Z0.0000
M3S245
G4 P0.5; Tool Off

G0 Z0; move to z-safe height
G0 X1142.0000 Y226.9000
M3S0
G4 P0.5; Tool On
G1 F300 Z0.0000
G1 F15000 X8.0000 Y226.9000 Z0.0000
M3S245
G4 P0.5; Tool Off

G0 Z0; move to z-safe height
G0 X8.0000 Y242.9000
M3S0
G4 P0.5; Tool On
G1 F300 Z0.0000
G1 F15000 X1142.0000 Y242.9000 Z0.0000
M3S245
G4 P0.5; Tool Off

G0 Z0; move to z-safe height
G0 X1142.0000 Y258.9000
M3S0
G4 P0.5; Tool On
G1 F300 Z0.0000
G1 F15000 X8.0000 Y258.9000 Z0.0000
M3S245
G4 P0.5; Tool Off

G0 Z0; move to z-safe height
G0 X8.0000 Y274.9000
M3S0
G4 P0.5; Tool On
G1 F300 Z0.0000
G1 F15000 X1142.0000 Y274.9000 Z0.0000
M3S245
G4 P0.5; Tool Off

G0 Z0; move to z-safe height
G0 X1142.0000 Y290.9000
M3S0
G4 P0.5; Tool On
G1 F300 Z0.0000
G1 F15000 X8.0000 Y290.9000 Z0.0000
M3S245
G4 P0.5; Tool Off

G0 Z0; move to z-safe height
G0 X8.0000 Y306.9000
M3S0
G4 P0.5; Tool On
G1 F300 Z0.0000
G1 F15000 X1142.0000 Y306.9000 Z0.0000
M3S245
G4 P0.5; Tool Off

G0 Z0; move to z-safe height
G0 X1142.0000 Y322.9000
M3S0
G4 P0.5; Tool On
G1 F300 Z0.0000
G1 F15000 X8.0000 Y322.9000 Z0.0000
M3S245
G4 P0.5; Tool Off

G0 Z0; move to z-safe height
G0 X8.0000 Y338.9000
M3S0
G4 P0.5; Tool On
G1 F300 Z0.0000
G1 F15000 X1142.0000 Y338.9000 Z0.0000
M3S245
G4 P0.5; Tool Off

G0 Z0; move to z-safe height
G0 X1142.0000 Y354.9000
M3S0
G4 P0.5; Tool On
G1 F300 Z0.0000
G1 F15000 X8.0000 Y354.9000 Z0.0000
M3S245
G4 P0.5; Tool Off

G0 Z0; move to z-safe height
G0 X8.0000 Y370.9000
M3S0
G4 P0.5; Tool On
G1 F300 Z0.0000
G1 F15000 X1142.0000 Y370.9000 Z0.0000
M3S245
G4 P0.5; Tool Off

G0 Z0; move to z-safe height
G0 X1142.0000 Y386.9000
M3S0
G4 P0.5; Tool On
G1 F300 Z0.0000
G1 F15000 X8.0000 Y386.9000 Z0.0000
M3S245
G4 P0.5; Tool Off

G0 Z0; move to z-safe height
G0 X8.0000 Y402.9000
M3S0
G4 P0.5; Tool On
G1 F300 Z0.0000
G1 F15000 X1142.0000 Y402.9000 Z0.0000
M3S245
G4 P0.5; Tool Off

G0 Z0; move to z-safe height
G0 X1142.0000 Y418.9000
M3S0
G4 P0.5; Tool On
G1 F300 Z0.0000
G1 F15000 X8.0000 Y418.9000 Z0.0000
M3S245
G4 P0.5; Tool Off

G0 Z0; move to z-safe height
G0 X8.0000 Y434.9000
M3S0
G4 P0.5; Tool On
G1 F300 Z0.0000
G1 F15000 X1142.0000 Y434.9000 Z0.0000
M3S245
G4 P0.5; Tool Off

G0 Z0; move to z-safe height
G0 X1142.0000 Y450.9000
M3S0
G4 P0.5; Tool On
G1 F300 Z0.0000
G1 F15000 X8.0000 Y450.9000 Z0.0000
M3S245
G4 P0.5; Tool Off

G0 Z0; move to z-safe height
G0 X8.0000 Y466.9000
M3S0
G4 P0.5; Tool On
G1 F300 Z0.0000
G1 F15000 X1142.0000 Y466.9000 Z0.0000
M3S245
G4 P0.5; Tool Off

G0 Z0; move to z-safe height
G0 X1142.0000 Y482.9000
M3S0
G4 P0.5; Tool On
G1 F300 Z0.0000
G1 F15000 X8.0000 Y482.9000 Z0.0000
M3S245
G4 P0.5; Tool Off

G0 Z0; move to z-safe height
G0 X8.0000 Y498.9000
M3S0
G4 P0.5; Tool On
G1 F300 Z0.0000
G1 F15000 X1142.0000 Y498.9000 Z0.0000
M3S245
G4 P0.5; Tool Off

G0 Z0; move to z-safe height
G0 X1142.0000 Y514.9000
M3S0
G4 P0.5; Tool On
G1 F300 Z0.0000
G1 F15000 X8.0000 Y514.9000 Z0.0000
M3S245
G4 P0.5; Tool Off

G0 Z0; move to z-safe height
G0 X8.0000 Y530.9000
M3S0
G4 P0.5; Tool On
G1 F300 Z0.0000
G1 F15000 X1142.0000 Y530.9000 Z0.0000
M3S245
G4 P0.5; Tool Off

G0 Z0; move to z-safe height
G0 X1142.0000 Y546.9000
M3S0
G4 P0.5; Tool On
G1 F300 Z0.0000
G1 F15000 X8.0000 Y546.9000 Z0.0000
M3S245
G4 P0.5; Tool Off

G0 Z0; move to z-safe height
G0 X8.0000 Y562.9000
M3S0
G4 P0.5; Tool On
G1 F300 Z0.0000
G1 F15000 X1142.0000 Y562.9000 Z0.0000
M3S245
G4 P0.5; Tool Off

G0 Z0; move to z-safe height
G0 X1142.0000 Y578.9000
M3S0
G4 P0.5; Tool On
G1 F300 Z0.0000
G1 F15000 X8.0000 Y578.9000 Z0.0000
M3S245
G4 P0.5; Tool Off

G0 Z0; move to z-safe height
G0 X8.0000 Y594.9000
M3S0
G4 P0.5; Tool On
G1 F300 Z0.0000
G1 F15000 X1142.0000 Y594.9000 Z0.0000
M3S245
G4 P0.5; Tool Off

G0 Z0; move to z-safe height
G0 X1142.0000 Y610.9000
M3S0
G4 P0.5; Tool On
G1 F300 Z0.0000
G1 F15000 X8.0000 Y610.9000 Z0.0000
M3S245
G4 P0.5; Tool Off

G0 Z0; move to z-safe height
G0 X8.0000 Y626.9000
M3S0
G4 P0.5; Tool On
G1 F300 Z0.0000
G1 F15000 X1142.0000 Y626.9000 Z0.0000
M3S245
G4 P0.5; Tool Off

G0 Z0; move to z-safe height
G0 X1142.0000 Y642.9000
M3S0
G4 P0.5; Tool On
G1 F300 Z0.0000
G1 F15000 X8.0000 Y642.9000 Z0.0000
M3S245
G4 P0.5; Tool Off

G0 Z0; move to z-safe height
G0 X8.0000 Y658.9000
M3S0
G4 P0.5; Tool On
G1 F300 Z0.0000
G1 F15000 X1142.0000 Y658.9000 Z0.0000
M3S245
G4 P0.5; Tool Off

G0 Z0; move to z-safe height
G0 X1142.0000 Y674.9000
M3S0
G4 P0.5; Tool On
G1 F300 Z0.0000
G1 F15000 X8.0000 Y674.9000 Z0.0000
M3S245
G4 P0.5; Tool Off

G0 Z0; move to z-safe height
G0 X8.0000 Y690.9000
M3S0
G4 P0.5; Tool On
G1 F300 Z0.0000
G1 F15000 X1142.0000 Y690.9000 Z0.0000
M3S245
G4 P0.5; Tool Off

G0 Z0; move to z-safe height
G0 X1142.0000 Y706.9000
M3S0
G4 P0.5; Tool On
G1 F300 Z0.0000
G1 F15000 X8.0000 Y706.9000 Z0.0000
M3S245
G4 P0.5; Tool Off

G0 Z0; move to z-safe height
G0 X8.0000 Y722.9000
M3S0
G4 P0.5; Tool On
G1 F300 Z0.0000
G1 F15000 X1142.0000 Y722.9000 Z0.0000
M3S245
G4 P0.5; Tool Off

G0 Z0; move to z-safe height
G0 X1142.0000 Y738.9000
M3S0
G4 P0.5; Tool On
G1 F300 Z0.0000
G1 F15000 X8.0000 Y738.9000 Z0.0000
M3S245
G4 P0.5; Tool Off

G0 Z0; move to z-safe height
G0 X8.0000 Y754.9000
M3S0
G4 P0.5; Tool On
G1 F300 Z0.0000
G1 F15000 X1142.0000 Y754.9000 Z0.0000
M3S245
G4 P0.5; Tool Off

G0 Z0; move to z-safe height
G0 X1142.0000 Y770.9000
M3S0
G4 P0.5; Tool On
G1 F300 Z0.0000
G1 F15000 X8.0000 Y770.9000 Z0.0000
M3S245
G4 P0.5; Tool Off

G0 Z0; move to z-safe height
G0 X8.0000 Y786.9000
M3S0
G4 P0.5; Tool On
G1 F300 Z0.0000
G1 F15000 X1142.0000 Y786.9000 Z0.0000
M3S245
G4 P0.5; Tool Off

G0 Z0; move to z-safe height
G0 X1142.0000 Y802.9000
M3S0
G4 P0.5; Tool On
G1 F300 Z0.0000
G1 F15000 X8.0000 Y802.9000 Z0.0000
M3S245
G4 P0.5; Tool Off

G0 Z0; move to z-safe height
G0 X8.0000 Y818.9000
M3S0
G4 P0.5; Tool On
G1 F300 Z0.0000
G1 F15000 X1142.0000 Y818.9000 Z0.0000
M3S245
G4 P0.5; Tool Off

G0 Z0; move to z-safe height
G0 X1142.0000 Y834.9000
M3S0
G4 P0.5; Tool On
G1 F300 Z0.0000
G1 F15000 X8.0000 Y834.9000 Z0.0000
M3S245
G4 P0.5; Tool Off

G0 Z0; move to z-safe height
G0 X8.0000 Y850.9000
M3S0
G4 P0.5; Tool On
G1 F300 Z0.0000
G1 F15000 X1142.0000 Y850.9000 Z0.0000
M3S245
G4 P0.5; Tool Off

G0 Z0; move to z-safe height
G0 X1142.0000 Y866.9000
M3S0
G4 P0.5; Tool On
G1 F300 Z0.0000
G1 F15000 X8.0000 Y866.9000 Z0.0000
M3S245
G4 P0.5; Tool Off

G0 Z0; move to z-safe height
G0 X8.0000 Y882.9000
M3S0
G4 P0.5; Tool On
G1 F300 Z0.0000
G1 F15000 X1142.0000 Y882.9000 Z0.0000
M3S245
G4 P0.5; Tool Off

G0 Z0; move to z-safe height
G0 X1142.0000 Y898.9000
M3S0
G4 P0.5; Tool On
G1 F300 Z0.0000
G1 F15000 X8.0000 Y898.9000 Z0.0000
M3S245
G4 P0.5; Tool Off

G0 Z0; move to z-safe height
G0 X8.0000 Y914.9000
M3S0
G4 P0.5; Tool On
G1 F300 Z0.0000
G1 F15000 X1142.0000 Y914.9000 Z0.0000
M3S245
G4 P0.5; Tool Off

G0 Z0; move to z-safe height
G0 X1142.0000 Y930.9000
M3S0
G4 P0.5; Tool On
G1 F300 Z0.0000
G1 F15000 X8.0000 Y930.9000 Z0.0000
M3S245
G4 P0.5; Tool Off

G0 Z0; move to z-safe height
G0 X8.0000 Y946.9000
M3S0
G4 P0.5; Tool On
G1 F300 Z0.0000
G1 F15000 X1142.0000 Y946.9000 Z0.0000
M3S245
G4 P0.5; Tool Off

G0 Z0; move to z-safe height
G0 X1142.0000 Y962.9000
M3S0
G4 P0.5; Tool On
G1 F300 Z0.0000
G1 F15000 X8.0000 Y962.9000 Z0.0000
M3S245
G4 P0.5; Tool Off

G0 Z0; move to z-safe height
G0 X8.0000 Y978.9000
M3S0
G4 P0.5; Tool On
G1 F300 Z0.0000
G1 F15000 X1142.0000 Y978.9000 Z0.0000
M3S245
G4 P0.5; Tool Off

G0 Z0; move to z-safe height
G0 X1142.0000 Y994.9000
M3S0
G4 P0.5; Tool On
G1 F300 Z0.0000
G1 F15000 X8.0000 Y994.9000 Z0.0000
M3S245
G4 P0.5; Tool Off

G0 Z0; move to z-safe height
G0 X8.0000 Y1010.9000
M3S0
G4 P0.5; Tool On
G1 F300 Z0.0000
G1 F15000 X1142.0000 Y1010.9000 Z0.0000
M3S245
G4 P0.5; Tool Off

G0 Z0; move to z-safe height
G0 X1142.0000 Y1026.9000
M3S0
G4 P0.5; Tool On
G1 F300 Z0.0000
G1 F15000 X8.0000 Y1026.9000 Z0.0000
M3S245
G4 P0.5; Tool Off

G0 Z0; move to z-safe height
G0 X8.0000 Y1042.9000
M3S0
G4 P0.5; Tool On
G1 F300 Z0.0000
G1 F15000 X1142.0000 Y1042.9000 Z0.0000
M3S245
G4 P0.5; Tool Off

G0 Z0; move to z-safe height
G0 X1142.0000 Y1058.9000
M3S0
G4 P0.5; Tool On
G1 F300 Z0.0000
G1 F15000 X8.0000 Y1058.9000 Z0.0000
M3S245
G4 P0.5; Tool Off

G0 Z0; move to z-safe height
G0 X8.0000 Y1074.9000
M3S0
G4 P0.5; Tool On
G1 F300 Z0.0000
G1 F15000 X1142.0000 Y1074.9000 Z0.0000
M3S245
G4 P0.5; Tool Off

G0 Z0; move to z-safe height
G0 X1142.0000 Y1090.9000
M3S0
G4 P0.5; Tool On
G1 F300 Z0.0000
G1 F15000 X8.0000 Y1090.9000 Z0.0000
M3S245
G4 P0.5; Tool Off

G0 Z0; move to z-safe height
G0 X8.0000 Y1106.9000
M3S0
G4 P0.5; Tool On
G1 F300 Z0.0000
G1 F15000 X1142.0000 Y1106.9000 Z0.0000
M3S245
G4 P0.5; Tool Off

G0 Z0; move to z-safe height
G0 X1142.0000 Y1122.9000
M3S0
G4 P0.5; Tool On
G1 F300 Z0.0000
G1 F15000 X8.0000 Y1122.9000 Z0.0000
M3S245
G4 P0.5; Tool Off

G0 Z0; move to z-safe height
G0 X8.0000 Y1138.9000
M3S0
G4 P0.5; Tool On
G1 F300 Z0.0000
G1 F15000 X1142.0000 Y1138.9000 Z0.0000
M3S245
G4 P0.5; Tool Off

G0 Z0; move to z-safe height
G0 X1142.0000 Y1154.9000
M3S0
G4 P0.5; Tool On
G1 F300 Z0.0000
G1 F15000 X8.0000 Y1154.9000 Z0.0000
M3S245
G4 P0.5; Tool Off

G0 Z0; move to z-safe height
G0 X8.0000 Y1170.9000
M3S0
G4 P0.5; Tool On
G1 F300 Z0.0000
G1 F15000 X1142.0000 Y1170.9000 Z0.0000
M3S245
G4 P0.5; Tool Off

G0 Z0; move to z-safe height
G0 X1142.0000 Y1186.9000
M3S0
G4 P0.5; Tool On
G1 F300 Z0.0000
G1 F15000 X8.0000 Y1186.9000 Z0.0000
M3S245
G4 P0.5; Tool Off

G0 Z0; move to z-safe height
G0 X8.0000 Y1202.9000
M3S0
G4 P0.5; Tool On
G1 F300 Z0.0000
G1 F15000 X1142.0000 Y1202.9000 Z0.0000
M3S245
G4 P0.5; Tool Off

G0 Z0; move to z-safe height
G0 X1142.0000 Y1218.9000
M3S0
G4 P0.5; Tool On
G1 F300 Z0.0000
G1 F15000 X8.0000 Y1218.9000 Z0.0000
M3S245
G4 P0.5; Tool Off

G0 Z0; move to z-safe height
G0 X8.0000 Y1234.9000
M3S0
G4 P0.5; Tool On
G1 F300 Z0.0000
G1 F15000 X1142.0000 Y1234.9000 Z0.0000
M3S245
G4 P0.5; Tool Off

G0 Z0; move to z-safe height
G0 X1142.0000 Y1250.9000
M3S0
G4 P0.5; Tool On
G1 F300 Z0.0000
G1 F15000 X8.0000 Y1250.9000 Z0.0000
M3S245
G4 P0.5; Tool Off

G0 Z0; move to z-safe height
G0 X8.0000 Y1266.9000
M3S0
G4 P0.5; Tool On
G1 F300 Z0.0000
G1 F15000 X1142.0000 Y1266.9000 Z0.0000
M3S245
G4 P0.5; Tool Off

G0 Z0; move to z-safe height
G0 X1142.0000 Y1282.9000
M3S0
G4 P0.5; Tool On
G1 F300 Z0.0000
G1 F15000 X8.0000 Y1282.9000 Z0.0000
M3S245
G4 P0.5; Tool Off

G0 Z0; move to z-safe height
G0 X8.0000 Y1298.9000
M3S0
G4 P0.5; Tool On
G1 F300 Z0.0000
G1 F15000 X1142.0000 Y1298.9000 Z0.0000
M3S245
G4 P0.5; Tool Off

G0 Z0; move to z-safe height
G0 X1142.0000 Y1314.9000
M3S0
G4 P0.5; Tool On
G1 F300 Z0.0000
G1 F15000 X8.0000 Y1314.9000 Z0.0000
M3S245
G4 P0.5; Tool Off

G0 Z0; move to z-safe height
G0 X8.0000 Y1330.9000
M3S0
G4 P0.5; Tool On
G1 F300 Z0.0000
G1 F15000 X1142.0000 Y1330.9000 Z0.0000
M3S245
G4 P0.5; Tool Off

G0 Z0; move to z-safe height
G0 X1142.0000 Y1346.9000
M3S0
G4 P0.5; Tool On
G1 F300 Z0.0000
G1 F15000 X8.0000 Y1346.9000 Z0.0000
M3S245
G4 P0.5; Tool Off

G0 Z0; move to z-safe height
G0 X8.0000 Y1362.9000
M3S0
G4 P0.5; Tool On
G1 F300 Z0.0000
G1 F15000 X1142.0000 Y1362.9000 Z0.0000
M3S245
G4 P0.5; Tool Off

G0 Z0; move to z-safe height
G0 X1142.0000 Y1378.9000
M3S0
G4 P0.5; Tool On
G1 F300 Z0.0000
G1 F15000 X8.0000 Y1378.9000 Z0.0000
M3S245
G4 P0.5; Tool Off

G0 Z0; move to z-safe height
G0 X8.0000 Y1394.9000
M3S0
G4 P0.5; Tool On
G1 F300 Z0.0000
G1 F15000 X1142.0000 Y1394.9000 Z0.0000
M3S245
G4 P0.5; Tool Off

G0 Z0; move to z-safe height
G0 X1142.0000 Y1410.9000
M3S0
G4 P0.5; Tool On
G1 F300 Z0.0000
G1 F15000 X8.0000 Y1410.9000 Z0.0000
M3S245
G4 P0.5; Tool Off

G0 Z0; move to z-safe height
G0 X8.0000 Y1426.9000
M3S0
G4 P0.5; Tool On
G1 F300 Z0.0000
G1 F15000 X1142.0000 Y1426.9000 Z0.0000
M3S245
G4 P0.5; Tool Off
; retracting back to z-safe
G0 Z0

; Plotter Mode Complete
