; GCODE Generated by cam.openbuilds.com on 2023-06-13 
G21 ; mm-mode
G54; Work Coordinates
G21; mm-mode
G90; Absolute Positioning
; Plotter Mode Active

; Operation 0: Pen Plotter: (lines fill)
; Pen Diameter: 2

G0 Z0; move to z-safe height
G0 F1000 X7.0000 Y19.5000
M3S0
G4 P0.5; Tool On
G1 F300 Z0.0000
G1 F15000 X1143.0000 Y19.5000 Z0.0000
M3S245
G4 P0.5; Tool Off

G0 Z0; move to z-safe height
G0 X1143.0000 Y33.5000
M3S0
G4 P0.5; Tool On
G1 F300 Z0.0000
G1 F15000 X7.0000 Y33.5000 Z0.0000
M3S245
G4 P0.5; Tool Off

G0 Z0; move to z-safe height
G0 X7.0000 Y47.5000
M3S0
G4 P0.5; Tool On
G1 F300 Z0.0000
G1 F15000 X1143.0000 Y47.5000 Z0.0000
M3S245
G4 P0.5; Tool Off

G0 Z0; move to z-safe height
G0 X1143.0000 Y61.5000
M3S0
G4 P0.5; Tool On
G1 F300 Z0.0000
G1 F15000 X7.0000 Y61.5000 Z0.0000
M3S245
G4 P0.5; Tool Off

G0 Z0; move to z-safe height
G0 X7.0000 Y75.5000
M3S0
G4 P0.5; Tool On
G1 F300 Z0.0000
G1 F15000 X1143.0000 Y75.5000 Z0.0000
M3S245
G4 P0.5; Tool Off

G0 Z0; move to z-safe height
G0 X1143.0000 Y89.5000
M3S0
G4 P0.5; Tool On
G1 F300 Z0.0000
G1 F15000 X7.0000 Y89.5000 Z0.0000
M3S245
G4 P0.5; Tool Off

G0 Z0; move to z-safe height
G0 X7.0000 Y103.5000
M3S0
G4 P0.5; Tool On
G1 F300 Z0.0000
G1 F15000 X1143.0000 Y103.5000 Z0.0000
M3S245
G4 P0.5; Tool Off

G0 Z0; move to z-safe height
G0 X1143.0000 Y117.5000
M3S0
G4 P0.5; Tool On
G1 F300 Z0.0000
G1 F15000 X7.0000 Y117.5000 Z0.0000
M3S245
G4 P0.5; Tool Off

G0 Z0; move to z-safe height
G0 X7.0000 Y131.5000
M3S0
G4 P0.5; Tool On
G1 F300 Z0.0000
G1 F15000 X1143.0000 Y131.5000 Z0.0000
M3S245
G4 P0.5; Tool Off

G0 Z0; move to z-safe height
G0 X1143.0000 Y145.5000
M3S0
G4 P0.5; Tool On
G1 F300 Z0.0000
G1 F15000 X7.0000 Y145.5000 Z0.0000
M3S245
G4 P0.5; Tool Off

G0 Z0; move to z-safe height
G0 X7.0000 Y159.5000
M3S0
G4 P0.5; Tool On
G1 F300 Z0.0000
G1 F15000 X1143.0000 Y159.5000 Z0.0000
M3S245
G4 P0.5; Tool Off

G0 Z0; move to z-safe height
G0 X1143.0000 Y173.5000
M3S0
G4 P0.5; Tool On
G1 F300 Z0.0000
G1 F15000 X7.0000 Y173.5000 Z0.0000
M3S245
G4 P0.5; Tool Off

G0 Z0; move to z-safe height
G0 X7.0000 Y187.5000
M3S0
G4 P0.5; Tool On
G1 F300 Z0.0000
G1 F15000 X1143.0000 Y187.5000 Z0.0000
M3S245
G4 P0.5; Tool Off

G0 Z0; move to z-safe height
G0 X1143.0000 Y201.5000
M3S0
G4 P0.5; Tool On
G1 F300 Z0.0000
G1 F15000 X7.0000 Y201.5000 Z0.0000
M3S245
G4 P0.5; Tool Off

G0 Z0; move to z-safe height
G0 X7.0000 Y215.5000
M3S0
G4 P0.5; Tool On
G1 F300 Z0.0000
G1 F15000 X1143.0000 Y215.5000 Z0.0000
M3S245
G4 P0.5; Tool Off

G0 Z0; move to z-safe height
G0 X1143.0000 Y229.5000
M3S0
G4 P0.5; Tool On
G1 F300 Z0.0000
G1 F15000 X7.0000 Y229.5000 Z0.0000
M3S245
G4 P0.5; Tool Off

G0 Z0; move to z-safe height
G0 X7.0000 Y243.5000
M3S0
G4 P0.5; Tool On
G1 F300 Z0.0000
G1 F15000 X1143.0000 Y243.5000 Z0.0000
M3S245
G4 P0.5; Tool Off

G0 Z0; move to z-safe height
G0 X1143.0000 Y257.5000
M3S0
G4 P0.5; Tool On
G1 F300 Z0.0000
G1 F15000 X7.0000 Y257.5000 Z0.0000
M3S245
G4 P0.5; Tool Off

G0 Z0; move to z-safe height
G0 X7.0000 Y271.5000
M3S0
G4 P0.5; Tool On
G1 F300 Z0.0000
G1 F15000 X1143.0000 Y271.5000 Z0.0000
M3S245
G4 P0.5; Tool Off

G0 Z0; move to z-safe height
G0 X1143.0000 Y285.5000
M3S0
G4 P0.5; Tool On
G1 F300 Z0.0000
G1 F15000 X7.0000 Y285.5000 Z0.0000
M3S245
G4 P0.5; Tool Off

G0 Z0; move to z-safe height
G0 X7.0000 Y299.5000
M3S0
G4 P0.5; Tool On
G1 F300 Z0.0000
G1 F15000 X1143.0000 Y299.5000 Z0.0000
M3S245
G4 P0.5; Tool Off

G0 Z0; move to z-safe height
G0 X1143.0000 Y313.5000
M3S0
G4 P0.5; Tool On
G1 F300 Z0.0000
G1 F15000 X7.0000 Y313.5000 Z0.0000
M3S245
G4 P0.5; Tool Off

G0 Z0; move to z-safe height
G0 X7.0000 Y327.5000
M3S0
G4 P0.5; Tool On
G1 F300 Z0.0000
G1 F15000 X1143.0000 Y327.5000 Z0.0000
M3S245
G4 P0.5; Tool Off

G0 Z0; move to z-safe height
G0 X1143.0000 Y341.5000
M3S0
G4 P0.5; Tool On
G1 F300 Z0.0000
G1 F15000 X7.0000 Y341.5000 Z0.0000
M3S245
G4 P0.5; Tool Off

G0 Z0; move to z-safe height
G0 X7.0000 Y355.5000
M3S0
G4 P0.5; Tool On
G1 F300 Z0.0000
G1 F15000 X1143.0000 Y355.5000 Z0.0000
M3S245
G4 P0.5; Tool Off

G0 Z0; move to z-safe height
G0 X1143.0000 Y369.5000
M3S0
G4 P0.5; Tool On
G1 F300 Z0.0000
G1 F15000 X7.0000 Y369.5000 Z0.0000
M3S245
G4 P0.5; Tool Off

G0 Z0; move to z-safe height
G0 X7.0000 Y383.5000
M3S0
G4 P0.5; Tool On
G1 F300 Z0.0000
G1 F15000 X1143.0000 Y383.5000 Z0.0000
M3S245
G4 P0.5; Tool Off

G0 Z0; move to z-safe height
G0 X1143.0000 Y397.5000
M3S0
G4 P0.5; Tool On
G1 F300 Z0.0000
G1 F15000 X7.0000 Y397.5000 Z0.0000
M3S245
G4 P0.5; Tool Off

G0 Z0; move to z-safe height
G0 X7.0000 Y411.5000
M3S0
G4 P0.5; Tool On
G1 F300 Z0.0000
G1 F15000 X1143.0000 Y411.5000 Z0.0000
M3S245
G4 P0.5; Tool Off

G0 Z0; move to z-safe height
G0 X1143.0000 Y425.5000
M3S0
G4 P0.5; Tool On
G1 F300 Z0.0000
G1 F15000 X7.0000 Y425.5000 Z0.0000
M3S245
G4 P0.5; Tool Off

G0 Z0; move to z-safe height
G0 X7.0000 Y439.5000
M3S0
G4 P0.5; Tool On
G1 F300 Z0.0000
G1 F15000 X1143.0000 Y439.5000 Z0.0000
M3S245
G4 P0.5; Tool Off

G0 Z0; move to z-safe height
G0 X1143.0000 Y453.5000
M3S0
G4 P0.5; Tool On
G1 F300 Z0.0000
G1 F15000 X7.0000 Y453.5000 Z0.0000
M3S245
G4 P0.5; Tool Off

G0 Z0; move to z-safe height
G0 X7.0000 Y467.5000
M3S0
G4 P0.5; Tool On
G1 F300 Z0.0000
G1 F15000 X1143.0000 Y467.5000 Z0.0000
M3S245
G4 P0.5; Tool Off

G0 Z0; move to z-safe height
G0 X1143.0000 Y481.5000
M3S0
G4 P0.5; Tool On
G1 F300 Z0.0000
G1 F15000 X7.0000 Y481.5000 Z0.0000
M3S245
G4 P0.5; Tool Off

G0 Z0; move to z-safe height
G0 X7.0000 Y495.5000
M3S0
G4 P0.5; Tool On
G1 F300 Z0.0000
G1 F15000 X1143.0000 Y495.5000 Z0.0000
M3S245
G4 P0.5; Tool Off

G0 Z0; move to z-safe height
G0 X1143.0000 Y509.5000
M3S0
G4 P0.5; Tool On
G1 F300 Z0.0000
G1 F15000 X7.0000 Y509.5000 Z0.0000
M3S245
G4 P0.5; Tool Off

G0 Z0; move to z-safe height
G0 X7.0000 Y523.5000
M3S0
G4 P0.5; Tool On
G1 F300 Z0.0000
G1 F15000 X1143.0000 Y523.5000 Z0.0000
M3S245
G4 P0.5; Tool Off

G0 Z0; move to z-safe height
G0 X1143.0000 Y537.5000
M3S0
G4 P0.5; Tool On
G1 F300 Z0.0000
G1 F15000 X7.0000 Y537.5000 Z0.0000
M3S245
G4 P0.5; Tool Off

G0 Z0; move to z-safe height
G0 X7.0000 Y551.5000
M3S0
G4 P0.5; Tool On
G1 F300 Z0.0000
G1 F15000 X1143.0000 Y551.5000 Z0.0000
M3S245
G4 P0.5; Tool Off

G0 Z0; move to z-safe height
G0 X1143.0000 Y565.5000
M3S0
G4 P0.5; Tool On
G1 F300 Z0.0000
G1 F15000 X7.0000 Y565.5000 Z0.0000
M3S245
G4 P0.5; Tool Off

G0 Z0; move to z-safe height
G0 X7.0000 Y579.5000
M3S0
G4 P0.5; Tool On
G1 F300 Z0.0000
G1 F15000 X1143.0000 Y579.5000 Z0.0000
M3S245
G4 P0.5; Tool Off

G0 Z0; move to z-safe height
G0 X1143.0000 Y593.5000
M3S0
G4 P0.5; Tool On
G1 F300 Z0.0000
G1 F15000 X7.0000 Y593.5000 Z0.0000
M3S245
G4 P0.5; Tool Off

G0 Z0; move to z-safe height
G0 X7.0000 Y607.5000
M3S0
G4 P0.5; Tool On
G1 F300 Z0.0000
G1 F15000 X1143.0000 Y607.5000 Z0.0000
M3S245
G4 P0.5; Tool Off

G0 Z0; move to z-safe height
G0 X1143.0000 Y621.5000
M3S0
G4 P0.5; Tool On
G1 F300 Z0.0000
G1 F15000 X7.0000 Y621.5000 Z0.0000
M3S245
G4 P0.5; Tool Off

G0 Z0; move to z-safe height
G0 X7.0000 Y635.5000
M3S0
G4 P0.5; Tool On
G1 F300 Z0.0000
G1 F15000 X1143.0000 Y635.5000 Z0.0000
M3S245
G4 P0.5; Tool Off

G0 Z0; move to z-safe height
G0 X1143.0000 Y649.5000
M3S0
G4 P0.5; Tool On
G1 F300 Z0.0000
G1 F15000 X7.0000 Y649.5000 Z0.0000
M3S245
G4 P0.5; Tool Off

G0 Z0; move to z-safe height
G0 X7.0000 Y663.5000
M3S0
G4 P0.5; Tool On
G1 F300 Z0.0000
G1 F15000 X1143.0000 Y663.5000 Z0.0000
M3S245
G4 P0.5; Tool Off

G0 Z0; move to z-safe height
G0 X1143.0000 Y677.5000
M3S0
G4 P0.5; Tool On
G1 F300 Z0.0000
G1 F15000 X7.0000 Y677.5000 Z0.0000
M3S245
G4 P0.5; Tool Off

G0 Z0; move to z-safe height
G0 X7.0000 Y691.5000
M3S0
G4 P0.5; Tool On
G1 F300 Z0.0000
G1 F15000 X1143.0000 Y691.5000 Z0.0000
M3S245
G4 P0.5; Tool Off

G0 Z0; move to z-safe height
G0 X1143.0000 Y705.5000
M3S0
G4 P0.5; Tool On
G1 F300 Z0.0000
G1 F15000 X7.0000 Y705.5000 Z0.0000
M3S245
G4 P0.5; Tool Off

G0 Z0; move to z-safe height
G0 X7.0000 Y719.5000
M3S0
G4 P0.5; Tool On
G1 F300 Z0.0000
G1 F15000 X1143.0000 Y719.5000 Z0.0000
M3S245
G4 P0.5; Tool Off

G0 Z0; move to z-safe height
G0 X1143.0000 Y733.5000
M3S0
G4 P0.5; Tool On
G1 F300 Z0.0000
G1 F15000 X7.0000 Y733.5000 Z0.0000
M3S245
G4 P0.5; Tool Off

G0 Z0; move to z-safe height
G0 X7.0000 Y747.5000
M3S0
G4 P0.5; Tool On
G1 F300 Z0.0000
G1 F15000 X1143.0000 Y747.5000 Z0.0000
M3S245
G4 P0.5; Tool Off

G0 Z0; move to z-safe height
G0 X1143.0000 Y761.5000
M3S0
G4 P0.5; Tool On
G1 F300 Z0.0000
G1 F15000 X7.0000 Y761.5000 Z0.0000
M3S245
G4 P0.5; Tool Off

G0 Z0; move to z-safe height
G0 X7.0000 Y775.5000
M3S0
G4 P0.5; Tool On
G1 F300 Z0.0000
G1 F15000 X1143.0000 Y775.5000 Z0.0000
M3S245
G4 P0.5; Tool Off

G0 Z0; move to z-safe height
G0 X1143.0000 Y789.5000
M3S0
G4 P0.5; Tool On
G1 F300 Z0.0000
G1 F15000 X7.0000 Y789.5000 Z0.0000
M3S245
G4 P0.5; Tool Off

G0 Z0; move to z-safe height
G0 X7.0000 Y803.5000
M3S0
G4 P0.5; Tool On
G1 F300 Z0.0000
G1 F15000 X1143.0000 Y803.5000 Z0.0000
M3S245
G4 P0.5; Tool Off

G0 Z0; move to z-safe height
G0 X1143.0000 Y817.5000
M3S0
G4 P0.5; Tool On
G1 F300 Z0.0000
G1 F15000 X7.0000 Y817.5000 Z0.0000
M3S245
G4 P0.5; Tool Off

G0 Z0; move to z-safe height
G0 X7.0000 Y831.5000
M3S0
G4 P0.5; Tool On
G1 F300 Z0.0000
G1 F15000 X1143.0000 Y831.5000 Z0.0000
M3S245
G4 P0.5; Tool Off

G0 Z0; move to z-safe height
G0 X1143.0000 Y845.5000
M3S0
G4 P0.5; Tool On
G1 F300 Z0.0000
G1 F15000 X7.0000 Y845.5000 Z0.0000
M3S245
G4 P0.5; Tool Off

G0 Z0; move to z-safe height
G0 X7.0000 Y859.5000
M3S0
G4 P0.5; Tool On
G1 F300 Z0.0000
G1 F15000 X1143.0000 Y859.5000 Z0.0000
M3S245
G4 P0.5; Tool Off

G0 Z0; move to z-safe height
G0 X1143.0000 Y873.5000
M3S0
G4 P0.5; Tool On
G1 F300 Z0.0000
G1 F15000 X7.0000 Y873.5000 Z0.0000
M3S245
G4 P0.5; Tool Off

G0 Z0; move to z-safe height
G0 X7.0000 Y887.5000
M3S0
G4 P0.5; Tool On
G1 F300 Z0.0000
G1 F15000 X1143.0000 Y887.5000 Z0.0000
M3S245
G4 P0.5; Tool Off

G0 Z0; move to z-safe height
G0 X1143.0000 Y901.5000
M3S0
G4 P0.5; Tool On
G1 F300 Z0.0000
G1 F15000 X7.0000 Y901.5000 Z0.0000
M3S245
G4 P0.5; Tool Off

G0 Z0; move to z-safe height
G0 X7.0000 Y915.5000
M3S0
G4 P0.5; Tool On
G1 F300 Z0.0000
G1 F15000 X1143.0000 Y915.5000 Z0.0000
M3S245
G4 P0.5; Tool Off

G0 Z0; move to z-safe height
G0 X1143.0000 Y929.5000
M3S0
G4 P0.5; Tool On
G1 F300 Z0.0000
G1 F15000 X7.0000 Y929.5000 Z0.0000
M3S245
G4 P0.5; Tool Off

G0 Z0; move to z-safe height
G0 X7.0000 Y943.5000
M3S0
G4 P0.5; Tool On
G1 F300 Z0.0000
G1 F15000 X1143.0000 Y943.5000 Z0.0000
M3S245
G4 P0.5; Tool Off

G0 Z0; move to z-safe height
G0 X1143.0000 Y957.5000
M3S0
G4 P0.5; Tool On
G1 F300 Z0.0000
G1 F15000 X7.0000 Y957.5000 Z0.0000
M3S245
G4 P0.5; Tool Off

G0 Z0; move to z-safe height
G0 X7.0000 Y971.5000
M3S0
G4 P0.5; Tool On
G1 F300 Z0.0000
G1 F15000 X1143.0000 Y971.5000 Z0.0000
M3S245
G4 P0.5; Tool Off

G0 Z0; move to z-safe height
G0 X1143.0000 Y985.5000
M3S0
G4 P0.5; Tool On
G1 F300 Z0.0000
G1 F15000 X7.0000 Y985.5000 Z0.0000
M3S245
G4 P0.5; Tool Off

G0 Z0; move to z-safe height
G0 X7.0000 Y999.5000
M3S0
G4 P0.5; Tool On
G1 F300 Z0.0000
G1 F15000 X1143.0000 Y999.5000 Z0.0000
M3S245
G4 P0.5; Tool Off

G0 Z0; move to z-safe height
G0 X1143.0000 Y1013.5000
M3S0
G4 P0.5; Tool On
G1 F300 Z0.0000
G1 F15000 X7.0000 Y1013.5000 Z0.0000
M3S245
G4 P0.5; Tool Off

G0 Z0; move to z-safe height
G0 X7.0000 Y1027.5000
M3S0
G4 P0.5; Tool On
G1 F300 Z0.0000
G1 F15000 X1143.0000 Y1027.5000 Z0.0000
M3S245
G4 P0.5; Tool Off

G0 Z0; move to z-safe height
G0 X1143.0000 Y1041.5000
M3S0
G4 P0.5; Tool On
G1 F300 Z0.0000
G1 F15000 X7.0000 Y1041.5000 Z0.0000
M3S245
G4 P0.5; Tool Off

G0 Z0; move to z-safe height
G0 X7.0000 Y1055.5000
M3S0
G4 P0.5; Tool On
G1 F300 Z0.0000
G1 F15000 X1143.0000 Y1055.5000 Z0.0000
M3S245
G4 P0.5; Tool Off

G0 Z0; move to z-safe height
G0 X1143.0000 Y1069.5000
M3S0
G4 P0.5; Tool On
G1 F300 Z0.0000
G1 F15000 X7.0000 Y1069.5000 Z0.0000
M3S245
G4 P0.5; Tool Off

G0 Z0; move to z-safe height
G0 X7.0000 Y1083.5000
M3S0
G4 P0.5; Tool On
G1 F300 Z0.0000
G1 F15000 X1143.0000 Y1083.5000 Z0.0000
M3S245
G4 P0.5; Tool Off

G0 Z0; move to z-safe height
G0 X1143.0000 Y1097.5000
M3S0
G4 P0.5; Tool On
G1 F300 Z0.0000
G1 F15000 X7.0000 Y1097.5000 Z0.0000
M3S245
G4 P0.5; Tool Off

G0 Z0; move to z-safe height
G0 X7.0000 Y1111.5000
M3S0
G4 P0.5; Tool On
G1 F300 Z0.0000
G1 F15000 X1143.0000 Y1111.5000 Z0.0000
M3S245
G4 P0.5; Tool Off

G0 Z0; move to z-safe height
G0 X1143.0000 Y1125.5000
M3S0
G4 P0.5; Tool On
G1 F300 Z0.0000
G1 F15000 X7.0000 Y1125.5000 Z0.0000
M3S245
G4 P0.5; Tool Off

G0 Z0; move to z-safe height
G0 X7.0000 Y1139.5000
M3S0
G4 P0.5; Tool On
G1 F300 Z0.0000
G1 F15000 X1143.0000 Y1139.5000 Z0.0000
M3S245
G4 P0.5; Tool Off

G0 Z0; move to z-safe height
G0 X1143.0000 Y1153.5000
M3S0
G4 P0.5; Tool On
G1 F300 Z0.0000
G1 F15000 X7.0000 Y1153.5000 Z0.0000
M3S245
G4 P0.5; Tool Off

G0 Z0; move to z-safe height
G0 X7.0000 Y1167.5000
M3S0
G4 P0.5; Tool On
G1 F300 Z0.0000
G1 F15000 X1143.0000 Y1167.5000 Z0.0000
M3S245
G4 P0.5; Tool Off

G0 Z0; move to z-safe height
G0 X1143.0000 Y1181.5000
M3S0
G4 P0.5; Tool On
G1 F300 Z0.0000
G1 F15000 X7.0000 Y1181.5000 Z0.0000
M3S245
G4 P0.5; Tool Off

G0 Z0; move to z-safe height
G0 X7.0000 Y1195.5000
M3S0
G4 P0.5; Tool On
G1 F300 Z0.0000
G1 F15000 X1143.0000 Y1195.5000 Z0.0000
M3S245
G4 P0.5; Tool Off

G0 Z0; move to z-safe height
G0 X1143.0000 Y1209.5000
M3S0
G4 P0.5; Tool On
G1 F300 Z0.0000
G1 F15000 X7.0000 Y1209.5000 Z0.0000
M3S245
G4 P0.5; Tool Off

G0 Z0; move to z-safe height
G0 X7.0000 Y1223.5000
M3S0
G4 P0.5; Tool On
G1 F300 Z0.0000
G1 F15000 X1143.0000 Y1223.5000 Z0.0000
M3S245
G4 P0.5; Tool Off

G0 Z0; move to z-safe height
G0 X1143.0000 Y1237.5000
M3S0
G4 P0.5; Tool On
G1 F300 Z0.0000
G1 F15000 X7.0000 Y1237.5000 Z0.0000
M3S245
G4 P0.5; Tool Off

G0 Z0; move to z-safe height
G0 X7.0000 Y1251.5000
M3S0
G4 P0.5; Tool On
G1 F300 Z0.0000
G1 F15000 X1143.0000 Y1251.5000 Z0.0000
M3S245
G4 P0.5; Tool Off

G0 Z0; move to z-safe height
G0 X1143.0000 Y1265.5000
M3S0
G4 P0.5; Tool On
G1 F300 Z0.0000
G1 F15000 X7.0000 Y1265.5000 Z0.0000
M3S245
G4 P0.5; Tool Off

G0 Z0; move to z-safe height
G0 X7.0000 Y1279.5000
M3S0
G4 P0.5; Tool On
G1 F300 Z0.0000
G1 F15000 X1143.0000 Y1279.5000 Z0.0000
M3S245
G4 P0.5; Tool Off

G0 Z0; move to z-safe height
G0 X1143.0000 Y1293.5000
M3S0
G4 P0.5; Tool On
G1 F300 Z0.0000
G1 F15000 X7.0000 Y1293.5000 Z0.0000
M3S245
G4 P0.5; Tool Off

G0 Z0; move to z-safe height
G0 X7.0000 Y1307.5000
M3S0
G4 P0.5; Tool On
G1 F300 Z0.0000
G1 F15000 X1143.0000 Y1307.5000 Z0.0000
M3S245
G4 P0.5; Tool Off

G0 Z0; move to z-safe height
G0 X1143.0000 Y1321.5000
M3S0
G4 P0.5; Tool On
G1 F300 Z0.0000
G1 F15000 X7.0000 Y1321.5000 Z0.0000
M3S245
G4 P0.5; Tool Off

G0 Z0; move to z-safe height
G0 X7.0000 Y1335.5000
M3S0
G4 P0.5; Tool On
G1 F300 Z0.0000
G1 F15000 X1143.0000 Y1335.5000 Z0.0000
M3S245
G4 P0.5; Tool Off

G0 Z0; move to z-safe height
G0 X1143.0000 Y1349.5000
M3S0
G4 P0.5; Tool On
G1 F300 Z0.0000
G1 F15000 X7.0000 Y1349.5000 Z0.0000
M3S245
G4 P0.5; Tool Off

G0 Z0; move to z-safe height
G0 X7.0000 Y1363.5000
M3S0
G4 P0.5; Tool On
G1 F300 Z0.0000
G1 F15000 X1143.0000 Y1363.5000 Z0.0000
M3S245
G4 P0.5; Tool Off

G0 Z0; move to z-safe height
G0 X1143.0000 Y1377.5000
M3S0
G4 P0.5; Tool On
G1 F300 Z0.0000
G1 F15000 X7.0000 Y1377.5000 Z0.0000
M3S245
G4 P0.5; Tool Off

G0 Z0; move to z-safe height
G0 X7.0000 Y1391.5000
M3S0
G4 P0.5; Tool On
G1 F300 Z0.0000
G1 F15000 X1143.0000 Y1391.5000 Z0.0000
M3S245
G4 P0.5; Tool Off

G0 Z0; move to z-safe height
G0 X1143.0000 Y1405.5000
M3S0
G4 P0.5; Tool On
G1 F300 Z0.0000
G1 F15000 X7.0000 Y1405.5000 Z0.0000
M3S245
G4 P0.5; Tool Off

G0 Z0; move to z-safe height
G0 X7.0000 Y1419.5000
M3S0
G4 P0.5; Tool On
G1 F300 Z0.0000
G1 F15000 X1143.0000 Y1419.5000 Z0.0000
M3S245
G4 P0.5; Tool Off

G0 Z0; move to z-safe height
G0 X1143.0000 Y1433.5000
M3S0
G4 P0.5; Tool On
G1 F300 Z0.0000
G1 F15000 X7.0000 Y1433.5000 Z0.0000
M3S245
G4 P0.5; Tool Off
; retracting back to z-safe
G0 Z0

; Plotter Mode Complete
