; GCODE Generated by cam.openbuilds.com on 2023-06-13 
G21 ; mm-mode
G54; Work Coordinates
G21; mm-mode
G90; Absolute Positioning
; Plotter Mode Active

; Operation 0: Pen Plotter: (lines fill)
; Pen Diameter: 2

G0 Z0; move to z-safe height
G0 F1000 X1145.0000 Y6.6900
M3S0
G4 P0.5; Tool On
G1 F300 Z0.0000
G1 F15000 X5.0000 Y6.6900 Z0.0000
M3S245
G4 P0.5; Tool Off

G0 Z0; move to z-safe height
G0 X5.0000 Y16.6900
M3S0
G4 P0.5; Tool On
G1 F300 Z0.0000
G1 F15000 X1145.0000 Y16.6900 Z0.0000
M3S245
G4 P0.5; Tool Off

G0 Z0; move to z-safe height
G0 X1145.0000 Y26.6900
M3S0
G4 P0.5; Tool On
G1 F300 Z0.0000
G1 F15000 X5.0000 Y26.6900 Z0.0000
M3S245
G4 P0.5; Tool Off

G0 Z0; move to z-safe height
G0 X5.0000 Y36.6900
M3S0
G4 P0.5; Tool On
G1 F300 Z0.0000
G1 F15000 X1145.0000 Y36.6900 Z0.0000
M3S245
G4 P0.5; Tool Off

G0 Z0; move to z-safe height
G0 X1145.0000 Y46.6900
M3S0
G4 P0.5; Tool On
G1 F300 Z0.0000
G1 F15000 X5.0000 Y46.6900 Z0.0000
M3S245
G4 P0.5; Tool Off

G0 Z0; move to z-safe height
G0 X5.0000 Y56.6900
M3S0
G4 P0.5; Tool On
G1 F300 Z0.0000
G1 F15000 X1145.0000 Y56.6900 Z0.0000
M3S245
G4 P0.5; Tool Off

G0 Z0; move to z-safe height
G0 X1145.0000 Y66.6900
M3S0
G4 P0.5; Tool On
G1 F300 Z0.0000
G1 F15000 X5.0000 Y66.6900 Z0.0000
M3S245
G4 P0.5; Tool Off

G0 Z0; move to z-safe height
G0 X5.0000 Y76.6900
M3S0
G4 P0.5; Tool On
G1 F300 Z0.0000
G1 F15000 X1145.0000 Y76.6900 Z0.0000
M3S245
G4 P0.5; Tool Off

G0 Z0; move to z-safe height
G0 X1145.0000 Y86.6900
M3S0
G4 P0.5; Tool On
G1 F300 Z0.0000
G1 F15000 X5.0000 Y86.6900 Z0.0000
M3S245
G4 P0.5; Tool Off

G0 Z0; move to z-safe height
G0 X5.0000 Y96.6900
M3S0
G4 P0.5; Tool On
G1 F300 Z0.0000
G1 F15000 X1145.0000 Y96.6900 Z0.0000
M3S245
G4 P0.5; Tool Off

G0 Z0; move to z-safe height
G0 X1145.0000 Y106.6900
M3S0
G4 P0.5; Tool On
G1 F300 Z0.0000
G1 F15000 X5.0000 Y106.6900 Z0.0000
M3S245
G4 P0.5; Tool Off

G0 Z0; move to z-safe height
G0 X5.0000 Y116.6900
M3S0
G4 P0.5; Tool On
G1 F300 Z0.0000
G1 F15000 X1145.0000 Y116.6900 Z0.0000
M3S245
G4 P0.5; Tool Off

G0 Z0; move to z-safe height
G0 X1145.0000 Y126.6900
M3S0
G4 P0.5; Tool On
G1 F300 Z0.0000
G1 F15000 X5.0000 Y126.6900 Z0.0000
M3S245
G4 P0.5; Tool Off

G0 Z0; move to z-safe height
G0 X5.0000 Y136.6900
M3S0
G4 P0.5; Tool On
G1 F300 Z0.0000
G1 F15000 X1145.0000 Y136.6900 Z0.0000
M3S245
G4 P0.5; Tool Off

G0 Z0; move to z-safe height
G0 X1145.0000 Y146.6900
M3S0
G4 P0.5; Tool On
G1 F300 Z0.0000
G1 F15000 X5.0000 Y146.6900 Z0.0000
M3S245
G4 P0.5; Tool Off

G0 Z0; move to z-safe height
G0 X5.0000 Y156.6900
M3S0
G4 P0.5; Tool On
G1 F300 Z0.0000
G1 F15000 X1145.0000 Y156.6900 Z0.0000
M3S245
G4 P0.5; Tool Off

G0 Z0; move to z-safe height
G0 X1145.0000 Y166.6900
M3S0
G4 P0.5; Tool On
G1 F300 Z0.0000
G1 F15000 X5.0000 Y166.6900 Z0.0000
M3S245
G4 P0.5; Tool Off

G0 Z0; move to z-safe height
G0 X5.0000 Y176.6900
M3S0
G4 P0.5; Tool On
G1 F300 Z0.0000
G1 F15000 X1145.0000 Y176.6900 Z0.0000
M3S245
G4 P0.5; Tool Off

G0 Z0; move to z-safe height
G0 X1145.0000 Y186.6900
M3S0
G4 P0.5; Tool On
G1 F300 Z0.0000
G1 F15000 X5.0000 Y186.6900 Z0.0000
M3S245
G4 P0.5; Tool Off

G0 Z0; move to z-safe height
G0 X5.0000 Y196.6900
M3S0
G4 P0.5; Tool On
G1 F300 Z0.0000
G1 F15000 X1145.0000 Y196.6900 Z0.0000
M3S245
G4 P0.5; Tool Off

G0 Z0; move to z-safe height
G0 X1145.0000 Y206.6900
M3S0
G4 P0.5; Tool On
G1 F300 Z0.0000
G1 F15000 X5.0000 Y206.6900 Z0.0000
M3S245
G4 P0.5; Tool Off

G0 Z0; move to z-safe height
G0 X5.0000 Y216.6900
M3S0
G4 P0.5; Tool On
G1 F300 Z0.0000
G1 F15000 X1145.0000 Y216.6900 Z0.0000
M3S245
G4 P0.5; Tool Off

G0 Z0; move to z-safe height
G0 X1145.0000 Y226.6900
M3S0
G4 P0.5; Tool On
G1 F300 Z0.0000
G1 F15000 X5.0000 Y226.6900 Z0.0000
M3S245
G4 P0.5; Tool Off

G0 Z0; move to z-safe height
G0 X5.0000 Y236.6900
M3S0
G4 P0.5; Tool On
G1 F300 Z0.0000
G1 F15000 X1145.0000 Y236.6900 Z0.0000
M3S245
G4 P0.5; Tool Off

G0 Z0; move to z-safe height
G0 X1145.0000 Y246.6900
M3S0
G4 P0.5; Tool On
G1 F300 Z0.0000
G1 F15000 X5.0000 Y246.6900 Z0.0000
M3S245
G4 P0.5; Tool Off

G0 Z0; move to z-safe height
G0 X5.0000 Y256.6900
M3S0
G4 P0.5; Tool On
G1 F300 Z0.0000
G1 F15000 X1145.0000 Y256.6900 Z0.0000
M3S245
G4 P0.5; Tool Off

G0 Z0; move to z-safe height
G0 X1145.0000 Y266.6900
M3S0
G4 P0.5; Tool On
G1 F300 Z0.0000
G1 F15000 X5.0000 Y266.6900 Z0.0000
M3S245
G4 P0.5; Tool Off

G0 Z0; move to z-safe height
G0 X5.0000 Y276.6900
M3S0
G4 P0.5; Tool On
G1 F300 Z0.0000
G1 F15000 X1145.0000 Y276.6900 Z0.0000
M3S245
G4 P0.5; Tool Off

G0 Z0; move to z-safe height
G0 X1145.0000 Y286.6900
M3S0
G4 P0.5; Tool On
G1 F300 Z0.0000
G1 F15000 X5.0000 Y286.6900 Z0.0000
M3S245
G4 P0.5; Tool Off

G0 Z0; move to z-safe height
G0 X5.0000 Y296.6900
M3S0
G4 P0.5; Tool On
G1 F300 Z0.0000
G1 F15000 X1145.0000 Y296.6900 Z0.0000
M3S245
G4 P0.5; Tool Off

G0 Z0; move to z-safe height
G0 X1145.0000 Y306.6900
M3S0
G4 P0.5; Tool On
G1 F300 Z0.0000
G1 F15000 X5.0000 Y306.6900 Z0.0000
M3S245
G4 P0.5; Tool Off

G0 Z0; move to z-safe height
G0 X5.0000 Y316.6900
M3S0
G4 P0.5; Tool On
G1 F300 Z0.0000
G1 F15000 X1145.0000 Y316.6900 Z0.0000
M3S245
G4 P0.5; Tool Off

G0 Z0; move to z-safe height
G0 X1145.0000 Y326.6900
M3S0
G4 P0.5; Tool On
G1 F300 Z0.0000
G1 F15000 X5.0000 Y326.6900 Z0.0000
M3S245
G4 P0.5; Tool Off

G0 Z0; move to z-safe height
G0 X5.0000 Y336.6900
M3S0
G4 P0.5; Tool On
G1 F300 Z0.0000
G1 F15000 X1145.0000 Y336.6900 Z0.0000
M3S245
G4 P0.5; Tool Off

G0 Z0; move to z-safe height
G0 X1145.0000 Y346.6900
M3S0
G4 P0.5; Tool On
G1 F300 Z0.0000
G1 F15000 X5.0000 Y346.6900 Z0.0000
M3S245
G4 P0.5; Tool Off

G0 Z0; move to z-safe height
G0 X5.0000 Y356.6900
M3S0
G4 P0.5; Tool On
G1 F300 Z0.0000
G1 F15000 X1145.0000 Y356.6900 Z0.0000
M3S245
G4 P0.5; Tool Off

G0 Z0; move to z-safe height
G0 X1145.0000 Y366.6900
M3S0
G4 P0.5; Tool On
G1 F300 Z0.0000
G1 F15000 X5.0000 Y366.6900 Z0.0000
M3S245
G4 P0.5; Tool Off

G0 Z0; move to z-safe height
G0 X5.0000 Y376.6900
M3S0
G4 P0.5; Tool On
G1 F300 Z0.0000
G1 F15000 X1145.0000 Y376.6900 Z0.0000
M3S245
G4 P0.5; Tool Off

G0 Z0; move to z-safe height
G0 X1145.0000 Y386.6900
M3S0
G4 P0.5; Tool On
G1 F300 Z0.0000
G1 F15000 X5.0000 Y386.6900 Z0.0000
M3S245
G4 P0.5; Tool Off

G0 Z0; move to z-safe height
G0 X5.0000 Y396.6900
M3S0
G4 P0.5; Tool On
G1 F300 Z0.0000
G1 F15000 X1145.0000 Y396.6900 Z0.0000
M3S245
G4 P0.5; Tool Off

G0 Z0; move to z-safe height
G0 X1145.0000 Y406.6900
M3S0
G4 P0.5; Tool On
G1 F300 Z0.0000
G1 F15000 X5.0000 Y406.6900 Z0.0000
M3S245
G4 P0.5; Tool Off

G0 Z0; move to z-safe height
G0 X5.0000 Y416.6900
M3S0
G4 P0.5; Tool On
G1 F300 Z0.0000
G1 F15000 X1145.0000 Y416.6900 Z0.0000
M3S245
G4 P0.5; Tool Off

G0 Z0; move to z-safe height
G0 X1145.0000 Y426.6900
M3S0
G4 P0.5; Tool On
G1 F300 Z0.0000
G1 F15000 X5.0000 Y426.6900 Z0.0000
M3S245
G4 P0.5; Tool Off

G0 Z0; move to z-safe height
G0 X5.0000 Y436.6900
M3S0
G4 P0.5; Tool On
G1 F300 Z0.0000
G1 F15000 X1145.0000 Y436.6900 Z0.0000
M3S245
G4 P0.5; Tool Off

G0 Z0; move to z-safe height
G0 X1145.0000 Y446.6900
M3S0
G4 P0.5; Tool On
G1 F300 Z0.0000
G1 F15000 X5.0000 Y446.6900 Z0.0000
M3S245
G4 P0.5; Tool Off

G0 Z0; move to z-safe height
G0 X5.0000 Y456.6900
M3S0
G4 P0.5; Tool On
G1 F300 Z0.0000
G1 F15000 X1145.0000 Y456.6900 Z0.0000
M3S245
G4 P0.5; Tool Off

G0 Z0; move to z-safe height
G0 X1145.0000 Y466.6900
M3S0
G4 P0.5; Tool On
G1 F300 Z0.0000
G1 F15000 X5.0000 Y466.6900 Z0.0000
M3S245
G4 P0.5; Tool Off

G0 Z0; move to z-safe height
G0 X5.0000 Y476.6900
M3S0
G4 P0.5; Tool On
G1 F300 Z0.0000
G1 F15000 X1145.0000 Y476.6900 Z0.0000
M3S245
G4 P0.5; Tool Off

G0 Z0; move to z-safe height
G0 X1145.0000 Y486.6900
M3S0
G4 P0.5; Tool On
G1 F300 Z0.0000
G1 F15000 X5.0000 Y486.6900 Z0.0000
M3S245
G4 P0.5; Tool Off

G0 Z0; move to z-safe height
G0 X5.0000 Y496.6900
M3S0
G4 P0.5; Tool On
G1 F300 Z0.0000
G1 F15000 X1145.0000 Y496.6900 Z0.0000
M3S245
G4 P0.5; Tool Off

G0 Z0; move to z-safe height
G0 X1145.0000 Y506.6900
M3S0
G4 P0.5; Tool On
G1 F300 Z0.0000
G1 F15000 X5.0000 Y506.6900 Z0.0000
M3S245
G4 P0.5; Tool Off

G0 Z0; move to z-safe height
G0 X5.0000 Y516.6900
M3S0
G4 P0.5; Tool On
G1 F300 Z0.0000
G1 F15000 X1145.0000 Y516.6900 Z0.0000
M3S245
G4 P0.5; Tool Off

G0 Z0; move to z-safe height
G0 X1145.0000 Y526.6900
M3S0
G4 P0.5; Tool On
G1 F300 Z0.0000
G1 F15000 X5.0000 Y526.6900 Z0.0000
M3S245
G4 P0.5; Tool Off

G0 Z0; move to z-safe height
G0 X5.0000 Y536.6900
M3S0
G4 P0.5; Tool On
G1 F300 Z0.0000
G1 F15000 X1145.0000 Y536.6900 Z0.0000
M3S245
G4 P0.5; Tool Off

G0 Z0; move to z-safe height
G0 X1145.0000 Y546.6900
M3S0
G4 P0.5; Tool On
G1 F300 Z0.0000
G1 F15000 X5.0000 Y546.6900 Z0.0000
M3S245
G4 P0.5; Tool Off

G0 Z0; move to z-safe height
G0 X5.0000 Y556.6900
M3S0
G4 P0.5; Tool On
G1 F300 Z0.0000
G1 F15000 X1145.0000 Y556.6900 Z0.0000
M3S245
G4 P0.5; Tool Off

G0 Z0; move to z-safe height
G0 X1145.0000 Y566.6900
M3S0
G4 P0.5; Tool On
G1 F300 Z0.0000
G1 F15000 X5.0000 Y566.6900 Z0.0000
M3S245
G4 P0.5; Tool Off

G0 Z0; move to z-safe height
G0 X5.0000 Y576.6900
M3S0
G4 P0.5; Tool On
G1 F300 Z0.0000
G1 F15000 X1145.0000 Y576.6900 Z0.0000
M3S245
G4 P0.5; Tool Off

G0 Z0; move to z-safe height
G0 X1145.0000 Y586.6900
M3S0
G4 P0.5; Tool On
G1 F300 Z0.0000
G1 F15000 X5.0000 Y586.6900 Z0.0000
M3S245
G4 P0.5; Tool Off

G0 Z0; move to z-safe height
G0 X5.0000 Y596.6900
M3S0
G4 P0.5; Tool On
G1 F300 Z0.0000
G1 F15000 X1145.0000 Y596.6900 Z0.0000
M3S245
G4 P0.5; Tool Off

G0 Z0; move to z-safe height
G0 X1145.0000 Y606.6900
M3S0
G4 P0.5; Tool On
G1 F300 Z0.0000
G1 F15000 X5.0000 Y606.6900 Z0.0000
M3S245
G4 P0.5; Tool Off

G0 Z0; move to z-safe height
G0 X5.0000 Y616.6900
M3S0
G4 P0.5; Tool On
G1 F300 Z0.0000
G1 F15000 X1145.0000 Y616.6900 Z0.0000
M3S245
G4 P0.5; Tool Off

G0 Z0; move to z-safe height
G0 X1145.0000 Y626.6900
M3S0
G4 P0.5; Tool On
G1 F300 Z0.0000
G1 F15000 X5.0000 Y626.6900 Z0.0000
M3S245
G4 P0.5; Tool Off

G0 Z0; move to z-safe height
G0 X5.0000 Y636.6900
M3S0
G4 P0.5; Tool On
G1 F300 Z0.0000
G1 F15000 X1145.0000 Y636.6900 Z0.0000
M3S245
G4 P0.5; Tool Off

G0 Z0; move to z-safe height
G0 X1145.0000 Y646.6900
M3S0
G4 P0.5; Tool On
G1 F300 Z0.0000
G1 F15000 X5.0000 Y646.6900 Z0.0000
M3S245
G4 P0.5; Tool Off

G0 Z0; move to z-safe height
G0 X5.0000 Y656.6900
M3S0
G4 P0.5; Tool On
G1 F300 Z0.0000
G1 F15000 X1145.0000 Y656.6900 Z0.0000
M3S245
G4 P0.5; Tool Off

G0 Z0; move to z-safe height
G0 X1145.0000 Y666.6900
M3S0
G4 P0.5; Tool On
G1 F300 Z0.0000
G1 F15000 X5.0000 Y666.6900 Z0.0000
M3S245
G4 P0.5; Tool Off

G0 Z0; move to z-safe height
G0 X5.0000 Y676.6900
M3S0
G4 P0.5; Tool On
G1 F300 Z0.0000
G1 F15000 X1145.0000 Y676.6900 Z0.0000
M3S245
G4 P0.5; Tool Off

G0 Z0; move to z-safe height
G0 X1145.0000 Y686.6900
M3S0
G4 P0.5; Tool On
G1 F300 Z0.0000
G1 F15000 X5.0000 Y686.6900 Z0.0000
M3S245
G4 P0.5; Tool Off

G0 Z0; move to z-safe height
G0 X5.0000 Y696.6900
M3S0
G4 P0.5; Tool On
G1 F300 Z0.0000
G1 F15000 X1145.0000 Y696.6900 Z0.0000
M3S245
G4 P0.5; Tool Off

G0 Z0; move to z-safe height
G0 X1145.0000 Y706.6900
M3S0
G4 P0.5; Tool On
G1 F300 Z0.0000
G1 F15000 X5.0000 Y706.6900 Z0.0000
M3S245
G4 P0.5; Tool Off

G0 Z0; move to z-safe height
G0 X5.0000 Y716.6900
M3S0
G4 P0.5; Tool On
G1 F300 Z0.0000
G1 F15000 X1145.0000 Y716.6900 Z0.0000
M3S245
G4 P0.5; Tool Off

G0 Z0; move to z-safe height
G0 X1145.0000 Y726.6900
M3S0
G4 P0.5; Tool On
G1 F300 Z0.0000
G1 F15000 X5.0000 Y726.6900 Z0.0000
M3S245
G4 P0.5; Tool Off

G0 Z0; move to z-safe height
G0 X5.0000 Y736.6900
M3S0
G4 P0.5; Tool On
G1 F300 Z0.0000
G1 F15000 X1145.0000 Y736.6900 Z0.0000
M3S245
G4 P0.5; Tool Off

G0 Z0; move to z-safe height
G0 X1145.0000 Y746.6900
M3S0
G4 P0.5; Tool On
G1 F300 Z0.0000
G1 F15000 X5.0000 Y746.6900 Z0.0000
M3S245
G4 P0.5; Tool Off

G0 Z0; move to z-safe height
G0 X5.0000 Y756.6900
M3S0
G4 P0.5; Tool On
G1 F300 Z0.0000
G1 F15000 X1145.0000 Y756.6900 Z0.0000
M3S245
G4 P0.5; Tool Off

G0 Z0; move to z-safe height
G0 X1145.0000 Y766.6900
M3S0
G4 P0.5; Tool On
G1 F300 Z0.0000
G1 F15000 X5.0000 Y766.6900 Z0.0000
M3S245
G4 P0.5; Tool Off

G0 Z0; move to z-safe height
G0 X5.0000 Y776.6900
M3S0
G4 P0.5; Tool On
G1 F300 Z0.0000
G1 F15000 X1145.0000 Y776.6900 Z0.0000
M3S245
G4 P0.5; Tool Off

G0 Z0; move to z-safe height
G0 X1145.0000 Y786.6900
M3S0
G4 P0.5; Tool On
G1 F300 Z0.0000
G1 F15000 X5.0000 Y786.6900 Z0.0000
M3S245
G4 P0.5; Tool Off

G0 Z0; move to z-safe height
G0 X5.0000 Y796.6900
M3S0
G4 P0.5; Tool On
G1 F300 Z0.0000
G1 F15000 X1145.0000 Y796.6900 Z0.0000
M3S245
G4 P0.5; Tool Off

G0 Z0; move to z-safe height
G0 X1145.0000 Y806.6900
M3S0
G4 P0.5; Tool On
G1 F300 Z0.0000
G1 F15000 X5.0000 Y806.6900 Z0.0000
M3S245
G4 P0.5; Tool Off

G0 Z0; move to z-safe height
G0 X5.0000 Y816.6900
M3S0
G4 P0.5; Tool On
G1 F300 Z0.0000
G1 F15000 X1145.0000 Y816.6900 Z0.0000
M3S245
G4 P0.5; Tool Off

G0 Z0; move to z-safe height
G0 X1145.0000 Y826.6900
M3S0
G4 P0.5; Tool On
G1 F300 Z0.0000
G1 F15000 X5.0000 Y826.6900 Z0.0000
M3S245
G4 P0.5; Tool Off

G0 Z0; move to z-safe height
G0 X5.0000 Y836.6900
M3S0
G4 P0.5; Tool On
G1 F300 Z0.0000
G1 F15000 X1145.0000 Y836.6900 Z0.0000
M3S245
G4 P0.5; Tool Off

G0 Z0; move to z-safe height
G0 X1145.0000 Y846.6900
M3S0
G4 P0.5; Tool On
G1 F300 Z0.0000
G1 F15000 X5.0000 Y846.6900 Z0.0000
M3S245
G4 P0.5; Tool Off

G0 Z0; move to z-safe height
G0 X5.0000 Y856.6900
M3S0
G4 P0.5; Tool On
G1 F300 Z0.0000
G1 F15000 X1145.0000 Y856.6900 Z0.0000
M3S245
G4 P0.5; Tool Off

G0 Z0; move to z-safe height
G0 X1145.0000 Y866.6900
M3S0
G4 P0.5; Tool On
G1 F300 Z0.0000
G1 F15000 X5.0000 Y866.6900 Z0.0000
M3S245
G4 P0.5; Tool Off

G0 Z0; move to z-safe height
G0 X5.0000 Y876.6900
M3S0
G4 P0.5; Tool On
G1 F300 Z0.0000
G1 F15000 X1145.0000 Y876.6900 Z0.0000
M3S245
G4 P0.5; Tool Off

G0 Z0; move to z-safe height
G0 X1145.0000 Y886.6900
M3S0
G4 P0.5; Tool On
G1 F300 Z0.0000
G1 F15000 X5.0000 Y886.6900 Z0.0000
M3S245
G4 P0.5; Tool Off

G0 Z0; move to z-safe height
G0 X5.0000 Y896.6900
M3S0
G4 P0.5; Tool On
G1 F300 Z0.0000
G1 F15000 X1145.0000 Y896.6900 Z0.0000
M3S245
G4 P0.5; Tool Off

G0 Z0; move to z-safe height
G0 X1145.0000 Y906.6900
M3S0
G4 P0.5; Tool On
G1 F300 Z0.0000
G1 F15000 X5.0000 Y906.6900 Z0.0000
M3S245
G4 P0.5; Tool Off

G0 Z0; move to z-safe height
G0 X5.0000 Y916.6900
M3S0
G4 P0.5; Tool On
G1 F300 Z0.0000
G1 F15000 X1145.0000 Y916.6900 Z0.0000
M3S245
G4 P0.5; Tool Off

G0 Z0; move to z-safe height
G0 X1145.0000 Y926.6900
M3S0
G4 P0.5; Tool On
G1 F300 Z0.0000
G1 F15000 X5.0000 Y926.6900 Z0.0000
M3S245
G4 P0.5; Tool Off

G0 Z0; move to z-safe height
G0 X5.0000 Y936.6900
M3S0
G4 P0.5; Tool On
G1 F300 Z0.0000
G1 F15000 X1145.0000 Y936.6900 Z0.0000
M3S245
G4 P0.5; Tool Off

G0 Z0; move to z-safe height
G0 X1145.0000 Y946.6900
M3S0
G4 P0.5; Tool On
G1 F300 Z0.0000
G1 F15000 X5.0000 Y946.6900 Z0.0000
M3S245
G4 P0.5; Tool Off

G0 Z0; move to z-safe height
G0 X5.0000 Y956.6900
M3S0
G4 P0.5; Tool On
G1 F300 Z0.0000
G1 F15000 X1145.0000 Y956.6900 Z0.0000
M3S245
G4 P0.5; Tool Off

G0 Z0; move to z-safe height
G0 X1145.0000 Y966.6900
M3S0
G4 P0.5; Tool On
G1 F300 Z0.0000
G1 F15000 X5.0000 Y966.6900 Z0.0000
M3S245
G4 P0.5; Tool Off

G0 Z0; move to z-safe height
G0 X5.0000 Y976.6900
M3S0
G4 P0.5; Tool On
G1 F300 Z0.0000
G1 F15000 X1145.0000 Y976.6900 Z0.0000
M3S245
G4 P0.5; Tool Off

G0 Z0; move to z-safe height
G0 X1145.0000 Y986.6900
M3S0
G4 P0.5; Tool On
G1 F300 Z0.0000
G1 F15000 X5.0000 Y986.6900 Z0.0000
M3S245
G4 P0.5; Tool Off

G0 Z0; move to z-safe height
G0 X5.0000 Y996.6900
M3S0
G4 P0.5; Tool On
G1 F300 Z0.0000
G1 F15000 X1145.0000 Y996.6900 Z0.0000
M3S245
G4 P0.5; Tool Off

G0 Z0; move to z-safe height
G0 X1145.0000 Y1006.6900
M3S0
G4 P0.5; Tool On
G1 F300 Z0.0000
G1 F15000 X5.0000 Y1006.6900 Z0.0000
M3S245
G4 P0.5; Tool Off

G0 Z0; move to z-safe height
G0 X5.0000 Y1016.6900
M3S0
G4 P0.5; Tool On
G1 F300 Z0.0000
G1 F15000 X1145.0000 Y1016.6900 Z0.0000
M3S245
G4 P0.5; Tool Off

G0 Z0; move to z-safe height
G0 X1145.0000 Y1026.6900
M3S0
G4 P0.5; Tool On
G1 F300 Z0.0000
G1 F15000 X5.0000 Y1026.6900 Z0.0000
M3S245
G4 P0.5; Tool Off

G0 Z0; move to z-safe height
G0 X5.0000 Y1036.6900
M3S0
G4 P0.5; Tool On
G1 F300 Z0.0000
G1 F15000 X1145.0000 Y1036.6900 Z0.0000
M3S245
G4 P0.5; Tool Off

G0 Z0; move to z-safe height
G0 X1145.0000 Y1046.6900
M3S0
G4 P0.5; Tool On
G1 F300 Z0.0000
G1 F15000 X5.0000 Y1046.6900 Z0.0000
M3S245
G4 P0.5; Tool Off

G0 Z0; move to z-safe height
G0 X5.0000 Y1056.6900
M3S0
G4 P0.5; Tool On
G1 F300 Z0.0000
G1 F15000 X1145.0000 Y1056.6900 Z0.0000
M3S245
G4 P0.5; Tool Off

G0 Z0; move to z-safe height
G0 X1145.0000 Y1066.6900
M3S0
G4 P0.5; Tool On
G1 F300 Z0.0000
G1 F15000 X5.0000 Y1066.6900 Z0.0000
M3S245
G4 P0.5; Tool Off

G0 Z0; move to z-safe height
G0 X5.0000 Y1076.6900
M3S0
G4 P0.5; Tool On
G1 F300 Z0.0000
G1 F15000 X1145.0000 Y1076.6900 Z0.0000
M3S245
G4 P0.5; Tool Off

G0 Z0; move to z-safe height
G0 X1145.0000 Y1086.6900
M3S0
G4 P0.5; Tool On
G1 F300 Z0.0000
G1 F15000 X5.0000 Y1086.6900 Z0.0000
M3S245
G4 P0.5; Tool Off

G0 Z0; move to z-safe height
G0 X5.0000 Y1096.6900
M3S0
G4 P0.5; Tool On
G1 F300 Z0.0000
G1 F15000 X1145.0000 Y1096.6900 Z0.0000
M3S245
G4 P0.5; Tool Off

G0 Z0; move to z-safe height
G0 X1145.0000 Y1106.6900
M3S0
G4 P0.5; Tool On
G1 F300 Z0.0000
G1 F15000 X5.0000 Y1106.6900 Z0.0000
M3S245
G4 P0.5; Tool Off

G0 Z0; move to z-safe height
G0 X5.0000 Y1116.6900
M3S0
G4 P0.5; Tool On
G1 F300 Z0.0000
G1 F15000 X1145.0000 Y1116.6900 Z0.0000
M3S245
G4 P0.5; Tool Off

G0 Z0; move to z-safe height
G0 X1145.0000 Y1126.6900
M3S0
G4 P0.5; Tool On
G1 F300 Z0.0000
G1 F15000 X5.0000 Y1126.6900 Z0.0000
M3S245
G4 P0.5; Tool Off

G0 Z0; move to z-safe height
G0 X5.0000 Y1136.6900
M3S0
G4 P0.5; Tool On
G1 F300 Z0.0000
G1 F15000 X1145.0000 Y1136.6900 Z0.0000
M3S245
G4 P0.5; Tool Off

G0 Z0; move to z-safe height
G0 X1145.0000 Y1146.6900
M3S0
G4 P0.5; Tool On
G1 F300 Z0.0000
G1 F15000 X5.0000 Y1146.6900 Z0.0000
M3S245
G4 P0.5; Tool Off

G0 Z0; move to z-safe height
G0 X5.0000 Y1156.6900
M3S0
G4 P0.5; Tool On
G1 F300 Z0.0000
G1 F15000 X1145.0000 Y1156.6900 Z0.0000
M3S245
G4 P0.5; Tool Off

G0 Z0; move to z-safe height
G0 X1145.0000 Y1166.6900
M3S0
G4 P0.5; Tool On
G1 F300 Z0.0000
G1 F15000 X5.0000 Y1166.6900 Z0.0000
M3S245
G4 P0.5; Tool Off

G0 Z0; move to z-safe height
G0 X5.0000 Y1176.6900
M3S0
G4 P0.5; Tool On
G1 F300 Z0.0000
G1 F15000 X1145.0000 Y1176.6900 Z0.0000
M3S245
G4 P0.5; Tool Off

G0 Z0; move to z-safe height
G0 X1145.0000 Y1186.6900
M3S0
G4 P0.5; Tool On
G1 F300 Z0.0000
G1 F15000 X5.0000 Y1186.6900 Z0.0000
M3S245
G4 P0.5; Tool Off

G0 Z0; move to z-safe height
G0 X5.0000 Y1196.6900
M3S0
G4 P0.5; Tool On
G1 F300 Z0.0000
G1 F15000 X1145.0000 Y1196.6900 Z0.0000
M3S245
G4 P0.5; Tool Off

G0 Z0; move to z-safe height
G0 X1145.0000 Y1206.6900
M3S0
G4 P0.5; Tool On
G1 F300 Z0.0000
G1 F15000 X5.0000 Y1206.6900 Z0.0000
M3S245
G4 P0.5; Tool Off

G0 Z0; move to z-safe height
G0 X5.0000 Y1216.6900
M3S0
G4 P0.5; Tool On
G1 F300 Z0.0000
G1 F15000 X1145.0000 Y1216.6900 Z0.0000
M3S245
G4 P0.5; Tool Off

G0 Z0; move to z-safe height
G0 X1145.0000 Y1226.6900
M3S0
G4 P0.5; Tool On
G1 F300 Z0.0000
G1 F15000 X5.0000 Y1226.6900 Z0.0000
M3S245
G4 P0.5; Tool Off

G0 Z0; move to z-safe height
G0 X5.0000 Y1236.6900
M3S0
G4 P0.5; Tool On
G1 F300 Z0.0000
G1 F15000 X1145.0000 Y1236.6900 Z0.0000
M3S245
G4 P0.5; Tool Off

G0 Z0; move to z-safe height
G0 X1145.0000 Y1246.6900
M3S0
G4 P0.5; Tool On
G1 F300 Z0.0000
G1 F15000 X5.0000 Y1246.6900 Z0.0000
M3S245
G4 P0.5; Tool Off

G0 Z0; move to z-safe height
G0 X5.0000 Y1256.6900
M3S0
G4 P0.5; Tool On
G1 F300 Z0.0000
G1 F15000 X1145.0000 Y1256.6900 Z0.0000
M3S245
G4 P0.5; Tool Off

G0 Z0; move to z-safe height
G0 X1145.0000 Y1266.6900
M3S0
G4 P0.5; Tool On
G1 F300 Z0.0000
G1 F15000 X5.0000 Y1266.6900 Z0.0000
M3S245
G4 P0.5; Tool Off

G0 Z0; move to z-safe height
G0 X5.0000 Y1276.6900
M3S0
G4 P0.5; Tool On
G1 F300 Z0.0000
G1 F15000 X1145.0000 Y1276.6900 Z0.0000
M3S245
G4 P0.5; Tool Off

G0 Z0; move to z-safe height
G0 X1145.0000 Y1286.6900
M3S0
G4 P0.5; Tool On
G1 F300 Z0.0000
G1 F15000 X5.0000 Y1286.6900 Z0.0000
M3S245
G4 P0.5; Tool Off

G0 Z0; move to z-safe height
G0 X5.0000 Y1296.6900
M3S0
G4 P0.5; Tool On
G1 F300 Z0.0000
G1 F15000 X1145.0000 Y1296.6900 Z0.0000
M3S245
G4 P0.5; Tool Off

G0 Z0; move to z-safe height
G0 X1145.0000 Y1306.6900
M3S0
G4 P0.5; Tool On
G1 F300 Z0.0000
G1 F15000 X5.0000 Y1306.6900 Z0.0000
M3S245
G4 P0.5; Tool Off

G0 Z0; move to z-safe height
G0 X5.0000 Y1316.6900
M3S0
G4 P0.5; Tool On
G1 F300 Z0.0000
G1 F15000 X1145.0000 Y1316.6900 Z0.0000
M3S245
G4 P0.5; Tool Off

G0 Z0; move to z-safe height
G0 X1145.0000 Y1326.6900
M3S0
G4 P0.5; Tool On
G1 F300 Z0.0000
G1 F15000 X5.0000 Y1326.6900 Z0.0000
M3S245
G4 P0.5; Tool Off

G0 Z0; move to z-safe height
G0 X5.0000 Y1336.6900
M3S0
G4 P0.5; Tool On
G1 F300 Z0.0000
G1 F15000 X1145.0000 Y1336.6900 Z0.0000
M3S245
G4 P0.5; Tool Off

G0 Z0; move to z-safe height
G0 X1145.0000 Y1346.6900
M3S0
G4 P0.5; Tool On
G1 F300 Z0.0000
G1 F15000 X5.0000 Y1346.6900 Z0.0000
M3S245
G4 P0.5; Tool Off

G0 Z0; move to z-safe height
G0 X5.0000 Y1356.6900
M3S0
G4 P0.5; Tool On
G1 F300 Z0.0000
G1 F15000 X1145.0000 Y1356.6900 Z0.0000
M3S245
G4 P0.5; Tool Off

G0 Z0; move to z-safe height
G0 X1145.0000 Y1366.6900
M3S0
G4 P0.5; Tool On
G1 F300 Z0.0000
G1 F15000 X5.0000 Y1366.6900 Z0.0000
M3S245
G4 P0.5; Tool Off

G0 Z0; move to z-safe height
G0 X5.0000 Y1376.6900
M3S0
G4 P0.5; Tool On
G1 F300 Z0.0000
G1 F15000 X1145.0000 Y1376.6900 Z0.0000
M3S245
G4 P0.5; Tool Off

G0 Z0; move to z-safe height
G0 X1145.0000 Y1386.6900
M3S0
G4 P0.5; Tool On
G1 F300 Z0.0000
G1 F15000 X5.0000 Y1386.6900 Z0.0000
M3S245
G4 P0.5; Tool Off

G0 Z0; move to z-safe height
G0 X5.0000 Y1396.6900
M3S0
G4 P0.5; Tool On
G1 F300 Z0.0000
G1 F15000 X1145.0000 Y1396.6900 Z0.0000
M3S245
G4 P0.5; Tool Off

G0 Z0; move to z-safe height
G0 X1145.0000 Y1406.6900
M3S0
G4 P0.5; Tool On
G1 F300 Z0.0000
G1 F15000 X5.0000 Y1406.6900 Z0.0000
M3S245
G4 P0.5; Tool Off

G0 Z0; move to z-safe height
G0 X5.0000 Y1416.6900
M3S0
G4 P0.5; Tool On
G1 F300 Z0.0000
G1 F15000 X1145.0000 Y1416.6900 Z0.0000
M3S245
G4 P0.5; Tool Off

G0 Z0; move to z-safe height
G0 X1145.0000 Y1426.6900
M3S0
G4 P0.5; Tool On
G1 F300 Z0.0000
G1 F15000 X5.0000 Y1426.6900 Z0.0000
M3S245
G4 P0.5; Tool Off

G0 Z0; move to z-safe height
G0 X5.0000 Y1436.6900
M3S0
G4 P0.5; Tool On
G1 F300 Z0.0000
G1 F15000 X1145.0000 Y1436.6900 Z0.0000
M3S245
G4 P0.5; Tool Off
; retracting back to z-safe
G0 Z0

; Plotter Mode Complete
