; GCODE Generated by cam.openbuilds.com on 2023-06-13 
G21 ; mm-mode
G54; Work Coordinates
G21; mm-mode
G90; Absolute Positioning
; Plotter Mode Active

; Operation 0: Pen Plotter: (lines fill)
; Pen Diameter: 2

G0 Z0; move to z-safe height
G0 F1000 X4.0000 Y5.2800
M3S0
G4 P0.5; Tool On
G1 F300 Z0.0000
G1 F15000 X1146.0000 Y5.2800 Z0.0000
M3S245
G4 P0.5; Tool Off

G0 Z0; move to z-safe height
G0 X1146.0000 Y13.2800
M3S0
G4 P0.5; Tool On
G1 F300 Z0.0000
G1 F15000 X4.0000 Y13.2800 Z0.0000
M3S245
G4 P0.5; Tool Off

G0 Z0; move to z-safe height
G0 X4.0000 Y21.2800
M3S0
G4 P0.5; Tool On
G1 F300 Z0.0000
G1 F15000 X1146.0000 Y21.2800 Z0.0000
M3S245
G4 P0.5; Tool Off

G0 Z0; move to z-safe height
G0 X1146.0000 Y29.2800
M3S0
G4 P0.5; Tool On
G1 F300 Z0.0000
G1 F15000 X4.0000 Y29.2800 Z0.0000
M3S245
G4 P0.5; Tool Off

G0 Z0; move to z-safe height
G0 X4.0000 Y37.2800
M3S0
G4 P0.5; Tool On
G1 F300 Z0.0000
G1 F15000 X1146.0000 Y37.2800 Z0.0000
M3S245
G4 P0.5; Tool Off

G0 Z0; move to z-safe height
G0 X1146.0000 Y45.2800
M3S0
G4 P0.5; Tool On
G1 F300 Z0.0000
G1 F15000 X4.0000 Y45.2800 Z0.0000
M3S245
G4 P0.5; Tool Off

G0 Z0; move to z-safe height
G0 X4.0000 Y53.2800
M3S0
G4 P0.5; Tool On
G1 F300 Z0.0000
G1 F15000 X1146.0000 Y53.2800 Z0.0000
M3S245
G4 P0.5; Tool Off

G0 Z0; move to z-safe height
G0 X1146.0000 Y61.2800
M3S0
G4 P0.5; Tool On
G1 F300 Z0.0000
G1 F15000 X4.0000 Y61.2800 Z0.0000
M3S245
G4 P0.5; Tool Off

G0 Z0; move to z-safe height
G0 X4.0000 Y69.2800
M3S0
G4 P0.5; Tool On
G1 F300 Z0.0000
G1 F15000 X1146.0000 Y69.2800 Z0.0000
M3S245
G4 P0.5; Tool Off

G0 Z0; move to z-safe height
G0 X1146.0000 Y77.2800
M3S0
G4 P0.5; Tool On
G1 F300 Z0.0000
G1 F15000 X4.0000 Y77.2800 Z0.0000
M3S245
G4 P0.5; Tool Off

G0 Z0; move to z-safe height
G0 X4.0000 Y85.2800
M3S0
G4 P0.5; Tool On
G1 F300 Z0.0000
G1 F15000 X1146.0000 Y85.2800 Z0.0000
M3S245
G4 P0.5; Tool Off

G0 Z0; move to z-safe height
G0 X1146.0000 Y93.2800
M3S0
G4 P0.5; Tool On
G1 F300 Z0.0000
G1 F15000 X4.0000 Y93.2800 Z0.0000
M3S245
G4 P0.5; Tool Off

G0 Z0; move to z-safe height
G0 X4.0000 Y101.2800
M3S0
G4 P0.5; Tool On
G1 F300 Z0.0000
G1 F15000 X1146.0000 Y101.2800 Z0.0000
M3S245
G4 P0.5; Tool Off

G0 Z0; move to z-safe height
G0 X1146.0000 Y109.2800
M3S0
G4 P0.5; Tool On
G1 F300 Z0.0000
G1 F15000 X4.0000 Y109.2800 Z0.0000
M3S245
G4 P0.5; Tool Off

G0 Z0; move to z-safe height
G0 X4.0000 Y117.2800
M3S0
G4 P0.5; Tool On
G1 F300 Z0.0000
G1 F15000 X1146.0000 Y117.2800 Z0.0000
M3S245
G4 P0.5; Tool Off

G0 Z0; move to z-safe height
G0 X1146.0000 Y125.2800
M3S0
G4 P0.5; Tool On
G1 F300 Z0.0000
G1 F15000 X4.0000 Y125.2800 Z0.0000
M3S245
G4 P0.5; Tool Off

G0 Z0; move to z-safe height
G0 X4.0000 Y133.2800
M3S0
G4 P0.5; Tool On
G1 F300 Z0.0000
G1 F15000 X1146.0000 Y133.2800 Z0.0000
M3S245
G4 P0.5; Tool Off

G0 Z0; move to z-safe height
G0 X1146.0000 Y141.2800
M3S0
G4 P0.5; Tool On
G1 F300 Z0.0000
G1 F15000 X4.0000 Y141.2800 Z0.0000
M3S245
G4 P0.5; Tool Off

G0 Z0; move to z-safe height
G0 X4.0000 Y149.2800
M3S0
G4 P0.5; Tool On
G1 F300 Z0.0000
G1 F15000 X1146.0000 Y149.2800 Z0.0000
M3S245
G4 P0.5; Tool Off

G0 Z0; move to z-safe height
G0 X1146.0000 Y157.2800
M3S0
G4 P0.5; Tool On
G1 F300 Z0.0000
G1 F15000 X4.0000 Y157.2800 Z0.0000
M3S245
G4 P0.5; Tool Off

G0 Z0; move to z-safe height
G0 X4.0000 Y165.2800
M3S0
G4 P0.5; Tool On
G1 F300 Z0.0000
G1 F15000 X1146.0000 Y165.2800 Z0.0000
M3S245
G4 P0.5; Tool Off

G0 Z0; move to z-safe height
G0 X1146.0000 Y173.2800
M3S0
G4 P0.5; Tool On
G1 F300 Z0.0000
G1 F15000 X4.0000 Y173.2800 Z0.0000
M3S245
G4 P0.5; Tool Off

G0 Z0; move to z-safe height
G0 X4.0000 Y181.2800
M3S0
G4 P0.5; Tool On
G1 F300 Z0.0000
G1 F15000 X1146.0000 Y181.2800 Z0.0000
M3S245
G4 P0.5; Tool Off

G0 Z0; move to z-safe height
G0 X1146.0000 Y189.2800
M3S0
G4 P0.5; Tool On
G1 F300 Z0.0000
G1 F15000 X4.0000 Y189.2800 Z0.0000
M3S245
G4 P0.5; Tool Off

G0 Z0; move to z-safe height
G0 X4.0000 Y197.2800
M3S0
G4 P0.5; Tool On
G1 F300 Z0.0000
G1 F15000 X1146.0000 Y197.2800 Z0.0000
M3S245
G4 P0.5; Tool Off

G0 Z0; move to z-safe height
G0 X1146.0000 Y205.2800
M3S0
G4 P0.5; Tool On
G1 F300 Z0.0000
G1 F15000 X4.0000 Y205.2800 Z0.0000
M3S245
G4 P0.5; Tool Off

G0 Z0; move to z-safe height
G0 X4.0000 Y213.2800
M3S0
G4 P0.5; Tool On
G1 F300 Z0.0000
G1 F15000 X1146.0000 Y213.2800 Z0.0000
M3S245
G4 P0.5; Tool Off

G0 Z0; move to z-safe height
G0 X1146.0000 Y221.2800
M3S0
G4 P0.5; Tool On
G1 F300 Z0.0000
G1 F15000 X4.0000 Y221.2800 Z0.0000
M3S245
G4 P0.5; Tool Off

G0 Z0; move to z-safe height
G0 X4.0000 Y229.2800
M3S0
G4 P0.5; Tool On
G1 F300 Z0.0000
G1 F15000 X1146.0000 Y229.2800 Z0.0000
M3S245
G4 P0.5; Tool Off

G0 Z0; move to z-safe height
G0 X1146.0000 Y237.2800
M3S0
G4 P0.5; Tool On
G1 F300 Z0.0000
G1 F15000 X4.0000 Y237.2800 Z0.0000
M3S245
G4 P0.5; Tool Off

G0 Z0; move to z-safe height
G0 X4.0000 Y245.2800
M3S0
G4 P0.5; Tool On
G1 F300 Z0.0000
G1 F15000 X1146.0000 Y245.2800 Z0.0000
M3S245
G4 P0.5; Tool Off

G0 Z0; move to z-safe height
G0 X1146.0000 Y253.2800
M3S0
G4 P0.5; Tool On
G1 F300 Z0.0000
G1 F15000 X4.0000 Y253.2800 Z0.0000
M3S245
G4 P0.5; Tool Off

G0 Z0; move to z-safe height
G0 X4.0000 Y261.2800
M3S0
G4 P0.5; Tool On
G1 F300 Z0.0000
G1 F15000 X1146.0000 Y261.2800 Z0.0000
M3S245
G4 P0.5; Tool Off

G0 Z0; move to z-safe height
G0 X1146.0000 Y269.2800
M3S0
G4 P0.5; Tool On
G1 F300 Z0.0000
G1 F15000 X4.0000 Y269.2800 Z0.0000
M3S245
G4 P0.5; Tool Off

G0 Z0; move to z-safe height
G0 X4.0000 Y277.2800
M3S0
G4 P0.5; Tool On
G1 F300 Z0.0000
G1 F15000 X1146.0000 Y277.2800 Z0.0000
M3S245
G4 P0.5; Tool Off

G0 Z0; move to z-safe height
G0 X1146.0000 Y285.2800
M3S0
G4 P0.5; Tool On
G1 F300 Z0.0000
G1 F15000 X4.0000 Y285.2800 Z0.0000
M3S245
G4 P0.5; Tool Off

G0 Z0; move to z-safe height
G0 X4.0000 Y293.2800
M3S0
G4 P0.5; Tool On
G1 F300 Z0.0000
G1 F15000 X1146.0000 Y293.2800 Z0.0000
M3S245
G4 P0.5; Tool Off

G0 Z0; move to z-safe height
G0 X1146.0000 Y301.2800
M3S0
G4 P0.5; Tool On
G1 F300 Z0.0000
G1 F15000 X4.0000 Y301.2800 Z0.0000
M3S245
G4 P0.5; Tool Off

G0 Z0; move to z-safe height
G0 X4.0000 Y309.2800
M3S0
G4 P0.5; Tool On
G1 F300 Z0.0000
G1 F15000 X1146.0000 Y309.2800 Z0.0000
M3S245
G4 P0.5; Tool Off

G0 Z0; move to z-safe height
G0 X1146.0000 Y317.2800
M3S0
G4 P0.5; Tool On
G1 F300 Z0.0000
G1 F15000 X4.0000 Y317.2800 Z0.0000
M3S245
G4 P0.5; Tool Off

G0 Z0; move to z-safe height
G0 X4.0000 Y325.2800
M3S0
G4 P0.5; Tool On
G1 F300 Z0.0000
G1 F15000 X1146.0000 Y325.2800 Z0.0000
M3S245
G4 P0.5; Tool Off

G0 Z0; move to z-safe height
G0 X1146.0000 Y333.2800
M3S0
G4 P0.5; Tool On
G1 F300 Z0.0000
G1 F15000 X4.0000 Y333.2800 Z0.0000
M3S245
G4 P0.5; Tool Off

G0 Z0; move to z-safe height
G0 X4.0000 Y341.2800
M3S0
G4 P0.5; Tool On
G1 F300 Z0.0000
G1 F15000 X1146.0000 Y341.2800 Z0.0000
M3S245
G4 P0.5; Tool Off

G0 Z0; move to z-safe height
G0 X1146.0000 Y349.2800
M3S0
G4 P0.5; Tool On
G1 F300 Z0.0000
G1 F15000 X4.0000 Y349.2800 Z0.0000
M3S245
G4 P0.5; Tool Off

G0 Z0; move to z-safe height
G0 X4.0000 Y357.2800
M3S0
G4 P0.5; Tool On
G1 F300 Z0.0000
G1 F15000 X1146.0000 Y357.2800 Z0.0000
M3S245
G4 P0.5; Tool Off

G0 Z0; move to z-safe height
G0 X1146.0000 Y365.2800
M3S0
G4 P0.5; Tool On
G1 F300 Z0.0000
G1 F15000 X4.0000 Y365.2800 Z0.0000
M3S245
G4 P0.5; Tool Off

G0 Z0; move to z-safe height
G0 X4.0000 Y373.2800
M3S0
G4 P0.5; Tool On
G1 F300 Z0.0000
G1 F15000 X1146.0000 Y373.2800 Z0.0000
M3S245
G4 P0.5; Tool Off

G0 Z0; move to z-safe height
G0 X1146.0000 Y381.2800
M3S0
G4 P0.5; Tool On
G1 F300 Z0.0000
G1 F15000 X4.0000 Y381.2800 Z0.0000
M3S245
G4 P0.5; Tool Off

G0 Z0; move to z-safe height
G0 X4.0000 Y389.2800
M3S0
G4 P0.5; Tool On
G1 F300 Z0.0000
G1 F15000 X1146.0000 Y389.2800 Z0.0000
M3S245
G4 P0.5; Tool Off

G0 Z0; move to z-safe height
G0 X1146.0000 Y397.2800
M3S0
G4 P0.5; Tool On
G1 F300 Z0.0000
G1 F15000 X4.0000 Y397.2800 Z0.0000
M3S245
G4 P0.5; Tool Off

G0 Z0; move to z-safe height
G0 X4.0000 Y405.2800
M3S0
G4 P0.5; Tool On
G1 F300 Z0.0000
G1 F15000 X1146.0000 Y405.2800 Z0.0000
M3S245
G4 P0.5; Tool Off

G0 Z0; move to z-safe height
G0 X1146.0000 Y413.2800
M3S0
G4 P0.5; Tool On
G1 F300 Z0.0000
G1 F15000 X4.0000 Y413.2800 Z0.0000
M3S245
G4 P0.5; Tool Off

G0 Z0; move to z-safe height
G0 X4.0000 Y421.2800
M3S0
G4 P0.5; Tool On
G1 F300 Z0.0000
G1 F15000 X1146.0000 Y421.2800 Z0.0000
M3S245
G4 P0.5; Tool Off

G0 Z0; move to z-safe height
G0 X1146.0000 Y429.2800
M3S0
G4 P0.5; Tool On
G1 F300 Z0.0000
G1 F15000 X4.0000 Y429.2800 Z0.0000
M3S245
G4 P0.5; Tool Off

G0 Z0; move to z-safe height
G0 X4.0000 Y437.2800
M3S0
G4 P0.5; Tool On
G1 F300 Z0.0000
G1 F15000 X1146.0000 Y437.2800 Z0.0000
M3S245
G4 P0.5; Tool Off

G0 Z0; move to z-safe height
G0 X1146.0000 Y445.2800
M3S0
G4 P0.5; Tool On
G1 F300 Z0.0000
G1 F15000 X4.0000 Y445.2800 Z0.0000
M3S245
G4 P0.5; Tool Off

G0 Z0; move to z-safe height
G0 X4.0000 Y453.2800
M3S0
G4 P0.5; Tool On
G1 F300 Z0.0000
G1 F15000 X1146.0000 Y453.2800 Z0.0000
M3S245
G4 P0.5; Tool Off

G0 Z0; move to z-safe height
G0 X1146.0000 Y461.2800
M3S0
G4 P0.5; Tool On
G1 F300 Z0.0000
G1 F15000 X4.0000 Y461.2800 Z0.0000
M3S245
G4 P0.5; Tool Off

G0 Z0; move to z-safe height
G0 X4.0000 Y469.2800
M3S0
G4 P0.5; Tool On
G1 F300 Z0.0000
G1 F15000 X1146.0000 Y469.2800 Z0.0000
M3S245
G4 P0.5; Tool Off

G0 Z0; move to z-safe height
G0 X1146.0000 Y477.2800
M3S0
G4 P0.5; Tool On
G1 F300 Z0.0000
G1 F15000 X4.0000 Y477.2800 Z0.0000
M3S245
G4 P0.5; Tool Off

G0 Z0; move to z-safe height
G0 X4.0000 Y485.2800
M3S0
G4 P0.5; Tool On
G1 F300 Z0.0000
G1 F15000 X1146.0000 Y485.2800 Z0.0000
M3S245
G4 P0.5; Tool Off

G0 Z0; move to z-safe height
G0 X1146.0000 Y493.2800
M3S0
G4 P0.5; Tool On
G1 F300 Z0.0000
G1 F15000 X4.0000 Y493.2800 Z0.0000
M3S245
G4 P0.5; Tool Off

G0 Z0; move to z-safe height
G0 X4.0000 Y501.2800
M3S0
G4 P0.5; Tool On
G1 F300 Z0.0000
G1 F15000 X1146.0000 Y501.2800 Z0.0000
M3S245
G4 P0.5; Tool Off

G0 Z0; move to z-safe height
G0 X1146.0000 Y509.2800
M3S0
G4 P0.5; Tool On
G1 F300 Z0.0000
G1 F15000 X4.0000 Y509.2800 Z0.0000
M3S245
G4 P0.5; Tool Off

G0 Z0; move to z-safe height
G0 X4.0000 Y517.2800
M3S0
G4 P0.5; Tool On
G1 F300 Z0.0000
G1 F15000 X1146.0000 Y517.2800 Z0.0000
M3S245
G4 P0.5; Tool Off

G0 Z0; move to z-safe height
G0 X1146.0000 Y525.2800
M3S0
G4 P0.5; Tool On
G1 F300 Z0.0000
G1 F15000 X4.0000 Y525.2800 Z0.0000
M3S245
G4 P0.5; Tool Off

G0 Z0; move to z-safe height
G0 X4.0000 Y533.2800
M3S0
G4 P0.5; Tool On
G1 F300 Z0.0000
G1 F15000 X1146.0000 Y533.2800 Z0.0000
M3S245
G4 P0.5; Tool Off

G0 Z0; move to z-safe height
G0 X1146.0000 Y541.2800
M3S0
G4 P0.5; Tool On
G1 F300 Z0.0000
G1 F15000 X4.0000 Y541.2800 Z0.0000
M3S245
G4 P0.5; Tool Off

G0 Z0; move to z-safe height
G0 X4.0000 Y549.2800
M3S0
G4 P0.5; Tool On
G1 F300 Z0.0000
G1 F15000 X1146.0000 Y549.2800 Z0.0000
M3S245
G4 P0.5; Tool Off

G0 Z0; move to z-safe height
G0 X1146.0000 Y557.2800
M3S0
G4 P0.5; Tool On
G1 F300 Z0.0000
G1 F15000 X4.0000 Y557.2800 Z0.0000
M3S245
G4 P0.5; Tool Off

G0 Z0; move to z-safe height
G0 X4.0000 Y565.2800
M3S0
G4 P0.5; Tool On
G1 F300 Z0.0000
G1 F15000 X1146.0000 Y565.2800 Z0.0000
M3S245
G4 P0.5; Tool Off

G0 Z0; move to z-safe height
G0 X1146.0000 Y573.2800
M3S0
G4 P0.5; Tool On
G1 F300 Z0.0000
G1 F15000 X4.0000 Y573.2800 Z0.0000
M3S245
G4 P0.5; Tool Off

G0 Z0; move to z-safe height
G0 X4.0000 Y581.2800
M3S0
G4 P0.5; Tool On
G1 F300 Z0.0000
G1 F15000 X1146.0000 Y581.2800 Z0.0000
M3S245
G4 P0.5; Tool Off

G0 Z0; move to z-safe height
G0 X1146.0000 Y589.2800
M3S0
G4 P0.5; Tool On
G1 F300 Z0.0000
G1 F15000 X4.0000 Y589.2800 Z0.0000
M3S245
G4 P0.5; Tool Off

G0 Z0; move to z-safe height
G0 X4.0000 Y597.2800
M3S0
G4 P0.5; Tool On
G1 F300 Z0.0000
G1 F15000 X1146.0000 Y597.2800 Z0.0000
M3S245
G4 P0.5; Tool Off

G0 Z0; move to z-safe height
G0 X1146.0000 Y605.2800
M3S0
G4 P0.5; Tool On
G1 F300 Z0.0000
G1 F15000 X4.0000 Y605.2800 Z0.0000
M3S245
G4 P0.5; Tool Off

G0 Z0; move to z-safe height
G0 X4.0000 Y613.2800
M3S0
G4 P0.5; Tool On
G1 F300 Z0.0000
G1 F15000 X1146.0000 Y613.2800 Z0.0000
M3S245
G4 P0.5; Tool Off

G0 Z0; move to z-safe height
G0 X1146.0000 Y621.2800
M3S0
G4 P0.5; Tool On
G1 F300 Z0.0000
G1 F15000 X4.0000 Y621.2800 Z0.0000
M3S245
G4 P0.5; Tool Off

G0 Z0; move to z-safe height
G0 X4.0000 Y629.2800
M3S0
G4 P0.5; Tool On
G1 F300 Z0.0000
G1 F15000 X1146.0000 Y629.2800 Z0.0000
M3S245
G4 P0.5; Tool Off

G0 Z0; move to z-safe height
G0 X1146.0000 Y637.2800
M3S0
G4 P0.5; Tool On
G1 F300 Z0.0000
G1 F15000 X4.0000 Y637.2800 Z0.0000
M3S245
G4 P0.5; Tool Off

G0 Z0; move to z-safe height
G0 X4.0000 Y645.2800
M3S0
G4 P0.5; Tool On
G1 F300 Z0.0000
G1 F15000 X1146.0000 Y645.2800 Z0.0000
M3S245
G4 P0.5; Tool Off

G0 Z0; move to z-safe height
G0 X1146.0000 Y653.2800
M3S0
G4 P0.5; Tool On
G1 F300 Z0.0000
G1 F15000 X4.0000 Y653.2800 Z0.0000
M3S245
G4 P0.5; Tool Off

G0 Z0; move to z-safe height
G0 X4.0000 Y661.2800
M3S0
G4 P0.5; Tool On
G1 F300 Z0.0000
G1 F15000 X1146.0000 Y661.2800 Z0.0000
M3S245
G4 P0.5; Tool Off

G0 Z0; move to z-safe height
G0 X1146.0000 Y669.2800
M3S0
G4 P0.5; Tool On
G1 F300 Z0.0000
G1 F15000 X4.0000 Y669.2800 Z0.0000
M3S245
G4 P0.5; Tool Off

G0 Z0; move to z-safe height
G0 X4.0000 Y677.2800
M3S0
G4 P0.5; Tool On
G1 F300 Z0.0000
G1 F15000 X1146.0000 Y677.2800 Z0.0000
M3S245
G4 P0.5; Tool Off

G0 Z0; move to z-safe height
G0 X1146.0000 Y685.2800
M3S0
G4 P0.5; Tool On
G1 F300 Z0.0000
G1 F15000 X4.0000 Y685.2800 Z0.0000
M3S245
G4 P0.5; Tool Off

G0 Z0; move to z-safe height
G0 X4.0000 Y693.2800
M3S0
G4 P0.5; Tool On
G1 F300 Z0.0000
G1 F15000 X1146.0000 Y693.2800 Z0.0000
M3S245
G4 P0.5; Tool Off

G0 Z0; move to z-safe height
G0 X1146.0000 Y701.2800
M3S0
G4 P0.5; Tool On
G1 F300 Z0.0000
G1 F15000 X4.0000 Y701.2800 Z0.0000
M3S245
G4 P0.5; Tool Off

G0 Z0; move to z-safe height
G0 X4.0000 Y709.2800
M3S0
G4 P0.5; Tool On
G1 F300 Z0.0000
G1 F15000 X1146.0000 Y709.2800 Z0.0000
M3S245
G4 P0.5; Tool Off

G0 Z0; move to z-safe height
G0 X1146.0000 Y717.2800
M3S0
G4 P0.5; Tool On
G1 F300 Z0.0000
G1 F15000 X4.0000 Y717.2800 Z0.0000
M3S245
G4 P0.5; Tool Off

G0 Z0; move to z-safe height
G0 X4.0000 Y725.2800
M3S0
G4 P0.5; Tool On
G1 F300 Z0.0000
G1 F15000 X1146.0000 Y725.2800 Z0.0000
M3S245
G4 P0.5; Tool Off

G0 Z0; move to z-safe height
G0 X1146.0000 Y733.2800
M3S0
G4 P0.5; Tool On
G1 F300 Z0.0000
G1 F15000 X4.0000 Y733.2800 Z0.0000
M3S245
G4 P0.5; Tool Off

G0 Z0; move to z-safe height
G0 X4.0000 Y741.2800
M3S0
G4 P0.5; Tool On
G1 F300 Z0.0000
G1 F15000 X1146.0000 Y741.2800 Z0.0000
M3S245
G4 P0.5; Tool Off

G0 Z0; move to z-safe height
G0 X1146.0000 Y749.2800
M3S0
G4 P0.5; Tool On
G1 F300 Z0.0000
G1 F15000 X4.0000 Y749.2800 Z0.0000
M3S245
G4 P0.5; Tool Off

G0 Z0; move to z-safe height
G0 X4.0000 Y757.2800
M3S0
G4 P0.5; Tool On
G1 F300 Z0.0000
G1 F15000 X1146.0000 Y757.2800 Z0.0000
M3S245
G4 P0.5; Tool Off

G0 Z0; move to z-safe height
G0 X1146.0000 Y765.2800
M3S0
G4 P0.5; Tool On
G1 F300 Z0.0000
G1 F15000 X4.0000 Y765.2800 Z0.0000
M3S245
G4 P0.5; Tool Off

G0 Z0; move to z-safe height
G0 X4.0000 Y773.2800
M3S0
G4 P0.5; Tool On
G1 F300 Z0.0000
G1 F15000 X1146.0000 Y773.2800 Z0.0000
M3S245
G4 P0.5; Tool Off

G0 Z0; move to z-safe height
G0 X1146.0000 Y781.2800
M3S0
G4 P0.5; Tool On
G1 F300 Z0.0000
G1 F15000 X4.0000 Y781.2800 Z0.0000
M3S245
G4 P0.5; Tool Off

G0 Z0; move to z-safe height
G0 X4.0000 Y789.2800
M3S0
G4 P0.5; Tool On
G1 F300 Z0.0000
G1 F15000 X1146.0000 Y789.2800 Z0.0000
M3S245
G4 P0.5; Tool Off

G0 Z0; move to z-safe height
G0 X1146.0000 Y797.2800
M3S0
G4 P0.5; Tool On
G1 F300 Z0.0000
G1 F15000 X4.0000 Y797.2800 Z0.0000
M3S245
G4 P0.5; Tool Off

G0 Z0; move to z-safe height
G0 X4.0000 Y805.2800
M3S0
G4 P0.5; Tool On
G1 F300 Z0.0000
G1 F15000 X1146.0000 Y805.2800 Z0.0000
M3S245
G4 P0.5; Tool Off

G0 Z0; move to z-safe height
G0 X1146.0000 Y813.2800
M3S0
G4 P0.5; Tool On
G1 F300 Z0.0000
G1 F15000 X4.0000 Y813.2800 Z0.0000
M3S245
G4 P0.5; Tool Off

G0 Z0; move to z-safe height
G0 X4.0000 Y821.2800
M3S0
G4 P0.5; Tool On
G1 F300 Z0.0000
G1 F15000 X1146.0000 Y821.2800 Z0.0000
M3S245
G4 P0.5; Tool Off

G0 Z0; move to z-safe height
G0 X1146.0000 Y829.2800
M3S0
G4 P0.5; Tool On
G1 F300 Z0.0000
G1 F15000 X4.0000 Y829.2800 Z0.0000
M3S245
G4 P0.5; Tool Off

G0 Z0; move to z-safe height
G0 X4.0000 Y837.2800
M3S0
G4 P0.5; Tool On
G1 F300 Z0.0000
G1 F15000 X1146.0000 Y837.2800 Z0.0000
M3S245
G4 P0.5; Tool Off

G0 Z0; move to z-safe height
G0 X1146.0000 Y845.2800
M3S0
G4 P0.5; Tool On
G1 F300 Z0.0000
G1 F15000 X4.0000 Y845.2800 Z0.0000
M3S245
G4 P0.5; Tool Off

G0 Z0; move to z-safe height
G0 X4.0000 Y853.2800
M3S0
G4 P0.5; Tool On
G1 F300 Z0.0000
G1 F15000 X1146.0000 Y853.2800 Z0.0000
M3S245
G4 P0.5; Tool Off

G0 Z0; move to z-safe height
G0 X1146.0000 Y861.2800
M3S0
G4 P0.5; Tool On
G1 F300 Z0.0000
G1 F15000 X4.0000 Y861.2800 Z0.0000
M3S245
G4 P0.5; Tool Off

G0 Z0; move to z-safe height
G0 X4.0000 Y869.2800
M3S0
G4 P0.5; Tool On
G1 F300 Z0.0000
G1 F15000 X1146.0000 Y869.2800 Z0.0000
M3S245
G4 P0.5; Tool Off

G0 Z0; move to z-safe height
G0 X1146.0000 Y877.2800
M3S0
G4 P0.5; Tool On
G1 F300 Z0.0000
G1 F15000 X4.0000 Y877.2800 Z0.0000
M3S245
G4 P0.5; Tool Off

G0 Z0; move to z-safe height
G0 X4.0000 Y885.2800
M3S0
G4 P0.5; Tool On
G1 F300 Z0.0000
G1 F15000 X1146.0000 Y885.2800 Z0.0000
M3S245
G4 P0.5; Tool Off

G0 Z0; move to z-safe height
G0 X1146.0000 Y893.2800
M3S0
G4 P0.5; Tool On
G1 F300 Z0.0000
G1 F15000 X4.0000 Y893.2800 Z0.0000
M3S245
G4 P0.5; Tool Off

G0 Z0; move to z-safe height
G0 X4.0000 Y901.2800
M3S0
G4 P0.5; Tool On
G1 F300 Z0.0000
G1 F15000 X1146.0000 Y901.2800 Z0.0000
M3S245
G4 P0.5; Tool Off

G0 Z0; move to z-safe height
G0 X1146.0000 Y909.2800
M3S0
G4 P0.5; Tool On
G1 F300 Z0.0000
G1 F15000 X4.0000 Y909.2800 Z0.0000
M3S245
G4 P0.5; Tool Off

G0 Z0; move to z-safe height
G0 X4.0000 Y917.2800
M3S0
G4 P0.5; Tool On
G1 F300 Z0.0000
G1 F15000 X1146.0000 Y917.2800 Z0.0000
M3S245
G4 P0.5; Tool Off

G0 Z0; move to z-safe height
G0 X1146.0000 Y925.2800
M3S0
G4 P0.5; Tool On
G1 F300 Z0.0000
G1 F15000 X4.0000 Y925.2800 Z0.0000
M3S245
G4 P0.5; Tool Off

G0 Z0; move to z-safe height
G0 X4.0000 Y933.2800
M3S0
G4 P0.5; Tool On
G1 F300 Z0.0000
G1 F15000 X1146.0000 Y933.2800 Z0.0000
M3S245
G4 P0.5; Tool Off

G0 Z0; move to z-safe height
G0 X1146.0000 Y941.2800
M3S0
G4 P0.5; Tool On
G1 F300 Z0.0000
G1 F15000 X4.0000 Y941.2800 Z0.0000
M3S245
G4 P0.5; Tool Off

G0 Z0; move to z-safe height
G0 X4.0000 Y949.2800
M3S0
G4 P0.5; Tool On
G1 F300 Z0.0000
G1 F15000 X1146.0000 Y949.2800 Z0.0000
M3S245
G4 P0.5; Tool Off

G0 Z0; move to z-safe height
G0 X1146.0000 Y957.2800
M3S0
G4 P0.5; Tool On
G1 F300 Z0.0000
G1 F15000 X4.0000 Y957.2800 Z0.0000
M3S245
G4 P0.5; Tool Off

G0 Z0; move to z-safe height
G0 X4.0000 Y965.2800
M3S0
G4 P0.5; Tool On
G1 F300 Z0.0000
G1 F15000 X1146.0000 Y965.2800 Z0.0000
M3S245
G4 P0.5; Tool Off

G0 Z0; move to z-safe height
G0 X1146.0000 Y973.2800
M3S0
G4 P0.5; Tool On
G1 F300 Z0.0000
G1 F15000 X4.0000 Y973.2800 Z0.0000
M3S245
G4 P0.5; Tool Off

G0 Z0; move to z-safe height
G0 X4.0000 Y981.2800
M3S0
G4 P0.5; Tool On
G1 F300 Z0.0000
G1 F15000 X1146.0000 Y981.2800 Z0.0000
M3S245
G4 P0.5; Tool Off

G0 Z0; move to z-safe height
G0 X1146.0000 Y989.2800
M3S0
G4 P0.5; Tool On
G1 F300 Z0.0000
G1 F15000 X4.0000 Y989.2800 Z0.0000
M3S245
G4 P0.5; Tool Off

G0 Z0; move to z-safe height
G0 X4.0000 Y997.2800
M3S0
G4 P0.5; Tool On
G1 F300 Z0.0000
G1 F15000 X1146.0000 Y997.2800 Z0.0000
M3S245
G4 P0.5; Tool Off

G0 Z0; move to z-safe height
G0 X1146.0000 Y1005.2800
M3S0
G4 P0.5; Tool On
G1 F300 Z0.0000
G1 F15000 X4.0000 Y1005.2800 Z0.0000
M3S245
G4 P0.5; Tool Off

G0 Z0; move to z-safe height
G0 X4.0000 Y1013.2800
M3S0
G4 P0.5; Tool On
G1 F300 Z0.0000
G1 F15000 X1146.0000 Y1013.2800 Z0.0000
M3S245
G4 P0.5; Tool Off

G0 Z0; move to z-safe height
G0 X1146.0000 Y1021.2800
M3S0
G4 P0.5; Tool On
G1 F300 Z0.0000
G1 F15000 X4.0000 Y1021.2800 Z0.0000
M3S245
G4 P0.5; Tool Off

G0 Z0; move to z-safe height
G0 X4.0000 Y1029.2800
M3S0
G4 P0.5; Tool On
G1 F300 Z0.0000
G1 F15000 X1146.0000 Y1029.2800 Z0.0000
M3S245
G4 P0.5; Tool Off

G0 Z0; move to z-safe height
G0 X1146.0000 Y1037.2800
M3S0
G4 P0.5; Tool On
G1 F300 Z0.0000
G1 F15000 X4.0000 Y1037.2800 Z0.0000
M3S245
G4 P0.5; Tool Off

G0 Z0; move to z-safe height
G0 X4.0000 Y1045.2800
M3S0
G4 P0.5; Tool On
G1 F300 Z0.0000
G1 F15000 X1146.0000 Y1045.2800 Z0.0000
M3S245
G4 P0.5; Tool Off

G0 Z0; move to z-safe height
G0 X1146.0000 Y1053.2800
M3S0
G4 P0.5; Tool On
G1 F300 Z0.0000
G1 F15000 X4.0000 Y1053.2800 Z0.0000
M3S245
G4 P0.5; Tool Off

G0 Z0; move to z-safe height
G0 X4.0000 Y1061.2800
M3S0
G4 P0.5; Tool On
G1 F300 Z0.0000
G1 F15000 X1146.0000 Y1061.2800 Z0.0000
M3S245
G4 P0.5; Tool Off

G0 Z0; move to z-safe height
G0 X1146.0000 Y1069.2800
M3S0
G4 P0.5; Tool On
G1 F300 Z0.0000
G1 F15000 X4.0000 Y1069.2800 Z0.0000
M3S245
G4 P0.5; Tool Off

G0 Z0; move to z-safe height
G0 X4.0000 Y1077.2800
M3S0
G4 P0.5; Tool On
G1 F300 Z0.0000
G1 F15000 X1146.0000 Y1077.2800 Z0.0000
M3S245
G4 P0.5; Tool Off

G0 Z0; move to z-safe height
G0 X1146.0000 Y1085.2800
M3S0
G4 P0.5; Tool On
G1 F300 Z0.0000
G1 F15000 X4.0000 Y1085.2800 Z0.0000
M3S245
G4 P0.5; Tool Off

G0 Z0; move to z-safe height
G0 X4.0000 Y1093.2800
M3S0
G4 P0.5; Tool On
G1 F300 Z0.0000
G1 F15000 X1146.0000 Y1093.2800 Z0.0000
M3S245
G4 P0.5; Tool Off

G0 Z0; move to z-safe height
G0 X1146.0000 Y1101.2800
M3S0
G4 P0.5; Tool On
G1 F300 Z0.0000
G1 F15000 X4.0000 Y1101.2800 Z0.0000
M3S245
G4 P0.5; Tool Off

G0 Z0; move to z-safe height
G0 X4.0000 Y1109.2800
M3S0
G4 P0.5; Tool On
G1 F300 Z0.0000
G1 F15000 X1146.0000 Y1109.2800 Z0.0000
M3S245
G4 P0.5; Tool Off

G0 Z0; move to z-safe height
G0 X1146.0000 Y1117.2800
M3S0
G4 P0.5; Tool On
G1 F300 Z0.0000
G1 F15000 X4.0000 Y1117.2800 Z0.0000
M3S245
G4 P0.5; Tool Off

G0 Z0; move to z-safe height
G0 X4.0000 Y1125.2800
M3S0
G4 P0.5; Tool On
G1 F300 Z0.0000
G1 F15000 X1146.0000 Y1125.2800 Z0.0000
M3S245
G4 P0.5; Tool Off

G0 Z0; move to z-safe height
G0 X1146.0000 Y1133.2800
M3S0
G4 P0.5; Tool On
G1 F300 Z0.0000
G1 F15000 X4.0000 Y1133.2800 Z0.0000
M3S245
G4 P0.5; Tool Off

G0 Z0; move to z-safe height
G0 X4.0000 Y1141.2800
M3S0
G4 P0.5; Tool On
G1 F300 Z0.0000
G1 F15000 X1146.0000 Y1141.2800 Z0.0000
M3S245
G4 P0.5; Tool Off

G0 Z0; move to z-safe height
G0 X1146.0000 Y1149.2800
M3S0
G4 P0.5; Tool On
G1 F300 Z0.0000
G1 F15000 X4.0000 Y1149.2800 Z0.0000
M3S245
G4 P0.5; Tool Off

G0 Z0; move to z-safe height
G0 X4.0000 Y1157.2800
M3S0
G4 P0.5; Tool On
G1 F300 Z0.0000
G1 F15000 X1146.0000 Y1157.2800 Z0.0000
M3S245
G4 P0.5; Tool Off

G0 Z0; move to z-safe height
G0 X1146.0000 Y1165.2800
M3S0
G4 P0.5; Tool On
G1 F300 Z0.0000
G1 F15000 X4.0000 Y1165.2800 Z0.0000
M3S245
G4 P0.5; Tool Off

G0 Z0; move to z-safe height
G0 X4.0000 Y1173.2800
M3S0
G4 P0.5; Tool On
G1 F300 Z0.0000
G1 F15000 X1146.0000 Y1173.2800 Z0.0000
M3S245
G4 P0.5; Tool Off

G0 Z0; move to z-safe height
G0 X1146.0000 Y1181.2800
M3S0
G4 P0.5; Tool On
G1 F300 Z0.0000
G1 F15000 X4.0000 Y1181.2800 Z0.0000
M3S245
G4 P0.5; Tool Off

G0 Z0; move to z-safe height
G0 X4.0000 Y1189.2800
M3S0
G4 P0.5; Tool On
G1 F300 Z0.0000
G1 F15000 X1146.0000 Y1189.2800 Z0.0000
M3S245
G4 P0.5; Tool Off

G0 Z0; move to z-safe height
G0 X1146.0000 Y1197.2800
M3S0
G4 P0.5; Tool On
G1 F300 Z0.0000
G1 F15000 X4.0000 Y1197.2800 Z0.0000
M3S245
G4 P0.5; Tool Off

G0 Z0; move to z-safe height
G0 X4.0000 Y1205.2800
M3S0
G4 P0.5; Tool On
G1 F300 Z0.0000
G1 F15000 X1146.0000 Y1205.2800 Z0.0000
M3S245
G4 P0.5; Tool Off

G0 Z0; move to z-safe height
G0 X1146.0000 Y1213.2800
M3S0
G4 P0.5; Tool On
G1 F300 Z0.0000
G1 F15000 X4.0000 Y1213.2800 Z0.0000
M3S245
G4 P0.5; Tool Off

G0 Z0; move to z-safe height
G0 X4.0000 Y1221.2800
M3S0
G4 P0.5; Tool On
G1 F300 Z0.0000
G1 F15000 X1146.0000 Y1221.2800 Z0.0000
M3S245
G4 P0.5; Tool Off

G0 Z0; move to z-safe height
G0 X1146.0000 Y1229.2800
M3S0
G4 P0.5; Tool On
G1 F300 Z0.0000
G1 F15000 X4.0000 Y1229.2800 Z0.0000
M3S245
G4 P0.5; Tool Off

G0 Z0; move to z-safe height
G0 X4.0000 Y1237.2800
M3S0
G4 P0.5; Tool On
G1 F300 Z0.0000
G1 F15000 X1146.0000 Y1237.2800 Z0.0000
M3S245
G4 P0.5; Tool Off

G0 Z0; move to z-safe height
G0 X1146.0000 Y1245.2800
M3S0
G4 P0.5; Tool On
G1 F300 Z0.0000
G1 F15000 X4.0000 Y1245.2800 Z0.0000
M3S245
G4 P0.5; Tool Off

G0 Z0; move to z-safe height
G0 X4.0000 Y1253.2800
M3S0
G4 P0.5; Tool On
G1 F300 Z0.0000
G1 F15000 X1146.0000 Y1253.2800 Z0.0000
M3S245
G4 P0.5; Tool Off

G0 Z0; move to z-safe height
G0 X1146.0000 Y1261.2800
M3S0
G4 P0.5; Tool On
G1 F300 Z0.0000
G1 F15000 X4.0000 Y1261.2800 Z0.0000
M3S245
G4 P0.5; Tool Off

G0 Z0; move to z-safe height
G0 X4.0000 Y1269.2800
M3S0
G4 P0.5; Tool On
G1 F300 Z0.0000
G1 F15000 X1146.0000 Y1269.2800 Z0.0000
M3S245
G4 P0.5; Tool Off

G0 Z0; move to z-safe height
G0 X1146.0000 Y1277.2800
M3S0
G4 P0.5; Tool On
G1 F300 Z0.0000
G1 F15000 X4.0000 Y1277.2800 Z0.0000
M3S245
G4 P0.5; Tool Off

G0 Z0; move to z-safe height
G0 X4.0000 Y1285.2800
M3S0
G4 P0.5; Tool On
G1 F300 Z0.0000
G1 F15000 X1146.0000 Y1285.2800 Z0.0000
M3S245
G4 P0.5; Tool Off

G0 Z0; move to z-safe height
G0 X1146.0000 Y1293.2800
M3S0
G4 P0.5; Tool On
G1 F300 Z0.0000
G1 F15000 X4.0000 Y1293.2800 Z0.0000
M3S245
G4 P0.5; Tool Off

G0 Z0; move to z-safe height
G0 X4.0000 Y1301.2800
M3S0
G4 P0.5; Tool On
G1 F300 Z0.0000
G1 F15000 X1146.0000 Y1301.2800 Z0.0000
M3S245
G4 P0.5; Tool Off

G0 Z0; move to z-safe height
G0 X1146.0000 Y1309.2800
M3S0
G4 P0.5; Tool On
G1 F300 Z0.0000
G1 F15000 X4.0000 Y1309.2800 Z0.0000
M3S245
G4 P0.5; Tool Off

G0 Z0; move to z-safe height
G0 X4.0000 Y1317.2800
M3S0
G4 P0.5; Tool On
G1 F300 Z0.0000
G1 F15000 X1146.0000 Y1317.2800 Z0.0000
M3S245
G4 P0.5; Tool Off

G0 Z0; move to z-safe height
G0 X1146.0000 Y1325.2800
M3S0
G4 P0.5; Tool On
G1 F300 Z0.0000
G1 F15000 X4.0000 Y1325.2800 Z0.0000
M3S245
G4 P0.5; Tool Off

G0 Z0; move to z-safe height
G0 X4.0000 Y1333.2800
M3S0
G4 P0.5; Tool On
G1 F300 Z0.0000
G1 F15000 X1146.0000 Y1333.2800 Z0.0000
M3S245
G4 P0.5; Tool Off

G0 Z0; move to z-safe height
G0 X1146.0000 Y1341.2800
M3S0
G4 P0.5; Tool On
G1 F300 Z0.0000
G1 F15000 X4.0000 Y1341.2800 Z0.0000
M3S245
G4 P0.5; Tool Off

G0 Z0; move to z-safe height
G0 X4.0000 Y1349.2800
M3S0
G4 P0.5; Tool On
G1 F300 Z0.0000
G1 F15000 X1146.0000 Y1349.2800 Z0.0000
M3S245
G4 P0.5; Tool Off

G0 Z0; move to z-safe height
G0 X1146.0000 Y1357.2800
M3S0
G4 P0.5; Tool On
G1 F300 Z0.0000
G1 F15000 X4.0000 Y1357.2800 Z0.0000
M3S245
G4 P0.5; Tool Off

G0 Z0; move to z-safe height
G0 X4.0000 Y1365.2800
M3S0
G4 P0.5; Tool On
G1 F300 Z0.0000
G1 F15000 X1146.0000 Y1365.2800 Z0.0000
M3S245
G4 P0.5; Tool Off

G0 Z0; move to z-safe height
G0 X1146.0000 Y1373.2800
M3S0
G4 P0.5; Tool On
G1 F300 Z0.0000
G1 F15000 X4.0000 Y1373.2800 Z0.0000
M3S245
G4 P0.5; Tool Off

G0 Z0; move to z-safe height
G0 X4.0000 Y1381.2800
M3S0
G4 P0.5; Tool On
G1 F300 Z0.0000
G1 F15000 X1146.0000 Y1381.2800 Z0.0000
M3S245
G4 P0.5; Tool Off

G0 Z0; move to z-safe height
G0 X1146.0000 Y1389.2800
M3S0
G4 P0.5; Tool On
G1 F300 Z0.0000
G1 F15000 X4.0000 Y1389.2800 Z0.0000
M3S245
G4 P0.5; Tool Off

G0 Z0; move to z-safe height
G0 X4.0000 Y1397.2800
M3S0
G4 P0.5; Tool On
G1 F300 Z0.0000
G1 F15000 X1146.0000 Y1397.2800 Z0.0000
M3S245
G4 P0.5; Tool Off

G0 Z0; move to z-safe height
G0 X1146.0000 Y1405.2800
M3S0
G4 P0.5; Tool On
G1 F300 Z0.0000
G1 F15000 X4.0000 Y1405.2800 Z0.0000
M3S245
G4 P0.5; Tool Off

G0 Z0; move to z-safe height
G0 X4.0000 Y1413.2800
M3S0
G4 P0.5; Tool On
G1 F300 Z0.0000
G1 F15000 X1146.0000 Y1413.2800 Z0.0000
M3S245
G4 P0.5; Tool Off

G0 Z0; move to z-safe height
G0 X1146.0000 Y1421.2800
M3S0
G4 P0.5; Tool On
G1 F300 Z0.0000
G1 F15000 X4.0000 Y1421.2800 Z0.0000
M3S245
G4 P0.5; Tool Off

G0 Z0; move to z-safe height
G0 X4.0000 Y1429.2800
M3S0
G4 P0.5; Tool On
G1 F300 Z0.0000
G1 F15000 X1146.0000 Y1429.2800 Z0.0000
M3S245
G4 P0.5; Tool Off

G0 Z0; move to z-safe height
G0 X1146.0000 Y1437.2800
M3S0
G4 P0.5; Tool On
G1 F300 Z0.0000
G1 F15000 X4.0000 Y1437.2800 Z0.0000
M3S245
G4 P0.5; Tool Off

G0 Z0; move to z-safe height
G0 X4.0000 Y1445.2800
M3S0
G4 P0.5; Tool On
G1 F300 Z0.0000
G1 F15000 X1146.0000 Y1445.2800 Z0.0000
M3S245
G4 P0.5; Tool Off
; retracting back to z-safe
G0 Z0

; Plotter Mode Complete
