; GCODE Generated by cam.openbuilds.com on 2023-06-13 
G21 ; mm-mode
G54; Work Coordinates
G21; mm-mode
G90; Absolute Positioning
; Plotter Mode Active

; Operation 0: Pen Plotter: (lines fill)
; Pen Diameter: 2

G0 Z0; move to z-safe height
G0 F1000 X1148.0000 Y2.4700
M3S0
G4 P0.5; Tool On
G1 F300 Z0.0000
G1 F15000 X2.0000 Y2.4700 Z0.0000
M3S245
G4 P0.5; Tool Off

G0 Z0; move to z-safe height
G0 X2.0000 Y6.4700
M3S0
G4 P0.5; Tool On
G1 F300 Z0.0000
G1 F15000 X1148.0000 Y6.4700 Z0.0000
M3S245
G4 P0.5; Tool Off

G0 Z0; move to z-safe height
G0 X1148.0000 Y10.4700
M3S0
G4 P0.5; Tool On
G1 F300 Z0.0000
G1 F15000 X2.0000 Y10.4700 Z0.0000
M3S245
G4 P0.5; Tool Off

G0 Z0; move to z-safe height
G0 X2.0000 Y14.4700
M3S0
G4 P0.5; Tool On
G1 F300 Z0.0000
G1 F15000 X1148.0000 Y14.4700 Z0.0000
M3S245
G4 P0.5; Tool Off

G0 Z0; move to z-safe height
G0 X1148.0000 Y18.4700
M3S0
G4 P0.5; Tool On
G1 F300 Z0.0000
G1 F15000 X2.0000 Y18.4700 Z0.0000
M3S245
G4 P0.5; Tool Off

G0 Z0; move to z-safe height
G0 X2.0000 Y22.4700
M3S0
G4 P0.5; Tool On
G1 F300 Z0.0000
G1 F15000 X1148.0000 Y22.4700 Z0.0000
M3S245
G4 P0.5; Tool Off

G0 Z0; move to z-safe height
G0 X1148.0000 Y26.4700
M3S0
G4 P0.5; Tool On
G1 F300 Z0.0000
G1 F15000 X2.0000 Y26.4700 Z0.0000
M3S245
G4 P0.5; Tool Off

G0 Z0; move to z-safe height
G0 X2.0000 Y30.4700
M3S0
G4 P0.5; Tool On
G1 F300 Z0.0000
G1 F15000 X1148.0000 Y30.4700 Z0.0000
M3S245
G4 P0.5; Tool Off

G0 Z0; move to z-safe height
G0 X1148.0000 Y34.4700
M3S0
G4 P0.5; Tool On
G1 F300 Z0.0000
G1 F15000 X2.0000 Y34.4700 Z0.0000
M3S245
G4 P0.5; Tool Off

G0 Z0; move to z-safe height
G0 X2.0000 Y38.4700
M3S0
G4 P0.5; Tool On
G1 F300 Z0.0000
G1 F15000 X1148.0000 Y38.4700 Z0.0000
M3S245
G4 P0.5; Tool Off

G0 Z0; move to z-safe height
G0 X1148.0000 Y42.4700
M3S0
G4 P0.5; Tool On
G1 F300 Z0.0000
G1 F15000 X2.0000 Y42.4700 Z0.0000
M3S245
G4 P0.5; Tool Off

G0 Z0; move to z-safe height
G0 X2.0000 Y46.4700
M3S0
G4 P0.5; Tool On
G1 F300 Z0.0000
G1 F15000 X1148.0000 Y46.4700 Z0.0000
M3S245
G4 P0.5; Tool Off

G0 Z0; move to z-safe height
G0 X1148.0000 Y50.4700
M3S0
G4 P0.5; Tool On
G1 F300 Z0.0000
G1 F15000 X2.0000 Y50.4700 Z0.0000
M3S245
G4 P0.5; Tool Off

G0 Z0; move to z-safe height
G0 X2.0000 Y54.4700
M3S0
G4 P0.5; Tool On
G1 F300 Z0.0000
G1 F15000 X1148.0000 Y54.4700 Z0.0000
M3S245
G4 P0.5; Tool Off

G0 Z0; move to z-safe height
G0 X1148.0000 Y58.4700
M3S0
G4 P0.5; Tool On
G1 F300 Z0.0000
G1 F15000 X2.0000 Y58.4700 Z0.0000
M3S245
G4 P0.5; Tool Off

G0 Z0; move to z-safe height
G0 X2.0000 Y62.4700
M3S0
G4 P0.5; Tool On
G1 F300 Z0.0000
G1 F15000 X1148.0000 Y62.4700 Z0.0000
M3S245
G4 P0.5; Tool Off

G0 Z0; move to z-safe height
G0 X1148.0000 Y66.4700
M3S0
G4 P0.5; Tool On
G1 F300 Z0.0000
G1 F15000 X2.0000 Y66.4700 Z0.0000
M3S245
G4 P0.5; Tool Off

G0 Z0; move to z-safe height
G0 X2.0000 Y70.4700
M3S0
G4 P0.5; Tool On
G1 F300 Z0.0000
G1 F15000 X1148.0000 Y70.4700 Z0.0000
M3S245
G4 P0.5; Tool Off

G0 Z0; move to z-safe height
G0 X1148.0000 Y74.4700
M3S0
G4 P0.5; Tool On
G1 F300 Z0.0000
G1 F15000 X2.0000 Y74.4700 Z0.0000
M3S245
G4 P0.5; Tool Off

G0 Z0; move to z-safe height
G0 X2.0000 Y78.4700
M3S0
G4 P0.5; Tool On
G1 F300 Z0.0000
G1 F15000 X1148.0000 Y78.4700 Z0.0000
M3S245
G4 P0.5; Tool Off

G0 Z0; move to z-safe height
G0 X1148.0000 Y82.4700
M3S0
G4 P0.5; Tool On
G1 F300 Z0.0000
G1 F15000 X2.0000 Y82.4700 Z0.0000
M3S245
G4 P0.5; Tool Off

G0 Z0; move to z-safe height
G0 X2.0000 Y86.4700
M3S0
G4 P0.5; Tool On
G1 F300 Z0.0000
G1 F15000 X1148.0000 Y86.4700 Z0.0000
M3S245
G4 P0.5; Tool Off

G0 Z0; move to z-safe height
G0 X1148.0000 Y90.4700
M3S0
G4 P0.5; Tool On
G1 F300 Z0.0000
G1 F15000 X2.0000 Y90.4700 Z0.0000
M3S245
G4 P0.5; Tool Off

G0 Z0; move to z-safe height
G0 X2.0000 Y94.4700
M3S0
G4 P0.5; Tool On
G1 F300 Z0.0000
G1 F15000 X1148.0000 Y94.4700 Z0.0000
M3S245
G4 P0.5; Tool Off

G0 Z0; move to z-safe height
G0 X1148.0000 Y98.4700
M3S0
G4 P0.5; Tool On
G1 F300 Z0.0000
G1 F15000 X2.0000 Y98.4700 Z0.0000
M3S245
G4 P0.5; Tool Off

G0 Z0; move to z-safe height
G0 X2.0000 Y102.4700
M3S0
G4 P0.5; Tool On
G1 F300 Z0.0000
G1 F15000 X1148.0000 Y102.4700 Z0.0000
M3S245
G4 P0.5; Tool Off

G0 Z0; move to z-safe height
G0 X1148.0000 Y106.4700
M3S0
G4 P0.5; Tool On
G1 F300 Z0.0000
G1 F15000 X2.0000 Y106.4700 Z0.0000
M3S245
G4 P0.5; Tool Off

G0 Z0; move to z-safe height
G0 X2.0000 Y110.4700
M3S0
G4 P0.5; Tool On
G1 F300 Z0.0000
G1 F15000 X1148.0000 Y110.4700 Z0.0000
M3S245
G4 P0.5; Tool Off

G0 Z0; move to z-safe height
G0 X1148.0000 Y114.4700
M3S0
G4 P0.5; Tool On
G1 F300 Z0.0000
G1 F15000 X2.0000 Y114.4700 Z0.0000
M3S245
G4 P0.5; Tool Off

G0 Z0; move to z-safe height
G0 X2.0000 Y118.4700
M3S0
G4 P0.5; Tool On
G1 F300 Z0.0000
G1 F15000 X1148.0000 Y118.4700 Z0.0000
M3S245
G4 P0.5; Tool Off

G0 Z0; move to z-safe height
G0 X1148.0000 Y122.4700
M3S0
G4 P0.5; Tool On
G1 F300 Z0.0000
G1 F15000 X2.0000 Y122.4700 Z0.0000
M3S245
G4 P0.5; Tool Off

G0 Z0; move to z-safe height
G0 X2.0000 Y126.4700
M3S0
G4 P0.5; Tool On
G1 F300 Z0.0000
G1 F15000 X1148.0000 Y126.4700 Z0.0000
M3S245
G4 P0.5; Tool Off

G0 Z0; move to z-safe height
G0 X1148.0000 Y130.4700
M3S0
G4 P0.5; Tool On
G1 F300 Z0.0000
G1 F15000 X2.0000 Y130.4700 Z0.0000
M3S245
G4 P0.5; Tool Off

G0 Z0; move to z-safe height
G0 X2.0000 Y134.4700
M3S0
G4 P0.5; Tool On
G1 F300 Z0.0000
G1 F15000 X1148.0000 Y134.4700 Z0.0000
M3S245
G4 P0.5; Tool Off

G0 Z0; move to z-safe height
G0 X1148.0000 Y138.4700
M3S0
G4 P0.5; Tool On
G1 F300 Z0.0000
G1 F15000 X2.0000 Y138.4700 Z0.0000
M3S245
G4 P0.5; Tool Off

G0 Z0; move to z-safe height
G0 X2.0000 Y142.4700
M3S0
G4 P0.5; Tool On
G1 F300 Z0.0000
G1 F15000 X1148.0000 Y142.4700 Z0.0000
M3S245
G4 P0.5; Tool Off

G0 Z0; move to z-safe height
G0 X1148.0000 Y146.4700
M3S0
G4 P0.5; Tool On
G1 F300 Z0.0000
G1 F15000 X2.0000 Y146.4700 Z0.0000
M3S245
G4 P0.5; Tool Off

G0 Z0; move to z-safe height
G0 X2.0000 Y150.4700
M3S0
G4 P0.5; Tool On
G1 F300 Z0.0000
G1 F15000 X1148.0000 Y150.4700 Z0.0000
M3S245
G4 P0.5; Tool Off

G0 Z0; move to z-safe height
G0 X1148.0000 Y154.4700
M3S0
G4 P0.5; Tool On
G1 F300 Z0.0000
G1 F15000 X2.0000 Y154.4700 Z0.0000
M3S245
G4 P0.5; Tool Off

G0 Z0; move to z-safe height
G0 X2.0000 Y158.4700
M3S0
G4 P0.5; Tool On
G1 F300 Z0.0000
G1 F15000 X1148.0000 Y158.4700 Z0.0000
M3S245
G4 P0.5; Tool Off

G0 Z0; move to z-safe height
G0 X1148.0000 Y162.4700
M3S0
G4 P0.5; Tool On
G1 F300 Z0.0000
G1 F15000 X2.0000 Y162.4700 Z0.0000
M3S245
G4 P0.5; Tool Off

G0 Z0; move to z-safe height
G0 X2.0000 Y166.4700
M3S0
G4 P0.5; Tool On
G1 F300 Z0.0000
G1 F15000 X1148.0000 Y166.4700 Z0.0000
M3S245
G4 P0.5; Tool Off

G0 Z0; move to z-safe height
G0 X1148.0000 Y170.4700
M3S0
G4 P0.5; Tool On
G1 F300 Z0.0000
G1 F15000 X2.0000 Y170.4700 Z0.0000
M3S245
G4 P0.5; Tool Off

G0 Z0; move to z-safe height
G0 X2.0000 Y174.4700
M3S0
G4 P0.5; Tool On
G1 F300 Z0.0000
G1 F15000 X1148.0000 Y174.4700 Z0.0000
M3S245
G4 P0.5; Tool Off

G0 Z0; move to z-safe height
G0 X1148.0000 Y178.4700
M3S0
G4 P0.5; Tool On
G1 F300 Z0.0000
G1 F15000 X2.0000 Y178.4700 Z0.0000
M3S245
G4 P0.5; Tool Off

G0 Z0; move to z-safe height
G0 X2.0000 Y182.4700
M3S0
G4 P0.5; Tool On
G1 F300 Z0.0000
G1 F15000 X1148.0000 Y182.4700 Z0.0000
M3S245
G4 P0.5; Tool Off

G0 Z0; move to z-safe height
G0 X1148.0000 Y186.4700
M3S0
G4 P0.5; Tool On
G1 F300 Z0.0000
G1 F15000 X2.0000 Y186.4700 Z0.0000
M3S245
G4 P0.5; Tool Off

G0 Z0; move to z-safe height
G0 X2.0000 Y190.4700
M3S0
G4 P0.5; Tool On
G1 F300 Z0.0000
G1 F15000 X1148.0000 Y190.4700 Z0.0000
M3S245
G4 P0.5; Tool Off

G0 Z0; move to z-safe height
G0 X1148.0000 Y194.4700
M3S0
G4 P0.5; Tool On
G1 F300 Z0.0000
G1 F15000 X2.0000 Y194.4700 Z0.0000
M3S245
G4 P0.5; Tool Off

G0 Z0; move to z-safe height
G0 X2.0000 Y198.4700
M3S0
G4 P0.5; Tool On
G1 F300 Z0.0000
G1 F15000 X1148.0000 Y198.4700 Z0.0000
M3S245
G4 P0.5; Tool Off

G0 Z0; move to z-safe height
G0 X1148.0000 Y202.4700
M3S0
G4 P0.5; Tool On
G1 F300 Z0.0000
G1 F15000 X2.0000 Y202.4700 Z0.0000
M3S245
G4 P0.5; Tool Off

G0 Z0; move to z-safe height
G0 X2.0000 Y206.4700
M3S0
G4 P0.5; Tool On
G1 F300 Z0.0000
G1 F15000 X1148.0000 Y206.4700 Z0.0000
M3S245
G4 P0.5; Tool Off

G0 Z0; move to z-safe height
G0 X1148.0000 Y210.4700
M3S0
G4 P0.5; Tool On
G1 F300 Z0.0000
G1 F15000 X2.0000 Y210.4700 Z0.0000
M3S245
G4 P0.5; Tool Off

G0 Z0; move to z-safe height
G0 X2.0000 Y214.4700
M3S0
G4 P0.5; Tool On
G1 F300 Z0.0000
G1 F15000 X1148.0000 Y214.4700 Z0.0000
M3S245
G4 P0.5; Tool Off

G0 Z0; move to z-safe height
G0 X1148.0000 Y218.4700
M3S0
G4 P0.5; Tool On
G1 F300 Z0.0000
G1 F15000 X2.0000 Y218.4700 Z0.0000
M3S245
G4 P0.5; Tool Off

G0 Z0; move to z-safe height
G0 X2.0000 Y222.4700
M3S0
G4 P0.5; Tool On
G1 F300 Z0.0000
G1 F15000 X1148.0000 Y222.4700 Z0.0000
M3S245
G4 P0.5; Tool Off

G0 Z0; move to z-safe height
G0 X1148.0000 Y226.4700
M3S0
G4 P0.5; Tool On
G1 F300 Z0.0000
G1 F15000 X2.0000 Y226.4700 Z0.0000
M3S245
G4 P0.5; Tool Off

G0 Z0; move to z-safe height
G0 X2.0000 Y230.4700
M3S0
G4 P0.5; Tool On
G1 F300 Z0.0000
G1 F15000 X1148.0000 Y230.4700 Z0.0000
M3S245
G4 P0.5; Tool Off

G0 Z0; move to z-safe height
G0 X1148.0000 Y234.4700
M3S0
G4 P0.5; Tool On
G1 F300 Z0.0000
G1 F15000 X2.0000 Y234.4700 Z0.0000
M3S245
G4 P0.5; Tool Off

G0 Z0; move to z-safe height
G0 X2.0000 Y238.4700
M3S0
G4 P0.5; Tool On
G1 F300 Z0.0000
G1 F15000 X1148.0000 Y238.4700 Z0.0000
M3S245
G4 P0.5; Tool Off

G0 Z0; move to z-safe height
G0 X1148.0000 Y242.4700
M3S0
G4 P0.5; Tool On
G1 F300 Z0.0000
G1 F15000 X2.0000 Y242.4700 Z0.0000
M3S245
G4 P0.5; Tool Off

G0 Z0; move to z-safe height
G0 X2.0000 Y246.4700
M3S0
G4 P0.5; Tool On
G1 F300 Z0.0000
G1 F15000 X1148.0000 Y246.4700 Z0.0000
M3S245
G4 P0.5; Tool Off

G0 Z0; move to z-safe height
G0 X1148.0000 Y250.4700
M3S0
G4 P0.5; Tool On
G1 F300 Z0.0000
G1 F15000 X2.0000 Y250.4700 Z0.0000
M3S245
G4 P0.5; Tool Off

G0 Z0; move to z-safe height
G0 X2.0000 Y254.4700
M3S0
G4 P0.5; Tool On
G1 F300 Z0.0000
G1 F15000 X1148.0000 Y254.4700 Z0.0000
M3S245
G4 P0.5; Tool Off

G0 Z0; move to z-safe height
G0 X1148.0000 Y258.4700
M3S0
G4 P0.5; Tool On
G1 F300 Z0.0000
G1 F15000 X2.0000 Y258.4700 Z0.0000
M3S245
G4 P0.5; Tool Off

G0 Z0; move to z-safe height
G0 X2.0000 Y262.4700
M3S0
G4 P0.5; Tool On
G1 F300 Z0.0000
G1 F15000 X1148.0000 Y262.4700 Z0.0000
M3S245
G4 P0.5; Tool Off

G0 Z0; move to z-safe height
G0 X1148.0000 Y266.4700
M3S0
G4 P0.5; Tool On
G1 F300 Z0.0000
G1 F15000 X2.0000 Y266.4700 Z0.0000
M3S245
G4 P0.5; Tool Off

G0 Z0; move to z-safe height
G0 X2.0000 Y270.4700
M3S0
G4 P0.5; Tool On
G1 F300 Z0.0000
G1 F15000 X1148.0000 Y270.4700 Z0.0000
M3S245
G4 P0.5; Tool Off

G0 Z0; move to z-safe height
G0 X1148.0000 Y274.4700
M3S0
G4 P0.5; Tool On
G1 F300 Z0.0000
G1 F15000 X2.0000 Y274.4700 Z0.0000
M3S245
G4 P0.5; Tool Off

G0 Z0; move to z-safe height
G0 X2.0000 Y278.4700
M3S0
G4 P0.5; Tool On
G1 F300 Z0.0000
G1 F15000 X1148.0000 Y278.4700 Z0.0000
M3S245
G4 P0.5; Tool Off

G0 Z0; move to z-safe height
G0 X1148.0000 Y282.4700
M3S0
G4 P0.5; Tool On
G1 F300 Z0.0000
G1 F15000 X2.0000 Y282.4700 Z0.0000
M3S245
G4 P0.5; Tool Off

G0 Z0; move to z-safe height
G0 X2.0000 Y286.4700
M3S0
G4 P0.5; Tool On
G1 F300 Z0.0000
G1 F15000 X1148.0000 Y286.4700 Z0.0000
M3S245
G4 P0.5; Tool Off

G0 Z0; move to z-safe height
G0 X1148.0000 Y290.4700
M3S0
G4 P0.5; Tool On
G1 F300 Z0.0000
G1 F15000 X2.0000 Y290.4700 Z0.0000
M3S245
G4 P0.5; Tool Off

G0 Z0; move to z-safe height
G0 X2.0000 Y294.4700
M3S0
G4 P0.5; Tool On
G1 F300 Z0.0000
G1 F15000 X1148.0000 Y294.4700 Z0.0000
M3S245
G4 P0.5; Tool Off

G0 Z0; move to z-safe height
G0 X1148.0000 Y298.4700
M3S0
G4 P0.5; Tool On
G1 F300 Z0.0000
G1 F15000 X2.0000 Y298.4700 Z0.0000
M3S245
G4 P0.5; Tool Off

G0 Z0; move to z-safe height
G0 X2.0000 Y302.4700
M3S0
G4 P0.5; Tool On
G1 F300 Z0.0000
G1 F15000 X1148.0000 Y302.4700 Z0.0000
M3S245
G4 P0.5; Tool Off

G0 Z0; move to z-safe height
G0 X1148.0000 Y306.4700
M3S0
G4 P0.5; Tool On
G1 F300 Z0.0000
G1 F15000 X2.0000 Y306.4700 Z0.0000
M3S245
G4 P0.5; Tool Off

G0 Z0; move to z-safe height
G0 X2.0000 Y310.4700
M3S0
G4 P0.5; Tool On
G1 F300 Z0.0000
G1 F15000 X1148.0000 Y310.4700 Z0.0000
M3S245
G4 P0.5; Tool Off

G0 Z0; move to z-safe height
G0 X1148.0000 Y314.4700
M3S0
G4 P0.5; Tool On
G1 F300 Z0.0000
G1 F15000 X2.0000 Y314.4700 Z0.0000
M3S245
G4 P0.5; Tool Off

G0 Z0; move to z-safe height
G0 X2.0000 Y318.4700
M3S0
G4 P0.5; Tool On
G1 F300 Z0.0000
G1 F15000 X1148.0000 Y318.4700 Z0.0000
M3S245
G4 P0.5; Tool Off

G0 Z0; move to z-safe height
G0 X1148.0000 Y322.4700
M3S0
G4 P0.5; Tool On
G1 F300 Z0.0000
G1 F15000 X2.0000 Y322.4700 Z0.0000
M3S245
G4 P0.5; Tool Off

G0 Z0; move to z-safe height
G0 X2.0000 Y326.4700
M3S0
G4 P0.5; Tool On
G1 F300 Z0.0000
G1 F15000 X1148.0000 Y326.4700 Z0.0000
M3S245
G4 P0.5; Tool Off

G0 Z0; move to z-safe height
G0 X1148.0000 Y330.4700
M3S0
G4 P0.5; Tool On
G1 F300 Z0.0000
G1 F15000 X2.0000 Y330.4700 Z0.0000
M3S245
G4 P0.5; Tool Off

G0 Z0; move to z-safe height
G0 X2.0000 Y334.4700
M3S0
G4 P0.5; Tool On
G1 F300 Z0.0000
G1 F15000 X1148.0000 Y334.4700 Z0.0000
M3S245
G4 P0.5; Tool Off

G0 Z0; move to z-safe height
G0 X1148.0000 Y338.4700
M3S0
G4 P0.5; Tool On
G1 F300 Z0.0000
G1 F15000 X2.0000 Y338.4700 Z0.0000
M3S245
G4 P0.5; Tool Off

G0 Z0; move to z-safe height
G0 X2.0000 Y342.4700
M3S0
G4 P0.5; Tool On
G1 F300 Z0.0000
G1 F15000 X1148.0000 Y342.4700 Z0.0000
M3S245
G4 P0.5; Tool Off

G0 Z0; move to z-safe height
G0 X1148.0000 Y346.4700
M3S0
G4 P0.5; Tool On
G1 F300 Z0.0000
G1 F15000 X2.0000 Y346.4700 Z0.0000
M3S245
G4 P0.5; Tool Off

G0 Z0; move to z-safe height
G0 X2.0000 Y350.4700
M3S0
G4 P0.5; Tool On
G1 F300 Z0.0000
G1 F15000 X1148.0000 Y350.4700 Z0.0000
M3S245
G4 P0.5; Tool Off

G0 Z0; move to z-safe height
G0 X1148.0000 Y354.4700
M3S0
G4 P0.5; Tool On
G1 F300 Z0.0000
G1 F15000 X2.0000 Y354.4700 Z0.0000
M3S245
G4 P0.5; Tool Off

G0 Z0; move to z-safe height
G0 X2.0000 Y358.4700
M3S0
G4 P0.5; Tool On
G1 F300 Z0.0000
G1 F15000 X1148.0000 Y358.4700 Z0.0000
M3S245
G4 P0.5; Tool Off

G0 Z0; move to z-safe height
G0 X1148.0000 Y362.4700
M3S0
G4 P0.5; Tool On
G1 F300 Z0.0000
G1 F15000 X2.0000 Y362.4700 Z0.0000
M3S245
G4 P0.5; Tool Off

G0 Z0; move to z-safe height
G0 X2.0000 Y366.4700
M3S0
G4 P0.5; Tool On
G1 F300 Z0.0000
G1 F15000 X1148.0000 Y366.4700 Z0.0000
M3S245
G4 P0.5; Tool Off

G0 Z0; move to z-safe height
G0 X1148.0000 Y370.4700
M3S0
G4 P0.5; Tool On
G1 F300 Z0.0000
G1 F15000 X2.0000 Y370.4700 Z0.0000
M3S245
G4 P0.5; Tool Off

G0 Z0; move to z-safe height
G0 X2.0000 Y374.4700
M3S0
G4 P0.5; Tool On
G1 F300 Z0.0000
G1 F15000 X1148.0000 Y374.4700 Z0.0000
M3S245
G4 P0.5; Tool Off

G0 Z0; move to z-safe height
G0 X1148.0000 Y378.4700
M3S0
G4 P0.5; Tool On
G1 F300 Z0.0000
G1 F15000 X2.0000 Y378.4700 Z0.0000
M3S245
G4 P0.5; Tool Off

G0 Z0; move to z-safe height
G0 X2.0000 Y382.4700
M3S0
G4 P0.5; Tool On
G1 F300 Z0.0000
G1 F15000 X1148.0000 Y382.4700 Z0.0000
M3S245
G4 P0.5; Tool Off

G0 Z0; move to z-safe height
G0 X1148.0000 Y386.4700
M3S0
G4 P0.5; Tool On
G1 F300 Z0.0000
G1 F15000 X2.0000 Y386.4700 Z0.0000
M3S245
G4 P0.5; Tool Off

G0 Z0; move to z-safe height
G0 X2.0000 Y390.4700
M3S0
G4 P0.5; Tool On
G1 F300 Z0.0000
G1 F15000 X1148.0000 Y390.4700 Z0.0000
M3S245
G4 P0.5; Tool Off

G0 Z0; move to z-safe height
G0 X1148.0000 Y394.4700
M3S0
G4 P0.5; Tool On
G1 F300 Z0.0000
G1 F15000 X2.0000 Y394.4700 Z0.0000
M3S245
G4 P0.5; Tool Off

G0 Z0; move to z-safe height
G0 X2.0000 Y398.4700
M3S0
G4 P0.5; Tool On
G1 F300 Z0.0000
G1 F15000 X1148.0000 Y398.4700 Z0.0000
M3S245
G4 P0.5; Tool Off

G0 Z0; move to z-safe height
G0 X1148.0000 Y402.4700
M3S0
G4 P0.5; Tool On
G1 F300 Z0.0000
G1 F15000 X2.0000 Y402.4700 Z0.0000
M3S245
G4 P0.5; Tool Off

G0 Z0; move to z-safe height
G0 X2.0000 Y406.4700
M3S0
G4 P0.5; Tool On
G1 F300 Z0.0000
G1 F15000 X1148.0000 Y406.4700 Z0.0000
M3S245
G4 P0.5; Tool Off

G0 Z0; move to z-safe height
G0 X1148.0000 Y410.4700
M3S0
G4 P0.5; Tool On
G1 F300 Z0.0000
G1 F15000 X2.0000 Y410.4700 Z0.0000
M3S245
G4 P0.5; Tool Off

G0 Z0; move to z-safe height
G0 X2.0000 Y414.4700
M3S0
G4 P0.5; Tool On
G1 F300 Z0.0000
G1 F15000 X1148.0000 Y414.4700 Z0.0000
M3S245
G4 P0.5; Tool Off

G0 Z0; move to z-safe height
G0 X1148.0000 Y418.4700
M3S0
G4 P0.5; Tool On
G1 F300 Z0.0000
G1 F15000 X2.0000 Y418.4700 Z0.0000
M3S245
G4 P0.5; Tool Off

G0 Z0; move to z-safe height
G0 X2.0000 Y422.4700
M3S0
G4 P0.5; Tool On
G1 F300 Z0.0000
G1 F15000 X1148.0000 Y422.4700 Z0.0000
M3S245
G4 P0.5; Tool Off

G0 Z0; move to z-safe height
G0 X1148.0000 Y426.4700
M3S0
G4 P0.5; Tool On
G1 F300 Z0.0000
G1 F15000 X2.0000 Y426.4700 Z0.0000
M3S245
G4 P0.5; Tool Off

G0 Z0; move to z-safe height
G0 X2.0000 Y430.4700
M3S0
G4 P0.5; Tool On
G1 F300 Z0.0000
G1 F15000 X1148.0000 Y430.4700 Z0.0000
M3S245
G4 P0.5; Tool Off

G0 Z0; move to z-safe height
G0 X1148.0000 Y434.4700
M3S0
G4 P0.5; Tool On
G1 F300 Z0.0000
G1 F15000 X2.0000 Y434.4700 Z0.0000
M3S245
G4 P0.5; Tool Off

G0 Z0; move to z-safe height
G0 X2.0000 Y438.4700
M3S0
G4 P0.5; Tool On
G1 F300 Z0.0000
G1 F15000 X1148.0000 Y438.4700 Z0.0000
M3S245
G4 P0.5; Tool Off

G0 Z0; move to z-safe height
G0 X1148.0000 Y442.4700
M3S0
G4 P0.5; Tool On
G1 F300 Z0.0000
G1 F15000 X2.0000 Y442.4700 Z0.0000
M3S245
G4 P0.5; Tool Off

G0 Z0; move to z-safe height
G0 X2.0000 Y446.4700
M3S0
G4 P0.5; Tool On
G1 F300 Z0.0000
G1 F15000 X1148.0000 Y446.4700 Z0.0000
M3S245
G4 P0.5; Tool Off

G0 Z0; move to z-safe height
G0 X1148.0000 Y450.4700
M3S0
G4 P0.5; Tool On
G1 F300 Z0.0000
G1 F15000 X2.0000 Y450.4700 Z0.0000
M3S245
G4 P0.5; Tool Off

G0 Z0; move to z-safe height
G0 X2.0000 Y454.4700
M3S0
G4 P0.5; Tool On
G1 F300 Z0.0000
G1 F15000 X1148.0000 Y454.4700 Z0.0000
M3S245
G4 P0.5; Tool Off

G0 Z0; move to z-safe height
G0 X1148.0000 Y458.4700
M3S0
G4 P0.5; Tool On
G1 F300 Z0.0000
G1 F15000 X2.0000 Y458.4700 Z0.0000
M3S245
G4 P0.5; Tool Off

G0 Z0; move to z-safe height
G0 X2.0000 Y462.4700
M3S0
G4 P0.5; Tool On
G1 F300 Z0.0000
G1 F15000 X1148.0000 Y462.4700 Z0.0000
M3S245
G4 P0.5; Tool Off

G0 Z0; move to z-safe height
G0 X1148.0000 Y466.4700
M3S0
G4 P0.5; Tool On
G1 F300 Z0.0000
G1 F15000 X2.0000 Y466.4700 Z0.0000
M3S245
G4 P0.5; Tool Off

G0 Z0; move to z-safe height
G0 X2.0000 Y470.4700
M3S0
G4 P0.5; Tool On
G1 F300 Z0.0000
G1 F15000 X1148.0000 Y470.4700 Z0.0000
M3S245
G4 P0.5; Tool Off

G0 Z0; move to z-safe height
G0 X1148.0000 Y474.4700
M3S0
G4 P0.5; Tool On
G1 F300 Z0.0000
G1 F15000 X2.0000 Y474.4700 Z0.0000
M3S245
G4 P0.5; Tool Off

G0 Z0; move to z-safe height
G0 X2.0000 Y478.4700
M3S0
G4 P0.5; Tool On
G1 F300 Z0.0000
G1 F15000 X1148.0000 Y478.4700 Z0.0000
M3S245
G4 P0.5; Tool Off

G0 Z0; move to z-safe height
G0 X1148.0000 Y482.4700
M3S0
G4 P0.5; Tool On
G1 F300 Z0.0000
G1 F15000 X2.0000 Y482.4700 Z0.0000
M3S245
G4 P0.5; Tool Off

G0 Z0; move to z-safe height
G0 X2.0000 Y486.4700
M3S0
G4 P0.5; Tool On
G1 F300 Z0.0000
G1 F15000 X1148.0000 Y486.4700 Z0.0000
M3S245
G4 P0.5; Tool Off

G0 Z0; move to z-safe height
G0 X1148.0000 Y490.4700
M3S0
G4 P0.5; Tool On
G1 F300 Z0.0000
G1 F15000 X2.0000 Y490.4700 Z0.0000
M3S245
G4 P0.5; Tool Off

G0 Z0; move to z-safe height
G0 X2.0000 Y494.4700
M3S0
G4 P0.5; Tool On
G1 F300 Z0.0000
G1 F15000 X1148.0000 Y494.4700 Z0.0000
M3S245
G4 P0.5; Tool Off

G0 Z0; move to z-safe height
G0 X1148.0000 Y498.4700
M3S0
G4 P0.5; Tool On
G1 F300 Z0.0000
G1 F15000 X2.0000 Y498.4700 Z0.0000
M3S245
G4 P0.5; Tool Off

G0 Z0; move to z-safe height
G0 X2.0000 Y502.4700
M3S0
G4 P0.5; Tool On
G1 F300 Z0.0000
G1 F15000 X1148.0000 Y502.4700 Z0.0000
M3S245
G4 P0.5; Tool Off

G0 Z0; move to z-safe height
G0 X1148.0000 Y506.4700
M3S0
G4 P0.5; Tool On
G1 F300 Z0.0000
G1 F15000 X2.0000 Y506.4700 Z0.0000
M3S245
G4 P0.5; Tool Off

G0 Z0; move to z-safe height
G0 X2.0000 Y510.4700
M3S0
G4 P0.5; Tool On
G1 F300 Z0.0000
G1 F15000 X1148.0000 Y510.4700 Z0.0000
M3S245
G4 P0.5; Tool Off

G0 Z0; move to z-safe height
G0 X1148.0000 Y514.4700
M3S0
G4 P0.5; Tool On
G1 F300 Z0.0000
G1 F15000 X2.0000 Y514.4700 Z0.0000
M3S245
G4 P0.5; Tool Off

G0 Z0; move to z-safe height
G0 X2.0000 Y518.4700
M3S0
G4 P0.5; Tool On
G1 F300 Z0.0000
G1 F15000 X1148.0000 Y518.4700 Z0.0000
M3S245
G4 P0.5; Tool Off

G0 Z0; move to z-safe height
G0 X1148.0000 Y522.4700
M3S0
G4 P0.5; Tool On
G1 F300 Z0.0000
G1 F15000 X2.0000 Y522.4700 Z0.0000
M3S245
G4 P0.5; Tool Off

G0 Z0; move to z-safe height
G0 X2.0000 Y526.4700
M3S0
G4 P0.5; Tool On
G1 F300 Z0.0000
G1 F15000 X1148.0000 Y526.4700 Z0.0000
M3S245
G4 P0.5; Tool Off

G0 Z0; move to z-safe height
G0 X1148.0000 Y530.4700
M3S0
G4 P0.5; Tool On
G1 F300 Z0.0000
G1 F15000 X2.0000 Y530.4700 Z0.0000
M3S245
G4 P0.5; Tool Off

G0 Z0; move to z-safe height
G0 X2.0000 Y534.4700
M3S0
G4 P0.5; Tool On
G1 F300 Z0.0000
G1 F15000 X1148.0000 Y534.4700 Z0.0000
M3S245
G4 P0.5; Tool Off

G0 Z0; move to z-safe height
G0 X1148.0000 Y538.4700
M3S0
G4 P0.5; Tool On
G1 F300 Z0.0000
G1 F15000 X2.0000 Y538.4700 Z0.0000
M3S245
G4 P0.5; Tool Off

G0 Z0; move to z-safe height
G0 X2.0000 Y542.4700
M3S0
G4 P0.5; Tool On
G1 F300 Z0.0000
G1 F15000 X1148.0000 Y542.4700 Z0.0000
M3S245
G4 P0.5; Tool Off

G0 Z0; move to z-safe height
G0 X1148.0000 Y546.4700
M3S0
G4 P0.5; Tool On
G1 F300 Z0.0000
G1 F15000 X2.0000 Y546.4700 Z0.0000
M3S245
G4 P0.5; Tool Off

G0 Z0; move to z-safe height
G0 X2.0000 Y550.4700
M3S0
G4 P0.5; Tool On
G1 F300 Z0.0000
G1 F15000 X1148.0000 Y550.4700 Z0.0000
M3S245
G4 P0.5; Tool Off

G0 Z0; move to z-safe height
G0 X1148.0000 Y554.4700
M3S0
G4 P0.5; Tool On
G1 F300 Z0.0000
G1 F15000 X2.0000 Y554.4700 Z0.0000
M3S245
G4 P0.5; Tool Off

G0 Z0; move to z-safe height
G0 X2.0000 Y558.4700
M3S0
G4 P0.5; Tool On
G1 F300 Z0.0000
G1 F15000 X1148.0000 Y558.4700 Z0.0000
M3S245
G4 P0.5; Tool Off

G0 Z0; move to z-safe height
G0 X1148.0000 Y562.4700
M3S0
G4 P0.5; Tool On
G1 F300 Z0.0000
G1 F15000 X2.0000 Y562.4700 Z0.0000
M3S245
G4 P0.5; Tool Off

G0 Z0; move to z-safe height
G0 X2.0000 Y566.4700
M3S0
G4 P0.5; Tool On
G1 F300 Z0.0000
G1 F15000 X1148.0000 Y566.4700 Z0.0000
M3S245
G4 P0.5; Tool Off

G0 Z0; move to z-safe height
G0 X1148.0000 Y570.4700
M3S0
G4 P0.5; Tool On
G1 F300 Z0.0000
G1 F15000 X2.0000 Y570.4700 Z0.0000
M3S245
G4 P0.5; Tool Off

G0 Z0; move to z-safe height
G0 X2.0000 Y574.4700
M3S0
G4 P0.5; Tool On
G1 F300 Z0.0000
G1 F15000 X1148.0000 Y574.4700 Z0.0000
M3S245
G4 P0.5; Tool Off

G0 Z0; move to z-safe height
G0 X1148.0000 Y578.4700
M3S0
G4 P0.5; Tool On
G1 F300 Z0.0000
G1 F15000 X2.0000 Y578.4700 Z0.0000
M3S245
G4 P0.5; Tool Off

G0 Z0; move to z-safe height
G0 X2.0000 Y582.4700
M3S0
G4 P0.5; Tool On
G1 F300 Z0.0000
G1 F15000 X1148.0000 Y582.4700 Z0.0000
M3S245
G4 P0.5; Tool Off

G0 Z0; move to z-safe height
G0 X1148.0000 Y586.4700
M3S0
G4 P0.5; Tool On
G1 F300 Z0.0000
G1 F15000 X2.0000 Y586.4700 Z0.0000
M3S245
G4 P0.5; Tool Off

G0 Z0; move to z-safe height
G0 X2.0000 Y590.4700
M3S0
G4 P0.5; Tool On
G1 F300 Z0.0000
G1 F15000 X1148.0000 Y590.4700 Z0.0000
M3S245
G4 P0.5; Tool Off

G0 Z0; move to z-safe height
G0 X1148.0000 Y594.4700
M3S0
G4 P0.5; Tool On
G1 F300 Z0.0000
G1 F15000 X2.0000 Y594.4700 Z0.0000
M3S245
G4 P0.5; Tool Off

G0 Z0; move to z-safe height
G0 X2.0000 Y598.4700
M3S0
G4 P0.5; Tool On
G1 F300 Z0.0000
G1 F15000 X1148.0000 Y598.4700 Z0.0000
M3S245
G4 P0.5; Tool Off

G0 Z0; move to z-safe height
G0 X1148.0000 Y602.4700
M3S0
G4 P0.5; Tool On
G1 F300 Z0.0000
G1 F15000 X2.0000 Y602.4700 Z0.0000
M3S245
G4 P0.5; Tool Off

G0 Z0; move to z-safe height
G0 X2.0000 Y606.4700
M3S0
G4 P0.5; Tool On
G1 F300 Z0.0000
G1 F15000 X1148.0000 Y606.4700 Z0.0000
M3S245
G4 P0.5; Tool Off

G0 Z0; move to z-safe height
G0 X1148.0000 Y610.4700
M3S0
G4 P0.5; Tool On
G1 F300 Z0.0000
G1 F15000 X2.0000 Y610.4700 Z0.0000
M3S245
G4 P0.5; Tool Off

G0 Z0; move to z-safe height
G0 X2.0000 Y614.4700
M3S0
G4 P0.5; Tool On
G1 F300 Z0.0000
G1 F15000 X1148.0000 Y614.4700 Z0.0000
M3S245
G4 P0.5; Tool Off

G0 Z0; move to z-safe height
G0 X1148.0000 Y618.4700
M3S0
G4 P0.5; Tool On
G1 F300 Z0.0000
G1 F15000 X2.0000 Y618.4700 Z0.0000
M3S245
G4 P0.5; Tool Off

G0 Z0; move to z-safe height
G0 X2.0000 Y622.4700
M3S0
G4 P0.5; Tool On
G1 F300 Z0.0000
G1 F15000 X1148.0000 Y622.4700 Z0.0000
M3S245
G4 P0.5; Tool Off

G0 Z0; move to z-safe height
G0 X1148.0000 Y626.4700
M3S0
G4 P0.5; Tool On
G1 F300 Z0.0000
G1 F15000 X2.0000 Y626.4700 Z0.0000
M3S245
G4 P0.5; Tool Off

G0 Z0; move to z-safe height
G0 X2.0000 Y630.4700
M3S0
G4 P0.5; Tool On
G1 F300 Z0.0000
G1 F15000 X1148.0000 Y630.4700 Z0.0000
M3S245
G4 P0.5; Tool Off

G0 Z0; move to z-safe height
G0 X1148.0000 Y634.4700
M3S0
G4 P0.5; Tool On
G1 F300 Z0.0000
G1 F15000 X2.0000 Y634.4700 Z0.0000
M3S245
G4 P0.5; Tool Off

G0 Z0; move to z-safe height
G0 X2.0000 Y638.4700
M3S0
G4 P0.5; Tool On
G1 F300 Z0.0000
G1 F15000 X1148.0000 Y638.4700 Z0.0000
M3S245
G4 P0.5; Tool Off

G0 Z0; move to z-safe height
G0 X1148.0000 Y642.4700
M3S0
G4 P0.5; Tool On
G1 F300 Z0.0000
G1 F15000 X2.0000 Y642.4700 Z0.0000
M3S245
G4 P0.5; Tool Off

G0 Z0; move to z-safe height
G0 X2.0000 Y646.4700
M3S0
G4 P0.5; Tool On
G1 F300 Z0.0000
G1 F15000 X1148.0000 Y646.4700 Z0.0000
M3S245
G4 P0.5; Tool Off

G0 Z0; move to z-safe height
G0 X1148.0000 Y650.4700
M3S0
G4 P0.5; Tool On
G1 F300 Z0.0000
G1 F15000 X2.0000 Y650.4700 Z0.0000
M3S245
G4 P0.5; Tool Off

G0 Z0; move to z-safe height
G0 X2.0000 Y654.4700
M3S0
G4 P0.5; Tool On
G1 F300 Z0.0000
G1 F15000 X1148.0000 Y654.4700 Z0.0000
M3S245
G4 P0.5; Tool Off

G0 Z0; move to z-safe height
G0 X1148.0000 Y658.4700
M3S0
G4 P0.5; Tool On
G1 F300 Z0.0000
G1 F15000 X2.0000 Y658.4700 Z0.0000
M3S245
G4 P0.5; Tool Off

G0 Z0; move to z-safe height
G0 X2.0000 Y662.4700
M3S0
G4 P0.5; Tool On
G1 F300 Z0.0000
G1 F15000 X1148.0000 Y662.4700 Z0.0000
M3S245
G4 P0.5; Tool Off

G0 Z0; move to z-safe height
G0 X1148.0000 Y666.4700
M3S0
G4 P0.5; Tool On
G1 F300 Z0.0000
G1 F15000 X2.0000 Y666.4700 Z0.0000
M3S245
G4 P0.5; Tool Off

G0 Z0; move to z-safe height
G0 X2.0000 Y670.4700
M3S0
G4 P0.5; Tool On
G1 F300 Z0.0000
G1 F15000 X1148.0000 Y670.4700 Z0.0000
M3S245
G4 P0.5; Tool Off

G0 Z0; move to z-safe height
G0 X1148.0000 Y674.4700
M3S0
G4 P0.5; Tool On
G1 F300 Z0.0000
G1 F15000 X2.0000 Y674.4700 Z0.0000
M3S245
G4 P0.5; Tool Off

G0 Z0; move to z-safe height
G0 X2.0000 Y678.4700
M3S0
G4 P0.5; Tool On
G1 F300 Z0.0000
G1 F15000 X1148.0000 Y678.4700 Z0.0000
M3S245
G4 P0.5; Tool Off

G0 Z0; move to z-safe height
G0 X1148.0000 Y682.4700
M3S0
G4 P0.5; Tool On
G1 F300 Z0.0000
G1 F15000 X2.0000 Y682.4700 Z0.0000
M3S245
G4 P0.5; Tool Off

G0 Z0; move to z-safe height
G0 X2.0000 Y686.4700
M3S0
G4 P0.5; Tool On
G1 F300 Z0.0000
G1 F15000 X1148.0000 Y686.4700 Z0.0000
M3S245
G4 P0.5; Tool Off

G0 Z0; move to z-safe height
G0 X1148.0000 Y690.4700
M3S0
G4 P0.5; Tool On
G1 F300 Z0.0000
G1 F15000 X2.0000 Y690.4700 Z0.0000
M3S245
G4 P0.5; Tool Off

G0 Z0; move to z-safe height
G0 X2.0000 Y694.4700
M3S0
G4 P0.5; Tool On
G1 F300 Z0.0000
G1 F15000 X1148.0000 Y694.4700 Z0.0000
M3S245
G4 P0.5; Tool Off

G0 Z0; move to z-safe height
G0 X1148.0000 Y698.4700
M3S0
G4 P0.5; Tool On
G1 F300 Z0.0000
G1 F15000 X2.0000 Y698.4700 Z0.0000
M3S245
G4 P0.5; Tool Off

G0 Z0; move to z-safe height
G0 X2.0000 Y702.4700
M3S0
G4 P0.5; Tool On
G1 F300 Z0.0000
G1 F15000 X1148.0000 Y702.4700 Z0.0000
M3S245
G4 P0.5; Tool Off

G0 Z0; move to z-safe height
G0 X1148.0000 Y706.4700
M3S0
G4 P0.5; Tool On
G1 F300 Z0.0000
G1 F15000 X2.0000 Y706.4700 Z0.0000
M3S245
G4 P0.5; Tool Off

G0 Z0; move to z-safe height
G0 X2.0000 Y710.4700
M3S0
G4 P0.5; Tool On
G1 F300 Z0.0000
G1 F15000 X1148.0000 Y710.4700 Z0.0000
M3S245
G4 P0.5; Tool Off

G0 Z0; move to z-safe height
G0 X1148.0000 Y714.4700
M3S0
G4 P0.5; Tool On
G1 F300 Z0.0000
G1 F15000 X2.0000 Y714.4700 Z0.0000
M3S245
G4 P0.5; Tool Off

G0 Z0; move to z-safe height
G0 X2.0000 Y718.4700
M3S0
G4 P0.5; Tool On
G1 F300 Z0.0000
G1 F15000 X1148.0000 Y718.4700 Z0.0000
M3S245
G4 P0.5; Tool Off

G0 Z0; move to z-safe height
G0 X1148.0000 Y722.4700
M3S0
G4 P0.5; Tool On
G1 F300 Z0.0000
G1 F15000 X2.0000 Y722.4700 Z0.0000
M3S245
G4 P0.5; Tool Off

G0 Z0; move to z-safe height
G0 X2.0000 Y726.4700
M3S0
G4 P0.5; Tool On
G1 F300 Z0.0000
G1 F15000 X1148.0000 Y726.4700 Z0.0000
M3S245
G4 P0.5; Tool Off

G0 Z0; move to z-safe height
G0 X1148.0000 Y730.4700
M3S0
G4 P0.5; Tool On
G1 F300 Z0.0000
G1 F15000 X2.0000 Y730.4700 Z0.0000
M3S245
G4 P0.5; Tool Off

G0 Z0; move to z-safe height
G0 X2.0000 Y734.4700
M3S0
G4 P0.5; Tool On
G1 F300 Z0.0000
G1 F15000 X1148.0000 Y734.4700 Z0.0000
M3S245
G4 P0.5; Tool Off

G0 Z0; move to z-safe height
G0 X1148.0000 Y738.4700
M3S0
G4 P0.5; Tool On
G1 F300 Z0.0000
G1 F15000 X2.0000 Y738.4700 Z0.0000
M3S245
G4 P0.5; Tool Off

G0 Z0; move to z-safe height
G0 X2.0000 Y742.4700
M3S0
G4 P0.5; Tool On
G1 F300 Z0.0000
G1 F15000 X1148.0000 Y742.4700 Z0.0000
M3S245
G4 P0.5; Tool Off

G0 Z0; move to z-safe height
G0 X1148.0000 Y746.4700
M3S0
G4 P0.5; Tool On
G1 F300 Z0.0000
G1 F15000 X2.0000 Y746.4700 Z0.0000
M3S245
G4 P0.5; Tool Off

G0 Z0; move to z-safe height
G0 X2.0000 Y750.4700
M3S0
G4 P0.5; Tool On
G1 F300 Z0.0000
G1 F15000 X1148.0000 Y750.4700 Z0.0000
M3S245
G4 P0.5; Tool Off

G0 Z0; move to z-safe height
G0 X1148.0000 Y754.4700
M3S0
G4 P0.5; Tool On
G1 F300 Z0.0000
G1 F15000 X2.0000 Y754.4700 Z0.0000
M3S245
G4 P0.5; Tool Off

G0 Z0; move to z-safe height
G0 X2.0000 Y758.4700
M3S0
G4 P0.5; Tool On
G1 F300 Z0.0000
G1 F15000 X1148.0000 Y758.4700 Z0.0000
M3S245
G4 P0.5; Tool Off

G0 Z0; move to z-safe height
G0 X1148.0000 Y762.4700
M3S0
G4 P0.5; Tool On
G1 F300 Z0.0000
G1 F15000 X2.0000 Y762.4700 Z0.0000
M3S245
G4 P0.5; Tool Off

G0 Z0; move to z-safe height
G0 X2.0000 Y766.4700
M3S0
G4 P0.5; Tool On
G1 F300 Z0.0000
G1 F15000 X1148.0000 Y766.4700 Z0.0000
M3S245
G4 P0.5; Tool Off

G0 Z0; move to z-safe height
G0 X1148.0000 Y770.4700
M3S0
G4 P0.5; Tool On
G1 F300 Z0.0000
G1 F15000 X2.0000 Y770.4700 Z0.0000
M3S245
G4 P0.5; Tool Off

G0 Z0; move to z-safe height
G0 X2.0000 Y774.4700
M3S0
G4 P0.5; Tool On
G1 F300 Z0.0000
G1 F15000 X1148.0000 Y774.4700 Z0.0000
M3S245
G4 P0.5; Tool Off

G0 Z0; move to z-safe height
G0 X1148.0000 Y778.4700
M3S0
G4 P0.5; Tool On
G1 F300 Z0.0000
G1 F15000 X2.0000 Y778.4700 Z0.0000
M3S245
G4 P0.5; Tool Off

G0 Z0; move to z-safe height
G0 X2.0000 Y782.4700
M3S0
G4 P0.5; Tool On
G1 F300 Z0.0000
G1 F15000 X1148.0000 Y782.4700 Z0.0000
M3S245
G4 P0.5; Tool Off

G0 Z0; move to z-safe height
G0 X1148.0000 Y786.4700
M3S0
G4 P0.5; Tool On
G1 F300 Z0.0000
G1 F15000 X2.0000 Y786.4700 Z0.0000
M3S245
G4 P0.5; Tool Off

G0 Z0; move to z-safe height
G0 X2.0000 Y790.4700
M3S0
G4 P0.5; Tool On
G1 F300 Z0.0000
G1 F15000 X1148.0000 Y790.4700 Z0.0000
M3S245
G4 P0.5; Tool Off

G0 Z0; move to z-safe height
G0 X1148.0000 Y794.4700
M3S0
G4 P0.5; Tool On
G1 F300 Z0.0000
G1 F15000 X2.0000 Y794.4700 Z0.0000
M3S245
G4 P0.5; Tool Off

G0 Z0; move to z-safe height
G0 X2.0000 Y798.4700
M3S0
G4 P0.5; Tool On
G1 F300 Z0.0000
G1 F15000 X1148.0000 Y798.4700 Z0.0000
M3S245
G4 P0.5; Tool Off

G0 Z0; move to z-safe height
G0 X1148.0000 Y802.4700
M3S0
G4 P0.5; Tool On
G1 F300 Z0.0000
G1 F15000 X2.0000 Y802.4700 Z0.0000
M3S245
G4 P0.5; Tool Off

G0 Z0; move to z-safe height
G0 X2.0000 Y806.4700
M3S0
G4 P0.5; Tool On
G1 F300 Z0.0000
G1 F15000 X1148.0000 Y806.4700 Z0.0000
M3S245
G4 P0.5; Tool Off

G0 Z0; move to z-safe height
G0 X1148.0000 Y810.4700
M3S0
G4 P0.5; Tool On
G1 F300 Z0.0000
G1 F15000 X2.0000 Y810.4700 Z0.0000
M3S245
G4 P0.5; Tool Off

G0 Z0; move to z-safe height
G0 X2.0000 Y814.4700
M3S0
G4 P0.5; Tool On
G1 F300 Z0.0000
G1 F15000 X1148.0000 Y814.4700 Z0.0000
M3S245
G4 P0.5; Tool Off

G0 Z0; move to z-safe height
G0 X1148.0000 Y818.4700
M3S0
G4 P0.5; Tool On
G1 F300 Z0.0000
G1 F15000 X2.0000 Y818.4700 Z0.0000
M3S245
G4 P0.5; Tool Off

G0 Z0; move to z-safe height
G0 X2.0000 Y822.4700
M3S0
G4 P0.5; Tool On
G1 F300 Z0.0000
G1 F15000 X1148.0000 Y822.4700 Z0.0000
M3S245
G4 P0.5; Tool Off

G0 Z0; move to z-safe height
G0 X1148.0000 Y826.4700
M3S0
G4 P0.5; Tool On
G1 F300 Z0.0000
G1 F15000 X2.0000 Y826.4700 Z0.0000
M3S245
G4 P0.5; Tool Off

G0 Z0; move to z-safe height
G0 X2.0000 Y830.4700
M3S0
G4 P0.5; Tool On
G1 F300 Z0.0000
G1 F15000 X1148.0000 Y830.4700 Z0.0000
M3S245
G4 P0.5; Tool Off

G0 Z0; move to z-safe height
G0 X1148.0000 Y834.4700
M3S0
G4 P0.5; Tool On
G1 F300 Z0.0000
G1 F15000 X2.0000 Y834.4700 Z0.0000
M3S245
G4 P0.5; Tool Off

G0 Z0; move to z-safe height
G0 X2.0000 Y838.4700
M3S0
G4 P0.5; Tool On
G1 F300 Z0.0000
G1 F15000 X1148.0000 Y838.4700 Z0.0000
M3S245
G4 P0.5; Tool Off

G0 Z0; move to z-safe height
G0 X1148.0000 Y842.4700
M3S0
G4 P0.5; Tool On
G1 F300 Z0.0000
G1 F15000 X2.0000 Y842.4700 Z0.0000
M3S245
G4 P0.5; Tool Off

G0 Z0; move to z-safe height
G0 X2.0000 Y846.4700
M3S0
G4 P0.5; Tool On
G1 F300 Z0.0000
G1 F15000 X1148.0000 Y846.4700 Z0.0000
M3S245
G4 P0.5; Tool Off

G0 Z0; move to z-safe height
G0 X1148.0000 Y850.4700
M3S0
G4 P0.5; Tool On
G1 F300 Z0.0000
G1 F15000 X2.0000 Y850.4700 Z0.0000
M3S245
G4 P0.5; Tool Off

G0 Z0; move to z-safe height
G0 X2.0000 Y854.4700
M3S0
G4 P0.5; Tool On
G1 F300 Z0.0000
G1 F15000 X1148.0000 Y854.4700 Z0.0000
M3S245
G4 P0.5; Tool Off

G0 Z0; move to z-safe height
G0 X1148.0000 Y858.4700
M3S0
G4 P0.5; Tool On
G1 F300 Z0.0000
G1 F15000 X2.0000 Y858.4700 Z0.0000
M3S245
G4 P0.5; Tool Off

G0 Z0; move to z-safe height
G0 X2.0000 Y862.4700
M3S0
G4 P0.5; Tool On
G1 F300 Z0.0000
G1 F15000 X1148.0000 Y862.4700 Z0.0000
M3S245
G4 P0.5; Tool Off

G0 Z0; move to z-safe height
G0 X1148.0000 Y866.4700
M3S0
G4 P0.5; Tool On
G1 F300 Z0.0000
G1 F15000 X2.0000 Y866.4700 Z0.0000
M3S245
G4 P0.5; Tool Off

G0 Z0; move to z-safe height
G0 X2.0000 Y870.4700
M3S0
G4 P0.5; Tool On
G1 F300 Z0.0000
G1 F15000 X1148.0000 Y870.4700 Z0.0000
M3S245
G4 P0.5; Tool Off

G0 Z0; move to z-safe height
G0 X1148.0000 Y874.4700
M3S0
G4 P0.5; Tool On
G1 F300 Z0.0000
G1 F15000 X2.0000 Y874.4700 Z0.0000
M3S245
G4 P0.5; Tool Off

G0 Z0; move to z-safe height
G0 X2.0000 Y878.4700
M3S0
G4 P0.5; Tool On
G1 F300 Z0.0000
G1 F15000 X1148.0000 Y878.4700 Z0.0000
M3S245
G4 P0.5; Tool Off

G0 Z0; move to z-safe height
G0 X1148.0000 Y882.4700
M3S0
G4 P0.5; Tool On
G1 F300 Z0.0000
G1 F15000 X2.0000 Y882.4700 Z0.0000
M3S245
G4 P0.5; Tool Off

G0 Z0; move to z-safe height
G0 X2.0000 Y886.4700
M3S0
G4 P0.5; Tool On
G1 F300 Z0.0000
G1 F15000 X1148.0000 Y886.4700 Z0.0000
M3S245
G4 P0.5; Tool Off

G0 Z0; move to z-safe height
G0 X1148.0000 Y890.4700
M3S0
G4 P0.5; Tool On
G1 F300 Z0.0000
G1 F15000 X2.0000 Y890.4700 Z0.0000
M3S245
G4 P0.5; Tool Off

G0 Z0; move to z-safe height
G0 X2.0000 Y894.4700
M3S0
G4 P0.5; Tool On
G1 F300 Z0.0000
G1 F15000 X1148.0000 Y894.4700 Z0.0000
M3S245
G4 P0.5; Tool Off

G0 Z0; move to z-safe height
G0 X1148.0000 Y898.4700
M3S0
G4 P0.5; Tool On
G1 F300 Z0.0000
G1 F15000 X2.0000 Y898.4700 Z0.0000
M3S245
G4 P0.5; Tool Off

G0 Z0; move to z-safe height
G0 X2.0000 Y902.4700
M3S0
G4 P0.5; Tool On
G1 F300 Z0.0000
G1 F15000 X1148.0000 Y902.4700 Z0.0000
M3S245
G4 P0.5; Tool Off

G0 Z0; move to z-safe height
G0 X1148.0000 Y906.4700
M3S0
G4 P0.5; Tool On
G1 F300 Z0.0000
G1 F15000 X2.0000 Y906.4700 Z0.0000
M3S245
G4 P0.5; Tool Off

G0 Z0; move to z-safe height
G0 X2.0000 Y910.4700
M3S0
G4 P0.5; Tool On
G1 F300 Z0.0000
G1 F15000 X1148.0000 Y910.4700 Z0.0000
M3S245
G4 P0.5; Tool Off

G0 Z0; move to z-safe height
G0 X1148.0000 Y914.4700
M3S0
G4 P0.5; Tool On
G1 F300 Z0.0000
G1 F15000 X2.0000 Y914.4700 Z0.0000
M3S245
G4 P0.5; Tool Off

G0 Z0; move to z-safe height
G0 X2.0000 Y918.4700
M3S0
G4 P0.5; Tool On
G1 F300 Z0.0000
G1 F15000 X1148.0000 Y918.4700 Z0.0000
M3S245
G4 P0.5; Tool Off

G0 Z0; move to z-safe height
G0 X1148.0000 Y922.4700
M3S0
G4 P0.5; Tool On
G1 F300 Z0.0000
G1 F15000 X2.0000 Y922.4700 Z0.0000
M3S245
G4 P0.5; Tool Off

G0 Z0; move to z-safe height
G0 X2.0000 Y926.4700
M3S0
G4 P0.5; Tool On
G1 F300 Z0.0000
G1 F15000 X1148.0000 Y926.4700 Z0.0000
M3S245
G4 P0.5; Tool Off

G0 Z0; move to z-safe height
G0 X1148.0000 Y930.4700
M3S0
G4 P0.5; Tool On
G1 F300 Z0.0000
G1 F15000 X2.0000 Y930.4700 Z0.0000
M3S245
G4 P0.5; Tool Off

G0 Z0; move to z-safe height
G0 X2.0000 Y934.4700
M3S0
G4 P0.5; Tool On
G1 F300 Z0.0000
G1 F15000 X1148.0000 Y934.4700 Z0.0000
M3S245
G4 P0.5; Tool Off

G0 Z0; move to z-safe height
G0 X1148.0000 Y938.4700
M3S0
G4 P0.5; Tool On
G1 F300 Z0.0000
G1 F15000 X2.0000 Y938.4700 Z0.0000
M3S245
G4 P0.5; Tool Off

G0 Z0; move to z-safe height
G0 X2.0000 Y942.4700
M3S0
G4 P0.5; Tool On
G1 F300 Z0.0000
G1 F15000 X1148.0000 Y942.4700 Z0.0000
M3S245
G4 P0.5; Tool Off

G0 Z0; move to z-safe height
G0 X1148.0000 Y946.4700
M3S0
G4 P0.5; Tool On
G1 F300 Z0.0000
G1 F15000 X2.0000 Y946.4700 Z0.0000
M3S245
G4 P0.5; Tool Off

G0 Z0; move to z-safe height
G0 X2.0000 Y950.4700
M3S0
G4 P0.5; Tool On
G1 F300 Z0.0000
G1 F15000 X1148.0000 Y950.4700 Z0.0000
M3S245
G4 P0.5; Tool Off

G0 Z0; move to z-safe height
G0 X1148.0000 Y954.4700
M3S0
G4 P0.5; Tool On
G1 F300 Z0.0000
G1 F15000 X2.0000 Y954.4700 Z0.0000
M3S245
G4 P0.5; Tool Off

G0 Z0; move to z-safe height
G0 X2.0000 Y958.4700
M3S0
G4 P0.5; Tool On
G1 F300 Z0.0000
G1 F15000 X1148.0000 Y958.4700 Z0.0000
M3S245
G4 P0.5; Tool Off

G0 Z0; move to z-safe height
G0 X1148.0000 Y962.4700
M3S0
G4 P0.5; Tool On
G1 F300 Z0.0000
G1 F15000 X2.0000 Y962.4700 Z0.0000
M3S245
G4 P0.5; Tool Off

G0 Z0; move to z-safe height
G0 X2.0000 Y966.4700
M3S0
G4 P0.5; Tool On
G1 F300 Z0.0000
G1 F15000 X1148.0000 Y966.4700 Z0.0000
M3S245
G4 P0.5; Tool Off

G0 Z0; move to z-safe height
G0 X1148.0000 Y970.4700
M3S0
G4 P0.5; Tool On
G1 F300 Z0.0000
G1 F15000 X2.0000 Y970.4700 Z0.0000
M3S245
G4 P0.5; Tool Off

G0 Z0; move to z-safe height
G0 X2.0000 Y974.4700
M3S0
G4 P0.5; Tool On
G1 F300 Z0.0000
G1 F15000 X1148.0000 Y974.4700 Z0.0000
M3S245
G4 P0.5; Tool Off

G0 Z0; move to z-safe height
G0 X1148.0000 Y978.4700
M3S0
G4 P0.5; Tool On
G1 F300 Z0.0000
G1 F15000 X2.0000 Y978.4700 Z0.0000
M3S245
G4 P0.5; Tool Off

G0 Z0; move to z-safe height
G0 X2.0000 Y982.4700
M3S0
G4 P0.5; Tool On
G1 F300 Z0.0000
G1 F15000 X1148.0000 Y982.4700 Z0.0000
M3S245
G4 P0.5; Tool Off

G0 Z0; move to z-safe height
G0 X1148.0000 Y986.4700
M3S0
G4 P0.5; Tool On
G1 F300 Z0.0000
G1 F15000 X2.0000 Y986.4700 Z0.0000
M3S245
G4 P0.5; Tool Off

G0 Z0; move to z-safe height
G0 X2.0000 Y990.4700
M3S0
G4 P0.5; Tool On
G1 F300 Z0.0000
G1 F15000 X1148.0000 Y990.4700 Z0.0000
M3S245
G4 P0.5; Tool Off

G0 Z0; move to z-safe height
G0 X1148.0000 Y994.4700
M3S0
G4 P0.5; Tool On
G1 F300 Z0.0000
G1 F15000 X2.0000 Y994.4700 Z0.0000
M3S245
G4 P0.5; Tool Off

G0 Z0; move to z-safe height
G0 X2.0000 Y998.4700
M3S0
G4 P0.5; Tool On
G1 F300 Z0.0000
G1 F15000 X1148.0000 Y998.4700 Z0.0000
M3S245
G4 P0.5; Tool Off

G0 Z0; move to z-safe height
G0 X1148.0000 Y1002.4700
M3S0
G4 P0.5; Tool On
G1 F300 Z0.0000
G1 F15000 X2.0000 Y1002.4700 Z0.0000
M3S245
G4 P0.5; Tool Off

G0 Z0; move to z-safe height
G0 X2.0000 Y1006.4700
M3S0
G4 P0.5; Tool On
G1 F300 Z0.0000
G1 F15000 X1148.0000 Y1006.4700 Z0.0000
M3S245
G4 P0.5; Tool Off

G0 Z0; move to z-safe height
G0 X1148.0000 Y1010.4700
M3S0
G4 P0.5; Tool On
G1 F300 Z0.0000
G1 F15000 X2.0000 Y1010.4700 Z0.0000
M3S245
G4 P0.5; Tool Off

G0 Z0; move to z-safe height
G0 X2.0000 Y1014.4700
M3S0
G4 P0.5; Tool On
G1 F300 Z0.0000
G1 F15000 X1148.0000 Y1014.4700 Z0.0000
M3S245
G4 P0.5; Tool Off

G0 Z0; move to z-safe height
G0 X1148.0000 Y1018.4700
M3S0
G4 P0.5; Tool On
G1 F300 Z0.0000
G1 F15000 X2.0000 Y1018.4700 Z0.0000
M3S245
G4 P0.5; Tool Off

G0 Z0; move to z-safe height
G0 X2.0000 Y1022.4700
M3S0
G4 P0.5; Tool On
G1 F300 Z0.0000
G1 F15000 X1148.0000 Y1022.4700 Z0.0000
M3S245
G4 P0.5; Tool Off

G0 Z0; move to z-safe height
G0 X1148.0000 Y1026.4700
M3S0
G4 P0.5; Tool On
G1 F300 Z0.0000
G1 F15000 X2.0000 Y1026.4700 Z0.0000
M3S245
G4 P0.5; Tool Off

G0 Z0; move to z-safe height
G0 X2.0000 Y1030.4700
M3S0
G4 P0.5; Tool On
G1 F300 Z0.0000
G1 F15000 X1148.0000 Y1030.4700 Z0.0000
M3S245
G4 P0.5; Tool Off

G0 Z0; move to z-safe height
G0 X1148.0000 Y1034.4700
M3S0
G4 P0.5; Tool On
G1 F300 Z0.0000
G1 F15000 X2.0000 Y1034.4700 Z0.0000
M3S245
G4 P0.5; Tool Off

G0 Z0; move to z-safe height
G0 X2.0000 Y1038.4700
M3S0
G4 P0.5; Tool On
G1 F300 Z0.0000
G1 F15000 X1148.0000 Y1038.4700 Z0.0000
M3S245
G4 P0.5; Tool Off

G0 Z0; move to z-safe height
G0 X1148.0000 Y1042.4700
M3S0
G4 P0.5; Tool On
G1 F300 Z0.0000
G1 F15000 X2.0000 Y1042.4700 Z0.0000
M3S245
G4 P0.5; Tool Off

G0 Z0; move to z-safe height
G0 X2.0000 Y1046.4700
M3S0
G4 P0.5; Tool On
G1 F300 Z0.0000
G1 F15000 X1148.0000 Y1046.4700 Z0.0000
M3S245
G4 P0.5; Tool Off

G0 Z0; move to z-safe height
G0 X1148.0000 Y1050.4700
M3S0
G4 P0.5; Tool On
G1 F300 Z0.0000
G1 F15000 X2.0000 Y1050.4700 Z0.0000
M3S245
G4 P0.5; Tool Off

G0 Z0; move to z-safe height
G0 X2.0000 Y1054.4700
M3S0
G4 P0.5; Tool On
G1 F300 Z0.0000
G1 F15000 X1148.0000 Y1054.4700 Z0.0000
M3S245
G4 P0.5; Tool Off

G0 Z0; move to z-safe height
G0 X1148.0000 Y1058.4700
M3S0
G4 P0.5; Tool On
G1 F300 Z0.0000
G1 F15000 X2.0000 Y1058.4700 Z0.0000
M3S245
G4 P0.5; Tool Off

G0 Z0; move to z-safe height
G0 X2.0000 Y1062.4700
M3S0
G4 P0.5; Tool On
G1 F300 Z0.0000
G1 F15000 X1148.0000 Y1062.4700 Z0.0000
M3S245
G4 P0.5; Tool Off

G0 Z0; move to z-safe height
G0 X1148.0000 Y1066.4700
M3S0
G4 P0.5; Tool On
G1 F300 Z0.0000
G1 F15000 X2.0000 Y1066.4700 Z0.0000
M3S245
G4 P0.5; Tool Off

G0 Z0; move to z-safe height
G0 X2.0000 Y1070.4700
M3S0
G4 P0.5; Tool On
G1 F300 Z0.0000
G1 F15000 X1148.0000 Y1070.4700 Z0.0000
M3S245
G4 P0.5; Tool Off

G0 Z0; move to z-safe height
G0 X1148.0000 Y1074.4700
M3S0
G4 P0.5; Tool On
G1 F300 Z0.0000
G1 F15000 X2.0000 Y1074.4700 Z0.0000
M3S245
G4 P0.5; Tool Off

G0 Z0; move to z-safe height
G0 X2.0000 Y1078.4700
M3S0
G4 P0.5; Tool On
G1 F300 Z0.0000
G1 F15000 X1148.0000 Y1078.4700 Z0.0000
M3S245
G4 P0.5; Tool Off

G0 Z0; move to z-safe height
G0 X1148.0000 Y1082.4700
M3S0
G4 P0.5; Tool On
G1 F300 Z0.0000
G1 F15000 X2.0000 Y1082.4700 Z0.0000
M3S245
G4 P0.5; Tool Off

G0 Z0; move to z-safe height
G0 X2.0000 Y1086.4700
M3S0
G4 P0.5; Tool On
G1 F300 Z0.0000
G1 F15000 X1148.0000 Y1086.4700 Z0.0000
M3S245
G4 P0.5; Tool Off

G0 Z0; move to z-safe height
G0 X1148.0000 Y1090.4700
M3S0
G4 P0.5; Tool On
G1 F300 Z0.0000
G1 F15000 X2.0000 Y1090.4700 Z0.0000
M3S245
G4 P0.5; Tool Off

G0 Z0; move to z-safe height
G0 X2.0000 Y1094.4700
M3S0
G4 P0.5; Tool On
G1 F300 Z0.0000
G1 F15000 X1148.0000 Y1094.4700 Z0.0000
M3S245
G4 P0.5; Tool Off

G0 Z0; move to z-safe height
G0 X1148.0000 Y1098.4700
M3S0
G4 P0.5; Tool On
G1 F300 Z0.0000
G1 F15000 X2.0000 Y1098.4700 Z0.0000
M3S245
G4 P0.5; Tool Off

G0 Z0; move to z-safe height
G0 X2.0000 Y1102.4700
M3S0
G4 P0.5; Tool On
G1 F300 Z0.0000
G1 F15000 X1148.0000 Y1102.4700 Z0.0000
M3S245
G4 P0.5; Tool Off

G0 Z0; move to z-safe height
G0 X1148.0000 Y1106.4700
M3S0
G4 P0.5; Tool On
G1 F300 Z0.0000
G1 F15000 X2.0000 Y1106.4700 Z0.0000
M3S245
G4 P0.5; Tool Off

G0 Z0; move to z-safe height
G0 X2.0000 Y1110.4700
M3S0
G4 P0.5; Tool On
G1 F300 Z0.0000
G1 F15000 X1148.0000 Y1110.4700 Z0.0000
M3S245
G4 P0.5; Tool Off

G0 Z0; move to z-safe height
G0 X1148.0000 Y1114.4700
M3S0
G4 P0.5; Tool On
G1 F300 Z0.0000
G1 F15000 X2.0000 Y1114.4700 Z0.0000
M3S245
G4 P0.5; Tool Off

G0 Z0; move to z-safe height
G0 X2.0000 Y1118.4700
M3S0
G4 P0.5; Tool On
G1 F300 Z0.0000
G1 F15000 X1148.0000 Y1118.4700 Z0.0000
M3S245
G4 P0.5; Tool Off

G0 Z0; move to z-safe height
G0 X1148.0000 Y1122.4700
M3S0
G4 P0.5; Tool On
G1 F300 Z0.0000
G1 F15000 X2.0000 Y1122.4700 Z0.0000
M3S245
G4 P0.5; Tool Off

G0 Z0; move to z-safe height
G0 X2.0000 Y1126.4700
M3S0
G4 P0.5; Tool On
G1 F300 Z0.0000
G1 F15000 X1148.0000 Y1126.4700 Z0.0000
M3S245
G4 P0.5; Tool Off

G0 Z0; move to z-safe height
G0 X1148.0000 Y1130.4700
M3S0
G4 P0.5; Tool On
G1 F300 Z0.0000
G1 F15000 X2.0000 Y1130.4700 Z0.0000
M3S245
G4 P0.5; Tool Off

G0 Z0; move to z-safe height
G0 X2.0000 Y1134.4700
M3S0
G4 P0.5; Tool On
G1 F300 Z0.0000
G1 F15000 X1148.0000 Y1134.4700 Z0.0000
M3S245
G4 P0.5; Tool Off

G0 Z0; move to z-safe height
G0 X1148.0000 Y1138.4700
M3S0
G4 P0.5; Tool On
G1 F300 Z0.0000
G1 F15000 X2.0000 Y1138.4700 Z0.0000
M3S245
G4 P0.5; Tool Off

G0 Z0; move to z-safe height
G0 X2.0000 Y1142.4700
M3S0
G4 P0.5; Tool On
G1 F300 Z0.0000
G1 F15000 X1148.0000 Y1142.4700 Z0.0000
M3S245
G4 P0.5; Tool Off

G0 Z0; move to z-safe height
G0 X1148.0000 Y1146.4700
M3S0
G4 P0.5; Tool On
G1 F300 Z0.0000
G1 F15000 X2.0000 Y1146.4700 Z0.0000
M3S245
G4 P0.5; Tool Off

G0 Z0; move to z-safe height
G0 X2.0000 Y1150.4700
M3S0
G4 P0.5; Tool On
G1 F300 Z0.0000
G1 F15000 X1148.0000 Y1150.4700 Z0.0000
M3S245
G4 P0.5; Tool Off

G0 Z0; move to z-safe height
G0 X1148.0000 Y1154.4700
M3S0
G4 P0.5; Tool On
G1 F300 Z0.0000
G1 F15000 X2.0000 Y1154.4700 Z0.0000
M3S245
G4 P0.5; Tool Off

G0 Z0; move to z-safe height
G0 X2.0000 Y1158.4700
M3S0
G4 P0.5; Tool On
G1 F300 Z0.0000
G1 F15000 X1148.0000 Y1158.4700 Z0.0000
M3S245
G4 P0.5; Tool Off

G0 Z0; move to z-safe height
G0 X1148.0000 Y1162.4700
M3S0
G4 P0.5; Tool On
G1 F300 Z0.0000
G1 F15000 X2.0000 Y1162.4700 Z0.0000
M3S245
G4 P0.5; Tool Off

G0 Z0; move to z-safe height
G0 X2.0000 Y1166.4700
M3S0
G4 P0.5; Tool On
G1 F300 Z0.0000
G1 F15000 X1148.0000 Y1166.4700 Z0.0000
M3S245
G4 P0.5; Tool Off

G0 Z0; move to z-safe height
G0 X1148.0000 Y1170.4700
M3S0
G4 P0.5; Tool On
G1 F300 Z0.0000
G1 F15000 X2.0000 Y1170.4700 Z0.0000
M3S245
G4 P0.5; Tool Off

G0 Z0; move to z-safe height
G0 X2.0000 Y1174.4700
M3S0
G4 P0.5; Tool On
G1 F300 Z0.0000
G1 F15000 X1148.0000 Y1174.4700 Z0.0000
M3S245
G4 P0.5; Tool Off

G0 Z0; move to z-safe height
G0 X1148.0000 Y1178.4700
M3S0
G4 P0.5; Tool On
G1 F300 Z0.0000
G1 F15000 X2.0000 Y1178.4700 Z0.0000
M3S245
G4 P0.5; Tool Off

G0 Z0; move to z-safe height
G0 X2.0000 Y1182.4700
M3S0
G4 P0.5; Tool On
G1 F300 Z0.0000
G1 F15000 X1148.0000 Y1182.4700 Z0.0000
M3S245
G4 P0.5; Tool Off

G0 Z0; move to z-safe height
G0 X1148.0000 Y1186.4700
M3S0
G4 P0.5; Tool On
G1 F300 Z0.0000
G1 F15000 X2.0000 Y1186.4700 Z0.0000
M3S245
G4 P0.5; Tool Off

G0 Z0; move to z-safe height
G0 X2.0000 Y1190.4700
M3S0
G4 P0.5; Tool On
G1 F300 Z0.0000
G1 F15000 X1148.0000 Y1190.4700 Z0.0000
M3S245
G4 P0.5; Tool Off

G0 Z0; move to z-safe height
G0 X1148.0000 Y1194.4700
M3S0
G4 P0.5; Tool On
G1 F300 Z0.0000
G1 F15000 X2.0000 Y1194.4700 Z0.0000
M3S245
G4 P0.5; Tool Off

G0 Z0; move to z-safe height
G0 X2.0000 Y1198.4700
M3S0
G4 P0.5; Tool On
G1 F300 Z0.0000
G1 F15000 X1148.0000 Y1198.4700 Z0.0000
M3S245
G4 P0.5; Tool Off

G0 Z0; move to z-safe height
G0 X1148.0000 Y1202.4700
M3S0
G4 P0.5; Tool On
G1 F300 Z0.0000
G1 F15000 X2.0000 Y1202.4700 Z0.0000
M3S245
G4 P0.5; Tool Off

G0 Z0; move to z-safe height
G0 X2.0000 Y1206.4700
M3S0
G4 P0.5; Tool On
G1 F300 Z0.0000
G1 F15000 X1148.0000 Y1206.4700 Z0.0000
M3S245
G4 P0.5; Tool Off

G0 Z0; move to z-safe height
G0 X1148.0000 Y1210.4700
M3S0
G4 P0.5; Tool On
G1 F300 Z0.0000
G1 F15000 X2.0000 Y1210.4700 Z0.0000
M3S245
G4 P0.5; Tool Off

G0 Z0; move to z-safe height
G0 X2.0000 Y1214.4700
M3S0
G4 P0.5; Tool On
G1 F300 Z0.0000
G1 F15000 X1148.0000 Y1214.4700 Z0.0000
M3S245
G4 P0.5; Tool Off

G0 Z0; move to z-safe height
G0 X1148.0000 Y1218.4700
M3S0
G4 P0.5; Tool On
G1 F300 Z0.0000
G1 F15000 X2.0000 Y1218.4700 Z0.0000
M3S245
G4 P0.5; Tool Off

G0 Z0; move to z-safe height
G0 X2.0000 Y1222.4700
M3S0
G4 P0.5; Tool On
G1 F300 Z0.0000
G1 F15000 X1148.0000 Y1222.4700 Z0.0000
M3S245
G4 P0.5; Tool Off

G0 Z0; move to z-safe height
G0 X1148.0000 Y1226.4700
M3S0
G4 P0.5; Tool On
G1 F300 Z0.0000
G1 F15000 X2.0000 Y1226.4700 Z0.0000
M3S245
G4 P0.5; Tool Off

G0 Z0; move to z-safe height
G0 X2.0000 Y1230.4700
M3S0
G4 P0.5; Tool On
G1 F300 Z0.0000
G1 F15000 X1148.0000 Y1230.4700 Z0.0000
M3S245
G4 P0.5; Tool Off

G0 Z0; move to z-safe height
G0 X1148.0000 Y1234.4700
M3S0
G4 P0.5; Tool On
G1 F300 Z0.0000
G1 F15000 X2.0000 Y1234.4700 Z0.0000
M3S245
G4 P0.5; Tool Off

G0 Z0; move to z-safe height
G0 X2.0000 Y1238.4700
M3S0
G4 P0.5; Tool On
G1 F300 Z0.0000
G1 F15000 X1148.0000 Y1238.4700 Z0.0000
M3S245
G4 P0.5; Tool Off

G0 Z0; move to z-safe height
G0 X1148.0000 Y1242.4700
M3S0
G4 P0.5; Tool On
G1 F300 Z0.0000
G1 F15000 X2.0000 Y1242.4700 Z0.0000
M3S245
G4 P0.5; Tool Off

G0 Z0; move to z-safe height
G0 X2.0000 Y1246.4700
M3S0
G4 P0.5; Tool On
G1 F300 Z0.0000
G1 F15000 X1148.0000 Y1246.4700 Z0.0000
M3S245
G4 P0.5; Tool Off

G0 Z0; move to z-safe height
G0 X1148.0000 Y1250.4700
M3S0
G4 P0.5; Tool On
G1 F300 Z0.0000
G1 F15000 X2.0000 Y1250.4700 Z0.0000
M3S245
G4 P0.5; Tool Off

G0 Z0; move to z-safe height
G0 X2.0000 Y1254.4700
M3S0
G4 P0.5; Tool On
G1 F300 Z0.0000
G1 F15000 X1148.0000 Y1254.4700 Z0.0000
M3S245
G4 P0.5; Tool Off

G0 Z0; move to z-safe height
G0 X1148.0000 Y1258.4700
M3S0
G4 P0.5; Tool On
G1 F300 Z0.0000
G1 F15000 X2.0000 Y1258.4700 Z0.0000
M3S245
G4 P0.5; Tool Off

G0 Z0; move to z-safe height
G0 X2.0000 Y1262.4700
M3S0
G4 P0.5; Tool On
G1 F300 Z0.0000
G1 F15000 X1148.0000 Y1262.4700 Z0.0000
M3S245
G4 P0.5; Tool Off

G0 Z0; move to z-safe height
G0 X1148.0000 Y1266.4700
M3S0
G4 P0.5; Tool On
G1 F300 Z0.0000
G1 F15000 X2.0000 Y1266.4700 Z0.0000
M3S245
G4 P0.5; Tool Off

G0 Z0; move to z-safe height
G0 X2.0000 Y1270.4700
M3S0
G4 P0.5; Tool On
G1 F300 Z0.0000
G1 F15000 X1148.0000 Y1270.4700 Z0.0000
M3S245
G4 P0.5; Tool Off

G0 Z0; move to z-safe height
G0 X1148.0000 Y1274.4700
M3S0
G4 P0.5; Tool On
G1 F300 Z0.0000
G1 F15000 X2.0000 Y1274.4700 Z0.0000
M3S245
G4 P0.5; Tool Off

G0 Z0; move to z-safe height
G0 X2.0000 Y1278.4700
M3S0
G4 P0.5; Tool On
G1 F300 Z0.0000
G1 F15000 X1148.0000 Y1278.4700 Z0.0000
M3S245
G4 P0.5; Tool Off

G0 Z0; move to z-safe height
G0 X1148.0000 Y1282.4700
M3S0
G4 P0.5; Tool On
G1 F300 Z0.0000
G1 F15000 X2.0000 Y1282.4700 Z0.0000
M3S245
G4 P0.5; Tool Off

G0 Z0; move to z-safe height
G0 X2.0000 Y1286.4700
M3S0
G4 P0.5; Tool On
G1 F300 Z0.0000
G1 F15000 X1148.0000 Y1286.4700 Z0.0000
M3S245
G4 P0.5; Tool Off

G0 Z0; move to z-safe height
G0 X1148.0000 Y1290.4700
M3S0
G4 P0.5; Tool On
G1 F300 Z0.0000
G1 F15000 X2.0000 Y1290.4700 Z0.0000
M3S245
G4 P0.5; Tool Off

G0 Z0; move to z-safe height
G0 X2.0000 Y1294.4700
M3S0
G4 P0.5; Tool On
G1 F300 Z0.0000
G1 F15000 X1148.0000 Y1294.4700 Z0.0000
M3S245
G4 P0.5; Tool Off

G0 Z0; move to z-safe height
G0 X1148.0000 Y1298.4700
M3S0
G4 P0.5; Tool On
G1 F300 Z0.0000
G1 F15000 X2.0000 Y1298.4700 Z0.0000
M3S245
G4 P0.5; Tool Off

G0 Z0; move to z-safe height
G0 X2.0000 Y1302.4700
M3S0
G4 P0.5; Tool On
G1 F300 Z0.0000
G1 F15000 X1148.0000 Y1302.4700 Z0.0000
M3S245
G4 P0.5; Tool Off

G0 Z0; move to z-safe height
G0 X1148.0000 Y1306.4700
M3S0
G4 P0.5; Tool On
G1 F300 Z0.0000
G1 F15000 X2.0000 Y1306.4700 Z0.0000
M3S245
G4 P0.5; Tool Off

G0 Z0; move to z-safe height
G0 X2.0000 Y1310.4700
M3S0
G4 P0.5; Tool On
G1 F300 Z0.0000
G1 F15000 X1148.0000 Y1310.4700 Z0.0000
M3S245
G4 P0.5; Tool Off

G0 Z0; move to z-safe height
G0 X1148.0000 Y1314.4700
M3S0
G4 P0.5; Tool On
G1 F300 Z0.0000
G1 F15000 X2.0000 Y1314.4700 Z0.0000
M3S245
G4 P0.5; Tool Off

G0 Z0; move to z-safe height
G0 X2.0000 Y1318.4700
M3S0
G4 P0.5; Tool On
G1 F300 Z0.0000
G1 F15000 X1148.0000 Y1318.4700 Z0.0000
M3S245
G4 P0.5; Tool Off

G0 Z0; move to z-safe height
G0 X1148.0000 Y1322.4700
M3S0
G4 P0.5; Tool On
G1 F300 Z0.0000
G1 F15000 X2.0000 Y1322.4700 Z0.0000
M3S245
G4 P0.5; Tool Off

G0 Z0; move to z-safe height
G0 X2.0000 Y1326.4700
M3S0
G4 P0.5; Tool On
G1 F300 Z0.0000
G1 F15000 X1148.0000 Y1326.4700 Z0.0000
M3S245
G4 P0.5; Tool Off

G0 Z0; move to z-safe height
G0 X1148.0000 Y1330.4700
M3S0
G4 P0.5; Tool On
G1 F300 Z0.0000
G1 F15000 X2.0000 Y1330.4700 Z0.0000
M3S245
G4 P0.5; Tool Off

G0 Z0; move to z-safe height
G0 X2.0000 Y1334.4700
M3S0
G4 P0.5; Tool On
G1 F300 Z0.0000
G1 F15000 X1148.0000 Y1334.4700 Z0.0000
M3S245
G4 P0.5; Tool Off

G0 Z0; move to z-safe height
G0 X1148.0000 Y1338.4700
M3S0
G4 P0.5; Tool On
G1 F300 Z0.0000
G1 F15000 X2.0000 Y1338.4700 Z0.0000
M3S245
G4 P0.5; Tool Off

G0 Z0; move to z-safe height
G0 X2.0000 Y1342.4700
M3S0
G4 P0.5; Tool On
G1 F300 Z0.0000
G1 F15000 X1148.0000 Y1342.4700 Z0.0000
M3S245
G4 P0.5; Tool Off

G0 Z0; move to z-safe height
G0 X1148.0000 Y1346.4700
M3S0
G4 P0.5; Tool On
G1 F300 Z0.0000
G1 F15000 X2.0000 Y1346.4700 Z0.0000
M3S245
G4 P0.5; Tool Off

G0 Z0; move to z-safe height
G0 X2.0000 Y1350.4700
M3S0
G4 P0.5; Tool On
G1 F300 Z0.0000
G1 F15000 X1148.0000 Y1350.4700 Z0.0000
M3S245
G4 P0.5; Tool Off

G0 Z0; move to z-safe height
G0 X1148.0000 Y1354.4700
M3S0
G4 P0.5; Tool On
G1 F300 Z0.0000
G1 F15000 X2.0000 Y1354.4700 Z0.0000
M3S245
G4 P0.5; Tool Off

G0 Z0; move to z-safe height
G0 X2.0000 Y1358.4700
M3S0
G4 P0.5; Tool On
G1 F300 Z0.0000
G1 F15000 X1148.0000 Y1358.4700 Z0.0000
M3S245
G4 P0.5; Tool Off

G0 Z0; move to z-safe height
G0 X1148.0000 Y1362.4700
M3S0
G4 P0.5; Tool On
G1 F300 Z0.0000
G1 F15000 X2.0000 Y1362.4700 Z0.0000
M3S245
G4 P0.5; Tool Off

G0 Z0; move to z-safe height
G0 X2.0000 Y1366.4700
M3S0
G4 P0.5; Tool On
G1 F300 Z0.0000
G1 F15000 X1148.0000 Y1366.4700 Z0.0000
M3S245
G4 P0.5; Tool Off

G0 Z0; move to z-safe height
G0 X1148.0000 Y1370.4700
M3S0
G4 P0.5; Tool On
G1 F300 Z0.0000
G1 F15000 X2.0000 Y1370.4700 Z0.0000
M3S245
G4 P0.5; Tool Off

G0 Z0; move to z-safe height
G0 X2.0000 Y1374.4700
M3S0
G4 P0.5; Tool On
G1 F300 Z0.0000
G1 F15000 X1148.0000 Y1374.4700 Z0.0000
M3S245
G4 P0.5; Tool Off

G0 Z0; move to z-safe height
G0 X1148.0000 Y1378.4700
M3S0
G4 P0.5; Tool On
G1 F300 Z0.0000
G1 F15000 X2.0000 Y1378.4700 Z0.0000
M3S245
G4 P0.5; Tool Off

G0 Z0; move to z-safe height
G0 X2.0000 Y1382.4700
M3S0
G4 P0.5; Tool On
G1 F300 Z0.0000
G1 F15000 X1148.0000 Y1382.4700 Z0.0000
M3S245
G4 P0.5; Tool Off

G0 Z0; move to z-safe height
G0 X1148.0000 Y1386.4700
M3S0
G4 P0.5; Tool On
G1 F300 Z0.0000
G1 F15000 X2.0000 Y1386.4700 Z0.0000
M3S245
G4 P0.5; Tool Off

G0 Z0; move to z-safe height
G0 X2.0000 Y1390.4700
M3S0
G4 P0.5; Tool On
G1 F300 Z0.0000
G1 F15000 X1148.0000 Y1390.4700 Z0.0000
M3S245
G4 P0.5; Tool Off

G0 Z0; move to z-safe height
G0 X1148.0000 Y1394.4700
M3S0
G4 P0.5; Tool On
G1 F300 Z0.0000
G1 F15000 X2.0000 Y1394.4700 Z0.0000
M3S245
G4 P0.5; Tool Off

G0 Z0; move to z-safe height
G0 X2.0000 Y1398.4700
M3S0
G4 P0.5; Tool On
G1 F300 Z0.0000
G1 F15000 X1148.0000 Y1398.4700 Z0.0000
M3S245
G4 P0.5; Tool Off

G0 Z0; move to z-safe height
G0 X1148.0000 Y1402.4700
M3S0
G4 P0.5; Tool On
G1 F300 Z0.0000
G1 F15000 X2.0000 Y1402.4700 Z0.0000
M3S245
G4 P0.5; Tool Off

G0 Z0; move to z-safe height
G0 X2.0000 Y1406.4700
M3S0
G4 P0.5; Tool On
G1 F300 Z0.0000
G1 F15000 X1148.0000 Y1406.4700 Z0.0000
M3S245
G4 P0.5; Tool Off

G0 Z0; move to z-safe height
G0 X1148.0000 Y1410.4700
M3S0
G4 P0.5; Tool On
G1 F300 Z0.0000
G1 F15000 X2.0000 Y1410.4700 Z0.0000
M3S245
G4 P0.5; Tool Off

G0 Z0; move to z-safe height
G0 X2.0000 Y1414.4700
M3S0
G4 P0.5; Tool On
G1 F300 Z0.0000
G1 F15000 X1148.0000 Y1414.4700 Z0.0000
M3S245
G4 P0.5; Tool Off

G0 Z0; move to z-safe height
G0 X1148.0000 Y1418.4700
M3S0
G4 P0.5; Tool On
G1 F300 Z0.0000
G1 F15000 X2.0000 Y1418.4700 Z0.0000
M3S245
G4 P0.5; Tool Off

G0 Z0; move to z-safe height
G0 X2.0000 Y1422.4700
M3S0
G4 P0.5; Tool On
G1 F300 Z0.0000
G1 F15000 X1148.0000 Y1422.4700 Z0.0000
M3S245
G4 P0.5; Tool Off

G0 Z0; move to z-safe height
G0 X1148.0000 Y1426.4700
M3S0
G4 P0.5; Tool On
G1 F300 Z0.0000
G1 F15000 X2.0000 Y1426.4700 Z0.0000
M3S245
G4 P0.5; Tool Off

G0 Z0; move to z-safe height
G0 X2.0000 Y1430.4700
M3S0
G4 P0.5; Tool On
G1 F300 Z0.0000
G1 F15000 X1148.0000 Y1430.4700 Z0.0000
M3S245
G4 P0.5; Tool Off

G0 Z0; move to z-safe height
G0 X1148.0000 Y1434.4700
M3S0
G4 P0.5; Tool On
G1 F300 Z0.0000
G1 F15000 X2.0000 Y1434.4700 Z0.0000
M3S245
G4 P0.5; Tool Off

G0 Z0; move to z-safe height
G0 X2.0000 Y1438.4700
M3S0
G4 P0.5; Tool On
G1 F300 Z0.0000
G1 F15000 X1148.0000 Y1438.4700 Z0.0000
M3S245
G4 P0.5; Tool Off

G0 Z0; move to z-safe height
G0 X1148.0000 Y1442.4700
M3S0
G4 P0.5; Tool On
G1 F300 Z0.0000
G1 F15000 X2.0000 Y1442.4700 Z0.0000
M3S245
G4 P0.5; Tool Off

G0 Z0; move to z-safe height
G0 X2.0000 Y1446.4700
M3S0
G4 P0.5; Tool On
G1 F300 Z0.0000
G1 F15000 X1148.0000 Y1446.4700 Z0.0000
M3S245
G4 P0.5; Tool Off
; retracting back to z-safe
G0 Z0

; Plotter Mode Complete
