; GCODE Generated by cam.openbuilds.com on 2023-06-13 
G21 ; mm-mode
G54; Work Coordinates
G21; mm-mode
G90; Absolute Positioning
; Plotter Mode Active

; Operation 0: Pen Plotter: (lines fill)
; Pen Diameter: 2

G0 Z0; move to z-safe height
G0 F1000 X1149.0000 Y1.0700
M3S0
G4 P0.5; Tool On
G1 F300 Z0.0000
G1 F15000 X1.0000 Y1.0700 Z0.0000
M3S245
G4 P0.5; Tool Off

G0 Z0; move to z-safe height
G0 X1.0000 Y3.0700
M3S0
G4 P0.5; Tool On
G1 F300 Z0.0000
G1 F15000 X1149.0000 Y3.0700 Z0.0000
M3S245
G4 P0.5; Tool Off

G0 Z0; move to z-safe height
G0 X1149.0000 Y5.0700
M3S0
G4 P0.5; Tool On
G1 F300 Z0.0000
G1 F15000 X1.0000 Y5.0700 Z0.0000
M3S245
G4 P0.5; Tool Off

G0 Z0; move to z-safe height
G0 X1.0000 Y7.0700
M3S0
G4 P0.5; Tool On
G1 F300 Z0.0000
G1 F15000 X1149.0000 Y7.0700 Z0.0000
M3S245
G4 P0.5; Tool Off

G0 Z0; move to z-safe height
G0 X1149.0000 Y9.0700
M3S0
G4 P0.5; Tool On
G1 F300 Z0.0000
G1 F15000 X1.0000 Y9.0700 Z0.0000
M3S245
G4 P0.5; Tool Off

G0 Z0; move to z-safe height
G0 X1.0000 Y11.0700
M3S0
G4 P0.5; Tool On
G1 F300 Z0.0000
G1 F15000 X1149.0000 Y11.0700 Z0.0000
M3S245
G4 P0.5; Tool Off

G0 Z0; move to z-safe height
G0 X1149.0000 Y13.0700
M3S0
G4 P0.5; Tool On
G1 F300 Z0.0000
G1 F15000 X1.0000 Y13.0700 Z0.0000
M3S245
G4 P0.5; Tool Off

G0 Z0; move to z-safe height
G0 X1.0000 Y15.0700
M3S0
G4 P0.5; Tool On
G1 F300 Z0.0000
G1 F15000 X1149.0000 Y15.0700 Z0.0000
M3S245
G4 P0.5; Tool Off

G0 Z0; move to z-safe height
G0 X1149.0000 Y17.0700
M3S0
G4 P0.5; Tool On
G1 F300 Z0.0000
G1 F15000 X1.0000 Y17.0700 Z0.0000
M3S245
G4 P0.5; Tool Off

G0 Z0; move to z-safe height
G0 X1.0000 Y19.0700
M3S0
G4 P0.5; Tool On
G1 F300 Z0.0000
G1 F15000 X1149.0000 Y19.0700 Z0.0000
M3S245
G4 P0.5; Tool Off

G0 Z0; move to z-safe height
G0 X1149.0000 Y21.0700
M3S0
G4 P0.5; Tool On
G1 F300 Z0.0000
G1 F15000 X1.0000 Y21.0700 Z0.0000
M3S245
G4 P0.5; Tool Off

G0 Z0; move to z-safe height
G0 X1.0000 Y23.0700
M3S0
G4 P0.5; Tool On
G1 F300 Z0.0000
G1 F15000 X1149.0000 Y23.0700 Z0.0000
M3S245
G4 P0.5; Tool Off

G0 Z0; move to z-safe height
G0 X1149.0000 Y25.0700
M3S0
G4 P0.5; Tool On
G1 F300 Z0.0000
G1 F15000 X1.0000 Y25.0700 Z0.0000
M3S245
G4 P0.5; Tool Off

G0 Z0; move to z-safe height
G0 X1.0000 Y27.0700
M3S0
G4 P0.5; Tool On
G1 F300 Z0.0000
G1 F15000 X1149.0000 Y27.0700 Z0.0000
M3S245
G4 P0.5; Tool Off

G0 Z0; move to z-safe height
G0 X1149.0000 Y29.0700
M3S0
G4 P0.5; Tool On
G1 F300 Z0.0000
G1 F15000 X1.0000 Y29.0700 Z0.0000
M3S245
G4 P0.5; Tool Off

G0 Z0; move to z-safe height
G0 X1.0000 Y31.0700
M3S0
G4 P0.5; Tool On
G1 F300 Z0.0000
G1 F15000 X1149.0000 Y31.0700 Z0.0000
M3S245
G4 P0.5; Tool Off

G0 Z0; move to z-safe height
G0 X1149.0000 Y33.0700
M3S0
G4 P0.5; Tool On
G1 F300 Z0.0000
G1 F15000 X1.0000 Y33.0700 Z0.0000
M3S245
G4 P0.5; Tool Off

G0 Z0; move to z-safe height
G0 X1.0000 Y35.0700
M3S0
G4 P0.5; Tool On
G1 F300 Z0.0000
G1 F15000 X1149.0000 Y35.0700 Z0.0000
M3S245
G4 P0.5; Tool Off

G0 Z0; move to z-safe height
G0 X1149.0000 Y37.0700
M3S0
G4 P0.5; Tool On
G1 F300 Z0.0000
G1 F15000 X1.0000 Y37.0700 Z0.0000
M3S245
G4 P0.5; Tool Off

G0 Z0; move to z-safe height
G0 X1.0000 Y39.0700
M3S0
G4 P0.5; Tool On
G1 F300 Z0.0000
G1 F15000 X1149.0000 Y39.0700 Z0.0000
M3S245
G4 P0.5; Tool Off

G0 Z0; move to z-safe height
G0 X1149.0000 Y41.0700
M3S0
G4 P0.5; Tool On
G1 F300 Z0.0000
G1 F15000 X1.0000 Y41.0700 Z0.0000
M3S245
G4 P0.5; Tool Off

G0 Z0; move to z-safe height
G0 X1.0000 Y43.0700
M3S0
G4 P0.5; Tool On
G1 F300 Z0.0000
G1 F15000 X1149.0000 Y43.0700 Z0.0000
M3S245
G4 P0.5; Tool Off

G0 Z0; move to z-safe height
G0 X1149.0000 Y45.0700
M3S0
G4 P0.5; Tool On
G1 F300 Z0.0000
G1 F15000 X1.0000 Y45.0700 Z0.0000
M3S245
G4 P0.5; Tool Off

G0 Z0; move to z-safe height
G0 X1.0000 Y47.0700
M3S0
G4 P0.5; Tool On
G1 F300 Z0.0000
G1 F15000 X1149.0000 Y47.0700 Z0.0000
M3S245
G4 P0.5; Tool Off

G0 Z0; move to z-safe height
G0 X1149.0000 Y49.0700
M3S0
G4 P0.5; Tool On
G1 F300 Z0.0000
G1 F15000 X1.0000 Y49.0700 Z0.0000
M3S245
G4 P0.5; Tool Off

G0 Z0; move to z-safe height
G0 X1.0000 Y51.0700
M3S0
G4 P0.5; Tool On
G1 F300 Z0.0000
G1 F15000 X1149.0000 Y51.0700 Z0.0000
M3S245
G4 P0.5; Tool Off

G0 Z0; move to z-safe height
G0 X1149.0000 Y53.0700
M3S0
G4 P0.5; Tool On
G1 F300 Z0.0000
G1 F15000 X1.0000 Y53.0700 Z0.0000
M3S245
G4 P0.5; Tool Off

G0 Z0; move to z-safe height
G0 X1.0000 Y55.0700
M3S0
G4 P0.5; Tool On
G1 F300 Z0.0000
G1 F15000 X1149.0000 Y55.0700 Z0.0000
M3S245
G4 P0.5; Tool Off

G0 Z0; move to z-safe height
G0 X1149.0000 Y57.0700
M3S0
G4 P0.5; Tool On
G1 F300 Z0.0000
G1 F15000 X1.0000 Y57.0700 Z0.0000
M3S245
G4 P0.5; Tool Off

G0 Z0; move to z-safe height
G0 X1.0000 Y59.0700
M3S0
G4 P0.5; Tool On
G1 F300 Z0.0000
G1 F15000 X1149.0000 Y59.0700 Z0.0000
M3S245
G4 P0.5; Tool Off

G0 Z0; move to z-safe height
G0 X1149.0000 Y61.0700
M3S0
G4 P0.5; Tool On
G1 F300 Z0.0000
G1 F15000 X1.0000 Y61.0700 Z0.0000
M3S245
G4 P0.5; Tool Off

G0 Z0; move to z-safe height
G0 X1.0000 Y63.0700
M3S0
G4 P0.5; Tool On
G1 F300 Z0.0000
G1 F15000 X1149.0000 Y63.0700 Z0.0000
M3S245
G4 P0.5; Tool Off

G0 Z0; move to z-safe height
G0 X1149.0000 Y65.0700
M3S0
G4 P0.5; Tool On
G1 F300 Z0.0000
G1 F15000 X1.0000 Y65.0700 Z0.0000
M3S245
G4 P0.5; Tool Off

G0 Z0; move to z-safe height
G0 X1.0000 Y67.0700
M3S0
G4 P0.5; Tool On
G1 F300 Z0.0000
G1 F15000 X1149.0000 Y67.0700 Z0.0000
M3S245
G4 P0.5; Tool Off

G0 Z0; move to z-safe height
G0 X1149.0000 Y69.0700
M3S0
G4 P0.5; Tool On
G1 F300 Z0.0000
G1 F15000 X1.0000 Y69.0700 Z0.0000
M3S245
G4 P0.5; Tool Off

G0 Z0; move to z-safe height
G0 X1.0000 Y71.0700
M3S0
G4 P0.5; Tool On
G1 F300 Z0.0000
G1 F15000 X1149.0000 Y71.0700 Z0.0000
M3S245
G4 P0.5; Tool Off

G0 Z0; move to z-safe height
G0 X1149.0000 Y73.0700
M3S0
G4 P0.5; Tool On
G1 F300 Z0.0000
G1 F15000 X1.0000 Y73.0700 Z0.0000
M3S245
G4 P0.5; Tool Off

G0 Z0; move to z-safe height
G0 X1.0000 Y75.0700
M3S0
G4 P0.5; Tool On
G1 F300 Z0.0000
G1 F15000 X1149.0000 Y75.0700 Z0.0000
M3S245
G4 P0.5; Tool Off

G0 Z0; move to z-safe height
G0 X1149.0000 Y77.0700
M3S0
G4 P0.5; Tool On
G1 F300 Z0.0000
G1 F15000 X1.0000 Y77.0700 Z0.0000
M3S245
G4 P0.5; Tool Off

G0 Z0; move to z-safe height
G0 X1.0000 Y79.0700
M3S0
G4 P0.5; Tool On
G1 F300 Z0.0000
G1 F15000 X1149.0000 Y79.0700 Z0.0000
M3S245
G4 P0.5; Tool Off

G0 Z0; move to z-safe height
G0 X1149.0000 Y81.0700
M3S0
G4 P0.5; Tool On
G1 F300 Z0.0000
G1 F15000 X1.0000 Y81.0700 Z0.0000
M3S245
G4 P0.5; Tool Off

G0 Z0; move to z-safe height
G0 X1.0000 Y83.0700
M3S0
G4 P0.5; Tool On
G1 F300 Z0.0000
G1 F15000 X1149.0000 Y83.0700 Z0.0000
M3S245
G4 P0.5; Tool Off

G0 Z0; move to z-safe height
G0 X1149.0000 Y85.0700
M3S0
G4 P0.5; Tool On
G1 F300 Z0.0000
G1 F15000 X1.0000 Y85.0700 Z0.0000
M3S245
G4 P0.5; Tool Off

G0 Z0; move to z-safe height
G0 X1.0000 Y87.0700
M3S0
G4 P0.5; Tool On
G1 F300 Z0.0000
G1 F15000 X1149.0000 Y87.0700 Z0.0000
M3S245
G4 P0.5; Tool Off

G0 Z0; move to z-safe height
G0 X1149.0000 Y89.0700
M3S0
G4 P0.5; Tool On
G1 F300 Z0.0000
G1 F15000 X1.0000 Y89.0700 Z0.0000
M3S245
G4 P0.5; Tool Off

G0 Z0; move to z-safe height
G0 X1.0000 Y91.0700
M3S0
G4 P0.5; Tool On
G1 F300 Z0.0000
G1 F15000 X1149.0000 Y91.0700 Z0.0000
M3S245
G4 P0.5; Tool Off

G0 Z0; move to z-safe height
G0 X1149.0000 Y93.0700
M3S0
G4 P0.5; Tool On
G1 F300 Z0.0000
G1 F15000 X1.0000 Y93.0700 Z0.0000
M3S245
G4 P0.5; Tool Off

G0 Z0; move to z-safe height
G0 X1.0000 Y95.0700
M3S0
G4 P0.5; Tool On
G1 F300 Z0.0000
G1 F15000 X1149.0000 Y95.0700 Z0.0000
M3S245
G4 P0.5; Tool Off

G0 Z0; move to z-safe height
G0 X1149.0000 Y97.0700
M3S0
G4 P0.5; Tool On
G1 F300 Z0.0000
G1 F15000 X1.0000 Y97.0700 Z0.0000
M3S245
G4 P0.5; Tool Off

G0 Z0; move to z-safe height
G0 X1.0000 Y99.0700
M3S0
G4 P0.5; Tool On
G1 F300 Z0.0000
G1 F15000 X1149.0000 Y99.0700 Z0.0000
M3S245
G4 P0.5; Tool Off

G0 Z0; move to z-safe height
G0 X1149.0000 Y101.0700
M3S0
G4 P0.5; Tool On
G1 F300 Z0.0000
G1 F15000 X1.0000 Y101.0700 Z0.0000
M3S245
G4 P0.5; Tool Off

G0 Z0; move to z-safe height
G0 X1.0000 Y103.0700
M3S0
G4 P0.5; Tool On
G1 F300 Z0.0000
G1 F15000 X1149.0000 Y103.0700 Z0.0000
M3S245
G4 P0.5; Tool Off

G0 Z0; move to z-safe height
G0 X1149.0000 Y105.0700
M3S0
G4 P0.5; Tool On
G1 F300 Z0.0000
G1 F15000 X1.0000 Y105.0700 Z0.0000
M3S245
G4 P0.5; Tool Off

G0 Z0; move to z-safe height
G0 X1.0000 Y107.0700
M3S0
G4 P0.5; Tool On
G1 F300 Z0.0000
G1 F15000 X1149.0000 Y107.0700 Z0.0000
M3S245
G4 P0.5; Tool Off

G0 Z0; move to z-safe height
G0 X1149.0000 Y109.0700
M3S0
G4 P0.5; Tool On
G1 F300 Z0.0000
G1 F15000 X1.0000 Y109.0700 Z0.0000
M3S245
G4 P0.5; Tool Off

G0 Z0; move to z-safe height
G0 X1.0000 Y111.0700
M3S0
G4 P0.5; Tool On
G1 F300 Z0.0000
G1 F15000 X1149.0000 Y111.0700 Z0.0000
M3S245
G4 P0.5; Tool Off

G0 Z0; move to z-safe height
G0 X1149.0000 Y113.0700
M3S0
G4 P0.5; Tool On
G1 F300 Z0.0000
G1 F15000 X1.0000 Y113.0700 Z0.0000
M3S245
G4 P0.5; Tool Off

G0 Z0; move to z-safe height
G0 X1.0000 Y115.0700
M3S0
G4 P0.5; Tool On
G1 F300 Z0.0000
G1 F15000 X1149.0000 Y115.0700 Z0.0000
M3S245
G4 P0.5; Tool Off

G0 Z0; move to z-safe height
G0 X1149.0000 Y117.0700
M3S0
G4 P0.5; Tool On
G1 F300 Z0.0000
G1 F15000 X1.0000 Y117.0700 Z0.0000
M3S245
G4 P0.5; Tool Off

G0 Z0; move to z-safe height
G0 X1.0000 Y119.0700
M3S0
G4 P0.5; Tool On
G1 F300 Z0.0000
G1 F15000 X1149.0000 Y119.0700 Z0.0000
M3S245
G4 P0.5; Tool Off

G0 Z0; move to z-safe height
G0 X1149.0000 Y121.0700
M3S0
G4 P0.5; Tool On
G1 F300 Z0.0000
G1 F15000 X1.0000 Y121.0700 Z0.0000
M3S245
G4 P0.5; Tool Off

G0 Z0; move to z-safe height
G0 X1.0000 Y123.0700
M3S0
G4 P0.5; Tool On
G1 F300 Z0.0000
G1 F15000 X1149.0000 Y123.0700 Z0.0000
M3S245
G4 P0.5; Tool Off

G0 Z0; move to z-safe height
G0 X1149.0000 Y125.0700
M3S0
G4 P0.5; Tool On
G1 F300 Z0.0000
G1 F15000 X1.0000 Y125.0700 Z0.0000
M3S245
G4 P0.5; Tool Off

G0 Z0; move to z-safe height
G0 X1.0000 Y127.0700
M3S0
G4 P0.5; Tool On
G1 F300 Z0.0000
G1 F15000 X1149.0000 Y127.0700 Z0.0000
M3S245
G4 P0.5; Tool Off

G0 Z0; move to z-safe height
G0 X1149.0000 Y129.0700
M3S0
G4 P0.5; Tool On
G1 F300 Z0.0000
G1 F15000 X1.0000 Y129.0700 Z0.0000
M3S245
G4 P0.5; Tool Off

G0 Z0; move to z-safe height
G0 X1.0000 Y131.0700
M3S0
G4 P0.5; Tool On
G1 F300 Z0.0000
G1 F15000 X1149.0000 Y131.0700 Z0.0000
M3S245
G4 P0.5; Tool Off

G0 Z0; move to z-safe height
G0 X1149.0000 Y133.0700
M3S0
G4 P0.5; Tool On
G1 F300 Z0.0000
G1 F15000 X1.0000 Y133.0700 Z0.0000
M3S245
G4 P0.5; Tool Off

G0 Z0; move to z-safe height
G0 X1.0000 Y135.0700
M3S0
G4 P0.5; Tool On
G1 F300 Z0.0000
G1 F15000 X1149.0000 Y135.0700 Z0.0000
M3S245
G4 P0.5; Tool Off

G0 Z0; move to z-safe height
G0 X1149.0000 Y137.0700
M3S0
G4 P0.5; Tool On
G1 F300 Z0.0000
G1 F15000 X1.0000 Y137.0700 Z0.0000
M3S245
G4 P0.5; Tool Off

G0 Z0; move to z-safe height
G0 X1.0000 Y139.0700
M3S0
G4 P0.5; Tool On
G1 F300 Z0.0000
G1 F15000 X1149.0000 Y139.0700 Z0.0000
M3S245
G4 P0.5; Tool Off

G0 Z0; move to z-safe height
G0 X1149.0000 Y141.0700
M3S0
G4 P0.5; Tool On
G1 F300 Z0.0000
G1 F15000 X1.0000 Y141.0700 Z0.0000
M3S245
G4 P0.5; Tool Off

G0 Z0; move to z-safe height
G0 X1.0000 Y143.0700
M3S0
G4 P0.5; Tool On
G1 F300 Z0.0000
G1 F15000 X1149.0000 Y143.0700 Z0.0000
M3S245
G4 P0.5; Tool Off

G0 Z0; move to z-safe height
G0 X1149.0000 Y145.0700
M3S0
G4 P0.5; Tool On
G1 F300 Z0.0000
G1 F15000 X1.0000 Y145.0700 Z0.0000
M3S245
G4 P0.5; Tool Off

G0 Z0; move to z-safe height
G0 X1.0000 Y147.0700
M3S0
G4 P0.5; Tool On
G1 F300 Z0.0000
G1 F15000 X1149.0000 Y147.0700 Z0.0000
M3S245
G4 P0.5; Tool Off

G0 Z0; move to z-safe height
G0 X1149.0000 Y149.0700
M3S0
G4 P0.5; Tool On
G1 F300 Z0.0000
G1 F15000 X1.0000 Y149.0700 Z0.0000
M3S245
G4 P0.5; Tool Off

G0 Z0; move to z-safe height
G0 X1.0000 Y151.0700
M3S0
G4 P0.5; Tool On
G1 F300 Z0.0000
G1 F15000 X1149.0000 Y151.0700 Z0.0000
M3S245
G4 P0.5; Tool Off

G0 Z0; move to z-safe height
G0 X1149.0000 Y153.0700
M3S0
G4 P0.5; Tool On
G1 F300 Z0.0000
G1 F15000 X1.0000 Y153.0700 Z0.0000
M3S245
G4 P0.5; Tool Off

G0 Z0; move to z-safe height
G0 X1.0000 Y155.0700
M3S0
G4 P0.5; Tool On
G1 F300 Z0.0000
G1 F15000 X1149.0000 Y155.0700 Z0.0000
M3S245
G4 P0.5; Tool Off

G0 Z0; move to z-safe height
G0 X1149.0000 Y157.0700
M3S0
G4 P0.5; Tool On
G1 F300 Z0.0000
G1 F15000 X1.0000 Y157.0700 Z0.0000
M3S245
G4 P0.5; Tool Off

G0 Z0; move to z-safe height
G0 X1.0000 Y159.0700
M3S0
G4 P0.5; Tool On
G1 F300 Z0.0000
G1 F15000 X1149.0000 Y159.0700 Z0.0000
M3S245
G4 P0.5; Tool Off

G0 Z0; move to z-safe height
G0 X1149.0000 Y161.0700
M3S0
G4 P0.5; Tool On
G1 F300 Z0.0000
G1 F15000 X1.0000 Y161.0700 Z0.0000
M3S245
G4 P0.5; Tool Off

G0 Z0; move to z-safe height
G0 X1.0000 Y163.0700
M3S0
G4 P0.5; Tool On
G1 F300 Z0.0000
G1 F15000 X1149.0000 Y163.0700 Z0.0000
M3S245
G4 P0.5; Tool Off

G0 Z0; move to z-safe height
G0 X1149.0000 Y165.0700
M3S0
G4 P0.5; Tool On
G1 F300 Z0.0000
G1 F15000 X1.0000 Y165.0700 Z0.0000
M3S245
G4 P0.5; Tool Off

G0 Z0; move to z-safe height
G0 X1.0000 Y167.0700
M3S0
G4 P0.5; Tool On
G1 F300 Z0.0000
G1 F15000 X1149.0000 Y167.0700 Z0.0000
M3S245
G4 P0.5; Tool Off

G0 Z0; move to z-safe height
G0 X1149.0000 Y169.0700
M3S0
G4 P0.5; Tool On
G1 F300 Z0.0000
G1 F15000 X1.0000 Y169.0700 Z0.0000
M3S245
G4 P0.5; Tool Off

G0 Z0; move to z-safe height
G0 X1.0000 Y171.0700
M3S0
G4 P0.5; Tool On
G1 F300 Z0.0000
G1 F15000 X1149.0000 Y171.0700 Z0.0000
M3S245
G4 P0.5; Tool Off

G0 Z0; move to z-safe height
G0 X1149.0000 Y173.0700
M3S0
G4 P0.5; Tool On
G1 F300 Z0.0000
G1 F15000 X1.0000 Y173.0700 Z0.0000
M3S245
G4 P0.5; Tool Off

G0 Z0; move to z-safe height
G0 X1.0000 Y175.0700
M3S0
G4 P0.5; Tool On
G1 F300 Z0.0000
G1 F15000 X1149.0000 Y175.0700 Z0.0000
M3S245
G4 P0.5; Tool Off

G0 Z0; move to z-safe height
G0 X1149.0000 Y177.0700
M3S0
G4 P0.5; Tool On
G1 F300 Z0.0000
G1 F15000 X1.0000 Y177.0700 Z0.0000
M3S245
G4 P0.5; Tool Off

G0 Z0; move to z-safe height
G0 X1.0000 Y179.0700
M3S0
G4 P0.5; Tool On
G1 F300 Z0.0000
G1 F15000 X1149.0000 Y179.0700 Z0.0000
M3S245
G4 P0.5; Tool Off

G0 Z0; move to z-safe height
G0 X1149.0000 Y181.0700
M3S0
G4 P0.5; Tool On
G1 F300 Z0.0000
G1 F15000 X1.0000 Y181.0700 Z0.0000
M3S245
G4 P0.5; Tool Off

G0 Z0; move to z-safe height
G0 X1.0000 Y183.0700
M3S0
G4 P0.5; Tool On
G1 F300 Z0.0000
G1 F15000 X1149.0000 Y183.0700 Z0.0000
M3S245
G4 P0.5; Tool Off

G0 Z0; move to z-safe height
G0 X1149.0000 Y185.0700
M3S0
G4 P0.5; Tool On
G1 F300 Z0.0000
G1 F15000 X1.0000 Y185.0700 Z0.0000
M3S245
G4 P0.5; Tool Off

G0 Z0; move to z-safe height
G0 X1.0000 Y187.0700
M3S0
G4 P0.5; Tool On
G1 F300 Z0.0000
G1 F15000 X1149.0000 Y187.0700 Z0.0000
M3S245
G4 P0.5; Tool Off

G0 Z0; move to z-safe height
G0 X1149.0000 Y189.0700
M3S0
G4 P0.5; Tool On
G1 F300 Z0.0000
G1 F15000 X1.0000 Y189.0700 Z0.0000
M3S245
G4 P0.5; Tool Off

G0 Z0; move to z-safe height
G0 X1.0000 Y191.0700
M3S0
G4 P0.5; Tool On
G1 F300 Z0.0000
G1 F15000 X1149.0000 Y191.0700 Z0.0000
M3S245
G4 P0.5; Tool Off

G0 Z0; move to z-safe height
G0 X1149.0000 Y193.0700
M3S0
G4 P0.5; Tool On
G1 F300 Z0.0000
G1 F15000 X1.0000 Y193.0700 Z0.0000
M3S245
G4 P0.5; Tool Off

G0 Z0; move to z-safe height
G0 X1.0000 Y195.0700
M3S0
G4 P0.5; Tool On
G1 F300 Z0.0000
G1 F15000 X1149.0000 Y195.0700 Z0.0000
M3S245
G4 P0.5; Tool Off

G0 Z0; move to z-safe height
G0 X1149.0000 Y197.0700
M3S0
G4 P0.5; Tool On
G1 F300 Z0.0000
G1 F15000 X1.0000 Y197.0700 Z0.0000
M3S245
G4 P0.5; Tool Off

G0 Z0; move to z-safe height
G0 X1.0000 Y199.0700
M3S0
G4 P0.5; Tool On
G1 F300 Z0.0000
G1 F15000 X1149.0000 Y199.0700 Z0.0000
M3S245
G4 P0.5; Tool Off

G0 Z0; move to z-safe height
G0 X1149.0000 Y201.0700
M3S0
G4 P0.5; Tool On
G1 F300 Z0.0000
G1 F15000 X1.0000 Y201.0700 Z0.0000
M3S245
G4 P0.5; Tool Off

G0 Z0; move to z-safe height
G0 X1.0000 Y203.0700
M3S0
G4 P0.5; Tool On
G1 F300 Z0.0000
G1 F15000 X1149.0000 Y203.0700 Z0.0000
M3S245
G4 P0.5; Tool Off

G0 Z0; move to z-safe height
G0 X1149.0000 Y205.0700
M3S0
G4 P0.5; Tool On
G1 F300 Z0.0000
G1 F15000 X1.0000 Y205.0700 Z0.0000
M3S245
G4 P0.5; Tool Off

G0 Z0; move to z-safe height
G0 X1.0000 Y207.0700
M3S0
G4 P0.5; Tool On
G1 F300 Z0.0000
G1 F15000 X1149.0000 Y207.0700 Z0.0000
M3S245
G4 P0.5; Tool Off

G0 Z0; move to z-safe height
G0 X1149.0000 Y209.0700
M3S0
G4 P0.5; Tool On
G1 F300 Z0.0000
G1 F15000 X1.0000 Y209.0700 Z0.0000
M3S245
G4 P0.5; Tool Off

G0 Z0; move to z-safe height
G0 X1.0000 Y211.0700
M3S0
G4 P0.5; Tool On
G1 F300 Z0.0000
G1 F15000 X1149.0000 Y211.0700 Z0.0000
M3S245
G4 P0.5; Tool Off

G0 Z0; move to z-safe height
G0 X1149.0000 Y213.0700
M3S0
G4 P0.5; Tool On
G1 F300 Z0.0000
G1 F15000 X1.0000 Y213.0700 Z0.0000
M3S245
G4 P0.5; Tool Off

G0 Z0; move to z-safe height
G0 X1.0000 Y215.0700
M3S0
G4 P0.5; Tool On
G1 F300 Z0.0000
G1 F15000 X1149.0000 Y215.0700 Z0.0000
M3S245
G4 P0.5; Tool Off

G0 Z0; move to z-safe height
G0 X1149.0000 Y217.0700
M3S0
G4 P0.5; Tool On
G1 F300 Z0.0000
G1 F15000 X1.0000 Y217.0700 Z0.0000
M3S245
G4 P0.5; Tool Off

G0 Z0; move to z-safe height
G0 X1.0000 Y219.0700
M3S0
G4 P0.5; Tool On
G1 F300 Z0.0000
G1 F15000 X1149.0000 Y219.0700 Z0.0000
M3S245
G4 P0.5; Tool Off

G0 Z0; move to z-safe height
G0 X1149.0000 Y221.0700
M3S0
G4 P0.5; Tool On
G1 F300 Z0.0000
G1 F15000 X1.0000 Y221.0700 Z0.0000
M3S245
G4 P0.5; Tool Off

G0 Z0; move to z-safe height
G0 X1.0000 Y223.0700
M3S0
G4 P0.5; Tool On
G1 F300 Z0.0000
G1 F15000 X1149.0000 Y223.0700 Z0.0000
M3S245
G4 P0.5; Tool Off

G0 Z0; move to z-safe height
G0 X1149.0000 Y225.0700
M3S0
G4 P0.5; Tool On
G1 F300 Z0.0000
G1 F15000 X1.0000 Y225.0700 Z0.0000
M3S245
G4 P0.5; Tool Off

G0 Z0; move to z-safe height
G0 X1.0000 Y227.0700
M3S0
G4 P0.5; Tool On
G1 F300 Z0.0000
G1 F15000 X1149.0000 Y227.0700 Z0.0000
M3S245
G4 P0.5; Tool Off

G0 Z0; move to z-safe height
G0 X1149.0000 Y229.0700
M3S0
G4 P0.5; Tool On
G1 F300 Z0.0000
G1 F15000 X1.0000 Y229.0700 Z0.0000
M3S245
G4 P0.5; Tool Off

G0 Z0; move to z-safe height
G0 X1.0000 Y231.0700
M3S0
G4 P0.5; Tool On
G1 F300 Z0.0000
G1 F15000 X1149.0000 Y231.0700 Z0.0000
M3S245
G4 P0.5; Tool Off

G0 Z0; move to z-safe height
G0 X1149.0000 Y233.0700
M3S0
G4 P0.5; Tool On
G1 F300 Z0.0000
G1 F15000 X1.0000 Y233.0700 Z0.0000
M3S245
G4 P0.5; Tool Off

G0 Z0; move to z-safe height
G0 X1.0000 Y235.0700
M3S0
G4 P0.5; Tool On
G1 F300 Z0.0000
G1 F15000 X1149.0000 Y235.0700 Z0.0000
M3S245
G4 P0.5; Tool Off

G0 Z0; move to z-safe height
G0 X1149.0000 Y237.0700
M3S0
G4 P0.5; Tool On
G1 F300 Z0.0000
G1 F15000 X1.0000 Y237.0700 Z0.0000
M3S245
G4 P0.5; Tool Off

G0 Z0; move to z-safe height
G0 X1.0000 Y239.0700
M3S0
G4 P0.5; Tool On
G1 F300 Z0.0000
G1 F15000 X1149.0000 Y239.0700 Z0.0000
M3S245
G4 P0.5; Tool Off

G0 Z0; move to z-safe height
G0 X1149.0000 Y241.0700
M3S0
G4 P0.5; Tool On
G1 F300 Z0.0000
G1 F15000 X1.0000 Y241.0700 Z0.0000
M3S245
G4 P0.5; Tool Off

G0 Z0; move to z-safe height
G0 X1.0000 Y243.0700
M3S0
G4 P0.5; Tool On
G1 F300 Z0.0000
G1 F15000 X1149.0000 Y243.0700 Z0.0000
M3S245
G4 P0.5; Tool Off

G0 Z0; move to z-safe height
G0 X1149.0000 Y245.0700
M3S0
G4 P0.5; Tool On
G1 F300 Z0.0000
G1 F15000 X1.0000 Y245.0700 Z0.0000
M3S245
G4 P0.5; Tool Off

G0 Z0; move to z-safe height
G0 X1.0000 Y247.0700
M3S0
G4 P0.5; Tool On
G1 F300 Z0.0000
G1 F15000 X1149.0000 Y247.0700 Z0.0000
M3S245
G4 P0.5; Tool Off

G0 Z0; move to z-safe height
G0 X1149.0000 Y249.0700
M3S0
G4 P0.5; Tool On
G1 F300 Z0.0000
G1 F15000 X1.0000 Y249.0700 Z0.0000
M3S245
G4 P0.5; Tool Off

G0 Z0; move to z-safe height
G0 X1.0000 Y251.0700
M3S0
G4 P0.5; Tool On
G1 F300 Z0.0000
G1 F15000 X1149.0000 Y251.0700 Z0.0000
M3S245
G4 P0.5; Tool Off

G0 Z0; move to z-safe height
G0 X1149.0000 Y253.0700
M3S0
G4 P0.5; Tool On
G1 F300 Z0.0000
G1 F15000 X1.0000 Y253.0700 Z0.0000
M3S245
G4 P0.5; Tool Off

G0 Z0; move to z-safe height
G0 X1.0000 Y255.0700
M3S0
G4 P0.5; Tool On
G1 F300 Z0.0000
G1 F15000 X1149.0000 Y255.0700 Z0.0000
M3S245
G4 P0.5; Tool Off

G0 Z0; move to z-safe height
G0 X1149.0000 Y257.0700
M3S0
G4 P0.5; Tool On
G1 F300 Z0.0000
G1 F15000 X1.0000 Y257.0700 Z0.0000
M3S245
G4 P0.5; Tool Off

G0 Z0; move to z-safe height
G0 X1.0000 Y259.0700
M3S0
G4 P0.5; Tool On
G1 F300 Z0.0000
G1 F15000 X1149.0000 Y259.0700 Z0.0000
M3S245
G4 P0.5; Tool Off

G0 Z0; move to z-safe height
G0 X1149.0000 Y261.0700
M3S0
G4 P0.5; Tool On
G1 F300 Z0.0000
G1 F15000 X1.0000 Y261.0700 Z0.0000
M3S245
G4 P0.5; Tool Off

G0 Z0; move to z-safe height
G0 X1.0000 Y263.0700
M3S0
G4 P0.5; Tool On
G1 F300 Z0.0000
G1 F15000 X1149.0000 Y263.0700 Z0.0000
M3S245
G4 P0.5; Tool Off

G0 Z0; move to z-safe height
G0 X1149.0000 Y265.0700
M3S0
G4 P0.5; Tool On
G1 F300 Z0.0000
G1 F15000 X1.0000 Y265.0700 Z0.0000
M3S245
G4 P0.5; Tool Off

G0 Z0; move to z-safe height
G0 X1.0000 Y267.0700
M3S0
G4 P0.5; Tool On
G1 F300 Z0.0000
G1 F15000 X1149.0000 Y267.0700 Z0.0000
M3S245
G4 P0.5; Tool Off

G0 Z0; move to z-safe height
G0 X1149.0000 Y269.0700
M3S0
G4 P0.5; Tool On
G1 F300 Z0.0000
G1 F15000 X1.0000 Y269.0700 Z0.0000
M3S245
G4 P0.5; Tool Off

G0 Z0; move to z-safe height
G0 X1.0000 Y271.0700
M3S0
G4 P0.5; Tool On
G1 F300 Z0.0000
G1 F15000 X1149.0000 Y271.0700 Z0.0000
M3S245
G4 P0.5; Tool Off

G0 Z0; move to z-safe height
G0 X1149.0000 Y273.0700
M3S0
G4 P0.5; Tool On
G1 F300 Z0.0000
G1 F15000 X1.0000 Y273.0700 Z0.0000
M3S245
G4 P0.5; Tool Off

G0 Z0; move to z-safe height
G0 X1.0000 Y275.0700
M3S0
G4 P0.5; Tool On
G1 F300 Z0.0000
G1 F15000 X1149.0000 Y275.0700 Z0.0000
M3S245
G4 P0.5; Tool Off

G0 Z0; move to z-safe height
G0 X1149.0000 Y277.0700
M3S0
G4 P0.5; Tool On
G1 F300 Z0.0000
G1 F15000 X1.0000 Y277.0700 Z0.0000
M3S245
G4 P0.5; Tool Off

G0 Z0; move to z-safe height
G0 X1.0000 Y279.0700
M3S0
G4 P0.5; Tool On
G1 F300 Z0.0000
G1 F15000 X1149.0000 Y279.0700 Z0.0000
M3S245
G4 P0.5; Tool Off

G0 Z0; move to z-safe height
G0 X1149.0000 Y281.0700
M3S0
G4 P0.5; Tool On
G1 F300 Z0.0000
G1 F15000 X1.0000 Y281.0700 Z0.0000
M3S245
G4 P0.5; Tool Off

G0 Z0; move to z-safe height
G0 X1.0000 Y283.0700
M3S0
G4 P0.5; Tool On
G1 F300 Z0.0000
G1 F15000 X1149.0000 Y283.0700 Z0.0000
M3S245
G4 P0.5; Tool Off

G0 Z0; move to z-safe height
G0 X1149.0000 Y285.0700
M3S0
G4 P0.5; Tool On
G1 F300 Z0.0000
G1 F15000 X1.0000 Y285.0700 Z0.0000
M3S245
G4 P0.5; Tool Off

G0 Z0; move to z-safe height
G0 X1.0000 Y287.0700
M3S0
G4 P0.5; Tool On
G1 F300 Z0.0000
G1 F15000 X1149.0000 Y287.0700 Z0.0000
M3S245
G4 P0.5; Tool Off

G0 Z0; move to z-safe height
G0 X1149.0000 Y289.0700
M3S0
G4 P0.5; Tool On
G1 F300 Z0.0000
G1 F15000 X1.0000 Y289.0700 Z0.0000
M3S245
G4 P0.5; Tool Off

G0 Z0; move to z-safe height
G0 X1.0000 Y291.0700
M3S0
G4 P0.5; Tool On
G1 F300 Z0.0000
G1 F15000 X1149.0000 Y291.0700 Z0.0000
M3S245
G4 P0.5; Tool Off

G0 Z0; move to z-safe height
G0 X1149.0000 Y293.0700
M3S0
G4 P0.5; Tool On
G1 F300 Z0.0000
G1 F15000 X1.0000 Y293.0700 Z0.0000
M3S245
G4 P0.5; Tool Off

G0 Z0; move to z-safe height
G0 X1.0000 Y295.0700
M3S0
G4 P0.5; Tool On
G1 F300 Z0.0000
G1 F15000 X1149.0000 Y295.0700 Z0.0000
M3S245
G4 P0.5; Tool Off

G0 Z0; move to z-safe height
G0 X1149.0000 Y297.0700
M3S0
G4 P0.5; Tool On
G1 F300 Z0.0000
G1 F15000 X1.0000 Y297.0700 Z0.0000
M3S245
G4 P0.5; Tool Off

G0 Z0; move to z-safe height
G0 X1.0000 Y299.0700
M3S0
G4 P0.5; Tool On
G1 F300 Z0.0000
G1 F15000 X1149.0000 Y299.0700 Z0.0000
M3S245
G4 P0.5; Tool Off

G0 Z0; move to z-safe height
G0 X1149.0000 Y301.0700
M3S0
G4 P0.5; Tool On
G1 F300 Z0.0000
G1 F15000 X1.0000 Y301.0700 Z0.0000
M3S245
G4 P0.5; Tool Off

G0 Z0; move to z-safe height
G0 X1.0000 Y303.0700
M3S0
G4 P0.5; Tool On
G1 F300 Z0.0000
G1 F15000 X1149.0000 Y303.0700 Z0.0000
M3S245
G4 P0.5; Tool Off

G0 Z0; move to z-safe height
G0 X1149.0000 Y305.0700
M3S0
G4 P0.5; Tool On
G1 F300 Z0.0000
G1 F15000 X1.0000 Y305.0700 Z0.0000
M3S245
G4 P0.5; Tool Off

G0 Z0; move to z-safe height
G0 X1.0000 Y307.0700
M3S0
G4 P0.5; Tool On
G1 F300 Z0.0000
G1 F15000 X1149.0000 Y307.0700 Z0.0000
M3S245
G4 P0.5; Tool Off

G0 Z0; move to z-safe height
G0 X1149.0000 Y309.0700
M3S0
G4 P0.5; Tool On
G1 F300 Z0.0000
G1 F15000 X1.0000 Y309.0700 Z0.0000
M3S245
G4 P0.5; Tool Off

G0 Z0; move to z-safe height
G0 X1.0000 Y311.0700
M3S0
G4 P0.5; Tool On
G1 F300 Z0.0000
G1 F15000 X1149.0000 Y311.0700 Z0.0000
M3S245
G4 P0.5; Tool Off

G0 Z0; move to z-safe height
G0 X1149.0000 Y313.0700
M3S0
G4 P0.5; Tool On
G1 F300 Z0.0000
G1 F15000 X1.0000 Y313.0700 Z0.0000
M3S245
G4 P0.5; Tool Off

G0 Z0; move to z-safe height
G0 X1.0000 Y315.0700
M3S0
G4 P0.5; Tool On
G1 F300 Z0.0000
G1 F15000 X1149.0000 Y315.0700 Z0.0000
M3S245
G4 P0.5; Tool Off

G0 Z0; move to z-safe height
G0 X1149.0000 Y317.0700
M3S0
G4 P0.5; Tool On
G1 F300 Z0.0000
G1 F15000 X1.0000 Y317.0700 Z0.0000
M3S245
G4 P0.5; Tool Off

G0 Z0; move to z-safe height
G0 X1.0000 Y319.0700
M3S0
G4 P0.5; Tool On
G1 F300 Z0.0000
G1 F15000 X1149.0000 Y319.0700 Z0.0000
M3S245
G4 P0.5; Tool Off

G0 Z0; move to z-safe height
G0 X1149.0000 Y321.0700
M3S0
G4 P0.5; Tool On
G1 F300 Z0.0000
G1 F15000 X1.0000 Y321.0700 Z0.0000
M3S245
G4 P0.5; Tool Off

G0 Z0; move to z-safe height
G0 X1.0000 Y323.0700
M3S0
G4 P0.5; Tool On
G1 F300 Z0.0000
G1 F15000 X1149.0000 Y323.0700 Z0.0000
M3S245
G4 P0.5; Tool Off

G0 Z0; move to z-safe height
G0 X1149.0000 Y325.0700
M3S0
G4 P0.5; Tool On
G1 F300 Z0.0000
G1 F15000 X1.0000 Y325.0700 Z0.0000
M3S245
G4 P0.5; Tool Off

G0 Z0; move to z-safe height
G0 X1.0000 Y327.0700
M3S0
G4 P0.5; Tool On
G1 F300 Z0.0000
G1 F15000 X1149.0000 Y327.0700 Z0.0000
M3S245
G4 P0.5; Tool Off

G0 Z0; move to z-safe height
G0 X1149.0000 Y329.0700
M3S0
G4 P0.5; Tool On
G1 F300 Z0.0000
G1 F15000 X1.0000 Y329.0700 Z0.0000
M3S245
G4 P0.5; Tool Off

G0 Z0; move to z-safe height
G0 X1.0000 Y331.0700
M3S0
G4 P0.5; Tool On
G1 F300 Z0.0000
G1 F15000 X1149.0000 Y331.0700 Z0.0000
M3S245
G4 P0.5; Tool Off

G0 Z0; move to z-safe height
G0 X1149.0000 Y333.0700
M3S0
G4 P0.5; Tool On
G1 F300 Z0.0000
G1 F15000 X1.0000 Y333.0700 Z0.0000
M3S245
G4 P0.5; Tool Off

G0 Z0; move to z-safe height
G0 X1.0000 Y335.0700
M3S0
G4 P0.5; Tool On
G1 F300 Z0.0000
G1 F15000 X1149.0000 Y335.0700 Z0.0000
M3S245
G4 P0.5; Tool Off

G0 Z0; move to z-safe height
G0 X1149.0000 Y337.0700
M3S0
G4 P0.5; Tool On
G1 F300 Z0.0000
G1 F15000 X1.0000 Y337.0700 Z0.0000
M3S245
G4 P0.5; Tool Off

G0 Z0; move to z-safe height
G0 X1.0000 Y339.0700
M3S0
G4 P0.5; Tool On
G1 F300 Z0.0000
G1 F15000 X1149.0000 Y339.0700 Z0.0000
M3S245
G4 P0.5; Tool Off

G0 Z0; move to z-safe height
G0 X1149.0000 Y341.0700
M3S0
G4 P0.5; Tool On
G1 F300 Z0.0000
G1 F15000 X1.0000 Y341.0700 Z0.0000
M3S245
G4 P0.5; Tool Off

G0 Z0; move to z-safe height
G0 X1.0000 Y343.0700
M3S0
G4 P0.5; Tool On
G1 F300 Z0.0000
G1 F15000 X1149.0000 Y343.0700 Z0.0000
M3S245
G4 P0.5; Tool Off

G0 Z0; move to z-safe height
G0 X1149.0000 Y345.0700
M3S0
G4 P0.5; Tool On
G1 F300 Z0.0000
G1 F15000 X1.0000 Y345.0700 Z0.0000
M3S245
G4 P0.5; Tool Off

G0 Z0; move to z-safe height
G0 X1.0000 Y347.0700
M3S0
G4 P0.5; Tool On
G1 F300 Z0.0000
G1 F15000 X1149.0000 Y347.0700 Z0.0000
M3S245
G4 P0.5; Tool Off

G0 Z0; move to z-safe height
G0 X1149.0000 Y349.0700
M3S0
G4 P0.5; Tool On
G1 F300 Z0.0000
G1 F15000 X1.0000 Y349.0700 Z0.0000
M3S245
G4 P0.5; Tool Off

G0 Z0; move to z-safe height
G0 X1.0000 Y351.0700
M3S0
G4 P0.5; Tool On
G1 F300 Z0.0000
G1 F15000 X1149.0000 Y351.0700 Z0.0000
M3S245
G4 P0.5; Tool Off

G0 Z0; move to z-safe height
G0 X1149.0000 Y353.0700
M3S0
G4 P0.5; Tool On
G1 F300 Z0.0000
G1 F15000 X1.0000 Y353.0700 Z0.0000
M3S245
G4 P0.5; Tool Off

G0 Z0; move to z-safe height
G0 X1.0000 Y355.0700
M3S0
G4 P0.5; Tool On
G1 F300 Z0.0000
G1 F15000 X1149.0000 Y355.0700 Z0.0000
M3S245
G4 P0.5; Tool Off

G0 Z0; move to z-safe height
G0 X1149.0000 Y357.0700
M3S0
G4 P0.5; Tool On
G1 F300 Z0.0000
G1 F15000 X1.0000 Y357.0700 Z0.0000
M3S245
G4 P0.5; Tool Off

G0 Z0; move to z-safe height
G0 X1.0000 Y359.0700
M3S0
G4 P0.5; Tool On
G1 F300 Z0.0000
G1 F15000 X1149.0000 Y359.0700 Z0.0000
M3S245
G4 P0.5; Tool Off

G0 Z0; move to z-safe height
G0 X1149.0000 Y361.0700
M3S0
G4 P0.5; Tool On
G1 F300 Z0.0000
G1 F15000 X1.0000 Y361.0700 Z0.0000
M3S245
G4 P0.5; Tool Off

G0 Z0; move to z-safe height
G0 X1.0000 Y363.0700
M3S0
G4 P0.5; Tool On
G1 F300 Z0.0000
G1 F15000 X1149.0000 Y363.0700 Z0.0000
M3S245
G4 P0.5; Tool Off

G0 Z0; move to z-safe height
G0 X1149.0000 Y365.0700
M3S0
G4 P0.5; Tool On
G1 F300 Z0.0000
G1 F15000 X1.0000 Y365.0700 Z0.0000
M3S245
G4 P0.5; Tool Off

G0 Z0; move to z-safe height
G0 X1.0000 Y367.0700
M3S0
G4 P0.5; Tool On
G1 F300 Z0.0000
G1 F15000 X1149.0000 Y367.0700 Z0.0000
M3S245
G4 P0.5; Tool Off

G0 Z0; move to z-safe height
G0 X1149.0000 Y369.0700
M3S0
G4 P0.5; Tool On
G1 F300 Z0.0000
G1 F15000 X1.0000 Y369.0700 Z0.0000
M3S245
G4 P0.5; Tool Off

G0 Z0; move to z-safe height
G0 X1.0000 Y371.0700
M3S0
G4 P0.5; Tool On
G1 F300 Z0.0000
G1 F15000 X1149.0000 Y371.0700 Z0.0000
M3S245
G4 P0.5; Tool Off

G0 Z0; move to z-safe height
G0 X1149.0000 Y373.0700
M3S0
G4 P0.5; Tool On
G1 F300 Z0.0000
G1 F15000 X1.0000 Y373.0700 Z0.0000
M3S245
G4 P0.5; Tool Off

G0 Z0; move to z-safe height
G0 X1.0000 Y375.0700
M3S0
G4 P0.5; Tool On
G1 F300 Z0.0000
G1 F15000 X1149.0000 Y375.0700 Z0.0000
M3S245
G4 P0.5; Tool Off

G0 Z0; move to z-safe height
G0 X1149.0000 Y377.0700
M3S0
G4 P0.5; Tool On
G1 F300 Z0.0000
G1 F15000 X1.0000 Y377.0700 Z0.0000
M3S245
G4 P0.5; Tool Off

G0 Z0; move to z-safe height
G0 X1.0000 Y379.0700
M3S0
G4 P0.5; Tool On
G1 F300 Z0.0000
G1 F15000 X1149.0000 Y379.0700 Z0.0000
M3S245
G4 P0.5; Tool Off

G0 Z0; move to z-safe height
G0 X1149.0000 Y381.0700
M3S0
G4 P0.5; Tool On
G1 F300 Z0.0000
G1 F15000 X1.0000 Y381.0700 Z0.0000
M3S245
G4 P0.5; Tool Off

G0 Z0; move to z-safe height
G0 X1.0000 Y383.0700
M3S0
G4 P0.5; Tool On
G1 F300 Z0.0000
G1 F15000 X1149.0000 Y383.0700 Z0.0000
M3S245
G4 P0.5; Tool Off

G0 Z0; move to z-safe height
G0 X1149.0000 Y385.0700
M3S0
G4 P0.5; Tool On
G1 F300 Z0.0000
G1 F15000 X1.0000 Y385.0700 Z0.0000
M3S245
G4 P0.5; Tool Off

G0 Z0; move to z-safe height
G0 X1.0000 Y387.0700
M3S0
G4 P0.5; Tool On
G1 F300 Z0.0000
G1 F15000 X1149.0000 Y387.0700 Z0.0000
M3S245
G4 P0.5; Tool Off

G0 Z0; move to z-safe height
G0 X1149.0000 Y389.0700
M3S0
G4 P0.5; Tool On
G1 F300 Z0.0000
G1 F15000 X1.0000 Y389.0700 Z0.0000
M3S245
G4 P0.5; Tool Off

G0 Z0; move to z-safe height
G0 X1.0000 Y391.0700
M3S0
G4 P0.5; Tool On
G1 F300 Z0.0000
G1 F15000 X1149.0000 Y391.0700 Z0.0000
M3S245
G4 P0.5; Tool Off

G0 Z0; move to z-safe height
G0 X1149.0000 Y393.0700
M3S0
G4 P0.5; Tool On
G1 F300 Z0.0000
G1 F15000 X1.0000 Y393.0700 Z0.0000
M3S245
G4 P0.5; Tool Off

G0 Z0; move to z-safe height
G0 X1.0000 Y395.0700
M3S0
G4 P0.5; Tool On
G1 F300 Z0.0000
G1 F15000 X1149.0000 Y395.0700 Z0.0000
M3S245
G4 P0.5; Tool Off

G0 Z0; move to z-safe height
G0 X1149.0000 Y397.0700
M3S0
G4 P0.5; Tool On
G1 F300 Z0.0000
G1 F15000 X1.0000 Y397.0700 Z0.0000
M3S245
G4 P0.5; Tool Off

G0 Z0; move to z-safe height
G0 X1.0000 Y399.0700
M3S0
G4 P0.5; Tool On
G1 F300 Z0.0000
G1 F15000 X1149.0000 Y399.0700 Z0.0000
M3S245
G4 P0.5; Tool Off

G0 Z0; move to z-safe height
G0 X1149.0000 Y401.0700
M3S0
G4 P0.5; Tool On
G1 F300 Z0.0000
G1 F15000 X1.0000 Y401.0700 Z0.0000
M3S245
G4 P0.5; Tool Off

G0 Z0; move to z-safe height
G0 X1.0000 Y403.0700
M3S0
G4 P0.5; Tool On
G1 F300 Z0.0000
G1 F15000 X1149.0000 Y403.0700 Z0.0000
M3S245
G4 P0.5; Tool Off

G0 Z0; move to z-safe height
G0 X1149.0000 Y405.0700
M3S0
G4 P0.5; Tool On
G1 F300 Z0.0000
G1 F15000 X1.0000 Y405.0700 Z0.0000
M3S245
G4 P0.5; Tool Off

G0 Z0; move to z-safe height
G0 X1.0000 Y407.0700
M3S0
G4 P0.5; Tool On
G1 F300 Z0.0000
G1 F15000 X1149.0000 Y407.0700 Z0.0000
M3S245
G4 P0.5; Tool Off

G0 Z0; move to z-safe height
G0 X1149.0000 Y409.0700
M3S0
G4 P0.5; Tool On
G1 F300 Z0.0000
G1 F15000 X1.0000 Y409.0700 Z0.0000
M3S245
G4 P0.5; Tool Off

G0 Z0; move to z-safe height
G0 X1.0000 Y411.0700
M3S0
G4 P0.5; Tool On
G1 F300 Z0.0000
G1 F15000 X1149.0000 Y411.0700 Z0.0000
M3S245
G4 P0.5; Tool Off

G0 Z0; move to z-safe height
G0 X1149.0000 Y413.0700
M3S0
G4 P0.5; Tool On
G1 F300 Z0.0000
G1 F15000 X1.0000 Y413.0700 Z0.0000
M3S245
G4 P0.5; Tool Off

G0 Z0; move to z-safe height
G0 X1.0000 Y415.0700
M3S0
G4 P0.5; Tool On
G1 F300 Z0.0000
G1 F15000 X1149.0000 Y415.0700 Z0.0000
M3S245
G4 P0.5; Tool Off

G0 Z0; move to z-safe height
G0 X1149.0000 Y417.0700
M3S0
G4 P0.5; Tool On
G1 F300 Z0.0000
G1 F15000 X1.0000 Y417.0700 Z0.0000
M3S245
G4 P0.5; Tool Off

G0 Z0; move to z-safe height
G0 X1.0000 Y419.0700
M3S0
G4 P0.5; Tool On
G1 F300 Z0.0000
G1 F15000 X1149.0000 Y419.0700 Z0.0000
M3S245
G4 P0.5; Tool Off

G0 Z0; move to z-safe height
G0 X1149.0000 Y421.0700
M3S0
G4 P0.5; Tool On
G1 F300 Z0.0000
G1 F15000 X1.0000 Y421.0700 Z0.0000
M3S245
G4 P0.5; Tool Off

G0 Z0; move to z-safe height
G0 X1.0000 Y423.0700
M3S0
G4 P0.5; Tool On
G1 F300 Z0.0000
G1 F15000 X1149.0000 Y423.0700 Z0.0000
M3S245
G4 P0.5; Tool Off

G0 Z0; move to z-safe height
G0 X1149.0000 Y425.0700
M3S0
G4 P0.5; Tool On
G1 F300 Z0.0000
G1 F15000 X1.0000 Y425.0700 Z0.0000
M3S245
G4 P0.5; Tool Off

G0 Z0; move to z-safe height
G0 X1.0000 Y427.0700
M3S0
G4 P0.5; Tool On
G1 F300 Z0.0000
G1 F15000 X1149.0000 Y427.0700 Z0.0000
M3S245
G4 P0.5; Tool Off

G0 Z0; move to z-safe height
G0 X1149.0000 Y429.0700
M3S0
G4 P0.5; Tool On
G1 F300 Z0.0000
G1 F15000 X1.0000 Y429.0700 Z0.0000
M3S245
G4 P0.5; Tool Off

G0 Z0; move to z-safe height
G0 X1.0000 Y431.0700
M3S0
G4 P0.5; Tool On
G1 F300 Z0.0000
G1 F15000 X1149.0000 Y431.0700 Z0.0000
M3S245
G4 P0.5; Tool Off

G0 Z0; move to z-safe height
G0 X1149.0000 Y433.0700
M3S0
G4 P0.5; Tool On
G1 F300 Z0.0000
G1 F15000 X1.0000 Y433.0700 Z0.0000
M3S245
G4 P0.5; Tool Off

G0 Z0; move to z-safe height
G0 X1.0000 Y435.0700
M3S0
G4 P0.5; Tool On
G1 F300 Z0.0000
G1 F15000 X1149.0000 Y435.0700 Z0.0000
M3S245
G4 P0.5; Tool Off

G0 Z0; move to z-safe height
G0 X1149.0000 Y437.0700
M3S0
G4 P0.5; Tool On
G1 F300 Z0.0000
G1 F15000 X1.0000 Y437.0700 Z0.0000
M3S245
G4 P0.5; Tool Off

G0 Z0; move to z-safe height
G0 X1.0000 Y439.0700
M3S0
G4 P0.5; Tool On
G1 F300 Z0.0000
G1 F15000 X1149.0000 Y439.0700 Z0.0000
M3S245
G4 P0.5; Tool Off

G0 Z0; move to z-safe height
G0 X1149.0000 Y441.0700
M3S0
G4 P0.5; Tool On
G1 F300 Z0.0000
G1 F15000 X1.0000 Y441.0700 Z0.0000
M3S245
G4 P0.5; Tool Off

G0 Z0; move to z-safe height
G0 X1.0000 Y443.0700
M3S0
G4 P0.5; Tool On
G1 F300 Z0.0000
G1 F15000 X1149.0000 Y443.0700 Z0.0000
M3S245
G4 P0.5; Tool Off

G0 Z0; move to z-safe height
G0 X1149.0000 Y445.0700
M3S0
G4 P0.5; Tool On
G1 F300 Z0.0000
G1 F15000 X1.0000 Y445.0700 Z0.0000
M3S245
G4 P0.5; Tool Off

G0 Z0; move to z-safe height
G0 X1.0000 Y447.0700
M3S0
G4 P0.5; Tool On
G1 F300 Z0.0000
G1 F15000 X1149.0000 Y447.0700 Z0.0000
M3S245
G4 P0.5; Tool Off

G0 Z0; move to z-safe height
G0 X1149.0000 Y449.0700
M3S0
G4 P0.5; Tool On
G1 F300 Z0.0000
G1 F15000 X1.0000 Y449.0700 Z0.0000
M3S245
G4 P0.5; Tool Off

G0 Z0; move to z-safe height
G0 X1.0000 Y451.0700
M3S0
G4 P0.5; Tool On
G1 F300 Z0.0000
G1 F15000 X1149.0000 Y451.0700 Z0.0000
M3S245
G4 P0.5; Tool Off

G0 Z0; move to z-safe height
G0 X1149.0000 Y453.0700
M3S0
G4 P0.5; Tool On
G1 F300 Z0.0000
G1 F15000 X1.0000 Y453.0700 Z0.0000
M3S245
G4 P0.5; Tool Off

G0 Z0; move to z-safe height
G0 X1.0000 Y455.0700
M3S0
G4 P0.5; Tool On
G1 F300 Z0.0000
G1 F15000 X1149.0000 Y455.0700 Z0.0000
M3S245
G4 P0.5; Tool Off

G0 Z0; move to z-safe height
G0 X1149.0000 Y457.0700
M3S0
G4 P0.5; Tool On
G1 F300 Z0.0000
G1 F15000 X1.0000 Y457.0700 Z0.0000
M3S245
G4 P0.5; Tool Off

G0 Z0; move to z-safe height
G0 X1.0000 Y459.0700
M3S0
G4 P0.5; Tool On
G1 F300 Z0.0000
G1 F15000 X1149.0000 Y459.0700 Z0.0000
M3S245
G4 P0.5; Tool Off

G0 Z0; move to z-safe height
G0 X1149.0000 Y461.0700
M3S0
G4 P0.5; Tool On
G1 F300 Z0.0000
G1 F15000 X1.0000 Y461.0700 Z0.0000
M3S245
G4 P0.5; Tool Off

G0 Z0; move to z-safe height
G0 X1.0000 Y463.0700
M3S0
G4 P0.5; Tool On
G1 F300 Z0.0000
G1 F15000 X1149.0000 Y463.0700 Z0.0000
M3S245
G4 P0.5; Tool Off

G0 Z0; move to z-safe height
G0 X1149.0000 Y465.0700
M3S0
G4 P0.5; Tool On
G1 F300 Z0.0000
G1 F15000 X1.0000 Y465.0700 Z0.0000
M3S245
G4 P0.5; Tool Off

G0 Z0; move to z-safe height
G0 X1.0000 Y467.0700
M3S0
G4 P0.5; Tool On
G1 F300 Z0.0000
G1 F15000 X1149.0000 Y467.0700 Z0.0000
M3S245
G4 P0.5; Tool Off

G0 Z0; move to z-safe height
G0 X1149.0000 Y469.0700
M3S0
G4 P0.5; Tool On
G1 F300 Z0.0000
G1 F15000 X1.0000 Y469.0700 Z0.0000
M3S245
G4 P0.5; Tool Off

G0 Z0; move to z-safe height
G0 X1.0000 Y471.0700
M3S0
G4 P0.5; Tool On
G1 F300 Z0.0000
G1 F15000 X1149.0000 Y471.0700 Z0.0000
M3S245
G4 P0.5; Tool Off

G0 Z0; move to z-safe height
G0 X1149.0000 Y473.0700
M3S0
G4 P0.5; Tool On
G1 F300 Z0.0000
G1 F15000 X1.0000 Y473.0700 Z0.0000
M3S245
G4 P0.5; Tool Off

G0 Z0; move to z-safe height
G0 X1.0000 Y475.0700
M3S0
G4 P0.5; Tool On
G1 F300 Z0.0000
G1 F15000 X1149.0000 Y475.0700 Z0.0000
M3S245
G4 P0.5; Tool Off

G0 Z0; move to z-safe height
G0 X1149.0000 Y477.0700
M3S0
G4 P0.5; Tool On
G1 F300 Z0.0000
G1 F15000 X1.0000 Y477.0700 Z0.0000
M3S245
G4 P0.5; Tool Off

G0 Z0; move to z-safe height
G0 X1.0000 Y479.0700
M3S0
G4 P0.5; Tool On
G1 F300 Z0.0000
G1 F15000 X1149.0000 Y479.0700 Z0.0000
M3S245
G4 P0.5; Tool Off

G0 Z0; move to z-safe height
G0 X1149.0000 Y481.0700
M3S0
G4 P0.5; Tool On
G1 F300 Z0.0000
G1 F15000 X1.0000 Y481.0700 Z0.0000
M3S245
G4 P0.5; Tool Off

G0 Z0; move to z-safe height
G0 X1.0000 Y483.0700
M3S0
G4 P0.5; Tool On
G1 F300 Z0.0000
G1 F15000 X1149.0000 Y483.0700 Z0.0000
M3S245
G4 P0.5; Tool Off

G0 Z0; move to z-safe height
G0 X1149.0000 Y485.0700
M3S0
G4 P0.5; Tool On
G1 F300 Z0.0000
G1 F15000 X1.0000 Y485.0700 Z0.0000
M3S245
G4 P0.5; Tool Off

G0 Z0; move to z-safe height
G0 X1.0000 Y487.0700
M3S0
G4 P0.5; Tool On
G1 F300 Z0.0000
G1 F15000 X1149.0000 Y487.0700 Z0.0000
M3S245
G4 P0.5; Tool Off

G0 Z0; move to z-safe height
G0 X1149.0000 Y489.0700
M3S0
G4 P0.5; Tool On
G1 F300 Z0.0000
G1 F15000 X1.0000 Y489.0700 Z0.0000
M3S245
G4 P0.5; Tool Off

G0 Z0; move to z-safe height
G0 X1.0000 Y491.0700
M3S0
G4 P0.5; Tool On
G1 F300 Z0.0000
G1 F15000 X1149.0000 Y491.0700 Z0.0000
M3S245
G4 P0.5; Tool Off

G0 Z0; move to z-safe height
G0 X1149.0000 Y493.0700
M3S0
G4 P0.5; Tool On
G1 F300 Z0.0000
G1 F15000 X1.0000 Y493.0700 Z0.0000
M3S245
G4 P0.5; Tool Off

G0 Z0; move to z-safe height
G0 X1.0000 Y495.0700
M3S0
G4 P0.5; Tool On
G1 F300 Z0.0000
G1 F15000 X1149.0000 Y495.0700 Z0.0000
M3S245
G4 P0.5; Tool Off

G0 Z0; move to z-safe height
G0 X1149.0000 Y497.0700
M3S0
G4 P0.5; Tool On
G1 F300 Z0.0000
G1 F15000 X1.0000 Y497.0700 Z0.0000
M3S245
G4 P0.5; Tool Off

G0 Z0; move to z-safe height
G0 X1.0000 Y499.0700
M3S0
G4 P0.5; Tool On
G1 F300 Z0.0000
G1 F15000 X1149.0000 Y499.0700 Z0.0000
M3S245
G4 P0.5; Tool Off

G0 Z0; move to z-safe height
G0 X1149.0000 Y501.0700
M3S0
G4 P0.5; Tool On
G1 F300 Z0.0000
G1 F15000 X1.0000 Y501.0700 Z0.0000
M3S245
G4 P0.5; Tool Off

G0 Z0; move to z-safe height
G0 X1.0000 Y503.0700
M3S0
G4 P0.5; Tool On
G1 F300 Z0.0000
G1 F15000 X1149.0000 Y503.0700 Z0.0000
M3S245
G4 P0.5; Tool Off

G0 Z0; move to z-safe height
G0 X1149.0000 Y505.0700
M3S0
G4 P0.5; Tool On
G1 F300 Z0.0000
G1 F15000 X1.0000 Y505.0700 Z0.0000
M3S245
G4 P0.5; Tool Off

G0 Z0; move to z-safe height
G0 X1.0000 Y507.0700
M3S0
G4 P0.5; Tool On
G1 F300 Z0.0000
G1 F15000 X1149.0000 Y507.0700 Z0.0000
M3S245
G4 P0.5; Tool Off

G0 Z0; move to z-safe height
G0 X1149.0000 Y509.0700
M3S0
G4 P0.5; Tool On
G1 F300 Z0.0000
G1 F15000 X1.0000 Y509.0700 Z0.0000
M3S245
G4 P0.5; Tool Off

G0 Z0; move to z-safe height
G0 X1.0000 Y511.0700
M3S0
G4 P0.5; Tool On
G1 F300 Z0.0000
G1 F15000 X1149.0000 Y511.0700 Z0.0000
M3S245
G4 P0.5; Tool Off

G0 Z0; move to z-safe height
G0 X1149.0000 Y513.0700
M3S0
G4 P0.5; Tool On
G1 F300 Z0.0000
G1 F15000 X1.0000 Y513.0700 Z0.0000
M3S245
G4 P0.5; Tool Off

G0 Z0; move to z-safe height
G0 X1.0000 Y515.0700
M3S0
G4 P0.5; Tool On
G1 F300 Z0.0000
G1 F15000 X1149.0000 Y515.0700 Z0.0000
M3S245
G4 P0.5; Tool Off

G0 Z0; move to z-safe height
G0 X1149.0000 Y517.0700
M3S0
G4 P0.5; Tool On
G1 F300 Z0.0000
G1 F15000 X1.0000 Y517.0700 Z0.0000
M3S245
G4 P0.5; Tool Off

G0 Z0; move to z-safe height
G0 X1.0000 Y519.0700
M3S0
G4 P0.5; Tool On
G1 F300 Z0.0000
G1 F15000 X1149.0000 Y519.0700 Z0.0000
M3S245
G4 P0.5; Tool Off

G0 Z0; move to z-safe height
G0 X1149.0000 Y521.0700
M3S0
G4 P0.5; Tool On
G1 F300 Z0.0000
G1 F15000 X1.0000 Y521.0700 Z0.0000
M3S245
G4 P0.5; Tool Off

G0 Z0; move to z-safe height
G0 X1.0000 Y523.0700
M3S0
G4 P0.5; Tool On
G1 F300 Z0.0000
G1 F15000 X1149.0000 Y523.0700 Z0.0000
M3S245
G4 P0.5; Tool Off

G0 Z0; move to z-safe height
G0 X1149.0000 Y525.0700
M3S0
G4 P0.5; Tool On
G1 F300 Z0.0000
G1 F15000 X1.0000 Y525.0700 Z0.0000
M3S245
G4 P0.5; Tool Off

G0 Z0; move to z-safe height
G0 X1.0000 Y527.0700
M3S0
G4 P0.5; Tool On
G1 F300 Z0.0000
G1 F15000 X1149.0000 Y527.0700 Z0.0000
M3S245
G4 P0.5; Tool Off

G0 Z0; move to z-safe height
G0 X1149.0000 Y529.0700
M3S0
G4 P0.5; Tool On
G1 F300 Z0.0000
G1 F15000 X1.0000 Y529.0700 Z0.0000
M3S245
G4 P0.5; Tool Off

G0 Z0; move to z-safe height
G0 X1.0000 Y531.0700
M3S0
G4 P0.5; Tool On
G1 F300 Z0.0000
G1 F15000 X1149.0000 Y531.0700 Z0.0000
M3S245
G4 P0.5; Tool Off

G0 Z0; move to z-safe height
G0 X1149.0000 Y533.0700
M3S0
G4 P0.5; Tool On
G1 F300 Z0.0000
G1 F15000 X1.0000 Y533.0700 Z0.0000
M3S245
G4 P0.5; Tool Off

G0 Z0; move to z-safe height
G0 X1.0000 Y535.0700
M3S0
G4 P0.5; Tool On
G1 F300 Z0.0000
G1 F15000 X1149.0000 Y535.0700 Z0.0000
M3S245
G4 P0.5; Tool Off

G0 Z0; move to z-safe height
G0 X1149.0000 Y537.0700
M3S0
G4 P0.5; Tool On
G1 F300 Z0.0000
G1 F15000 X1.0000 Y537.0700 Z0.0000
M3S245
G4 P0.5; Tool Off

G0 Z0; move to z-safe height
G0 X1.0000 Y539.0700
M3S0
G4 P0.5; Tool On
G1 F300 Z0.0000
G1 F15000 X1149.0000 Y539.0700 Z0.0000
M3S245
G4 P0.5; Tool Off

G0 Z0; move to z-safe height
G0 X1149.0000 Y541.0700
M3S0
G4 P0.5; Tool On
G1 F300 Z0.0000
G1 F15000 X1.0000 Y541.0700 Z0.0000
M3S245
G4 P0.5; Tool Off

G0 Z0; move to z-safe height
G0 X1.0000 Y543.0700
M3S0
G4 P0.5; Tool On
G1 F300 Z0.0000
G1 F15000 X1149.0000 Y543.0700 Z0.0000
M3S245
G4 P0.5; Tool Off

G0 Z0; move to z-safe height
G0 X1149.0000 Y545.0700
M3S0
G4 P0.5; Tool On
G1 F300 Z0.0000
G1 F15000 X1.0000 Y545.0700 Z0.0000
M3S245
G4 P0.5; Tool Off

G0 Z0; move to z-safe height
G0 X1.0000 Y547.0700
M3S0
G4 P0.5; Tool On
G1 F300 Z0.0000
G1 F15000 X1149.0000 Y547.0700 Z0.0000
M3S245
G4 P0.5; Tool Off

G0 Z0; move to z-safe height
G0 X1149.0000 Y549.0700
M3S0
G4 P0.5; Tool On
G1 F300 Z0.0000
G1 F15000 X1.0000 Y549.0700 Z0.0000
M3S245
G4 P0.5; Tool Off

G0 Z0; move to z-safe height
G0 X1.0000 Y551.0700
M3S0
G4 P0.5; Tool On
G1 F300 Z0.0000
G1 F15000 X1149.0000 Y551.0700 Z0.0000
M3S245
G4 P0.5; Tool Off

G0 Z0; move to z-safe height
G0 X1149.0000 Y553.0700
M3S0
G4 P0.5; Tool On
G1 F300 Z0.0000
G1 F15000 X1.0000 Y553.0700 Z0.0000
M3S245
G4 P0.5; Tool Off

G0 Z0; move to z-safe height
G0 X1.0000 Y555.0700
M3S0
G4 P0.5; Tool On
G1 F300 Z0.0000
G1 F15000 X1149.0000 Y555.0700 Z0.0000
M3S245
G4 P0.5; Tool Off

G0 Z0; move to z-safe height
G0 X1149.0000 Y557.0700
M3S0
G4 P0.5; Tool On
G1 F300 Z0.0000
G1 F15000 X1.0000 Y557.0700 Z0.0000
M3S245
G4 P0.5; Tool Off

G0 Z0; move to z-safe height
G0 X1.0000 Y559.0700
M3S0
G4 P0.5; Tool On
G1 F300 Z0.0000
G1 F15000 X1149.0000 Y559.0700 Z0.0000
M3S245
G4 P0.5; Tool Off

G0 Z0; move to z-safe height
G0 X1149.0000 Y561.0700
M3S0
G4 P0.5; Tool On
G1 F300 Z0.0000
G1 F15000 X1.0000 Y561.0700 Z0.0000
M3S245
G4 P0.5; Tool Off

G0 Z0; move to z-safe height
G0 X1.0000 Y563.0700
M3S0
G4 P0.5; Tool On
G1 F300 Z0.0000
G1 F15000 X1149.0000 Y563.0700 Z0.0000
M3S245
G4 P0.5; Tool Off

G0 Z0; move to z-safe height
G0 X1149.0000 Y565.0700
M3S0
G4 P0.5; Tool On
G1 F300 Z0.0000
G1 F15000 X1.0000 Y565.0700 Z0.0000
M3S245
G4 P0.5; Tool Off

G0 Z0; move to z-safe height
G0 X1.0000 Y567.0700
M3S0
G4 P0.5; Tool On
G1 F300 Z0.0000
G1 F15000 X1149.0000 Y567.0700 Z0.0000
M3S245
G4 P0.5; Tool Off

G0 Z0; move to z-safe height
G0 X1149.0000 Y569.0700
M3S0
G4 P0.5; Tool On
G1 F300 Z0.0000
G1 F15000 X1.0000 Y569.0700 Z0.0000
M3S245
G4 P0.5; Tool Off

G0 Z0; move to z-safe height
G0 X1.0000 Y571.0700
M3S0
G4 P0.5; Tool On
G1 F300 Z0.0000
G1 F15000 X1149.0000 Y571.0700 Z0.0000
M3S245
G4 P0.5; Tool Off

G0 Z0; move to z-safe height
G0 X1149.0000 Y573.0700
M3S0
G4 P0.5; Tool On
G1 F300 Z0.0000
G1 F15000 X1.0000 Y573.0700 Z0.0000
M3S245
G4 P0.5; Tool Off

G0 Z0; move to z-safe height
G0 X1.0000 Y575.0700
M3S0
G4 P0.5; Tool On
G1 F300 Z0.0000
G1 F15000 X1149.0000 Y575.0700 Z0.0000
M3S245
G4 P0.5; Tool Off

G0 Z0; move to z-safe height
G0 X1149.0000 Y577.0700
M3S0
G4 P0.5; Tool On
G1 F300 Z0.0000
G1 F15000 X1.0000 Y577.0700 Z0.0000
M3S245
G4 P0.5; Tool Off

G0 Z0; move to z-safe height
G0 X1.0000 Y579.0700
M3S0
G4 P0.5; Tool On
G1 F300 Z0.0000
G1 F15000 X1149.0000 Y579.0700 Z0.0000
M3S245
G4 P0.5; Tool Off

G0 Z0; move to z-safe height
G0 X1149.0000 Y581.0700
M3S0
G4 P0.5; Tool On
G1 F300 Z0.0000
G1 F15000 X1.0000 Y581.0700 Z0.0000
M3S245
G4 P0.5; Tool Off

G0 Z0; move to z-safe height
G0 X1.0000 Y583.0700
M3S0
G4 P0.5; Tool On
G1 F300 Z0.0000
G1 F15000 X1149.0000 Y583.0700 Z0.0000
M3S245
G4 P0.5; Tool Off

G0 Z0; move to z-safe height
G0 X1149.0000 Y585.0700
M3S0
G4 P0.5; Tool On
G1 F300 Z0.0000
G1 F15000 X1.0000 Y585.0700 Z0.0000
M3S245
G4 P0.5; Tool Off

G0 Z0; move to z-safe height
G0 X1.0000 Y587.0700
M3S0
G4 P0.5; Tool On
G1 F300 Z0.0000
G1 F15000 X1149.0000 Y587.0700 Z0.0000
M3S245
G4 P0.5; Tool Off

G0 Z0; move to z-safe height
G0 X1149.0000 Y589.0700
M3S0
G4 P0.5; Tool On
G1 F300 Z0.0000
G1 F15000 X1.0000 Y589.0700 Z0.0000
M3S245
G4 P0.5; Tool Off

G0 Z0; move to z-safe height
G0 X1.0000 Y591.0700
M3S0
G4 P0.5; Tool On
G1 F300 Z0.0000
G1 F15000 X1149.0000 Y591.0700 Z0.0000
M3S245
G4 P0.5; Tool Off

G0 Z0; move to z-safe height
G0 X1149.0000 Y593.0700
M3S0
G4 P0.5; Tool On
G1 F300 Z0.0000
G1 F15000 X1.0000 Y593.0700 Z0.0000
M3S245
G4 P0.5; Tool Off

G0 Z0; move to z-safe height
G0 X1.0000 Y595.0700
M3S0
G4 P0.5; Tool On
G1 F300 Z0.0000
G1 F15000 X1149.0000 Y595.0700 Z0.0000
M3S245
G4 P0.5; Tool Off

G0 Z0; move to z-safe height
G0 X1149.0000 Y597.0700
M3S0
G4 P0.5; Tool On
G1 F300 Z0.0000
G1 F15000 X1.0000 Y597.0700 Z0.0000
M3S245
G4 P0.5; Tool Off

G0 Z0; move to z-safe height
G0 X1.0000 Y599.0700
M3S0
G4 P0.5; Tool On
G1 F300 Z0.0000
G1 F15000 X1149.0000 Y599.0700 Z0.0000
M3S245
G4 P0.5; Tool Off

G0 Z0; move to z-safe height
G0 X1149.0000 Y601.0700
M3S0
G4 P0.5; Tool On
G1 F300 Z0.0000
G1 F15000 X1.0000 Y601.0700 Z0.0000
M3S245
G4 P0.5; Tool Off

G0 Z0; move to z-safe height
G0 X1.0000 Y603.0700
M3S0
G4 P0.5; Tool On
G1 F300 Z0.0000
G1 F15000 X1149.0000 Y603.0700 Z0.0000
M3S245
G4 P0.5; Tool Off

G0 Z0; move to z-safe height
G0 X1149.0000 Y605.0700
M3S0
G4 P0.5; Tool On
G1 F300 Z0.0000
G1 F15000 X1.0000 Y605.0700 Z0.0000
M3S245
G4 P0.5; Tool Off

G0 Z0; move to z-safe height
G0 X1.0000 Y607.0700
M3S0
G4 P0.5; Tool On
G1 F300 Z0.0000
G1 F15000 X1149.0000 Y607.0700 Z0.0000
M3S245
G4 P0.5; Tool Off

G0 Z0; move to z-safe height
G0 X1149.0000 Y609.0700
M3S0
G4 P0.5; Tool On
G1 F300 Z0.0000
G1 F15000 X1.0000 Y609.0700 Z0.0000
M3S245
G4 P0.5; Tool Off

G0 Z0; move to z-safe height
G0 X1.0000 Y611.0700
M3S0
G4 P0.5; Tool On
G1 F300 Z0.0000
G1 F15000 X1149.0000 Y611.0700 Z0.0000
M3S245
G4 P0.5; Tool Off

G0 Z0; move to z-safe height
G0 X1149.0000 Y613.0700
M3S0
G4 P0.5; Tool On
G1 F300 Z0.0000
G1 F15000 X1.0000 Y613.0700 Z0.0000
M3S245
G4 P0.5; Tool Off

G0 Z0; move to z-safe height
G0 X1.0000 Y615.0700
M3S0
G4 P0.5; Tool On
G1 F300 Z0.0000
G1 F15000 X1149.0000 Y615.0700 Z0.0000
M3S245
G4 P0.5; Tool Off

G0 Z0; move to z-safe height
G0 X1149.0000 Y617.0700
M3S0
G4 P0.5; Tool On
G1 F300 Z0.0000
G1 F15000 X1.0000 Y617.0700 Z0.0000
M3S245
G4 P0.5; Tool Off

G0 Z0; move to z-safe height
G0 X1.0000 Y619.0700
M3S0
G4 P0.5; Tool On
G1 F300 Z0.0000
G1 F15000 X1149.0000 Y619.0700 Z0.0000
M3S245
G4 P0.5; Tool Off

G0 Z0; move to z-safe height
G0 X1149.0000 Y621.0700
M3S0
G4 P0.5; Tool On
G1 F300 Z0.0000
G1 F15000 X1.0000 Y621.0700 Z0.0000
M3S245
G4 P0.5; Tool Off

G0 Z0; move to z-safe height
G0 X1.0000 Y623.0700
M3S0
G4 P0.5; Tool On
G1 F300 Z0.0000
G1 F15000 X1149.0000 Y623.0700 Z0.0000
M3S245
G4 P0.5; Tool Off

G0 Z0; move to z-safe height
G0 X1149.0000 Y625.0700
M3S0
G4 P0.5; Tool On
G1 F300 Z0.0000
G1 F15000 X1.0000 Y625.0700 Z0.0000
M3S245
G4 P0.5; Tool Off

G0 Z0; move to z-safe height
G0 X1.0000 Y627.0700
M3S0
G4 P0.5; Tool On
G1 F300 Z0.0000
G1 F15000 X1149.0000 Y627.0700 Z0.0000
M3S245
G4 P0.5; Tool Off

G0 Z0; move to z-safe height
G0 X1149.0000 Y629.0700
M3S0
G4 P0.5; Tool On
G1 F300 Z0.0000
G1 F15000 X1.0000 Y629.0700 Z0.0000
M3S245
G4 P0.5; Tool Off

G0 Z0; move to z-safe height
G0 X1.0000 Y631.0700
M3S0
G4 P0.5; Tool On
G1 F300 Z0.0000
G1 F15000 X1149.0000 Y631.0700 Z0.0000
M3S245
G4 P0.5; Tool Off

G0 Z0; move to z-safe height
G0 X1149.0000 Y633.0700
M3S0
G4 P0.5; Tool On
G1 F300 Z0.0000
G1 F15000 X1.0000 Y633.0700 Z0.0000
M3S245
G4 P0.5; Tool Off

G0 Z0; move to z-safe height
G0 X1.0000 Y635.0700
M3S0
G4 P0.5; Tool On
G1 F300 Z0.0000
G1 F15000 X1149.0000 Y635.0700 Z0.0000
M3S245
G4 P0.5; Tool Off

G0 Z0; move to z-safe height
G0 X1149.0000 Y637.0700
M3S0
G4 P0.5; Tool On
G1 F300 Z0.0000
G1 F15000 X1.0000 Y637.0700 Z0.0000
M3S245
G4 P0.5; Tool Off

G0 Z0; move to z-safe height
G0 X1.0000 Y639.0700
M3S0
G4 P0.5; Tool On
G1 F300 Z0.0000
G1 F15000 X1149.0000 Y639.0700 Z0.0000
M3S245
G4 P0.5; Tool Off

G0 Z0; move to z-safe height
G0 X1149.0000 Y641.0700
M3S0
G4 P0.5; Tool On
G1 F300 Z0.0000
G1 F15000 X1.0000 Y641.0700 Z0.0000
M3S245
G4 P0.5; Tool Off

G0 Z0; move to z-safe height
G0 X1.0000 Y643.0700
M3S0
G4 P0.5; Tool On
G1 F300 Z0.0000
G1 F15000 X1149.0000 Y643.0700 Z0.0000
M3S245
G4 P0.5; Tool Off

G0 Z0; move to z-safe height
G0 X1149.0000 Y645.0700
M3S0
G4 P0.5; Tool On
G1 F300 Z0.0000
G1 F15000 X1.0000 Y645.0700 Z0.0000
M3S245
G4 P0.5; Tool Off

G0 Z0; move to z-safe height
G0 X1.0000 Y647.0700
M3S0
G4 P0.5; Tool On
G1 F300 Z0.0000
G1 F15000 X1149.0000 Y647.0700 Z0.0000
M3S245
G4 P0.5; Tool Off

G0 Z0; move to z-safe height
G0 X1149.0000 Y649.0700
M3S0
G4 P0.5; Tool On
G1 F300 Z0.0000
G1 F15000 X1.0000 Y649.0700 Z0.0000
M3S245
G4 P0.5; Tool Off

G0 Z0; move to z-safe height
G0 X1.0000 Y651.0700
M3S0
G4 P0.5; Tool On
G1 F300 Z0.0000
G1 F15000 X1149.0000 Y651.0700 Z0.0000
M3S245
G4 P0.5; Tool Off

G0 Z0; move to z-safe height
G0 X1149.0000 Y653.0700
M3S0
G4 P0.5; Tool On
G1 F300 Z0.0000
G1 F15000 X1.0000 Y653.0700 Z0.0000
M3S245
G4 P0.5; Tool Off

G0 Z0; move to z-safe height
G0 X1.0000 Y655.0700
M3S0
G4 P0.5; Tool On
G1 F300 Z0.0000
G1 F15000 X1149.0000 Y655.0700 Z0.0000
M3S245
G4 P0.5; Tool Off

G0 Z0; move to z-safe height
G0 X1149.0000 Y657.0700
M3S0
G4 P0.5; Tool On
G1 F300 Z0.0000
G1 F15000 X1.0000 Y657.0700 Z0.0000
M3S245
G4 P0.5; Tool Off

G0 Z0; move to z-safe height
G0 X1.0000 Y659.0700
M3S0
G4 P0.5; Tool On
G1 F300 Z0.0000
G1 F15000 X1149.0000 Y659.0700 Z0.0000
M3S245
G4 P0.5; Tool Off

G0 Z0; move to z-safe height
G0 X1149.0000 Y661.0700
M3S0
G4 P0.5; Tool On
G1 F300 Z0.0000
G1 F15000 X1.0000 Y661.0700 Z0.0000
M3S245
G4 P0.5; Tool Off

G0 Z0; move to z-safe height
G0 X1.0000 Y663.0700
M3S0
G4 P0.5; Tool On
G1 F300 Z0.0000
G1 F15000 X1149.0000 Y663.0700 Z0.0000
M3S245
G4 P0.5; Tool Off

G0 Z0; move to z-safe height
G0 X1149.0000 Y665.0700
M3S0
G4 P0.5; Tool On
G1 F300 Z0.0000
G1 F15000 X1.0000 Y665.0700 Z0.0000
M3S245
G4 P0.5; Tool Off

G0 Z0; move to z-safe height
G0 X1.0000 Y667.0700
M3S0
G4 P0.5; Tool On
G1 F300 Z0.0000
G1 F15000 X1149.0000 Y667.0700 Z0.0000
M3S245
G4 P0.5; Tool Off

G0 Z0; move to z-safe height
G0 X1149.0000 Y669.0700
M3S0
G4 P0.5; Tool On
G1 F300 Z0.0000
G1 F15000 X1.0000 Y669.0700 Z0.0000
M3S245
G4 P0.5; Tool Off

G0 Z0; move to z-safe height
G0 X1.0000 Y671.0700
M3S0
G4 P0.5; Tool On
G1 F300 Z0.0000
G1 F15000 X1149.0000 Y671.0700 Z0.0000
M3S245
G4 P0.5; Tool Off

G0 Z0; move to z-safe height
G0 X1149.0000 Y673.0700
M3S0
G4 P0.5; Tool On
G1 F300 Z0.0000
G1 F15000 X1.0000 Y673.0700 Z0.0000
M3S245
G4 P0.5; Tool Off

G0 Z0; move to z-safe height
G0 X1.0000 Y675.0700
M3S0
G4 P0.5; Tool On
G1 F300 Z0.0000
G1 F15000 X1149.0000 Y675.0700 Z0.0000
M3S245
G4 P0.5; Tool Off

G0 Z0; move to z-safe height
G0 X1149.0000 Y677.0700
M3S0
G4 P0.5; Tool On
G1 F300 Z0.0000
G1 F15000 X1.0000 Y677.0700 Z0.0000
M3S245
G4 P0.5; Tool Off

G0 Z0; move to z-safe height
G0 X1.0000 Y679.0700
M3S0
G4 P0.5; Tool On
G1 F300 Z0.0000
G1 F15000 X1149.0000 Y679.0700 Z0.0000
M3S245
G4 P0.5; Tool Off

G0 Z0; move to z-safe height
G0 X1149.0000 Y681.0700
M3S0
G4 P0.5; Tool On
G1 F300 Z0.0000
G1 F15000 X1.0000 Y681.0700 Z0.0000
M3S245
G4 P0.5; Tool Off

G0 Z0; move to z-safe height
G0 X1.0000 Y683.0700
M3S0
G4 P0.5; Tool On
G1 F300 Z0.0000
G1 F15000 X1149.0000 Y683.0700 Z0.0000
M3S245
G4 P0.5; Tool Off

G0 Z0; move to z-safe height
G0 X1149.0000 Y685.0700
M3S0
G4 P0.5; Tool On
G1 F300 Z0.0000
G1 F15000 X1.0000 Y685.0700 Z0.0000
M3S245
G4 P0.5; Tool Off

G0 Z0; move to z-safe height
G0 X1.0000 Y687.0700
M3S0
G4 P0.5; Tool On
G1 F300 Z0.0000
G1 F15000 X1149.0000 Y687.0700 Z0.0000
M3S245
G4 P0.5; Tool Off

G0 Z0; move to z-safe height
G0 X1149.0000 Y689.0700
M3S0
G4 P0.5; Tool On
G1 F300 Z0.0000
G1 F15000 X1.0000 Y689.0700 Z0.0000
M3S245
G4 P0.5; Tool Off

G0 Z0; move to z-safe height
G0 X1.0000 Y691.0700
M3S0
G4 P0.5; Tool On
G1 F300 Z0.0000
G1 F15000 X1149.0000 Y691.0700 Z0.0000
M3S245
G4 P0.5; Tool Off

G0 Z0; move to z-safe height
G0 X1149.0000 Y693.0700
M3S0
G4 P0.5; Tool On
G1 F300 Z0.0000
G1 F15000 X1.0000 Y693.0700 Z0.0000
M3S245
G4 P0.5; Tool Off

G0 Z0; move to z-safe height
G0 X1.0000 Y695.0700
M3S0
G4 P0.5; Tool On
G1 F300 Z0.0000
G1 F15000 X1149.0000 Y695.0700 Z0.0000
M3S245
G4 P0.5; Tool Off

G0 Z0; move to z-safe height
G0 X1149.0000 Y697.0700
M3S0
G4 P0.5; Tool On
G1 F300 Z0.0000
G1 F15000 X1.0000 Y697.0700 Z0.0000
M3S245
G4 P0.5; Tool Off

G0 Z0; move to z-safe height
G0 X1.0000 Y699.0700
M3S0
G4 P0.5; Tool On
G1 F300 Z0.0000
G1 F15000 X1149.0000 Y699.0700 Z0.0000
M3S245
G4 P0.5; Tool Off

G0 Z0; move to z-safe height
G0 X1149.0000 Y701.0700
M3S0
G4 P0.5; Tool On
G1 F300 Z0.0000
G1 F15000 X1.0000 Y701.0700 Z0.0000
M3S245
G4 P0.5; Tool Off

G0 Z0; move to z-safe height
G0 X1.0000 Y703.0700
M3S0
G4 P0.5; Tool On
G1 F300 Z0.0000
G1 F15000 X1149.0000 Y703.0700 Z0.0000
M3S245
G4 P0.5; Tool Off

G0 Z0; move to z-safe height
G0 X1149.0000 Y705.0700
M3S0
G4 P0.5; Tool On
G1 F300 Z0.0000
G1 F15000 X1.0000 Y705.0700 Z0.0000
M3S245
G4 P0.5; Tool Off

G0 Z0; move to z-safe height
G0 X1.0000 Y707.0700
M3S0
G4 P0.5; Tool On
G1 F300 Z0.0000
G1 F15000 X1149.0000 Y707.0700 Z0.0000
M3S245
G4 P0.5; Tool Off

G0 Z0; move to z-safe height
G0 X1149.0000 Y709.0700
M3S0
G4 P0.5; Tool On
G1 F300 Z0.0000
G1 F15000 X1.0000 Y709.0700 Z0.0000
M3S245
G4 P0.5; Tool Off

G0 Z0; move to z-safe height
G0 X1.0000 Y711.0700
M3S0
G4 P0.5; Tool On
G1 F300 Z0.0000
G1 F15000 X1149.0000 Y711.0700 Z0.0000
M3S245
G4 P0.5; Tool Off

G0 Z0; move to z-safe height
G0 X1149.0000 Y713.0700
M3S0
G4 P0.5; Tool On
G1 F300 Z0.0000
G1 F15000 X1.0000 Y713.0700 Z0.0000
M3S245
G4 P0.5; Tool Off

G0 Z0; move to z-safe height
G0 X1.0000 Y715.0700
M3S0
G4 P0.5; Tool On
G1 F300 Z0.0000
G1 F15000 X1149.0000 Y715.0700 Z0.0000
M3S245
G4 P0.5; Tool Off

G0 Z0; move to z-safe height
G0 X1149.0000 Y717.0700
M3S0
G4 P0.5; Tool On
G1 F300 Z0.0000
G1 F15000 X1.0000 Y717.0700 Z0.0000
M3S245
G4 P0.5; Tool Off

G0 Z0; move to z-safe height
G0 X1.0000 Y719.0700
M3S0
G4 P0.5; Tool On
G1 F300 Z0.0000
G1 F15000 X1149.0000 Y719.0700 Z0.0000
M3S245
G4 P0.5; Tool Off

G0 Z0; move to z-safe height
G0 X1149.0000 Y721.0700
M3S0
G4 P0.5; Tool On
G1 F300 Z0.0000
G1 F15000 X1.0000 Y721.0700 Z0.0000
M3S245
G4 P0.5; Tool Off

G0 Z0; move to z-safe height
G0 X1.0000 Y723.0700
M3S0
G4 P0.5; Tool On
G1 F300 Z0.0000
G1 F15000 X1149.0000 Y723.0700 Z0.0000
M3S245
G4 P0.5; Tool Off

G0 Z0; move to z-safe height
G0 X1149.0000 Y725.0700
M3S0
G4 P0.5; Tool On
G1 F300 Z0.0000
G1 F15000 X1.0000 Y725.0700 Z0.0000
M3S245
G4 P0.5; Tool Off

G0 Z0; move to z-safe height
G0 X1.0000 Y727.0700
M3S0
G4 P0.5; Tool On
G1 F300 Z0.0000
G1 F15000 X1149.0000 Y727.0700 Z0.0000
M3S245
G4 P0.5; Tool Off

G0 Z0; move to z-safe height
G0 X1149.0000 Y729.0700
M3S0
G4 P0.5; Tool On
G1 F300 Z0.0000
G1 F15000 X1.0000 Y729.0700 Z0.0000
M3S245
G4 P0.5; Tool Off

G0 Z0; move to z-safe height
G0 X1.0000 Y731.0700
M3S0
G4 P0.5; Tool On
G1 F300 Z0.0000
G1 F15000 X1149.0000 Y731.0700 Z0.0000
M3S245
G4 P0.5; Tool Off

G0 Z0; move to z-safe height
G0 X1149.0000 Y733.0700
M3S0
G4 P0.5; Tool On
G1 F300 Z0.0000
G1 F15000 X1.0000 Y733.0700 Z0.0000
M3S245
G4 P0.5; Tool Off

G0 Z0; move to z-safe height
G0 X1.0000 Y735.0700
M3S0
G4 P0.5; Tool On
G1 F300 Z0.0000
G1 F15000 X1149.0000 Y735.0700 Z0.0000
M3S245
G4 P0.5; Tool Off

G0 Z0; move to z-safe height
G0 X1149.0000 Y737.0700
M3S0
G4 P0.5; Tool On
G1 F300 Z0.0000
G1 F15000 X1.0000 Y737.0700 Z0.0000
M3S245
G4 P0.5; Tool Off

G0 Z0; move to z-safe height
G0 X1.0000 Y739.0700
M3S0
G4 P0.5; Tool On
G1 F300 Z0.0000
G1 F15000 X1149.0000 Y739.0700 Z0.0000
M3S245
G4 P0.5; Tool Off

G0 Z0; move to z-safe height
G0 X1149.0000 Y741.0700
M3S0
G4 P0.5; Tool On
G1 F300 Z0.0000
G1 F15000 X1.0000 Y741.0700 Z0.0000
M3S245
G4 P0.5; Tool Off

G0 Z0; move to z-safe height
G0 X1.0000 Y743.0700
M3S0
G4 P0.5; Tool On
G1 F300 Z0.0000
G1 F15000 X1149.0000 Y743.0700 Z0.0000
M3S245
G4 P0.5; Tool Off

G0 Z0; move to z-safe height
G0 X1149.0000 Y745.0700
M3S0
G4 P0.5; Tool On
G1 F300 Z0.0000
G1 F15000 X1.0000 Y745.0700 Z0.0000
M3S245
G4 P0.5; Tool Off

G0 Z0; move to z-safe height
G0 X1.0000 Y747.0700
M3S0
G4 P0.5; Tool On
G1 F300 Z0.0000
G1 F15000 X1149.0000 Y747.0700 Z0.0000
M3S245
G4 P0.5; Tool Off

G0 Z0; move to z-safe height
G0 X1149.0000 Y749.0700
M3S0
G4 P0.5; Tool On
G1 F300 Z0.0000
G1 F15000 X1.0000 Y749.0700 Z0.0000
M3S245
G4 P0.5; Tool Off

G0 Z0; move to z-safe height
G0 X1.0000 Y751.0700
M3S0
G4 P0.5; Tool On
G1 F300 Z0.0000
G1 F15000 X1149.0000 Y751.0700 Z0.0000
M3S245
G4 P0.5; Tool Off

G0 Z0; move to z-safe height
G0 X1149.0000 Y753.0700
M3S0
G4 P0.5; Tool On
G1 F300 Z0.0000
G1 F15000 X1.0000 Y753.0700 Z0.0000
M3S245
G4 P0.5; Tool Off

G0 Z0; move to z-safe height
G0 X1.0000 Y755.0700
M3S0
G4 P0.5; Tool On
G1 F300 Z0.0000
G1 F15000 X1149.0000 Y755.0700 Z0.0000
M3S245
G4 P0.5; Tool Off

G0 Z0; move to z-safe height
G0 X1149.0000 Y757.0700
M3S0
G4 P0.5; Tool On
G1 F300 Z0.0000
G1 F15000 X1.0000 Y757.0700 Z0.0000
M3S245
G4 P0.5; Tool Off

G0 Z0; move to z-safe height
G0 X1.0000 Y759.0700
M3S0
G4 P0.5; Tool On
G1 F300 Z0.0000
G1 F15000 X1149.0000 Y759.0700 Z0.0000
M3S245
G4 P0.5; Tool Off

G0 Z0; move to z-safe height
G0 X1149.0000 Y761.0700
M3S0
G4 P0.5; Tool On
G1 F300 Z0.0000
G1 F15000 X1.0000 Y761.0700 Z0.0000
M3S245
G4 P0.5; Tool Off

G0 Z0; move to z-safe height
G0 X1.0000 Y763.0700
M3S0
G4 P0.5; Tool On
G1 F300 Z0.0000
G1 F15000 X1149.0000 Y763.0700 Z0.0000
M3S245
G4 P0.5; Tool Off

G0 Z0; move to z-safe height
G0 X1149.0000 Y765.0700
M3S0
G4 P0.5; Tool On
G1 F300 Z0.0000
G1 F15000 X1.0000 Y765.0700 Z0.0000
M3S245
G4 P0.5; Tool Off

G0 Z0; move to z-safe height
G0 X1.0000 Y767.0700
M3S0
G4 P0.5; Tool On
G1 F300 Z0.0000
G1 F15000 X1149.0000 Y767.0700 Z0.0000
M3S245
G4 P0.5; Tool Off

G0 Z0; move to z-safe height
G0 X1149.0000 Y769.0700
M3S0
G4 P0.5; Tool On
G1 F300 Z0.0000
G1 F15000 X1.0000 Y769.0700 Z0.0000
M3S245
G4 P0.5; Tool Off

G0 Z0; move to z-safe height
G0 X1.0000 Y771.0700
M3S0
G4 P0.5; Tool On
G1 F300 Z0.0000
G1 F15000 X1149.0000 Y771.0700 Z0.0000
M3S245
G4 P0.5; Tool Off

G0 Z0; move to z-safe height
G0 X1149.0000 Y773.0700
M3S0
G4 P0.5; Tool On
G1 F300 Z0.0000
G1 F15000 X1.0000 Y773.0700 Z0.0000
M3S245
G4 P0.5; Tool Off

G0 Z0; move to z-safe height
G0 X1.0000 Y775.0700
M3S0
G4 P0.5; Tool On
G1 F300 Z0.0000
G1 F15000 X1149.0000 Y775.0700 Z0.0000
M3S245
G4 P0.5; Tool Off

G0 Z0; move to z-safe height
G0 X1149.0000 Y777.0700
M3S0
G4 P0.5; Tool On
G1 F300 Z0.0000
G1 F15000 X1.0000 Y777.0700 Z0.0000
M3S245
G4 P0.5; Tool Off

G0 Z0; move to z-safe height
G0 X1.0000 Y779.0700
M3S0
G4 P0.5; Tool On
G1 F300 Z0.0000
G1 F15000 X1149.0000 Y779.0700 Z0.0000
M3S245
G4 P0.5; Tool Off

G0 Z0; move to z-safe height
G0 X1149.0000 Y781.0700
M3S0
G4 P0.5; Tool On
G1 F300 Z0.0000
G1 F15000 X1.0000 Y781.0700 Z0.0000
M3S245
G4 P0.5; Tool Off

G0 Z0; move to z-safe height
G0 X1.0000 Y783.0700
M3S0
G4 P0.5; Tool On
G1 F300 Z0.0000
G1 F15000 X1149.0000 Y783.0700 Z0.0000
M3S245
G4 P0.5; Tool Off

G0 Z0; move to z-safe height
G0 X1149.0000 Y785.0700
M3S0
G4 P0.5; Tool On
G1 F300 Z0.0000
G1 F15000 X1.0000 Y785.0700 Z0.0000
M3S245
G4 P0.5; Tool Off

G0 Z0; move to z-safe height
G0 X1.0000 Y787.0700
M3S0
G4 P0.5; Tool On
G1 F300 Z0.0000
G1 F15000 X1149.0000 Y787.0700 Z0.0000
M3S245
G4 P0.5; Tool Off

G0 Z0; move to z-safe height
G0 X1149.0000 Y789.0700
M3S0
G4 P0.5; Tool On
G1 F300 Z0.0000
G1 F15000 X1.0000 Y789.0700 Z0.0000
M3S245
G4 P0.5; Tool Off

G0 Z0; move to z-safe height
G0 X1.0000 Y791.0700
M3S0
G4 P0.5; Tool On
G1 F300 Z0.0000
G1 F15000 X1149.0000 Y791.0700 Z0.0000
M3S245
G4 P0.5; Tool Off

G0 Z0; move to z-safe height
G0 X1149.0000 Y793.0700
M3S0
G4 P0.5; Tool On
G1 F300 Z0.0000
G1 F15000 X1.0000 Y793.0700 Z0.0000
M3S245
G4 P0.5; Tool Off

G0 Z0; move to z-safe height
G0 X1.0000 Y795.0700
M3S0
G4 P0.5; Tool On
G1 F300 Z0.0000
G1 F15000 X1149.0000 Y795.0700 Z0.0000
M3S245
G4 P0.5; Tool Off

G0 Z0; move to z-safe height
G0 X1149.0000 Y797.0700
M3S0
G4 P0.5; Tool On
G1 F300 Z0.0000
G1 F15000 X1.0000 Y797.0700 Z0.0000
M3S245
G4 P0.5; Tool Off

G0 Z0; move to z-safe height
G0 X1.0000 Y799.0700
M3S0
G4 P0.5; Tool On
G1 F300 Z0.0000
G1 F15000 X1149.0000 Y799.0700 Z0.0000
M3S245
G4 P0.5; Tool Off

G0 Z0; move to z-safe height
G0 X1149.0000 Y801.0700
M3S0
G4 P0.5; Tool On
G1 F300 Z0.0000
G1 F15000 X1.0000 Y801.0700 Z0.0000
M3S245
G4 P0.5; Tool Off

G0 Z0; move to z-safe height
G0 X1.0000 Y803.0700
M3S0
G4 P0.5; Tool On
G1 F300 Z0.0000
G1 F15000 X1149.0000 Y803.0700 Z0.0000
M3S245
G4 P0.5; Tool Off

G0 Z0; move to z-safe height
G0 X1149.0000 Y805.0700
M3S0
G4 P0.5; Tool On
G1 F300 Z0.0000
G1 F15000 X1.0000 Y805.0700 Z0.0000
M3S245
G4 P0.5; Tool Off

G0 Z0; move to z-safe height
G0 X1.0000 Y807.0700
M3S0
G4 P0.5; Tool On
G1 F300 Z0.0000
G1 F15000 X1149.0000 Y807.0700 Z0.0000
M3S245
G4 P0.5; Tool Off

G0 Z0; move to z-safe height
G0 X1149.0000 Y809.0700
M3S0
G4 P0.5; Tool On
G1 F300 Z0.0000
G1 F15000 X1.0000 Y809.0700 Z0.0000
M3S245
G4 P0.5; Tool Off

G0 Z0; move to z-safe height
G0 X1.0000 Y811.0700
M3S0
G4 P0.5; Tool On
G1 F300 Z0.0000
G1 F15000 X1149.0000 Y811.0700 Z0.0000
M3S245
G4 P0.5; Tool Off

G0 Z0; move to z-safe height
G0 X1149.0000 Y813.0700
M3S0
G4 P0.5; Tool On
G1 F300 Z0.0000
G1 F15000 X1.0000 Y813.0700 Z0.0000
M3S245
G4 P0.5; Tool Off

G0 Z0; move to z-safe height
G0 X1.0000 Y815.0700
M3S0
G4 P0.5; Tool On
G1 F300 Z0.0000
G1 F15000 X1149.0000 Y815.0700 Z0.0000
M3S245
G4 P0.5; Tool Off

G0 Z0; move to z-safe height
G0 X1149.0000 Y817.0700
M3S0
G4 P0.5; Tool On
G1 F300 Z0.0000
G1 F15000 X1.0000 Y817.0700 Z0.0000
M3S245
G4 P0.5; Tool Off

G0 Z0; move to z-safe height
G0 X1.0000 Y819.0700
M3S0
G4 P0.5; Tool On
G1 F300 Z0.0000
G1 F15000 X1149.0000 Y819.0700 Z0.0000
M3S245
G4 P0.5; Tool Off

G0 Z0; move to z-safe height
G0 X1149.0000 Y821.0700
M3S0
G4 P0.5; Tool On
G1 F300 Z0.0000
G1 F15000 X1.0000 Y821.0700 Z0.0000
M3S245
G4 P0.5; Tool Off

G0 Z0; move to z-safe height
G0 X1.0000 Y823.0700
M3S0
G4 P0.5; Tool On
G1 F300 Z0.0000
G1 F15000 X1149.0000 Y823.0700 Z0.0000
M3S245
G4 P0.5; Tool Off

G0 Z0; move to z-safe height
G0 X1149.0000 Y825.0700
M3S0
G4 P0.5; Tool On
G1 F300 Z0.0000
G1 F15000 X1.0000 Y825.0700 Z0.0000
M3S245
G4 P0.5; Tool Off

G0 Z0; move to z-safe height
G0 X1.0000 Y827.0700
M3S0
G4 P0.5; Tool On
G1 F300 Z0.0000
G1 F15000 X1149.0000 Y827.0700 Z0.0000
M3S245
G4 P0.5; Tool Off

G0 Z0; move to z-safe height
G0 X1149.0000 Y829.0700
M3S0
G4 P0.5; Tool On
G1 F300 Z0.0000
G1 F15000 X1.0000 Y829.0700 Z0.0000
M3S245
G4 P0.5; Tool Off

G0 Z0; move to z-safe height
G0 X1.0000 Y831.0700
M3S0
G4 P0.5; Tool On
G1 F300 Z0.0000
G1 F15000 X1149.0000 Y831.0700 Z0.0000
M3S245
G4 P0.5; Tool Off

G0 Z0; move to z-safe height
G0 X1149.0000 Y833.0700
M3S0
G4 P0.5; Tool On
G1 F300 Z0.0000
G1 F15000 X1.0000 Y833.0700 Z0.0000
M3S245
G4 P0.5; Tool Off

G0 Z0; move to z-safe height
G0 X1.0000 Y835.0700
M3S0
G4 P0.5; Tool On
G1 F300 Z0.0000
G1 F15000 X1149.0000 Y835.0700 Z0.0000
M3S245
G4 P0.5; Tool Off

G0 Z0; move to z-safe height
G0 X1149.0000 Y837.0700
M3S0
G4 P0.5; Tool On
G1 F300 Z0.0000
G1 F15000 X1.0000 Y837.0700 Z0.0000
M3S245
G4 P0.5; Tool Off

G0 Z0; move to z-safe height
G0 X1.0000 Y839.0700
M3S0
G4 P0.5; Tool On
G1 F300 Z0.0000
G1 F15000 X1149.0000 Y839.0700 Z0.0000
M3S245
G4 P0.5; Tool Off

G0 Z0; move to z-safe height
G0 X1149.0000 Y841.0700
M3S0
G4 P0.5; Tool On
G1 F300 Z0.0000
G1 F15000 X1.0000 Y841.0700 Z0.0000
M3S245
G4 P0.5; Tool Off

G0 Z0; move to z-safe height
G0 X1.0000 Y843.0700
M3S0
G4 P0.5; Tool On
G1 F300 Z0.0000
G1 F15000 X1149.0000 Y843.0700 Z0.0000
M3S245
G4 P0.5; Tool Off

G0 Z0; move to z-safe height
G0 X1149.0000 Y845.0700
M3S0
G4 P0.5; Tool On
G1 F300 Z0.0000
G1 F15000 X1.0000 Y845.0700 Z0.0000
M3S245
G4 P0.5; Tool Off

G0 Z0; move to z-safe height
G0 X1.0000 Y847.0700
M3S0
G4 P0.5; Tool On
G1 F300 Z0.0000
G1 F15000 X1149.0000 Y847.0700 Z0.0000
M3S245
G4 P0.5; Tool Off

G0 Z0; move to z-safe height
G0 X1149.0000 Y849.0700
M3S0
G4 P0.5; Tool On
G1 F300 Z0.0000
G1 F15000 X1.0000 Y849.0700 Z0.0000
M3S245
G4 P0.5; Tool Off

G0 Z0; move to z-safe height
G0 X1.0000 Y851.0700
M3S0
G4 P0.5; Tool On
G1 F300 Z0.0000
G1 F15000 X1149.0000 Y851.0700 Z0.0000
M3S245
G4 P0.5; Tool Off

G0 Z0; move to z-safe height
G0 X1149.0000 Y853.0700
M3S0
G4 P0.5; Tool On
G1 F300 Z0.0000
G1 F15000 X1.0000 Y853.0700 Z0.0000
M3S245
G4 P0.5; Tool Off

G0 Z0; move to z-safe height
G0 X1.0000 Y855.0700
M3S0
G4 P0.5; Tool On
G1 F300 Z0.0000
G1 F15000 X1149.0000 Y855.0700 Z0.0000
M3S245
G4 P0.5; Tool Off

G0 Z0; move to z-safe height
G0 X1149.0000 Y857.0700
M3S0
G4 P0.5; Tool On
G1 F300 Z0.0000
G1 F15000 X1.0000 Y857.0700 Z0.0000
M3S245
G4 P0.5; Tool Off

G0 Z0; move to z-safe height
G0 X1.0000 Y859.0700
M3S0
G4 P0.5; Tool On
G1 F300 Z0.0000
G1 F15000 X1149.0000 Y859.0700 Z0.0000
M3S245
G4 P0.5; Tool Off

G0 Z0; move to z-safe height
G0 X1149.0000 Y861.0700
M3S0
G4 P0.5; Tool On
G1 F300 Z0.0000
G1 F15000 X1.0000 Y861.0700 Z0.0000
M3S245
G4 P0.5; Tool Off

G0 Z0; move to z-safe height
G0 X1.0000 Y863.0700
M3S0
G4 P0.5; Tool On
G1 F300 Z0.0000
G1 F15000 X1149.0000 Y863.0700 Z0.0000
M3S245
G4 P0.5; Tool Off

G0 Z0; move to z-safe height
G0 X1149.0000 Y865.0700
M3S0
G4 P0.5; Tool On
G1 F300 Z0.0000
G1 F15000 X1.0000 Y865.0700 Z0.0000
M3S245
G4 P0.5; Tool Off

G0 Z0; move to z-safe height
G0 X1.0000 Y867.0700
M3S0
G4 P0.5; Tool On
G1 F300 Z0.0000
G1 F15000 X1149.0000 Y867.0700 Z0.0000
M3S245
G4 P0.5; Tool Off

G0 Z0; move to z-safe height
G0 X1149.0000 Y869.0700
M3S0
G4 P0.5; Tool On
G1 F300 Z0.0000
G1 F15000 X1.0000 Y869.0700 Z0.0000
M3S245
G4 P0.5; Tool Off

G0 Z0; move to z-safe height
G0 X1.0000 Y871.0700
M3S0
G4 P0.5; Tool On
G1 F300 Z0.0000
G1 F15000 X1149.0000 Y871.0700 Z0.0000
M3S245
G4 P0.5; Tool Off

G0 Z0; move to z-safe height
G0 X1149.0000 Y873.0700
M3S0
G4 P0.5; Tool On
G1 F300 Z0.0000
G1 F15000 X1.0000 Y873.0700 Z0.0000
M3S245
G4 P0.5; Tool Off

G0 Z0; move to z-safe height
G0 X1.0000 Y875.0700
M3S0
G4 P0.5; Tool On
G1 F300 Z0.0000
G1 F15000 X1149.0000 Y875.0700 Z0.0000
M3S245
G4 P0.5; Tool Off

G0 Z0; move to z-safe height
G0 X1149.0000 Y877.0700
M3S0
G4 P0.5; Tool On
G1 F300 Z0.0000
G1 F15000 X1.0000 Y877.0700 Z0.0000
M3S245
G4 P0.5; Tool Off

G0 Z0; move to z-safe height
G0 X1.0000 Y879.0700
M3S0
G4 P0.5; Tool On
G1 F300 Z0.0000
G1 F15000 X1149.0000 Y879.0700 Z0.0000
M3S245
G4 P0.5; Tool Off

G0 Z0; move to z-safe height
G0 X1149.0000 Y881.0700
M3S0
G4 P0.5; Tool On
G1 F300 Z0.0000
G1 F15000 X1.0000 Y881.0700 Z0.0000
M3S245
G4 P0.5; Tool Off

G0 Z0; move to z-safe height
G0 X1.0000 Y883.0700
M3S0
G4 P0.5; Tool On
G1 F300 Z0.0000
G1 F15000 X1149.0000 Y883.0700 Z0.0000
M3S245
G4 P0.5; Tool Off

G0 Z0; move to z-safe height
G0 X1149.0000 Y885.0700
M3S0
G4 P0.5; Tool On
G1 F300 Z0.0000
G1 F15000 X1.0000 Y885.0700 Z0.0000
M3S245
G4 P0.5; Tool Off

G0 Z0; move to z-safe height
G0 X1.0000 Y887.0700
M3S0
G4 P0.5; Tool On
G1 F300 Z0.0000
G1 F15000 X1149.0000 Y887.0700 Z0.0000
M3S245
G4 P0.5; Tool Off

G0 Z0; move to z-safe height
G0 X1149.0000 Y889.0700
M3S0
G4 P0.5; Tool On
G1 F300 Z0.0000
G1 F15000 X1.0000 Y889.0700 Z0.0000
M3S245
G4 P0.5; Tool Off

G0 Z0; move to z-safe height
G0 X1.0000 Y891.0700
M3S0
G4 P0.5; Tool On
G1 F300 Z0.0000
G1 F15000 X1149.0000 Y891.0700 Z0.0000
M3S245
G4 P0.5; Tool Off

G0 Z0; move to z-safe height
G0 X1149.0000 Y893.0700
M3S0
G4 P0.5; Tool On
G1 F300 Z0.0000
G1 F15000 X1.0000 Y893.0700 Z0.0000
M3S245
G4 P0.5; Tool Off

G0 Z0; move to z-safe height
G0 X1.0000 Y895.0700
M3S0
G4 P0.5; Tool On
G1 F300 Z0.0000
G1 F15000 X1149.0000 Y895.0700 Z0.0000
M3S245
G4 P0.5; Tool Off

G0 Z0; move to z-safe height
G0 X1149.0000 Y897.0700
M3S0
G4 P0.5; Tool On
G1 F300 Z0.0000
G1 F15000 X1.0000 Y897.0700 Z0.0000
M3S245
G4 P0.5; Tool Off

G0 Z0; move to z-safe height
G0 X1.0000 Y899.0700
M3S0
G4 P0.5; Tool On
G1 F300 Z0.0000
G1 F15000 X1149.0000 Y899.0700 Z0.0000
M3S245
G4 P0.5; Tool Off

G0 Z0; move to z-safe height
G0 X1149.0000 Y901.0700
M3S0
G4 P0.5; Tool On
G1 F300 Z0.0000
G1 F15000 X1.0000 Y901.0700 Z0.0000
M3S245
G4 P0.5; Tool Off

G0 Z0; move to z-safe height
G0 X1.0000 Y903.0700
M3S0
G4 P0.5; Tool On
G1 F300 Z0.0000
G1 F15000 X1149.0000 Y903.0700 Z0.0000
M3S245
G4 P0.5; Tool Off

G0 Z0; move to z-safe height
G0 X1149.0000 Y905.0700
M3S0
G4 P0.5; Tool On
G1 F300 Z0.0000
G1 F15000 X1.0000 Y905.0700 Z0.0000
M3S245
G4 P0.5; Tool Off

G0 Z0; move to z-safe height
G0 X1.0000 Y907.0700
M3S0
G4 P0.5; Tool On
G1 F300 Z0.0000
G1 F15000 X1149.0000 Y907.0700 Z0.0000
M3S245
G4 P0.5; Tool Off

G0 Z0; move to z-safe height
G0 X1149.0000 Y909.0700
M3S0
G4 P0.5; Tool On
G1 F300 Z0.0000
G1 F15000 X1.0000 Y909.0700 Z0.0000
M3S245
G4 P0.5; Tool Off

G0 Z0; move to z-safe height
G0 X1.0000 Y911.0700
M3S0
G4 P0.5; Tool On
G1 F300 Z0.0000
G1 F15000 X1149.0000 Y911.0700 Z0.0000
M3S245
G4 P0.5; Tool Off

G0 Z0; move to z-safe height
G0 X1149.0000 Y913.0700
M3S0
G4 P0.5; Tool On
G1 F300 Z0.0000
G1 F15000 X1.0000 Y913.0700 Z0.0000
M3S245
G4 P0.5; Tool Off

G0 Z0; move to z-safe height
G0 X1.0000 Y915.0700
M3S0
G4 P0.5; Tool On
G1 F300 Z0.0000
G1 F15000 X1149.0000 Y915.0700 Z0.0000
M3S245
G4 P0.5; Tool Off

G0 Z0; move to z-safe height
G0 X1149.0000 Y917.0700
M3S0
G4 P0.5; Tool On
G1 F300 Z0.0000
G1 F15000 X1.0000 Y917.0700 Z0.0000
M3S245
G4 P0.5; Tool Off

G0 Z0; move to z-safe height
G0 X1.0000 Y919.0700
M3S0
G4 P0.5; Tool On
G1 F300 Z0.0000
G1 F15000 X1149.0000 Y919.0700 Z0.0000
M3S245
G4 P0.5; Tool Off

G0 Z0; move to z-safe height
G0 X1149.0000 Y921.0700
M3S0
G4 P0.5; Tool On
G1 F300 Z0.0000
G1 F15000 X1.0000 Y921.0700 Z0.0000
M3S245
G4 P0.5; Tool Off

G0 Z0; move to z-safe height
G0 X1.0000 Y923.0700
M3S0
G4 P0.5; Tool On
G1 F300 Z0.0000
G1 F15000 X1149.0000 Y923.0700 Z0.0000
M3S245
G4 P0.5; Tool Off

G0 Z0; move to z-safe height
G0 X1149.0000 Y925.0700
M3S0
G4 P0.5; Tool On
G1 F300 Z0.0000
G1 F15000 X1.0000 Y925.0700 Z0.0000
M3S245
G4 P0.5; Tool Off

G0 Z0; move to z-safe height
G0 X1.0000 Y927.0700
M3S0
G4 P0.5; Tool On
G1 F300 Z0.0000
G1 F15000 X1149.0000 Y927.0700 Z0.0000
M3S245
G4 P0.5; Tool Off

G0 Z0; move to z-safe height
G0 X1149.0000 Y929.0700
M3S0
G4 P0.5; Tool On
G1 F300 Z0.0000
G1 F15000 X1.0000 Y929.0700 Z0.0000
M3S245
G4 P0.5; Tool Off

G0 Z0; move to z-safe height
G0 X1.0000 Y931.0700
M3S0
G4 P0.5; Tool On
G1 F300 Z0.0000
G1 F15000 X1149.0000 Y931.0700 Z0.0000
M3S245
G4 P0.5; Tool Off

G0 Z0; move to z-safe height
G0 X1149.0000 Y933.0700
M3S0
G4 P0.5; Tool On
G1 F300 Z0.0000
G1 F15000 X1.0000 Y933.0700 Z0.0000
M3S245
G4 P0.5; Tool Off

G0 Z0; move to z-safe height
G0 X1.0000 Y935.0700
M3S0
G4 P0.5; Tool On
G1 F300 Z0.0000
G1 F15000 X1149.0000 Y935.0700 Z0.0000
M3S245
G4 P0.5; Tool Off

G0 Z0; move to z-safe height
G0 X1149.0000 Y937.0700
M3S0
G4 P0.5; Tool On
G1 F300 Z0.0000
G1 F15000 X1.0000 Y937.0700 Z0.0000
M3S245
G4 P0.5; Tool Off

G0 Z0; move to z-safe height
G0 X1.0000 Y939.0700
M3S0
G4 P0.5; Tool On
G1 F300 Z0.0000
G1 F15000 X1149.0000 Y939.0700 Z0.0000
M3S245
G4 P0.5; Tool Off

G0 Z0; move to z-safe height
G0 X1149.0000 Y941.0700
M3S0
G4 P0.5; Tool On
G1 F300 Z0.0000
G1 F15000 X1.0000 Y941.0700 Z0.0000
M3S245
G4 P0.5; Tool Off

G0 Z0; move to z-safe height
G0 X1.0000 Y943.0700
M3S0
G4 P0.5; Tool On
G1 F300 Z0.0000
G1 F15000 X1149.0000 Y943.0700 Z0.0000
M3S245
G4 P0.5; Tool Off

G0 Z0; move to z-safe height
G0 X1149.0000 Y945.0700
M3S0
G4 P0.5; Tool On
G1 F300 Z0.0000
G1 F15000 X1.0000 Y945.0700 Z0.0000
M3S245
G4 P0.5; Tool Off

G0 Z0; move to z-safe height
G0 X1.0000 Y947.0700
M3S0
G4 P0.5; Tool On
G1 F300 Z0.0000
G1 F15000 X1149.0000 Y947.0700 Z0.0000
M3S245
G4 P0.5; Tool Off

G0 Z0; move to z-safe height
G0 X1149.0000 Y949.0700
M3S0
G4 P0.5; Tool On
G1 F300 Z0.0000
G1 F15000 X1.0000 Y949.0700 Z0.0000
M3S245
G4 P0.5; Tool Off

G0 Z0; move to z-safe height
G0 X1.0000 Y951.0700
M3S0
G4 P0.5; Tool On
G1 F300 Z0.0000
G1 F15000 X1149.0000 Y951.0700 Z0.0000
M3S245
G4 P0.5; Tool Off

G0 Z0; move to z-safe height
G0 X1149.0000 Y953.0700
M3S0
G4 P0.5; Tool On
G1 F300 Z0.0000
G1 F15000 X1.0000 Y953.0700 Z0.0000
M3S245
G4 P0.5; Tool Off

G0 Z0; move to z-safe height
G0 X1.0000 Y955.0700
M3S0
G4 P0.5; Tool On
G1 F300 Z0.0000
G1 F15000 X1149.0000 Y955.0700 Z0.0000
M3S245
G4 P0.5; Tool Off

G0 Z0; move to z-safe height
G0 X1149.0000 Y957.0700
M3S0
G4 P0.5; Tool On
G1 F300 Z0.0000
G1 F15000 X1.0000 Y957.0700 Z0.0000
M3S245
G4 P0.5; Tool Off

G0 Z0; move to z-safe height
G0 X1.0000 Y959.0700
M3S0
G4 P0.5; Tool On
G1 F300 Z0.0000
G1 F15000 X1149.0000 Y959.0700 Z0.0000
M3S245
G4 P0.5; Tool Off

G0 Z0; move to z-safe height
G0 X1149.0000 Y961.0700
M3S0
G4 P0.5; Tool On
G1 F300 Z0.0000
G1 F15000 X1.0000 Y961.0700 Z0.0000
M3S245
G4 P0.5; Tool Off

G0 Z0; move to z-safe height
G0 X1.0000 Y963.0700
M3S0
G4 P0.5; Tool On
G1 F300 Z0.0000
G1 F15000 X1149.0000 Y963.0700 Z0.0000
M3S245
G4 P0.5; Tool Off

G0 Z0; move to z-safe height
G0 X1149.0000 Y965.0700
M3S0
G4 P0.5; Tool On
G1 F300 Z0.0000
G1 F15000 X1.0000 Y965.0700 Z0.0000
M3S245
G4 P0.5; Tool Off

G0 Z0; move to z-safe height
G0 X1.0000 Y967.0700
M3S0
G4 P0.5; Tool On
G1 F300 Z0.0000
G1 F15000 X1149.0000 Y967.0700 Z0.0000
M3S245
G4 P0.5; Tool Off

G0 Z0; move to z-safe height
G0 X1149.0000 Y969.0700
M3S0
G4 P0.5; Tool On
G1 F300 Z0.0000
G1 F15000 X1.0000 Y969.0700 Z0.0000
M3S245
G4 P0.5; Tool Off

G0 Z0; move to z-safe height
G0 X1.0000 Y971.0700
M3S0
G4 P0.5; Tool On
G1 F300 Z0.0000
G1 F15000 X1149.0000 Y971.0700 Z0.0000
M3S245
G4 P0.5; Tool Off

G0 Z0; move to z-safe height
G0 X1149.0000 Y973.0700
M3S0
G4 P0.5; Tool On
G1 F300 Z0.0000
G1 F15000 X1.0000 Y973.0700 Z0.0000
M3S245
G4 P0.5; Tool Off

G0 Z0; move to z-safe height
G0 X1.0000 Y975.0700
M3S0
G4 P0.5; Tool On
G1 F300 Z0.0000
G1 F15000 X1149.0000 Y975.0700 Z0.0000
M3S245
G4 P0.5; Tool Off

G0 Z0; move to z-safe height
G0 X1149.0000 Y977.0700
M3S0
G4 P0.5; Tool On
G1 F300 Z0.0000
G1 F15000 X1.0000 Y977.0700 Z0.0000
M3S245
G4 P0.5; Tool Off

G0 Z0; move to z-safe height
G0 X1.0000 Y979.0700
M3S0
G4 P0.5; Tool On
G1 F300 Z0.0000
G1 F15000 X1149.0000 Y979.0700 Z0.0000
M3S245
G4 P0.5; Tool Off

G0 Z0; move to z-safe height
G0 X1149.0000 Y981.0700
M3S0
G4 P0.5; Tool On
G1 F300 Z0.0000
G1 F15000 X1.0000 Y981.0700 Z0.0000
M3S245
G4 P0.5; Tool Off

G0 Z0; move to z-safe height
G0 X1.0000 Y983.0700
M3S0
G4 P0.5; Tool On
G1 F300 Z0.0000
G1 F15000 X1149.0000 Y983.0700 Z0.0000
M3S245
G4 P0.5; Tool Off

G0 Z0; move to z-safe height
G0 X1149.0000 Y985.0700
M3S0
G4 P0.5; Tool On
G1 F300 Z0.0000
G1 F15000 X1.0000 Y985.0700 Z0.0000
M3S245
G4 P0.5; Tool Off

G0 Z0; move to z-safe height
G0 X1.0000 Y987.0700
M3S0
G4 P0.5; Tool On
G1 F300 Z0.0000
G1 F15000 X1149.0000 Y987.0700 Z0.0000
M3S245
G4 P0.5; Tool Off

G0 Z0; move to z-safe height
G0 X1149.0000 Y989.0700
M3S0
G4 P0.5; Tool On
G1 F300 Z0.0000
G1 F15000 X1.0000 Y989.0700 Z0.0000
M3S245
G4 P0.5; Tool Off

G0 Z0; move to z-safe height
G0 X1.0000 Y991.0700
M3S0
G4 P0.5; Tool On
G1 F300 Z0.0000
G1 F15000 X1149.0000 Y991.0700 Z0.0000
M3S245
G4 P0.5; Tool Off

G0 Z0; move to z-safe height
G0 X1149.0000 Y993.0700
M3S0
G4 P0.5; Tool On
G1 F300 Z0.0000
G1 F15000 X1.0000 Y993.0700 Z0.0000
M3S245
G4 P0.5; Tool Off

G0 Z0; move to z-safe height
G0 X1.0000 Y995.0700
M3S0
G4 P0.5; Tool On
G1 F300 Z0.0000
G1 F15000 X1149.0000 Y995.0700 Z0.0000
M3S245
G4 P0.5; Tool Off

G0 Z0; move to z-safe height
G0 X1149.0000 Y997.0700
M3S0
G4 P0.5; Tool On
G1 F300 Z0.0000
G1 F15000 X1.0000 Y997.0700 Z0.0000
M3S245
G4 P0.5; Tool Off

G0 Z0; move to z-safe height
G0 X1.0000 Y999.0700
M3S0
G4 P0.5; Tool On
G1 F300 Z0.0000
G1 F15000 X1149.0000 Y999.0700 Z0.0000
M3S245
G4 P0.5; Tool Off

G0 Z0; move to z-safe height
G0 X1149.0000 Y1001.0700
M3S0
G4 P0.5; Tool On
G1 F300 Z0.0000
G1 F15000 X1.0000 Y1001.0700 Z0.0000
M3S245
G4 P0.5; Tool Off

G0 Z0; move to z-safe height
G0 X1.0000 Y1003.0700
M3S0
G4 P0.5; Tool On
G1 F300 Z0.0000
G1 F15000 X1149.0000 Y1003.0700 Z0.0000
M3S245
G4 P0.5; Tool Off

G0 Z0; move to z-safe height
G0 X1149.0000 Y1005.0700
M3S0
G4 P0.5; Tool On
G1 F300 Z0.0000
G1 F15000 X1.0000 Y1005.0700 Z0.0000
M3S245
G4 P0.5; Tool Off

G0 Z0; move to z-safe height
G0 X1.0000 Y1007.0700
M3S0
G4 P0.5; Tool On
G1 F300 Z0.0000
G1 F15000 X1149.0000 Y1007.0700 Z0.0000
M3S245
G4 P0.5; Tool Off

G0 Z0; move to z-safe height
G0 X1149.0000 Y1009.0700
M3S0
G4 P0.5; Tool On
G1 F300 Z0.0000
G1 F15000 X1.0000 Y1009.0700 Z0.0000
M3S245
G4 P0.5; Tool Off

G0 Z0; move to z-safe height
G0 X1.0000 Y1011.0700
M3S0
G4 P0.5; Tool On
G1 F300 Z0.0000
G1 F15000 X1149.0000 Y1011.0700 Z0.0000
M3S245
G4 P0.5; Tool Off

G0 Z0; move to z-safe height
G0 X1149.0000 Y1013.0700
M3S0
G4 P0.5; Tool On
G1 F300 Z0.0000
G1 F15000 X1.0000 Y1013.0700 Z0.0000
M3S245
G4 P0.5; Tool Off

G0 Z0; move to z-safe height
G0 X1.0000 Y1015.0700
M3S0
G4 P0.5; Tool On
G1 F300 Z0.0000
G1 F15000 X1149.0000 Y1015.0700 Z0.0000
M3S245
G4 P0.5; Tool Off

G0 Z0; move to z-safe height
G0 X1149.0000 Y1017.0700
M3S0
G4 P0.5; Tool On
G1 F300 Z0.0000
G1 F15000 X1.0000 Y1017.0700 Z0.0000
M3S245
G4 P0.5; Tool Off

G0 Z0; move to z-safe height
G0 X1.0000 Y1019.0700
M3S0
G4 P0.5; Tool On
G1 F300 Z0.0000
G1 F15000 X1149.0000 Y1019.0700 Z0.0000
M3S245
G4 P0.5; Tool Off

G0 Z0; move to z-safe height
G0 X1149.0000 Y1021.0700
M3S0
G4 P0.5; Tool On
G1 F300 Z0.0000
G1 F15000 X1.0000 Y1021.0700 Z0.0000
M3S245
G4 P0.5; Tool Off

G0 Z0; move to z-safe height
G0 X1.0000 Y1023.0700
M3S0
G4 P0.5; Tool On
G1 F300 Z0.0000
G1 F15000 X1149.0000 Y1023.0700 Z0.0000
M3S245
G4 P0.5; Tool Off

G0 Z0; move to z-safe height
G0 X1149.0000 Y1025.0700
M3S0
G4 P0.5; Tool On
G1 F300 Z0.0000
G1 F15000 X1.0000 Y1025.0700 Z0.0000
M3S245
G4 P0.5; Tool Off

G0 Z0; move to z-safe height
G0 X1.0000 Y1027.0700
M3S0
G4 P0.5; Tool On
G1 F300 Z0.0000
G1 F15000 X1149.0000 Y1027.0700 Z0.0000
M3S245
G4 P0.5; Tool Off

G0 Z0; move to z-safe height
G0 X1149.0000 Y1029.0700
M3S0
G4 P0.5; Tool On
G1 F300 Z0.0000
G1 F15000 X1.0000 Y1029.0700 Z0.0000
M3S245
G4 P0.5; Tool Off

G0 Z0; move to z-safe height
G0 X1.0000 Y1031.0700
M3S0
G4 P0.5; Tool On
G1 F300 Z0.0000
G1 F15000 X1149.0000 Y1031.0700 Z0.0000
M3S245
G4 P0.5; Tool Off

G0 Z0; move to z-safe height
G0 X1149.0000 Y1033.0700
M3S0
G4 P0.5; Tool On
G1 F300 Z0.0000
G1 F15000 X1.0000 Y1033.0700 Z0.0000
M3S245
G4 P0.5; Tool Off

G0 Z0; move to z-safe height
G0 X1.0000 Y1035.0700
M3S0
G4 P0.5; Tool On
G1 F300 Z0.0000
G1 F15000 X1149.0000 Y1035.0700 Z0.0000
M3S245
G4 P0.5; Tool Off

G0 Z0; move to z-safe height
G0 X1149.0000 Y1037.0700
M3S0
G4 P0.5; Tool On
G1 F300 Z0.0000
G1 F15000 X1.0000 Y1037.0700 Z0.0000
M3S245
G4 P0.5; Tool Off

G0 Z0; move to z-safe height
G0 X1.0000 Y1039.0700
M3S0
G4 P0.5; Tool On
G1 F300 Z0.0000
G1 F15000 X1149.0000 Y1039.0700 Z0.0000
M3S245
G4 P0.5; Tool Off

G0 Z0; move to z-safe height
G0 X1149.0000 Y1041.0700
M3S0
G4 P0.5; Tool On
G1 F300 Z0.0000
G1 F15000 X1.0000 Y1041.0700 Z0.0000
M3S245
G4 P0.5; Tool Off

G0 Z0; move to z-safe height
G0 X1.0000 Y1043.0700
M3S0
G4 P0.5; Tool On
G1 F300 Z0.0000
G1 F15000 X1149.0000 Y1043.0700 Z0.0000
M3S245
G4 P0.5; Tool Off

G0 Z0; move to z-safe height
G0 X1149.0000 Y1045.0700
M3S0
G4 P0.5; Tool On
G1 F300 Z0.0000
G1 F15000 X1.0000 Y1045.0700 Z0.0000
M3S245
G4 P0.5; Tool Off

G0 Z0; move to z-safe height
G0 X1.0000 Y1047.0700
M3S0
G4 P0.5; Tool On
G1 F300 Z0.0000
G1 F15000 X1149.0000 Y1047.0700 Z0.0000
M3S245
G4 P0.5; Tool Off

G0 Z0; move to z-safe height
G0 X1149.0000 Y1049.0700
M3S0
G4 P0.5; Tool On
G1 F300 Z0.0000
G1 F15000 X1.0000 Y1049.0700 Z0.0000
M3S245
G4 P0.5; Tool Off

G0 Z0; move to z-safe height
G0 X1.0000 Y1051.0700
M3S0
G4 P0.5; Tool On
G1 F300 Z0.0000
G1 F15000 X1149.0000 Y1051.0700 Z0.0000
M3S245
G4 P0.5; Tool Off

G0 Z0; move to z-safe height
G0 X1149.0000 Y1053.0700
M3S0
G4 P0.5; Tool On
G1 F300 Z0.0000
G1 F15000 X1.0000 Y1053.0700 Z0.0000
M3S245
G4 P0.5; Tool Off

G0 Z0; move to z-safe height
G0 X1.0000 Y1055.0700
M3S0
G4 P0.5; Tool On
G1 F300 Z0.0000
G1 F15000 X1149.0000 Y1055.0700 Z0.0000
M3S245
G4 P0.5; Tool Off

G0 Z0; move to z-safe height
G0 X1149.0000 Y1057.0700
M3S0
G4 P0.5; Tool On
G1 F300 Z0.0000
G1 F15000 X1.0000 Y1057.0700 Z0.0000
M3S245
G4 P0.5; Tool Off

G0 Z0; move to z-safe height
G0 X1.0000 Y1059.0700
M3S0
G4 P0.5; Tool On
G1 F300 Z0.0000
G1 F15000 X1149.0000 Y1059.0700 Z0.0000
M3S245
G4 P0.5; Tool Off

G0 Z0; move to z-safe height
G0 X1149.0000 Y1061.0700
M3S0
G4 P0.5; Tool On
G1 F300 Z0.0000
G1 F15000 X1.0000 Y1061.0700 Z0.0000
M3S245
G4 P0.5; Tool Off

G0 Z0; move to z-safe height
G0 X1.0000 Y1063.0700
M3S0
G4 P0.5; Tool On
G1 F300 Z0.0000
G1 F15000 X1149.0000 Y1063.0700 Z0.0000
M3S245
G4 P0.5; Tool Off

G0 Z0; move to z-safe height
G0 X1149.0000 Y1065.0700
M3S0
G4 P0.5; Tool On
G1 F300 Z0.0000
G1 F15000 X1.0000 Y1065.0700 Z0.0000
M3S245
G4 P0.5; Tool Off

G0 Z0; move to z-safe height
G0 X1.0000 Y1067.0700
M3S0
G4 P0.5; Tool On
G1 F300 Z0.0000
G1 F15000 X1149.0000 Y1067.0700 Z0.0000
M3S245
G4 P0.5; Tool Off

G0 Z0; move to z-safe height
G0 X1149.0000 Y1069.0700
M3S0
G4 P0.5; Tool On
G1 F300 Z0.0000
G1 F15000 X1.0000 Y1069.0700 Z0.0000
M3S245
G4 P0.5; Tool Off

G0 Z0; move to z-safe height
G0 X1.0000 Y1071.0700
M3S0
G4 P0.5; Tool On
G1 F300 Z0.0000
G1 F15000 X1149.0000 Y1071.0700 Z0.0000
M3S245
G4 P0.5; Tool Off

G0 Z0; move to z-safe height
G0 X1149.0000 Y1073.0700
M3S0
G4 P0.5; Tool On
G1 F300 Z0.0000
G1 F15000 X1.0000 Y1073.0700 Z0.0000
M3S245
G4 P0.5; Tool Off

G0 Z0; move to z-safe height
G0 X1.0000 Y1075.0700
M3S0
G4 P0.5; Tool On
G1 F300 Z0.0000
G1 F15000 X1149.0000 Y1075.0700 Z0.0000
M3S245
G4 P0.5; Tool Off

G0 Z0; move to z-safe height
G0 X1149.0000 Y1077.0700
M3S0
G4 P0.5; Tool On
G1 F300 Z0.0000
G1 F15000 X1.0000 Y1077.0700 Z0.0000
M3S245
G4 P0.5; Tool Off

G0 Z0; move to z-safe height
G0 X1.0000 Y1079.0700
M3S0
G4 P0.5; Tool On
G1 F300 Z0.0000
G1 F15000 X1149.0000 Y1079.0700 Z0.0000
M3S245
G4 P0.5; Tool Off

G0 Z0; move to z-safe height
G0 X1149.0000 Y1081.0700
M3S0
G4 P0.5; Tool On
G1 F300 Z0.0000
G1 F15000 X1.0000 Y1081.0700 Z0.0000
M3S245
G4 P0.5; Tool Off

G0 Z0; move to z-safe height
G0 X1.0000 Y1083.0700
M3S0
G4 P0.5; Tool On
G1 F300 Z0.0000
G1 F15000 X1149.0000 Y1083.0700 Z0.0000
M3S245
G4 P0.5; Tool Off

G0 Z0; move to z-safe height
G0 X1149.0000 Y1085.0700
M3S0
G4 P0.5; Tool On
G1 F300 Z0.0000
G1 F15000 X1.0000 Y1085.0700 Z0.0000
M3S245
G4 P0.5; Tool Off

G0 Z0; move to z-safe height
G0 X1.0000 Y1087.0700
M3S0
G4 P0.5; Tool On
G1 F300 Z0.0000
G1 F15000 X1149.0000 Y1087.0700 Z0.0000
M3S245
G4 P0.5; Tool Off

G0 Z0; move to z-safe height
G0 X1149.0000 Y1089.0700
M3S0
G4 P0.5; Tool On
G1 F300 Z0.0000
G1 F15000 X1.0000 Y1089.0700 Z0.0000
M3S245
G4 P0.5; Tool Off

G0 Z0; move to z-safe height
G0 X1.0000 Y1091.0700
M3S0
G4 P0.5; Tool On
G1 F300 Z0.0000
G1 F15000 X1149.0000 Y1091.0700 Z0.0000
M3S245
G4 P0.5; Tool Off

G0 Z0; move to z-safe height
G0 X1149.0000 Y1093.0700
M3S0
G4 P0.5; Tool On
G1 F300 Z0.0000
G1 F15000 X1.0000 Y1093.0700 Z0.0000
M3S245
G4 P0.5; Tool Off

G0 Z0; move to z-safe height
G0 X1.0000 Y1095.0700
M3S0
G4 P0.5; Tool On
G1 F300 Z0.0000
G1 F15000 X1149.0000 Y1095.0700 Z0.0000
M3S245
G4 P0.5; Tool Off

G0 Z0; move to z-safe height
G0 X1149.0000 Y1097.0700
M3S0
G4 P0.5; Tool On
G1 F300 Z0.0000
G1 F15000 X1.0000 Y1097.0700 Z0.0000
M3S245
G4 P0.5; Tool Off

G0 Z0; move to z-safe height
G0 X1.0000 Y1099.0700
M3S0
G4 P0.5; Tool On
G1 F300 Z0.0000
G1 F15000 X1149.0000 Y1099.0700 Z0.0000
M3S245
G4 P0.5; Tool Off

G0 Z0; move to z-safe height
G0 X1149.0000 Y1101.0700
M3S0
G4 P0.5; Tool On
G1 F300 Z0.0000
G1 F15000 X1.0000 Y1101.0700 Z0.0000
M3S245
G4 P0.5; Tool Off

G0 Z0; move to z-safe height
G0 X1.0000 Y1103.0700
M3S0
G4 P0.5; Tool On
G1 F300 Z0.0000
G1 F15000 X1149.0000 Y1103.0700 Z0.0000
M3S245
G4 P0.5; Tool Off

G0 Z0; move to z-safe height
G0 X1149.0000 Y1105.0700
M3S0
G4 P0.5; Tool On
G1 F300 Z0.0000
G1 F15000 X1.0000 Y1105.0700 Z0.0000
M3S245
G4 P0.5; Tool Off

G0 Z0; move to z-safe height
G0 X1.0000 Y1107.0700
M3S0
G4 P0.5; Tool On
G1 F300 Z0.0000
G1 F15000 X1149.0000 Y1107.0700 Z0.0000
M3S245
G4 P0.5; Tool Off

G0 Z0; move to z-safe height
G0 X1149.0000 Y1109.0700
M3S0
G4 P0.5; Tool On
G1 F300 Z0.0000
G1 F15000 X1.0000 Y1109.0700 Z0.0000
M3S245
G4 P0.5; Tool Off

G0 Z0; move to z-safe height
G0 X1.0000 Y1111.0700
M3S0
G4 P0.5; Tool On
G1 F300 Z0.0000
G1 F15000 X1149.0000 Y1111.0700 Z0.0000
M3S245
G4 P0.5; Tool Off

G0 Z0; move to z-safe height
G0 X1149.0000 Y1113.0700
M3S0
G4 P0.5; Tool On
G1 F300 Z0.0000
G1 F15000 X1.0000 Y1113.0700 Z0.0000
M3S245
G4 P0.5; Tool Off

G0 Z0; move to z-safe height
G0 X1.0000 Y1115.0700
M3S0
G4 P0.5; Tool On
G1 F300 Z0.0000
G1 F15000 X1149.0000 Y1115.0700 Z0.0000
M3S245
G4 P0.5; Tool Off

G0 Z0; move to z-safe height
G0 X1149.0000 Y1117.0700
M3S0
G4 P0.5; Tool On
G1 F300 Z0.0000
G1 F15000 X1.0000 Y1117.0700 Z0.0000
M3S245
G4 P0.5; Tool Off

G0 Z0; move to z-safe height
G0 X1.0000 Y1119.0700
M3S0
G4 P0.5; Tool On
G1 F300 Z0.0000
G1 F15000 X1149.0000 Y1119.0700 Z0.0000
M3S245
G4 P0.5; Tool Off

G0 Z0; move to z-safe height
G0 X1149.0000 Y1121.0700
M3S0
G4 P0.5; Tool On
G1 F300 Z0.0000
G1 F15000 X1.0000 Y1121.0700 Z0.0000
M3S245
G4 P0.5; Tool Off

G0 Z0; move to z-safe height
G0 X1.0000 Y1123.0700
M3S0
G4 P0.5; Tool On
G1 F300 Z0.0000
G1 F15000 X1149.0000 Y1123.0700 Z0.0000
M3S245
G4 P0.5; Tool Off

G0 Z0; move to z-safe height
G0 X1149.0000 Y1125.0700
M3S0
G4 P0.5; Tool On
G1 F300 Z0.0000
G1 F15000 X1.0000 Y1125.0700 Z0.0000
M3S245
G4 P0.5; Tool Off

G0 Z0; move to z-safe height
G0 X1.0000 Y1127.0700
M3S0
G4 P0.5; Tool On
G1 F300 Z0.0000
G1 F15000 X1149.0000 Y1127.0700 Z0.0000
M3S245
G4 P0.5; Tool Off

G0 Z0; move to z-safe height
G0 X1149.0000 Y1129.0700
M3S0
G4 P0.5; Tool On
G1 F300 Z0.0000
G1 F15000 X1.0000 Y1129.0700 Z0.0000
M3S245
G4 P0.5; Tool Off

G0 Z0; move to z-safe height
G0 X1.0000 Y1131.0700
M3S0
G4 P0.5; Tool On
G1 F300 Z0.0000
G1 F15000 X1149.0000 Y1131.0700 Z0.0000
M3S245
G4 P0.5; Tool Off

G0 Z0; move to z-safe height
G0 X1149.0000 Y1133.0700
M3S0
G4 P0.5; Tool On
G1 F300 Z0.0000
G1 F15000 X1.0000 Y1133.0700 Z0.0000
M3S245
G4 P0.5; Tool Off

G0 Z0; move to z-safe height
G0 X1.0000 Y1135.0700
M3S0
G4 P0.5; Tool On
G1 F300 Z0.0000
G1 F15000 X1149.0000 Y1135.0700 Z0.0000
M3S245
G4 P0.5; Tool Off

G0 Z0; move to z-safe height
G0 X1149.0000 Y1137.0700
M3S0
G4 P0.5; Tool On
G1 F300 Z0.0000
G1 F15000 X1.0000 Y1137.0700 Z0.0000
M3S245
G4 P0.5; Tool Off

G0 Z0; move to z-safe height
G0 X1.0000 Y1139.0700
M3S0
G4 P0.5; Tool On
G1 F300 Z0.0000
G1 F15000 X1149.0000 Y1139.0700 Z0.0000
M3S245
G4 P0.5; Tool Off

G0 Z0; move to z-safe height
G0 X1149.0000 Y1141.0700
M3S0
G4 P0.5; Tool On
G1 F300 Z0.0000
G1 F15000 X1.0000 Y1141.0700 Z0.0000
M3S245
G4 P0.5; Tool Off

G0 Z0; move to z-safe height
G0 X1.0000 Y1143.0700
M3S0
G4 P0.5; Tool On
G1 F300 Z0.0000
G1 F15000 X1149.0000 Y1143.0700 Z0.0000
M3S245
G4 P0.5; Tool Off

G0 Z0; move to z-safe height
G0 X1149.0000 Y1145.0700
M3S0
G4 P0.5; Tool On
G1 F300 Z0.0000
G1 F15000 X1.0000 Y1145.0700 Z0.0000
M3S245
G4 P0.5; Tool Off

G0 Z0; move to z-safe height
G0 X1.0000 Y1147.0700
M3S0
G4 P0.5; Tool On
G1 F300 Z0.0000
G1 F15000 X1149.0000 Y1147.0700 Z0.0000
M3S245
G4 P0.5; Tool Off

G0 Z0; move to z-safe height
G0 X1149.0000 Y1149.0700
M3S0
G4 P0.5; Tool On
G1 F300 Z0.0000
G1 F15000 X1.0000 Y1149.0700 Z0.0000
M3S245
G4 P0.5; Tool Off

G0 Z0; move to z-safe height
G0 X1.0000 Y1151.0700
M3S0
G4 P0.5; Tool On
G1 F300 Z0.0000
G1 F15000 X1149.0000 Y1151.0700 Z0.0000
M3S245
G4 P0.5; Tool Off

G0 Z0; move to z-safe height
G0 X1149.0000 Y1153.0700
M3S0
G4 P0.5; Tool On
G1 F300 Z0.0000
G1 F15000 X1.0000 Y1153.0700 Z0.0000
M3S245
G4 P0.5; Tool Off

G0 Z0; move to z-safe height
G0 X1.0000 Y1155.0700
M3S0
G4 P0.5; Tool On
G1 F300 Z0.0000
G1 F15000 X1149.0000 Y1155.0700 Z0.0000
M3S245
G4 P0.5; Tool Off

G0 Z0; move to z-safe height
G0 X1149.0000 Y1157.0700
M3S0
G4 P0.5; Tool On
G1 F300 Z0.0000
G1 F15000 X1.0000 Y1157.0700 Z0.0000
M3S245
G4 P0.5; Tool Off

G0 Z0; move to z-safe height
G0 X1.0000 Y1159.0700
M3S0
G4 P0.5; Tool On
G1 F300 Z0.0000
G1 F15000 X1149.0000 Y1159.0700 Z0.0000
M3S245
G4 P0.5; Tool Off

G0 Z0; move to z-safe height
G0 X1149.0000 Y1161.0700
M3S0
G4 P0.5; Tool On
G1 F300 Z0.0000
G1 F15000 X1.0000 Y1161.0700 Z0.0000
M3S245
G4 P0.5; Tool Off

G0 Z0; move to z-safe height
G0 X1.0000 Y1163.0700
M3S0
G4 P0.5; Tool On
G1 F300 Z0.0000
G1 F15000 X1149.0000 Y1163.0700 Z0.0000
M3S245
G4 P0.5; Tool Off

G0 Z0; move to z-safe height
G0 X1149.0000 Y1165.0700
M3S0
G4 P0.5; Tool On
G1 F300 Z0.0000
G1 F15000 X1.0000 Y1165.0700 Z0.0000
M3S245
G4 P0.5; Tool Off

G0 Z0; move to z-safe height
G0 X1.0000 Y1167.0700
M3S0
G4 P0.5; Tool On
G1 F300 Z0.0000
G1 F15000 X1149.0000 Y1167.0700 Z0.0000
M3S245
G4 P0.5; Tool Off

G0 Z0; move to z-safe height
G0 X1149.0000 Y1169.0700
M3S0
G4 P0.5; Tool On
G1 F300 Z0.0000
G1 F15000 X1.0000 Y1169.0700 Z0.0000
M3S245
G4 P0.5; Tool Off

G0 Z0; move to z-safe height
G0 X1.0000 Y1171.0700
M3S0
G4 P0.5; Tool On
G1 F300 Z0.0000
G1 F15000 X1149.0000 Y1171.0700 Z0.0000
M3S245
G4 P0.5; Tool Off

G0 Z0; move to z-safe height
G0 X1149.0000 Y1173.0700
M3S0
G4 P0.5; Tool On
G1 F300 Z0.0000
G1 F15000 X1.0000 Y1173.0700 Z0.0000
M3S245
G4 P0.5; Tool Off

G0 Z0; move to z-safe height
G0 X1.0000 Y1175.0700
M3S0
G4 P0.5; Tool On
G1 F300 Z0.0000
G1 F15000 X1149.0000 Y1175.0700 Z0.0000
M3S245
G4 P0.5; Tool Off

G0 Z0; move to z-safe height
G0 X1149.0000 Y1177.0700
M3S0
G4 P0.5; Tool On
G1 F300 Z0.0000
G1 F15000 X1.0000 Y1177.0700 Z0.0000
M3S245
G4 P0.5; Tool Off

G0 Z0; move to z-safe height
G0 X1.0000 Y1179.0700
M3S0
G4 P0.5; Tool On
G1 F300 Z0.0000
G1 F15000 X1149.0000 Y1179.0700 Z0.0000
M3S245
G4 P0.5; Tool Off

G0 Z0; move to z-safe height
G0 X1149.0000 Y1181.0700
M3S0
G4 P0.5; Tool On
G1 F300 Z0.0000
G1 F15000 X1.0000 Y1181.0700 Z0.0000
M3S245
G4 P0.5; Tool Off

G0 Z0; move to z-safe height
G0 X1.0000 Y1183.0700
M3S0
G4 P0.5; Tool On
G1 F300 Z0.0000
G1 F15000 X1149.0000 Y1183.0700 Z0.0000
M3S245
G4 P0.5; Tool Off

G0 Z0; move to z-safe height
G0 X1149.0000 Y1185.0700
M3S0
G4 P0.5; Tool On
G1 F300 Z0.0000
G1 F15000 X1.0000 Y1185.0700 Z0.0000
M3S245
G4 P0.5; Tool Off

G0 Z0; move to z-safe height
G0 X1.0000 Y1187.0700
M3S0
G4 P0.5; Tool On
G1 F300 Z0.0000
G1 F15000 X1149.0000 Y1187.0700 Z0.0000
M3S245
G4 P0.5; Tool Off

G0 Z0; move to z-safe height
G0 X1149.0000 Y1189.0700
M3S0
G4 P0.5; Tool On
G1 F300 Z0.0000
G1 F15000 X1.0000 Y1189.0700 Z0.0000
M3S245
G4 P0.5; Tool Off

G0 Z0; move to z-safe height
G0 X1.0000 Y1191.0700
M3S0
G4 P0.5; Tool On
G1 F300 Z0.0000
G1 F15000 X1149.0000 Y1191.0700 Z0.0000
M3S245
G4 P0.5; Tool Off

G0 Z0; move to z-safe height
G0 X1149.0000 Y1193.0700
M3S0
G4 P0.5; Tool On
G1 F300 Z0.0000
G1 F15000 X1.0000 Y1193.0700 Z0.0000
M3S245
G4 P0.5; Tool Off

G0 Z0; move to z-safe height
G0 X1.0000 Y1195.0700
M3S0
G4 P0.5; Tool On
G1 F300 Z0.0000
G1 F15000 X1149.0000 Y1195.0700 Z0.0000
M3S245
G4 P0.5; Tool Off

G0 Z0; move to z-safe height
G0 X1149.0000 Y1197.0700
M3S0
G4 P0.5; Tool On
G1 F300 Z0.0000
G1 F15000 X1.0000 Y1197.0700 Z0.0000
M3S245
G4 P0.5; Tool Off

G0 Z0; move to z-safe height
G0 X1.0000 Y1199.0700
M3S0
G4 P0.5; Tool On
G1 F300 Z0.0000
G1 F15000 X1149.0000 Y1199.0700 Z0.0000
M3S245
G4 P0.5; Tool Off

G0 Z0; move to z-safe height
G0 X1149.0000 Y1201.0700
M3S0
G4 P0.5; Tool On
G1 F300 Z0.0000
G1 F15000 X1.0000 Y1201.0700 Z0.0000
M3S245
G4 P0.5; Tool Off

G0 Z0; move to z-safe height
G0 X1.0000 Y1203.0700
M3S0
G4 P0.5; Tool On
G1 F300 Z0.0000
G1 F15000 X1149.0000 Y1203.0700 Z0.0000
M3S245
G4 P0.5; Tool Off

G0 Z0; move to z-safe height
G0 X1149.0000 Y1205.0700
M3S0
G4 P0.5; Tool On
G1 F300 Z0.0000
G1 F15000 X1.0000 Y1205.0700 Z0.0000
M3S245
G4 P0.5; Tool Off

G0 Z0; move to z-safe height
G0 X1.0000 Y1207.0700
M3S0
G4 P0.5; Tool On
G1 F300 Z0.0000
G1 F15000 X1149.0000 Y1207.0700 Z0.0000
M3S245
G4 P0.5; Tool Off

G0 Z0; move to z-safe height
G0 X1149.0000 Y1209.0700
M3S0
G4 P0.5; Tool On
G1 F300 Z0.0000
G1 F15000 X1.0000 Y1209.0700 Z0.0000
M3S245
G4 P0.5; Tool Off

G0 Z0; move to z-safe height
G0 X1.0000 Y1211.0700
M3S0
G4 P0.5; Tool On
G1 F300 Z0.0000
G1 F15000 X1149.0000 Y1211.0700 Z0.0000
M3S245
G4 P0.5; Tool Off

G0 Z0; move to z-safe height
G0 X1149.0000 Y1213.0700
M3S0
G4 P0.5; Tool On
G1 F300 Z0.0000
G1 F15000 X1.0000 Y1213.0700 Z0.0000
M3S245
G4 P0.5; Tool Off

G0 Z0; move to z-safe height
G0 X1.0000 Y1215.0700
M3S0
G4 P0.5; Tool On
G1 F300 Z0.0000
G1 F15000 X1149.0000 Y1215.0700 Z0.0000
M3S245
G4 P0.5; Tool Off

G0 Z0; move to z-safe height
G0 X1149.0000 Y1217.0700
M3S0
G4 P0.5; Tool On
G1 F300 Z0.0000
G1 F15000 X1.0000 Y1217.0700 Z0.0000
M3S245
G4 P0.5; Tool Off

G0 Z0; move to z-safe height
G0 X1.0000 Y1219.0700
M3S0
G4 P0.5; Tool On
G1 F300 Z0.0000
G1 F15000 X1149.0000 Y1219.0700 Z0.0000
M3S245
G4 P0.5; Tool Off

G0 Z0; move to z-safe height
G0 X1149.0000 Y1221.0700
M3S0
G4 P0.5; Tool On
G1 F300 Z0.0000
G1 F15000 X1.0000 Y1221.0700 Z0.0000
M3S245
G4 P0.5; Tool Off

G0 Z0; move to z-safe height
G0 X1.0000 Y1223.0700
M3S0
G4 P0.5; Tool On
G1 F300 Z0.0000
G1 F15000 X1149.0000 Y1223.0700 Z0.0000
M3S245
G4 P0.5; Tool Off

G0 Z0; move to z-safe height
G0 X1149.0000 Y1225.0700
M3S0
G4 P0.5; Tool On
G1 F300 Z0.0000
G1 F15000 X1.0000 Y1225.0700 Z0.0000
M3S245
G4 P0.5; Tool Off

G0 Z0; move to z-safe height
G0 X1.0000 Y1227.0700
M3S0
G4 P0.5; Tool On
G1 F300 Z0.0000
G1 F15000 X1149.0000 Y1227.0700 Z0.0000
M3S245
G4 P0.5; Tool Off

G0 Z0; move to z-safe height
G0 X1149.0000 Y1229.0700
M3S0
G4 P0.5; Tool On
G1 F300 Z0.0000
G1 F15000 X1.0000 Y1229.0700 Z0.0000
M3S245
G4 P0.5; Tool Off

G0 Z0; move to z-safe height
G0 X1.0000 Y1231.0700
M3S0
G4 P0.5; Tool On
G1 F300 Z0.0000
G1 F15000 X1149.0000 Y1231.0700 Z0.0000
M3S245
G4 P0.5; Tool Off

G0 Z0; move to z-safe height
G0 X1149.0000 Y1233.0700
M3S0
G4 P0.5; Tool On
G1 F300 Z0.0000
G1 F15000 X1.0000 Y1233.0700 Z0.0000
M3S245
G4 P0.5; Tool Off

G0 Z0; move to z-safe height
G0 X1.0000 Y1235.0700
M3S0
G4 P0.5; Tool On
G1 F300 Z0.0000
G1 F15000 X1149.0000 Y1235.0700 Z0.0000
M3S245
G4 P0.5; Tool Off

G0 Z0; move to z-safe height
G0 X1149.0000 Y1237.0700
M3S0
G4 P0.5; Tool On
G1 F300 Z0.0000
G1 F15000 X1.0000 Y1237.0700 Z0.0000
M3S245
G4 P0.5; Tool Off

G0 Z0; move to z-safe height
G0 X1.0000 Y1239.0700
M3S0
G4 P0.5; Tool On
G1 F300 Z0.0000
G1 F15000 X1149.0000 Y1239.0700 Z0.0000
M3S245
G4 P0.5; Tool Off

G0 Z0; move to z-safe height
G0 X1149.0000 Y1241.0700
M3S0
G4 P0.5; Tool On
G1 F300 Z0.0000
G1 F15000 X1.0000 Y1241.0700 Z0.0000
M3S245
G4 P0.5; Tool Off

G0 Z0; move to z-safe height
G0 X1.0000 Y1243.0700
M3S0
G4 P0.5; Tool On
G1 F300 Z0.0000
G1 F15000 X1149.0000 Y1243.0700 Z0.0000
M3S245
G4 P0.5; Tool Off

G0 Z0; move to z-safe height
G0 X1149.0000 Y1245.0700
M3S0
G4 P0.5; Tool On
G1 F300 Z0.0000
G1 F15000 X1.0000 Y1245.0700 Z0.0000
M3S245
G4 P0.5; Tool Off

G0 Z0; move to z-safe height
G0 X1.0000 Y1247.0700
M3S0
G4 P0.5; Tool On
G1 F300 Z0.0000
G1 F15000 X1149.0000 Y1247.0700 Z0.0000
M3S245
G4 P0.5; Tool Off

G0 Z0; move to z-safe height
G0 X1149.0000 Y1249.0700
M3S0
G4 P0.5; Tool On
G1 F300 Z0.0000
G1 F15000 X1.0000 Y1249.0700 Z0.0000
M3S245
G4 P0.5; Tool Off

G0 Z0; move to z-safe height
G0 X1.0000 Y1251.0700
M3S0
G4 P0.5; Tool On
G1 F300 Z0.0000
G1 F15000 X1149.0000 Y1251.0700 Z0.0000
M3S245
G4 P0.5; Tool Off

G0 Z0; move to z-safe height
G0 X1149.0000 Y1253.0700
M3S0
G4 P0.5; Tool On
G1 F300 Z0.0000
G1 F15000 X1.0000 Y1253.0700 Z0.0000
M3S245
G4 P0.5; Tool Off

G0 Z0; move to z-safe height
G0 X1.0000 Y1255.0700
M3S0
G4 P0.5; Tool On
G1 F300 Z0.0000
G1 F15000 X1149.0000 Y1255.0700 Z0.0000
M3S245
G4 P0.5; Tool Off

G0 Z0; move to z-safe height
G0 X1149.0000 Y1257.0700
M3S0
G4 P0.5; Tool On
G1 F300 Z0.0000
G1 F15000 X1.0000 Y1257.0700 Z0.0000
M3S245
G4 P0.5; Tool Off

G0 Z0; move to z-safe height
G0 X1.0000 Y1259.0700
M3S0
G4 P0.5; Tool On
G1 F300 Z0.0000
G1 F15000 X1149.0000 Y1259.0700 Z0.0000
M3S245
G4 P0.5; Tool Off

G0 Z0; move to z-safe height
G0 X1149.0000 Y1261.0700
M3S0
G4 P0.5; Tool On
G1 F300 Z0.0000
G1 F15000 X1.0000 Y1261.0700 Z0.0000
M3S245
G4 P0.5; Tool Off

G0 Z0; move to z-safe height
G0 X1.0000 Y1263.0700
M3S0
G4 P0.5; Tool On
G1 F300 Z0.0000
G1 F15000 X1149.0000 Y1263.0700 Z0.0000
M3S245
G4 P0.5; Tool Off

G0 Z0; move to z-safe height
G0 X1149.0000 Y1265.0700
M3S0
G4 P0.5; Tool On
G1 F300 Z0.0000
G1 F15000 X1.0000 Y1265.0700 Z0.0000
M3S245
G4 P0.5; Tool Off

G0 Z0; move to z-safe height
G0 X1.0000 Y1267.0700
M3S0
G4 P0.5; Tool On
G1 F300 Z0.0000
G1 F15000 X1149.0000 Y1267.0700 Z0.0000
M3S245
G4 P0.5; Tool Off

G0 Z0; move to z-safe height
G0 X1149.0000 Y1269.0700
M3S0
G4 P0.5; Tool On
G1 F300 Z0.0000
G1 F15000 X1.0000 Y1269.0700 Z0.0000
M3S245
G4 P0.5; Tool Off

G0 Z0; move to z-safe height
G0 X1.0000 Y1271.0700
M3S0
G4 P0.5; Tool On
G1 F300 Z0.0000
G1 F15000 X1149.0000 Y1271.0700 Z0.0000
M3S245
G4 P0.5; Tool Off

G0 Z0; move to z-safe height
G0 X1149.0000 Y1273.0700
M3S0
G4 P0.5; Tool On
G1 F300 Z0.0000
G1 F15000 X1.0000 Y1273.0700 Z0.0000
M3S245
G4 P0.5; Tool Off

G0 Z0; move to z-safe height
G0 X1.0000 Y1275.0700
M3S0
G4 P0.5; Tool On
G1 F300 Z0.0000
G1 F15000 X1149.0000 Y1275.0700 Z0.0000
M3S245
G4 P0.5; Tool Off

G0 Z0; move to z-safe height
G0 X1149.0000 Y1277.0700
M3S0
G4 P0.5; Tool On
G1 F300 Z0.0000
G1 F15000 X1.0000 Y1277.0700 Z0.0000
M3S245
G4 P0.5; Tool Off

G0 Z0; move to z-safe height
G0 X1.0000 Y1279.0700
M3S0
G4 P0.5; Tool On
G1 F300 Z0.0000
G1 F15000 X1149.0000 Y1279.0700 Z0.0000
M3S245
G4 P0.5; Tool Off

G0 Z0; move to z-safe height
G0 X1149.0000 Y1281.0700
M3S0
G4 P0.5; Tool On
G1 F300 Z0.0000
G1 F15000 X1.0000 Y1281.0700 Z0.0000
M3S245
G4 P0.5; Tool Off

G0 Z0; move to z-safe height
G0 X1.0000 Y1283.0700
M3S0
G4 P0.5; Tool On
G1 F300 Z0.0000
G1 F15000 X1149.0000 Y1283.0700 Z0.0000
M3S245
G4 P0.5; Tool Off

G0 Z0; move to z-safe height
G0 X1149.0000 Y1285.0700
M3S0
G4 P0.5; Tool On
G1 F300 Z0.0000
G1 F15000 X1.0000 Y1285.0700 Z0.0000
M3S245
G4 P0.5; Tool Off

G0 Z0; move to z-safe height
G0 X1.0000 Y1287.0700
M3S0
G4 P0.5; Tool On
G1 F300 Z0.0000
G1 F15000 X1149.0000 Y1287.0700 Z0.0000
M3S245
G4 P0.5; Tool Off

G0 Z0; move to z-safe height
G0 X1149.0000 Y1289.0700
M3S0
G4 P0.5; Tool On
G1 F300 Z0.0000
G1 F15000 X1.0000 Y1289.0700 Z0.0000
M3S245
G4 P0.5; Tool Off

G0 Z0; move to z-safe height
G0 X1.0000 Y1291.0700
M3S0
G4 P0.5; Tool On
G1 F300 Z0.0000
G1 F15000 X1149.0000 Y1291.0700 Z0.0000
M3S245
G4 P0.5; Tool Off

G0 Z0; move to z-safe height
G0 X1149.0000 Y1293.0700
M3S0
G4 P0.5; Tool On
G1 F300 Z0.0000
G1 F15000 X1.0000 Y1293.0700 Z0.0000
M3S245
G4 P0.5; Tool Off

G0 Z0; move to z-safe height
G0 X1.0000 Y1295.0700
M3S0
G4 P0.5; Tool On
G1 F300 Z0.0000
G1 F15000 X1149.0000 Y1295.0700 Z0.0000
M3S245
G4 P0.5; Tool Off

G0 Z0; move to z-safe height
G0 X1149.0000 Y1297.0700
M3S0
G4 P0.5; Tool On
G1 F300 Z0.0000
G1 F15000 X1.0000 Y1297.0700 Z0.0000
M3S245
G4 P0.5; Tool Off

G0 Z0; move to z-safe height
G0 X1.0000 Y1299.0700
M3S0
G4 P0.5; Tool On
G1 F300 Z0.0000
G1 F15000 X1149.0000 Y1299.0700 Z0.0000
M3S245
G4 P0.5; Tool Off

G0 Z0; move to z-safe height
G0 X1149.0000 Y1301.0700
M3S0
G4 P0.5; Tool On
G1 F300 Z0.0000
G1 F15000 X1.0000 Y1301.0700 Z0.0000
M3S245
