; GCODE Generated by cam.openbuilds.com on 2023-06-13 
G21 ; mm-mode
G54; Work Coordinates
G21; mm-mode
G90; Absolute Positioning
; Plotter Mode Active

; Operation 0: Pen Plotter: (lines fill)
; Pen Diameter: 2

G0 Z0; move to z-safe height
G0 F1000 X1147.0000 Y7.8800
M3S0
G4 P0.5; Tool On
G1 F300 Z0.0000
G1 F15000 X3.0000 Y7.8800 Z0.0000
M3S245
G4 P0.5; Tool Off

G0 Z0; move to z-safe height
G0 X3.0000 Y13.8800
M3S0
G4 P0.5; Tool On
G1 F300 Z0.0000
G1 F15000 X1147.0000 Y13.8800 Z0.0000
M3S245
G4 P0.5; Tool Off

G0 Z0; move to z-safe height
G0 X1147.0000 Y19.8800
M3S0
G4 P0.5; Tool On
G1 F300 Z0.0000
G1 F15000 X3.0000 Y19.8800 Z0.0000
M3S245
G4 P0.5; Tool Off

G0 Z0; move to z-safe height
G0 X3.0000 Y25.8800
M3S0
G4 P0.5; Tool On
G1 F300 Z0.0000
G1 F15000 X1147.0000 Y25.8800 Z0.0000
M3S245
G4 P0.5; Tool Off

G0 Z0; move to z-safe height
G0 X1147.0000 Y31.8800
M3S0
G4 P0.5; Tool On
G1 F300 Z0.0000
G1 F15000 X3.0000 Y31.8800 Z0.0000
M3S245
G4 P0.5; Tool Off

G0 Z0; move to z-safe height
G0 X3.0000 Y37.8800
M3S0
G4 P0.5; Tool On
G1 F300 Z0.0000
G1 F15000 X1147.0000 Y37.8800 Z0.0000
M3S245
G4 P0.5; Tool Off

G0 Z0; move to z-safe height
G0 X1147.0000 Y43.8800
M3S0
G4 P0.5; Tool On
G1 F300 Z0.0000
G1 F15000 X3.0000 Y43.8800 Z0.0000
M3S245
G4 P0.5; Tool Off

G0 Z0; move to z-safe height
G0 X3.0000 Y49.8800
M3S0
G4 P0.5; Tool On
G1 F300 Z0.0000
G1 F15000 X1147.0000 Y49.8800 Z0.0000
M3S245
G4 P0.5; Tool Off

G0 Z0; move to z-safe height
G0 X1147.0000 Y55.8800
M3S0
G4 P0.5; Tool On
G1 F300 Z0.0000
G1 F15000 X3.0000 Y55.8800 Z0.0000
M3S245
G4 P0.5; Tool Off

G0 Z0; move to z-safe height
G0 X3.0000 Y61.8800
M3S0
G4 P0.5; Tool On
G1 F300 Z0.0000
G1 F15000 X1147.0000 Y61.8800 Z0.0000
M3S245
G4 P0.5; Tool Off

G0 Z0; move to z-safe height
G0 X1147.0000 Y67.8800
M3S0
G4 P0.5; Tool On
G1 F300 Z0.0000
G1 F15000 X3.0000 Y67.8800 Z0.0000
M3S245
G4 P0.5; Tool Off

G0 Z0; move to z-safe height
G0 X3.0000 Y73.8800
M3S0
G4 P0.5; Tool On
G1 F300 Z0.0000
G1 F15000 X1147.0000 Y73.8800 Z0.0000
M3S245
G4 P0.5; Tool Off

G0 Z0; move to z-safe height
G0 X1147.0000 Y79.8800
M3S0
G4 P0.5; Tool On
G1 F300 Z0.0000
G1 F15000 X3.0000 Y79.8800 Z0.0000
M3S245
G4 P0.5; Tool Off

G0 Z0; move to z-safe height
G0 X3.0000 Y85.8800
M3S0
G4 P0.5; Tool On
G1 F300 Z0.0000
G1 F15000 X1147.0000 Y85.8800 Z0.0000
M3S245
G4 P0.5; Tool Off

G0 Z0; move to z-safe height
G0 X1147.0000 Y91.8800
M3S0
G4 P0.5; Tool On
G1 F300 Z0.0000
G1 F15000 X3.0000 Y91.8800 Z0.0000
M3S245
G4 P0.5; Tool Off

G0 Z0; move to z-safe height
G0 X3.0000 Y97.8800
M3S0
G4 P0.5; Tool On
G1 F300 Z0.0000
G1 F15000 X1147.0000 Y97.8800 Z0.0000
M3S245
G4 P0.5; Tool Off

G0 Z0; move to z-safe height
G0 X1147.0000 Y103.8800
M3S0
G4 P0.5; Tool On
G1 F300 Z0.0000
G1 F15000 X3.0000 Y103.8800 Z0.0000
M3S245
G4 P0.5; Tool Off

G0 Z0; move to z-safe height
G0 X3.0000 Y109.8800
M3S0
G4 P0.5; Tool On
G1 F300 Z0.0000
G1 F15000 X1147.0000 Y109.8800 Z0.0000
M3S245
G4 P0.5; Tool Off

G0 Z0; move to z-safe height
G0 X1147.0000 Y115.8800
M3S0
G4 P0.5; Tool On
G1 F300 Z0.0000
G1 F15000 X3.0000 Y115.8800 Z0.0000
M3S245
G4 P0.5; Tool Off

G0 Z0; move to z-safe height
G0 X3.0000 Y121.8800
M3S0
G4 P0.5; Tool On
G1 F300 Z0.0000
G1 F15000 X1147.0000 Y121.8800 Z0.0000
M3S245
G4 P0.5; Tool Off

G0 Z0; move to z-safe height
G0 X1147.0000 Y127.8800
M3S0
G4 P0.5; Tool On
G1 F300 Z0.0000
G1 F15000 X3.0000 Y127.8800 Z0.0000
M3S245
G4 P0.5; Tool Off

G0 Z0; move to z-safe height
G0 X3.0000 Y133.8800
M3S0
G4 P0.5; Tool On
G1 F300 Z0.0000
G1 F15000 X1147.0000 Y133.8800 Z0.0000
M3S245
G4 P0.5; Tool Off

G0 Z0; move to z-safe height
G0 X1147.0000 Y139.8800
M3S0
G4 P0.5; Tool On
G1 F300 Z0.0000
G1 F15000 X3.0000 Y139.8800 Z0.0000
M3S245
G4 P0.5; Tool Off

G0 Z0; move to z-safe height
G0 X3.0000 Y145.8800
M3S0
G4 P0.5; Tool On
G1 F300 Z0.0000
G1 F15000 X1147.0000 Y145.8800 Z0.0000
M3S245
G4 P0.5; Tool Off

G0 Z0; move to z-safe height
G0 X1147.0000 Y151.8800
M3S0
G4 P0.5; Tool On
G1 F300 Z0.0000
G1 F15000 X3.0000 Y151.8800 Z0.0000
M3S245
G4 P0.5; Tool Off

G0 Z0; move to z-safe height
G0 X3.0000 Y157.8800
M3S0
G4 P0.5; Tool On
G1 F300 Z0.0000
G1 F15000 X1147.0000 Y157.8800 Z0.0000
M3S245
G4 P0.5; Tool Off

G0 Z0; move to z-safe height
G0 X1147.0000 Y163.8800
M3S0
G4 P0.5; Tool On
G1 F300 Z0.0000
G1 F15000 X3.0000 Y163.8800 Z0.0000
M3S245
G4 P0.5; Tool Off

G0 Z0; move to z-safe height
G0 X3.0000 Y169.8800
M3S0
G4 P0.5; Tool On
G1 F300 Z0.0000
G1 F15000 X1147.0000 Y169.8800 Z0.0000
M3S245
G4 P0.5; Tool Off

G0 Z0; move to z-safe height
G0 X1147.0000 Y175.8800
M3S0
G4 P0.5; Tool On
G1 F300 Z0.0000
G1 F15000 X3.0000 Y175.8800 Z0.0000
M3S245
G4 P0.5; Tool Off

G0 Z0; move to z-safe height
G0 X3.0000 Y181.8800
M3S0
G4 P0.5; Tool On
G1 F300 Z0.0000
G1 F15000 X1147.0000 Y181.8800 Z0.0000
M3S245
G4 P0.5; Tool Off

G0 Z0; move to z-safe height
G0 X1147.0000 Y187.8800
M3S0
G4 P0.5; Tool On
G1 F300 Z0.0000
G1 F15000 X3.0000 Y187.8800 Z0.0000
M3S245
G4 P0.5; Tool Off

G0 Z0; move to z-safe height
G0 X3.0000 Y193.8800
M3S0
G4 P0.5; Tool On
G1 F300 Z0.0000
G1 F15000 X1147.0000 Y193.8800 Z0.0000
M3S245
G4 P0.5; Tool Off

G0 Z0; move to z-safe height
G0 X1147.0000 Y199.8800
M3S0
G4 P0.5; Tool On
G1 F300 Z0.0000
G1 F15000 X3.0000 Y199.8800 Z0.0000
M3S245
G4 P0.5; Tool Off

G0 Z0; move to z-safe height
G0 X3.0000 Y205.8800
M3S0
G4 P0.5; Tool On
G1 F300 Z0.0000
G1 F15000 X1147.0000 Y205.8800 Z0.0000
M3S245
G4 P0.5; Tool Off

G0 Z0; move to z-safe height
G0 X1147.0000 Y211.8800
M3S0
G4 P0.5; Tool On
G1 F300 Z0.0000
G1 F15000 X3.0000 Y211.8800 Z0.0000
M3S245
G4 P0.5; Tool Off

G0 Z0; move to z-safe height
G0 X3.0000 Y217.8800
M3S0
G4 P0.5; Tool On
G1 F300 Z0.0000
G1 F15000 X1147.0000 Y217.8800 Z0.0000
M3S245
G4 P0.5; Tool Off

G0 Z0; move to z-safe height
G0 X1147.0000 Y223.8800
M3S0
G4 P0.5; Tool On
G1 F300 Z0.0000
G1 F15000 X3.0000 Y223.8800 Z0.0000
M3S245
G4 P0.5; Tool Off

G0 Z0; move to z-safe height
G0 X3.0000 Y229.8800
M3S0
G4 P0.5; Tool On
G1 F300 Z0.0000
G1 F15000 X1147.0000 Y229.8800 Z0.0000
M3S245
G4 P0.5; Tool Off

G0 Z0; move to z-safe height
G0 X1147.0000 Y235.8800
M3S0
G4 P0.5; Tool On
G1 F300 Z0.0000
G1 F15000 X3.0000 Y235.8800 Z0.0000
M3S245
G4 P0.5; Tool Off

G0 Z0; move to z-safe height
G0 X3.0000 Y241.8800
M3S0
G4 P0.5; Tool On
G1 F300 Z0.0000
G1 F15000 X1147.0000 Y241.8800 Z0.0000
M3S245
G4 P0.5; Tool Off

G0 Z0; move to z-safe height
G0 X1147.0000 Y247.8800
M3S0
G4 P0.5; Tool On
G1 F300 Z0.0000
G1 F15000 X3.0000 Y247.8800 Z0.0000
M3S245
G4 P0.5; Tool Off

G0 Z0; move to z-safe height
G0 X3.0000 Y253.8800
M3S0
G4 P0.5; Tool On
G1 F300 Z0.0000
G1 F15000 X1147.0000 Y253.8800 Z0.0000
M3S245
G4 P0.5; Tool Off

G0 Z0; move to z-safe height
G0 X1147.0000 Y259.8800
M3S0
G4 P0.5; Tool On
G1 F300 Z0.0000
G1 F15000 X3.0000 Y259.8800 Z0.0000
M3S245
G4 P0.5; Tool Off

G0 Z0; move to z-safe height
G0 X3.0000 Y265.8800
M3S0
G4 P0.5; Tool On
G1 F300 Z0.0000
G1 F15000 X1147.0000 Y265.8800 Z0.0000
M3S245
G4 P0.5; Tool Off

G0 Z0; move to z-safe height
G0 X1147.0000 Y271.8800
M3S0
G4 P0.5; Tool On
G1 F300 Z0.0000
G1 F15000 X3.0000 Y271.8800 Z0.0000
M3S245
G4 P0.5; Tool Off

G0 Z0; move to z-safe height
G0 X3.0000 Y277.8800
M3S0
G4 P0.5; Tool On
G1 F300 Z0.0000
G1 F15000 X1147.0000 Y277.8800 Z0.0000
M3S245
G4 P0.5; Tool Off

G0 Z0; move to z-safe height
G0 X1147.0000 Y283.8800
M3S0
G4 P0.5; Tool On
G1 F300 Z0.0000
G1 F15000 X3.0000 Y283.8800 Z0.0000
M3S245
G4 P0.5; Tool Off

G0 Z0; move to z-safe height
G0 X3.0000 Y289.8800
M3S0
G4 P0.5; Tool On
G1 F300 Z0.0000
G1 F15000 X1147.0000 Y289.8800 Z0.0000
M3S245
G4 P0.5; Tool Off

G0 Z0; move to z-safe height
G0 X1147.0000 Y295.8800
M3S0
G4 P0.5; Tool On
G1 F300 Z0.0000
G1 F15000 X3.0000 Y295.8800 Z0.0000
M3S245
G4 P0.5; Tool Off

G0 Z0; move to z-safe height
G0 X3.0000 Y301.8800
M3S0
G4 P0.5; Tool On
G1 F300 Z0.0000
G1 F15000 X1147.0000 Y301.8800 Z0.0000
M3S245
G4 P0.5; Tool Off

G0 Z0; move to z-safe height
G0 X1147.0000 Y307.8800
M3S0
G4 P0.5; Tool On
G1 F300 Z0.0000
G1 F15000 X3.0000 Y307.8800 Z0.0000
M3S245
G4 P0.5; Tool Off

G0 Z0; move to z-safe height
G0 X3.0000 Y313.8800
M3S0
G4 P0.5; Tool On
G1 F300 Z0.0000
G1 F15000 X1147.0000 Y313.8800 Z0.0000
M3S245
G4 P0.5; Tool Off

G0 Z0; move to z-safe height
G0 X1147.0000 Y319.8800
M3S0
G4 P0.5; Tool On
G1 F300 Z0.0000
G1 F15000 X3.0000 Y319.8800 Z0.0000
M3S245
G4 P0.5; Tool Off

G0 Z0; move to z-safe height
G0 X3.0000 Y325.8800
M3S0
G4 P0.5; Tool On
G1 F300 Z0.0000
G1 F15000 X1147.0000 Y325.8800 Z0.0000
M3S245
G4 P0.5; Tool Off

G0 Z0; move to z-safe height
G0 X1147.0000 Y331.8800
M3S0
G4 P0.5; Tool On
G1 F300 Z0.0000
G1 F15000 X3.0000 Y331.8800 Z0.0000
M3S245
G4 P0.5; Tool Off

G0 Z0; move to z-safe height
G0 X3.0000 Y337.8800
M3S0
G4 P0.5; Tool On
G1 F300 Z0.0000
G1 F15000 X1147.0000 Y337.8800 Z0.0000
M3S245
G4 P0.5; Tool Off

G0 Z0; move to z-safe height
G0 X1147.0000 Y343.8800
M3S0
G4 P0.5; Tool On
G1 F300 Z0.0000
G1 F15000 X3.0000 Y343.8800 Z0.0000
M3S245
G4 P0.5; Tool Off

G0 Z0; move to z-safe height
G0 X3.0000 Y349.8800
M3S0
G4 P0.5; Tool On
G1 F300 Z0.0000
G1 F15000 X1147.0000 Y349.8800 Z0.0000
M3S245
G4 P0.5; Tool Off

G0 Z0; move to z-safe height
G0 X1147.0000 Y355.8800
M3S0
G4 P0.5; Tool On
G1 F300 Z0.0000
G1 F15000 X3.0000 Y355.8800 Z0.0000
M3S245
G4 P0.5; Tool Off

G0 Z0; move to z-safe height
G0 X3.0000 Y361.8800
M3S0
G4 P0.5; Tool On
G1 F300 Z0.0000
G1 F15000 X1147.0000 Y361.8800 Z0.0000
M3S245
G4 P0.5; Tool Off

G0 Z0; move to z-safe height
G0 X1147.0000 Y367.8800
M3S0
G4 P0.5; Tool On
G1 F300 Z0.0000
G1 F15000 X3.0000 Y367.8800 Z0.0000
M3S245
G4 P0.5; Tool Off

G0 Z0; move to z-safe height
G0 X3.0000 Y373.8800
M3S0
G4 P0.5; Tool On
G1 F300 Z0.0000
G1 F15000 X1147.0000 Y373.8800 Z0.0000
M3S245
G4 P0.5; Tool Off

G0 Z0; move to z-safe height
G0 X1147.0000 Y379.8800
M3S0
G4 P0.5; Tool On
G1 F300 Z0.0000
G1 F15000 X3.0000 Y379.8800 Z0.0000
M3S245
G4 P0.5; Tool Off

G0 Z0; move to z-safe height
G0 X3.0000 Y385.8800
M3S0
G4 P0.5; Tool On
G1 F300 Z0.0000
G1 F15000 X1147.0000 Y385.8800 Z0.0000
M3S245
G4 P0.5; Tool Off

G0 Z0; move to z-safe height
G0 X1147.0000 Y391.8800
M3S0
G4 P0.5; Tool On
G1 F300 Z0.0000
G1 F15000 X3.0000 Y391.8800 Z0.0000
M3S245
G4 P0.5; Tool Off

G0 Z0; move to z-safe height
G0 X3.0000 Y397.8800
M3S0
G4 P0.5; Tool On
G1 F300 Z0.0000
G1 F15000 X1147.0000 Y397.8800 Z0.0000
M3S245
G4 P0.5; Tool Off

G0 Z0; move to z-safe height
G0 X1147.0000 Y403.8800
M3S0
G4 P0.5; Tool On
G1 F300 Z0.0000
G1 F15000 X3.0000 Y403.8800 Z0.0000
M3S245
G4 P0.5; Tool Off

G0 Z0; move to z-safe height
G0 X3.0000 Y409.8800
M3S0
G4 P0.5; Tool On
G1 F300 Z0.0000
G1 F15000 X1147.0000 Y409.8800 Z0.0000
M3S245
G4 P0.5; Tool Off

G0 Z0; move to z-safe height
G0 X1147.0000 Y415.8800
M3S0
G4 P0.5; Tool On
G1 F300 Z0.0000
G1 F15000 X3.0000 Y415.8800 Z0.0000
M3S245
G4 P0.5; Tool Off

G0 Z0; move to z-safe height
G0 X3.0000 Y421.8800
M3S0
G4 P0.5; Tool On
G1 F300 Z0.0000
G1 F15000 X1147.0000 Y421.8800 Z0.0000
M3S245
G4 P0.5; Tool Off

G0 Z0; move to z-safe height
G0 X1147.0000 Y427.8800
M3S0
G4 P0.5; Tool On
G1 F300 Z0.0000
G1 F15000 X3.0000 Y427.8800 Z0.0000
M3S245
G4 P0.5; Tool Off

G0 Z0; move to z-safe height
G0 X3.0000 Y433.8800
M3S0
G4 P0.5; Tool On
G1 F300 Z0.0000
G1 F15000 X1147.0000 Y433.8800 Z0.0000
M3S245
G4 P0.5; Tool Off

G0 Z0; move to z-safe height
G0 X1147.0000 Y439.8800
M3S0
G4 P0.5; Tool On
G1 F300 Z0.0000
G1 F15000 X3.0000 Y439.8800 Z0.0000
M3S245
G4 P0.5; Tool Off

G0 Z0; move to z-safe height
G0 X3.0000 Y445.8800
M3S0
G4 P0.5; Tool On
G1 F300 Z0.0000
G1 F15000 X1147.0000 Y445.8800 Z0.0000
M3S245
G4 P0.5; Tool Off

G0 Z0; move to z-safe height
G0 X1147.0000 Y451.8800
M3S0
G4 P0.5; Tool On
G1 F300 Z0.0000
G1 F15000 X3.0000 Y451.8800 Z0.0000
M3S245
G4 P0.5; Tool Off

G0 Z0; move to z-safe height
G0 X3.0000 Y457.8800
M3S0
G4 P0.5; Tool On
G1 F300 Z0.0000
G1 F15000 X1147.0000 Y457.8800 Z0.0000
M3S245
G4 P0.5; Tool Off

G0 Z0; move to z-safe height
G0 X1147.0000 Y463.8800
M3S0
G4 P0.5; Tool On
G1 F300 Z0.0000
G1 F15000 X3.0000 Y463.8800 Z0.0000
M3S245
G4 P0.5; Tool Off

G0 Z0; move to z-safe height
G0 X3.0000 Y469.8800
M3S0
G4 P0.5; Tool On
G1 F300 Z0.0000
G1 F15000 X1147.0000 Y469.8800 Z0.0000
M3S245
G4 P0.5; Tool Off

G0 Z0; move to z-safe height
G0 X1147.0000 Y475.8800
M3S0
G4 P0.5; Tool On
G1 F300 Z0.0000
G1 F15000 X3.0000 Y475.8800 Z0.0000
M3S245
G4 P0.5; Tool Off

G0 Z0; move to z-safe height
G0 X3.0000 Y481.8800
M3S0
G4 P0.5; Tool On
G1 F300 Z0.0000
G1 F15000 X1147.0000 Y481.8800 Z0.0000
M3S245
G4 P0.5; Tool Off

G0 Z0; move to z-safe height
G0 X1147.0000 Y487.8800
M3S0
G4 P0.5; Tool On
G1 F300 Z0.0000
G1 F15000 X3.0000 Y487.8800 Z0.0000
M3S245
G4 P0.5; Tool Off

G0 Z0; move to z-safe height
G0 X3.0000 Y493.8800
M3S0
G4 P0.5; Tool On
G1 F300 Z0.0000
G1 F15000 X1147.0000 Y493.8800 Z0.0000
M3S245
G4 P0.5; Tool Off

G0 Z0; move to z-safe height
G0 X1147.0000 Y499.8800
M3S0
G4 P0.5; Tool On
G1 F300 Z0.0000
G1 F15000 X3.0000 Y499.8800 Z0.0000
M3S245
G4 P0.5; Tool Off

G0 Z0; move to z-safe height
G0 X3.0000 Y505.8800
M3S0
G4 P0.5; Tool On
G1 F300 Z0.0000
G1 F15000 X1147.0000 Y505.8800 Z0.0000
M3S245
G4 P0.5; Tool Off

G0 Z0; move to z-safe height
G0 X1147.0000 Y511.8800
M3S0
G4 P0.5; Tool On
G1 F300 Z0.0000
G1 F15000 X3.0000 Y511.8800 Z0.0000
M3S245
G4 P0.5; Tool Off

G0 Z0; move to z-safe height
G0 X3.0000 Y517.8800
M3S0
G4 P0.5; Tool On
G1 F300 Z0.0000
G1 F15000 X1147.0000 Y517.8800 Z0.0000
M3S245
G4 P0.5; Tool Off

G0 Z0; move to z-safe height
G0 X1147.0000 Y523.8800
M3S0
G4 P0.5; Tool On
G1 F300 Z0.0000
G1 F15000 X3.0000 Y523.8800 Z0.0000
M3S245
G4 P0.5; Tool Off

G0 Z0; move to z-safe height
G0 X3.0000 Y529.8800
M3S0
G4 P0.5; Tool On
G1 F300 Z0.0000
G1 F15000 X1147.0000 Y529.8800 Z0.0000
M3S245
G4 P0.5; Tool Off

G0 Z0; move to z-safe height
G0 X1147.0000 Y535.8800
M3S0
G4 P0.5; Tool On
G1 F300 Z0.0000
G1 F15000 X3.0000 Y535.8800 Z0.0000
M3S245
G4 P0.5; Tool Off

G0 Z0; move to z-safe height
G0 X3.0000 Y541.8800
M3S0
G4 P0.5; Tool On
G1 F300 Z0.0000
G1 F15000 X1147.0000 Y541.8800 Z0.0000
M3S245
G4 P0.5; Tool Off

G0 Z0; move to z-safe height
G0 X1147.0000 Y547.8800
M3S0
G4 P0.5; Tool On
G1 F300 Z0.0000
G1 F15000 X3.0000 Y547.8800 Z0.0000
M3S245
G4 P0.5; Tool Off

G0 Z0; move to z-safe height
G0 X3.0000 Y553.8800
M3S0
G4 P0.5; Tool On
G1 F300 Z0.0000
G1 F15000 X1147.0000 Y553.8800 Z0.0000
M3S245
G4 P0.5; Tool Off

G0 Z0; move to z-safe height
G0 X1147.0000 Y559.8800
M3S0
G4 P0.5; Tool On
G1 F300 Z0.0000
G1 F15000 X3.0000 Y559.8800 Z0.0000
M3S245
G4 P0.5; Tool Off

G0 Z0; move to z-safe height
G0 X3.0000 Y565.8800
M3S0
G4 P0.5; Tool On
G1 F300 Z0.0000
G1 F15000 X1147.0000 Y565.8800 Z0.0000
M3S245
G4 P0.5; Tool Off

G0 Z0; move to z-safe height
G0 X1147.0000 Y571.8800
M3S0
G4 P0.5; Tool On
G1 F300 Z0.0000
G1 F15000 X3.0000 Y571.8800 Z0.0000
M3S245
G4 P0.5; Tool Off

G0 Z0; move to z-safe height
G0 X3.0000 Y577.8800
M3S0
G4 P0.5; Tool On
G1 F300 Z0.0000
G1 F15000 X1147.0000 Y577.8800 Z0.0000
M3S245
G4 P0.5; Tool Off

G0 Z0; move to z-safe height
G0 X1147.0000 Y583.8800
M3S0
G4 P0.5; Tool On
G1 F300 Z0.0000
G1 F15000 X3.0000 Y583.8800 Z0.0000
M3S245
G4 P0.5; Tool Off

G0 Z0; move to z-safe height
G0 X3.0000 Y589.8800
M3S0
G4 P0.5; Tool On
G1 F300 Z0.0000
G1 F15000 X1147.0000 Y589.8800 Z0.0000
M3S245
G4 P0.5; Tool Off

G0 Z0; move to z-safe height
G0 X1147.0000 Y595.8800
M3S0
G4 P0.5; Tool On
G1 F300 Z0.0000
G1 F15000 X3.0000 Y595.8800 Z0.0000
M3S245
G4 P0.5; Tool Off

G0 Z0; move to z-safe height
G0 X3.0000 Y601.8800
M3S0
G4 P0.5; Tool On
G1 F300 Z0.0000
G1 F15000 X1147.0000 Y601.8800 Z0.0000
M3S245
G4 P0.5; Tool Off

G0 Z0; move to z-safe height
G0 X1147.0000 Y607.8800
M3S0
G4 P0.5; Tool On
G1 F300 Z0.0000
G1 F15000 X3.0000 Y607.8800 Z0.0000
M3S245
G4 P0.5; Tool Off

G0 Z0; move to z-safe height
G0 X3.0000 Y613.8800
M3S0
G4 P0.5; Tool On
G1 F300 Z0.0000
G1 F15000 X1147.0000 Y613.8800 Z0.0000
M3S245
G4 P0.5; Tool Off

G0 Z0; move to z-safe height
G0 X1147.0000 Y619.8800
M3S0
G4 P0.5; Tool On
G1 F300 Z0.0000
G1 F15000 X3.0000 Y619.8800 Z0.0000
M3S245
G4 P0.5; Tool Off

G0 Z0; move to z-safe height
G0 X3.0000 Y625.8800
M3S0
G4 P0.5; Tool On
G1 F300 Z0.0000
G1 F15000 X1147.0000 Y625.8800 Z0.0000
M3S245
G4 P0.5; Tool Off

G0 Z0; move to z-safe height
G0 X1147.0000 Y631.8800
M3S0
G4 P0.5; Tool On
G1 F300 Z0.0000
G1 F15000 X3.0000 Y631.8800 Z0.0000
M3S245
G4 P0.5; Tool Off

G0 Z0; move to z-safe height
G0 X3.0000 Y637.8800
M3S0
G4 P0.5; Tool On
G1 F300 Z0.0000
G1 F15000 X1147.0000 Y637.8800 Z0.0000
M3S245
G4 P0.5; Tool Off

G0 Z0; move to z-safe height
G0 X1147.0000 Y643.8800
M3S0
G4 P0.5; Tool On
G1 F300 Z0.0000
G1 F15000 X3.0000 Y643.8800 Z0.0000
M3S245
G4 P0.5; Tool Off

G0 Z0; move to z-safe height
G0 X3.0000 Y649.8800
M3S0
G4 P0.5; Tool On
G1 F300 Z0.0000
G1 F15000 X1147.0000 Y649.8800 Z0.0000
M3S245
G4 P0.5; Tool Off

G0 Z0; move to z-safe height
G0 X1147.0000 Y655.8800
M3S0
G4 P0.5; Tool On
G1 F300 Z0.0000
G1 F15000 X3.0000 Y655.8800 Z0.0000
M3S245
G4 P0.5; Tool Off

G0 Z0; move to z-safe height
G0 X3.0000 Y661.8800
M3S0
G4 P0.5; Tool On
G1 F300 Z0.0000
G1 F15000 X1147.0000 Y661.8800 Z0.0000
M3S245
G4 P0.5; Tool Off

G0 Z0; move to z-safe height
G0 X1147.0000 Y667.8800
M3S0
G4 P0.5; Tool On
G1 F300 Z0.0000
G1 F15000 X3.0000 Y667.8800 Z0.0000
M3S245
G4 P0.5; Tool Off

G0 Z0; move to z-safe height
G0 X3.0000 Y673.8800
M3S0
G4 P0.5; Tool On
G1 F300 Z0.0000
G1 F15000 X1147.0000 Y673.8800 Z0.0000
M3S245
G4 P0.5; Tool Off

G0 Z0; move to z-safe height
G0 X1147.0000 Y679.8800
M3S0
G4 P0.5; Tool On
G1 F300 Z0.0000
G1 F15000 X3.0000 Y679.8800 Z0.0000
M3S245
G4 P0.5; Tool Off

G0 Z0; move to z-safe height
G0 X3.0000 Y685.8800
M3S0
G4 P0.5; Tool On
G1 F300 Z0.0000
G1 F15000 X1147.0000 Y685.8800 Z0.0000
M3S245
G4 P0.5; Tool Off

G0 Z0; move to z-safe height
G0 X1147.0000 Y691.8800
M3S0
G4 P0.5; Tool On
G1 F300 Z0.0000
G1 F15000 X3.0000 Y691.8800 Z0.0000
M3S245
G4 P0.5; Tool Off

G0 Z0; move to z-safe height
G0 X3.0000 Y697.8800
M3S0
G4 P0.5; Tool On
G1 F300 Z0.0000
G1 F15000 X1147.0000 Y697.8800 Z0.0000
M3S245
G4 P0.5; Tool Off

G0 Z0; move to z-safe height
G0 X1147.0000 Y703.8800
M3S0
G4 P0.5; Tool On
G1 F300 Z0.0000
G1 F15000 X3.0000 Y703.8800 Z0.0000
M3S245
G4 P0.5; Tool Off

G0 Z0; move to z-safe height
G0 X3.0000 Y709.8800
M3S0
G4 P0.5; Tool On
G1 F300 Z0.0000
G1 F15000 X1147.0000 Y709.8800 Z0.0000
M3S245
G4 P0.5; Tool Off

G0 Z0; move to z-safe height
G0 X1147.0000 Y715.8800
M3S0
G4 P0.5; Tool On
G1 F300 Z0.0000
G1 F15000 X3.0000 Y715.8800 Z0.0000
M3S245
G4 P0.5; Tool Off

G0 Z0; move to z-safe height
G0 X3.0000 Y721.8800
M3S0
G4 P0.5; Tool On
G1 F300 Z0.0000
G1 F15000 X1147.0000 Y721.8800 Z0.0000
M3S245
G4 P0.5; Tool Off

G0 Z0; move to z-safe height
G0 X1147.0000 Y727.8800
M3S0
G4 P0.5; Tool On
G1 F300 Z0.0000
G1 F15000 X3.0000 Y727.8800 Z0.0000
M3S245
G4 P0.5; Tool Off

G0 Z0; move to z-safe height
G0 X3.0000 Y733.8800
M3S0
G4 P0.5; Tool On
G1 F300 Z0.0000
G1 F15000 X1147.0000 Y733.8800 Z0.0000
M3S245
G4 P0.5; Tool Off

G0 Z0; move to z-safe height
G0 X1147.0000 Y739.8800
M3S0
G4 P0.5; Tool On
G1 F300 Z0.0000
G1 F15000 X3.0000 Y739.8800 Z0.0000
M3S245
G4 P0.5; Tool Off

G0 Z0; move to z-safe height
G0 X3.0000 Y745.8800
M3S0
G4 P0.5; Tool On
G1 F300 Z0.0000
G1 F15000 X1147.0000 Y745.8800 Z0.0000
M3S245
G4 P0.5; Tool Off

G0 Z0; move to z-safe height
G0 X1147.0000 Y751.8800
M3S0
G4 P0.5; Tool On
G1 F300 Z0.0000
G1 F15000 X3.0000 Y751.8800 Z0.0000
M3S245
G4 P0.5; Tool Off

G0 Z0; move to z-safe height
G0 X3.0000 Y757.8800
M3S0
G4 P0.5; Tool On
G1 F300 Z0.0000
G1 F15000 X1147.0000 Y757.8800 Z0.0000
M3S245
G4 P0.5; Tool Off

G0 Z0; move to z-safe height
G0 X1147.0000 Y763.8800
M3S0
G4 P0.5; Tool On
G1 F300 Z0.0000
G1 F15000 X3.0000 Y763.8800 Z0.0000
M3S245
G4 P0.5; Tool Off

G0 Z0; move to z-safe height
G0 X3.0000 Y769.8800
M3S0
G4 P0.5; Tool On
G1 F300 Z0.0000
G1 F15000 X1147.0000 Y769.8800 Z0.0000
M3S245
G4 P0.5; Tool Off

G0 Z0; move to z-safe height
G0 X1147.0000 Y775.8800
M3S0
G4 P0.5; Tool On
G1 F300 Z0.0000
G1 F15000 X3.0000 Y775.8800 Z0.0000
M3S245
G4 P0.5; Tool Off

G0 Z0; move to z-safe height
G0 X3.0000 Y781.8800
M3S0
G4 P0.5; Tool On
G1 F300 Z0.0000
G1 F15000 X1147.0000 Y781.8800 Z0.0000
M3S245
G4 P0.5; Tool Off

G0 Z0; move to z-safe height
G0 X1147.0000 Y787.8800
M3S0
G4 P0.5; Tool On
G1 F300 Z0.0000
G1 F15000 X3.0000 Y787.8800 Z0.0000
M3S245
G4 P0.5; Tool Off

G0 Z0; move to z-safe height
G0 X3.0000 Y793.8800
M3S0
G4 P0.5; Tool On
G1 F300 Z0.0000
G1 F15000 X1147.0000 Y793.8800 Z0.0000
M3S245
G4 P0.5; Tool Off

G0 Z0; move to z-safe height
G0 X1147.0000 Y799.8800
M3S0
G4 P0.5; Tool On
G1 F300 Z0.0000
G1 F15000 X3.0000 Y799.8800 Z0.0000
M3S245
G4 P0.5; Tool Off

G0 Z0; move to z-safe height
G0 X3.0000 Y805.8800
M3S0
G4 P0.5; Tool On
G1 F300 Z0.0000
G1 F15000 X1147.0000 Y805.8800 Z0.0000
M3S245
G4 P0.5; Tool Off

G0 Z0; move to z-safe height
G0 X1147.0000 Y811.8800
M3S0
G4 P0.5; Tool On
G1 F300 Z0.0000
G1 F15000 X3.0000 Y811.8800 Z0.0000
M3S245
G4 P0.5; Tool Off

G0 Z0; move to z-safe height
G0 X3.0000 Y817.8800
M3S0
G4 P0.5; Tool On
G1 F300 Z0.0000
G1 F15000 X1147.0000 Y817.8800 Z0.0000
M3S245
G4 P0.5; Tool Off

G0 Z0; move to z-safe height
G0 X1147.0000 Y823.8800
M3S0
G4 P0.5; Tool On
G1 F300 Z0.0000
G1 F15000 X3.0000 Y823.8800 Z0.0000
M3S245
G4 P0.5; Tool Off

G0 Z0; move to z-safe height
G0 X3.0000 Y829.8800
M3S0
G4 P0.5; Tool On
G1 F300 Z0.0000
G1 F15000 X1147.0000 Y829.8800 Z0.0000
M3S245
G4 P0.5; Tool Off

G0 Z0; move to z-safe height
G0 X1147.0000 Y835.8800
M3S0
G4 P0.5; Tool On
G1 F300 Z0.0000
G1 F15000 X3.0000 Y835.8800 Z0.0000
M3S245
G4 P0.5; Tool Off

G0 Z0; move to z-safe height
G0 X3.0000 Y841.8800
M3S0
G4 P0.5; Tool On
G1 F300 Z0.0000
G1 F15000 X1147.0000 Y841.8800 Z0.0000
M3S245
G4 P0.5; Tool Off

G0 Z0; move to z-safe height
G0 X1147.0000 Y847.8800
M3S0
G4 P0.5; Tool On
G1 F300 Z0.0000
G1 F15000 X3.0000 Y847.8800 Z0.0000
M3S245
G4 P0.5; Tool Off

G0 Z0; move to z-safe height
G0 X3.0000 Y853.8800
M3S0
G4 P0.5; Tool On
G1 F300 Z0.0000
G1 F15000 X1147.0000 Y853.8800 Z0.0000
M3S245
G4 P0.5; Tool Off

G0 Z0; move to z-safe height
G0 X1147.0000 Y859.8800
M3S0
G4 P0.5; Tool On
G1 F300 Z0.0000
G1 F15000 X3.0000 Y859.8800 Z0.0000
M3S245
G4 P0.5; Tool Off

G0 Z0; move to z-safe height
G0 X3.0000 Y865.8800
M3S0
G4 P0.5; Tool On
G1 F300 Z0.0000
G1 F15000 X1147.0000 Y865.8800 Z0.0000
M3S245
G4 P0.5; Tool Off

G0 Z0; move to z-safe height
G0 X1147.0000 Y871.8800
M3S0
G4 P0.5; Tool On
G1 F300 Z0.0000
G1 F15000 X3.0000 Y871.8800 Z0.0000
M3S245
G4 P0.5; Tool Off

G0 Z0; move to z-safe height
G0 X3.0000 Y877.8800
M3S0
G4 P0.5; Tool On
G1 F300 Z0.0000
G1 F15000 X1147.0000 Y877.8800 Z0.0000
M3S245
G4 P0.5; Tool Off

G0 Z0; move to z-safe height
G0 X1147.0000 Y883.8800
M3S0
G4 P0.5; Tool On
G1 F300 Z0.0000
G1 F15000 X3.0000 Y883.8800 Z0.0000
M3S245
G4 P0.5; Tool Off

G0 Z0; move to z-safe height
G0 X3.0000 Y889.8800
M3S0
G4 P0.5; Tool On
G1 F300 Z0.0000
G1 F15000 X1147.0000 Y889.8800 Z0.0000
M3S245
G4 P0.5; Tool Off

G0 Z0; move to z-safe height
G0 X1147.0000 Y895.8800
M3S0
G4 P0.5; Tool On
G1 F300 Z0.0000
G1 F15000 X3.0000 Y895.8800 Z0.0000
M3S245
G4 P0.5; Tool Off

G0 Z0; move to z-safe height
G0 X3.0000 Y901.8800
M3S0
G4 P0.5; Tool On
G1 F300 Z0.0000
G1 F15000 X1147.0000 Y901.8800 Z0.0000
M3S245
G4 P0.5; Tool Off

G0 Z0; move to z-safe height
G0 X1147.0000 Y907.8800
M3S0
G4 P0.5; Tool On
G1 F300 Z0.0000
G1 F15000 X3.0000 Y907.8800 Z0.0000
M3S245
G4 P0.5; Tool Off

G0 Z0; move to z-safe height
G0 X3.0000 Y913.8800
M3S0
G4 P0.5; Tool On
G1 F300 Z0.0000
G1 F15000 X1147.0000 Y913.8800 Z0.0000
M3S245
G4 P0.5; Tool Off

G0 Z0; move to z-safe height
G0 X1147.0000 Y919.8800
M3S0
G4 P0.5; Tool On
G1 F300 Z0.0000
G1 F15000 X3.0000 Y919.8800 Z0.0000
M3S245
G4 P0.5; Tool Off

G0 Z0; move to z-safe height
G0 X3.0000 Y925.8800
M3S0
G4 P0.5; Tool On
G1 F300 Z0.0000
G1 F15000 X1147.0000 Y925.8800 Z0.0000
M3S245
G4 P0.5; Tool Off

G0 Z0; move to z-safe height
G0 X1147.0000 Y931.8800
M3S0
G4 P0.5; Tool On
G1 F300 Z0.0000
G1 F15000 X3.0000 Y931.8800 Z0.0000
M3S245
G4 P0.5; Tool Off

G0 Z0; move to z-safe height
G0 X3.0000 Y937.8800
M3S0
G4 P0.5; Tool On
G1 F300 Z0.0000
G1 F15000 X1147.0000 Y937.8800 Z0.0000
M3S245
G4 P0.5; Tool Off

G0 Z0; move to z-safe height
G0 X1147.0000 Y943.8800
M3S0
G4 P0.5; Tool On
G1 F300 Z0.0000
G1 F15000 X3.0000 Y943.8800 Z0.0000
M3S245
G4 P0.5; Tool Off

G0 Z0; move to z-safe height
G0 X3.0000 Y949.8800
M3S0
G4 P0.5; Tool On
G1 F300 Z0.0000
G1 F15000 X1147.0000 Y949.8800 Z0.0000
M3S245
G4 P0.5; Tool Off

G0 Z0; move to z-safe height
G0 X1147.0000 Y955.8800
M3S0
G4 P0.5; Tool On
G1 F300 Z0.0000
G1 F15000 X3.0000 Y955.8800 Z0.0000
M3S245
G4 P0.5; Tool Off

G0 Z0; move to z-safe height
G0 X3.0000 Y961.8800
M3S0
G4 P0.5; Tool On
G1 F300 Z0.0000
G1 F15000 X1147.0000 Y961.8800 Z0.0000
M3S245
G4 P0.5; Tool Off

G0 Z0; move to z-safe height
G0 X1147.0000 Y967.8800
M3S0
G4 P0.5; Tool On
G1 F300 Z0.0000
G1 F15000 X3.0000 Y967.8800 Z0.0000
M3S245
G4 P0.5; Tool Off

G0 Z0; move to z-safe height
G0 X3.0000 Y973.8800
M3S0
G4 P0.5; Tool On
G1 F300 Z0.0000
G1 F15000 X1147.0000 Y973.8800 Z0.0000
M3S245
G4 P0.5; Tool Off

G0 Z0; move to z-safe height
G0 X1147.0000 Y979.8800
M3S0
G4 P0.5; Tool On
G1 F300 Z0.0000
G1 F15000 X3.0000 Y979.8800 Z0.0000
M3S245
G4 P0.5; Tool Off

G0 Z0; move to z-safe height
G0 X3.0000 Y985.8800
M3S0
G4 P0.5; Tool On
G1 F300 Z0.0000
G1 F15000 X1147.0000 Y985.8800 Z0.0000
M3S245
G4 P0.5; Tool Off

G0 Z0; move to z-safe height
G0 X1147.0000 Y991.8800
M3S0
G4 P0.5; Tool On
G1 F300 Z0.0000
G1 F15000 X3.0000 Y991.8800 Z0.0000
M3S245
G4 P0.5; Tool Off

G0 Z0; move to z-safe height
G0 X3.0000 Y997.8800
M3S0
G4 P0.5; Tool On
G1 F300 Z0.0000
G1 F15000 X1147.0000 Y997.8800 Z0.0000
M3S245
G4 P0.5; Tool Off

G0 Z0; move to z-safe height
G0 X1147.0000 Y1003.8800
M3S0
G4 P0.5; Tool On
G1 F300 Z0.0000
G1 F15000 X3.0000 Y1003.8800 Z0.0000
M3S245
G4 P0.5; Tool Off

G0 Z0; move to z-safe height
G0 X3.0000 Y1009.8800
M3S0
G4 P0.5; Tool On
G1 F300 Z0.0000
G1 F15000 X1147.0000 Y1009.8800 Z0.0000
M3S245
G4 P0.5; Tool Off

G0 Z0; move to z-safe height
G0 X1147.0000 Y1015.8800
M3S0
G4 P0.5; Tool On
G1 F300 Z0.0000
G1 F15000 X3.0000 Y1015.8800 Z0.0000
M3S245
G4 P0.5; Tool Off

G0 Z0; move to z-safe height
G0 X3.0000 Y1021.8800
M3S0
G4 P0.5; Tool On
G1 F300 Z0.0000
G1 F15000 X1147.0000 Y1021.8800 Z0.0000
M3S245
G4 P0.5; Tool Off

G0 Z0; move to z-safe height
G0 X1147.0000 Y1027.8800
M3S0
G4 P0.5; Tool On
G1 F300 Z0.0000
G1 F15000 X3.0000 Y1027.8800 Z0.0000
M3S245
G4 P0.5; Tool Off

G0 Z0; move to z-safe height
G0 X3.0000 Y1033.8800
M3S0
G4 P0.5; Tool On
G1 F300 Z0.0000
G1 F15000 X1147.0000 Y1033.8800 Z0.0000
M3S245
G4 P0.5; Tool Off

G0 Z0; move to z-safe height
G0 X1147.0000 Y1039.8800
M3S0
G4 P0.5; Tool On
G1 F300 Z0.0000
G1 F15000 X3.0000 Y1039.8800 Z0.0000
M3S245
G4 P0.5; Tool Off

G0 Z0; move to z-safe height
G0 X3.0000 Y1045.8800
M3S0
G4 P0.5; Tool On
G1 F300 Z0.0000
G1 F15000 X1147.0000 Y1045.8800 Z0.0000
M3S245
G4 P0.5; Tool Off

G0 Z0; move to z-safe height
G0 X1147.0000 Y1051.8800
M3S0
G4 P0.5; Tool On
G1 F300 Z0.0000
G1 F15000 X3.0000 Y1051.8800 Z0.0000
M3S245
G4 P0.5; Tool Off

G0 Z0; move to z-safe height
G0 X3.0000 Y1057.8800
M3S0
G4 P0.5; Tool On
G1 F300 Z0.0000
G1 F15000 X1147.0000 Y1057.8800 Z0.0000
M3S245
G4 P0.5; Tool Off

G0 Z0; move to z-safe height
G0 X1147.0000 Y1063.8800
M3S0
G4 P0.5; Tool On
G1 F300 Z0.0000
G1 F15000 X3.0000 Y1063.8800 Z0.0000
M3S245
G4 P0.5; Tool Off

G0 Z0; move to z-safe height
G0 X3.0000 Y1069.8800
M3S0
G4 P0.5; Tool On
G1 F300 Z0.0000
G1 F15000 X1147.0000 Y1069.8800 Z0.0000
M3S245
G4 P0.5; Tool Off

G0 Z0; move to z-safe height
G0 X1147.0000 Y1075.8800
M3S0
G4 P0.5; Tool On
G1 F300 Z0.0000
G1 F15000 X3.0000 Y1075.8800 Z0.0000
M3S245
G4 P0.5; Tool Off

G0 Z0; move to z-safe height
G0 X3.0000 Y1081.8800
M3S0
G4 P0.5; Tool On
G1 F300 Z0.0000
G1 F15000 X1147.0000 Y1081.8800 Z0.0000
M3S245
G4 P0.5; Tool Off

G0 Z0; move to z-safe height
G0 X1147.0000 Y1087.8800
M3S0
G4 P0.5; Tool On
G1 F300 Z0.0000
G1 F15000 X3.0000 Y1087.8800 Z0.0000
M3S245
G4 P0.5; Tool Off

G0 Z0; move to z-safe height
G0 X3.0000 Y1093.8800
M3S0
G4 P0.5; Tool On
G1 F300 Z0.0000
G1 F15000 X1147.0000 Y1093.8800 Z0.0000
M3S245
G4 P0.5; Tool Off

G0 Z0; move to z-safe height
G0 X1147.0000 Y1099.8800
M3S0
G4 P0.5; Tool On
G1 F300 Z0.0000
G1 F15000 X3.0000 Y1099.8800 Z0.0000
M3S245
G4 P0.5; Tool Off

G0 Z0; move to z-safe height
G0 X3.0000 Y1105.8800
M3S0
G4 P0.5; Tool On
G1 F300 Z0.0000
G1 F15000 X1147.0000 Y1105.8800 Z0.0000
M3S245
G4 P0.5; Tool Off

G0 Z0; move to z-safe height
G0 X1147.0000 Y1111.8800
M3S0
G4 P0.5; Tool On
G1 F300 Z0.0000
G1 F15000 X3.0000 Y1111.8800 Z0.0000
M3S245
G4 P0.5; Tool Off

G0 Z0; move to z-safe height
G0 X3.0000 Y1117.8800
M3S0
G4 P0.5; Tool On
G1 F300 Z0.0000
G1 F15000 X1147.0000 Y1117.8800 Z0.0000
M3S245
G4 P0.5; Tool Off

G0 Z0; move to z-safe height
G0 X1147.0000 Y1123.8800
M3S0
G4 P0.5; Tool On
G1 F300 Z0.0000
G1 F15000 X3.0000 Y1123.8800 Z0.0000
M3S245
G4 P0.5; Tool Off

G0 Z0; move to z-safe height
G0 X3.0000 Y1129.8800
M3S0
G4 P0.5; Tool On
G1 F300 Z0.0000
G1 F15000 X1147.0000 Y1129.8800 Z0.0000
M3S245
G4 P0.5; Tool Off

G0 Z0; move to z-safe height
G0 X1147.0000 Y1135.8800
M3S0
G4 P0.5; Tool On
G1 F300 Z0.0000
G1 F15000 X3.0000 Y1135.8800 Z0.0000
M3S245
G4 P0.5; Tool Off

G0 Z0; move to z-safe height
G0 X3.0000 Y1141.8800
M3S0
G4 P0.5; Tool On
G1 F300 Z0.0000
G1 F15000 X1147.0000 Y1141.8800 Z0.0000
M3S245
G4 P0.5; Tool Off

G0 Z0; move to z-safe height
G0 X1147.0000 Y1147.8800
M3S0
G4 P0.5; Tool On
G1 F300 Z0.0000
G1 F15000 X3.0000 Y1147.8800 Z0.0000
M3S245
G4 P0.5; Tool Off

G0 Z0; move to z-safe height
G0 X3.0000 Y1153.8800
M3S0
G4 P0.5; Tool On
G1 F300 Z0.0000
G1 F15000 X1147.0000 Y1153.8800 Z0.0000
M3S245
G4 P0.5; Tool Off

G0 Z0; move to z-safe height
G0 X1147.0000 Y1159.8800
M3S0
G4 P0.5; Tool On
G1 F300 Z0.0000
G1 F15000 X3.0000 Y1159.8800 Z0.0000
M3S245
G4 P0.5; Tool Off

G0 Z0; move to z-safe height
G0 X3.0000 Y1165.8800
M3S0
G4 P0.5; Tool On
G1 F300 Z0.0000
G1 F15000 X1147.0000 Y1165.8800 Z0.0000
M3S245
G4 P0.5; Tool Off

G0 Z0; move to z-safe height
G0 X1147.0000 Y1171.8800
M3S0
G4 P0.5; Tool On
G1 F300 Z0.0000
G1 F15000 X3.0000 Y1171.8800 Z0.0000
M3S245
G4 P0.5; Tool Off

G0 Z0; move to z-safe height
G0 X3.0000 Y1177.8800
M3S0
G4 P0.5; Tool On
G1 F300 Z0.0000
G1 F15000 X1147.0000 Y1177.8800 Z0.0000
M3S245
G4 P0.5; Tool Off

G0 Z0; move to z-safe height
G0 X1147.0000 Y1183.8800
M3S0
G4 P0.5; Tool On
G1 F300 Z0.0000
G1 F15000 X3.0000 Y1183.8800 Z0.0000
M3S245
G4 P0.5; Tool Off

G0 Z0; move to z-safe height
G0 X3.0000 Y1189.8800
M3S0
G4 P0.5; Tool On
G1 F300 Z0.0000
G1 F15000 X1147.0000 Y1189.8800 Z0.0000
M3S245
G4 P0.5; Tool Off

G0 Z0; move to z-safe height
G0 X1147.0000 Y1195.8800
M3S0
G4 P0.5; Tool On
G1 F300 Z0.0000
G1 F15000 X3.0000 Y1195.8800 Z0.0000
M3S245
G4 P0.5; Tool Off

G0 Z0; move to z-safe height
G0 X3.0000 Y1201.8800
M3S0
G4 P0.5; Tool On
G1 F300 Z0.0000
G1 F15000 X1147.0000 Y1201.8800 Z0.0000
M3S245
G4 P0.5; Tool Off

G0 Z0; move to z-safe height
G0 X1147.0000 Y1207.8800
M3S0
G4 P0.5; Tool On
G1 F300 Z0.0000
G1 F15000 X3.0000 Y1207.8800 Z0.0000
M3S245
G4 P0.5; Tool Off

G0 Z0; move to z-safe height
G0 X3.0000 Y1213.8800
M3S0
G4 P0.5; Tool On
G1 F300 Z0.0000
G1 F15000 X1147.0000 Y1213.8800 Z0.0000
M3S245
G4 P0.5; Tool Off

G0 Z0; move to z-safe height
G0 X1147.0000 Y1219.8800
M3S0
G4 P0.5; Tool On
G1 F300 Z0.0000
G1 F15000 X3.0000 Y1219.8800 Z0.0000
M3S245
G4 P0.5; Tool Off

G0 Z0; move to z-safe height
G0 X3.0000 Y1225.8800
M3S0
G4 P0.5; Tool On
G1 F300 Z0.0000
G1 F15000 X1147.0000 Y1225.8800 Z0.0000
M3S245
G4 P0.5; Tool Off

G0 Z0; move to z-safe height
G0 X1147.0000 Y1231.8800
M3S0
G4 P0.5; Tool On
G1 F300 Z0.0000
G1 F15000 X3.0000 Y1231.8800 Z0.0000
M3S245
G4 P0.5; Tool Off

G0 Z0; move to z-safe height
G0 X3.0000 Y1237.8800
M3S0
G4 P0.5; Tool On
G1 F300 Z0.0000
G1 F15000 X1147.0000 Y1237.8800 Z0.0000
M3S245
G4 P0.5; Tool Off

G0 Z0; move to z-safe height
G0 X1147.0000 Y1243.8800
M3S0
G4 P0.5; Tool On
G1 F300 Z0.0000
G1 F15000 X3.0000 Y1243.8800 Z0.0000
M3S245
G4 P0.5; Tool Off

G0 Z0; move to z-safe height
G0 X3.0000 Y1249.8800
M3S0
G4 P0.5; Tool On
G1 F300 Z0.0000
G1 F15000 X1147.0000 Y1249.8800 Z0.0000
M3S245
G4 P0.5; Tool Off

G0 Z0; move to z-safe height
G0 X1147.0000 Y1255.8800
M3S0
G4 P0.5; Tool On
G1 F300 Z0.0000
G1 F15000 X3.0000 Y1255.8800 Z0.0000
M3S245
G4 P0.5; Tool Off

G0 Z0; move to z-safe height
G0 X3.0000 Y1261.8800
M3S0
G4 P0.5; Tool On
G1 F300 Z0.0000
G1 F15000 X1147.0000 Y1261.8800 Z0.0000
M3S245
G4 P0.5; Tool Off

G0 Z0; move to z-safe height
G0 X1147.0000 Y1267.8800
M3S0
G4 P0.5; Tool On
G1 F300 Z0.0000
G1 F15000 X3.0000 Y1267.8800 Z0.0000
M3S245
G4 P0.5; Tool Off

G0 Z0; move to z-safe height
G0 X3.0000 Y1273.8800
M3S0
G4 P0.5; Tool On
G1 F300 Z0.0000
G1 F15000 X1147.0000 Y1273.8800 Z0.0000
M3S245
G4 P0.5; Tool Off

G0 Z0; move to z-safe height
G0 X1147.0000 Y1279.8800
M3S0
G4 P0.5; Tool On
G1 F300 Z0.0000
G1 F15000 X3.0000 Y1279.8800 Z0.0000
M3S245
G4 P0.5; Tool Off

G0 Z0; move to z-safe height
G0 X3.0000 Y1285.8800
M3S0
G4 P0.5; Tool On
G1 F300 Z0.0000
G1 F15000 X1147.0000 Y1285.8800 Z0.0000
M3S245
G4 P0.5; Tool Off

G0 Z0; move to z-safe height
G0 X1147.0000 Y1291.8800
M3S0
G4 P0.5; Tool On
G1 F300 Z0.0000
G1 F15000 X3.0000 Y1291.8800 Z0.0000
M3S245
G4 P0.5; Tool Off

G0 Z0; move to z-safe height
G0 X3.0000 Y1297.8800
M3S0
G4 P0.5; Tool On
G1 F300 Z0.0000
G1 F15000 X1147.0000 Y1297.8800 Z0.0000
M3S245
G4 P0.5; Tool Off

G0 Z0; move to z-safe height
G0 X1147.0000 Y1303.8800
M3S0
G4 P0.5; Tool On
G1 F300 Z0.0000
G1 F15000 X3.0000 Y1303.8800 Z0.0000
M3S245
G4 P0.5; Tool Off

G0 Z0; move to z-safe height
G0 X3.0000 Y1309.8800
M3S0
G4 P0.5; Tool On
G1 F300 Z0.0000
G1 F15000 X1147.0000 Y1309.8800 Z0.0000
M3S245
G4 P0.5; Tool Off

G0 Z0; move to z-safe height
G0 X1147.0000 Y1315.8800
M3S0
G4 P0.5; Tool On
G1 F300 Z0.0000
G1 F15000 X3.0000 Y1315.8800 Z0.0000
M3S245
G4 P0.5; Tool Off

G0 Z0; move to z-safe height
G0 X3.0000 Y1321.8800
M3S0
G4 P0.5; Tool On
G1 F300 Z0.0000
G1 F15000 X1147.0000 Y1321.8800 Z0.0000
M3S245
G4 P0.5; Tool Off

G0 Z0; move to z-safe height
G0 X1147.0000 Y1327.8800
M3S0
G4 P0.5; Tool On
G1 F300 Z0.0000
G1 F15000 X3.0000 Y1327.8800 Z0.0000
M3S245
G4 P0.5; Tool Off

G0 Z0; move to z-safe height
G0 X3.0000 Y1333.8800
M3S0
G4 P0.5; Tool On
G1 F300 Z0.0000
G1 F15000 X1147.0000 Y1333.8800 Z0.0000
M3S245
G4 P0.5; Tool Off

G0 Z0; move to z-safe height
G0 X1147.0000 Y1339.8800
M3S0
G4 P0.5; Tool On
G1 F300 Z0.0000
G1 F15000 X3.0000 Y1339.8800 Z0.0000
M3S245
G4 P0.5; Tool Off

G0 Z0; move to z-safe height
G0 X3.0000 Y1345.8800
M3S0
G4 P0.5; Tool On
G1 F300 Z0.0000
G1 F15000 X1147.0000 Y1345.8800 Z0.0000
M3S245
G4 P0.5; Tool Off

G0 Z0; move to z-safe height
G0 X1147.0000 Y1351.8800
M3S0
G4 P0.5; Tool On
G1 F300 Z0.0000
G1 F15000 X3.0000 Y1351.8800 Z0.0000
M3S245
G4 P0.5; Tool Off

G0 Z0; move to z-safe height
G0 X3.0000 Y1357.8800
M3S0
G4 P0.5; Tool On
G1 F300 Z0.0000
G1 F15000 X1147.0000 Y1357.8800 Z0.0000
M3S245
G4 P0.5; Tool Off

G0 Z0; move to z-safe height
G0 X1147.0000 Y1363.8800
M3S0
G4 P0.5; Tool On
G1 F300 Z0.0000
G1 F15000 X3.0000 Y1363.8800 Z0.0000
M3S245
G4 P0.5; Tool Off

G0 Z0; move to z-safe height
G0 X3.0000 Y1369.8800
M3S0
G4 P0.5; Tool On
G1 F300 Z0.0000
G1 F15000 X1147.0000 Y1369.8800 Z0.0000
M3S245
G4 P0.5; Tool Off

G0 Z0; move to z-safe height
G0 X1147.0000 Y1375.8800
M3S0
G4 P0.5; Tool On
G1 F300 Z0.0000
G1 F15000 X3.0000 Y1375.8800 Z0.0000
M3S245
G4 P0.5; Tool Off

G0 Z0; move to z-safe height
G0 X3.0000 Y1381.8800
M3S0
G4 P0.5; Tool On
G1 F300 Z0.0000
G1 F15000 X1147.0000 Y1381.8800 Z0.0000
M3S245
G4 P0.5; Tool Off

G0 Z0; move to z-safe height
G0 X1147.0000 Y1387.8800
M3S0
G4 P0.5; Tool On
G1 F300 Z0.0000
G1 F15000 X3.0000 Y1387.8800 Z0.0000
M3S245
G4 P0.5; Tool Off

G0 Z0; move to z-safe height
G0 X3.0000 Y1393.8800
M3S0
G4 P0.5; Tool On
G1 F300 Z0.0000
G1 F15000 X1147.0000 Y1393.8800 Z0.0000
M3S245
G4 P0.5; Tool Off

G0 Z0; move to z-safe height
G0 X1147.0000 Y1399.8800
M3S0
G4 P0.5; Tool On
G1 F300 Z0.0000
G1 F15000 X3.0000 Y1399.8800 Z0.0000
M3S245
G4 P0.5; Tool Off

G0 Z0; move to z-safe height
G0 X3.0000 Y1405.8800
M3S0
G4 P0.5; Tool On
G1 F300 Z0.0000
G1 F15000 X1147.0000 Y1405.8800 Z0.0000
M3S245
G4 P0.5; Tool Off

G0 Z0; move to z-safe height
G0 X1147.0000 Y1411.8800
M3S0
G4 P0.5; Tool On
G1 F300 Z0.0000
G1 F15000 X3.0000 Y1411.8800 Z0.0000
M3S245
G4 P0.5; Tool Off

G0 Z0; move to z-safe height
G0 X3.0000 Y1417.8800
M3S0
G4 P0.5; Tool On
G1 F300 Z0.0000
G1 F15000 X1147.0000 Y1417.8800 Z0.0000
M3S245
G4 P0.5; Tool Off

G0 Z0; move to z-safe height
G0 X1147.0000 Y1423.8800
M3S0
G4 P0.5; Tool On
G1 F300 Z0.0000
G1 F15000 X3.0000 Y1423.8800 Z0.0000
M3S245
G4 P0.5; Tool Off

G0 Z0; move to z-safe height
G0 X3.0000 Y1429.8800
M3S0
G4 P0.5; Tool On
G1 F300 Z0.0000
G1 F15000 X1147.0000 Y1429.8800 Z0.0000
M3S245
G4 P0.5; Tool Off

G0 Z0; move to z-safe height
G0 X1147.0000 Y1435.8800
M3S0
G4 P0.5; Tool On
G1 F300 Z0.0000
G1 F15000 X3.0000 Y1435.8800 Z0.0000
M3S245
G4 P0.5; Tool Off

G0 Z0; move to z-safe height
G0 X3.0000 Y1441.8800
M3S0
G4 P0.5; Tool On
G1 F300 Z0.0000
G1 F15000 X1147.0000 Y1441.8800 Z0.0000
M3S245
G4 P0.5; Tool Off
; retracting back to z-safe
G0 Z0

; Plotter Mode Complete
