; GCODE Generated by cam.openbuilds.com on 2023-06-19 
G21 ; mm-mode
G54; Work Coordinates
G21; mm-mode
G90; Absolute Positioning
; Plotter Mode Active

; Operation 0: Pen Plotter: (lines fill)
; Pen Diameter: 2

G0 Z0; move to z-safe height
G0 F1000 X10.0000 Y21.5600
M3S0
G4 P0.5; Tool On
G1 F300 Z0.0000
G1 F15000 X1200.0000 Y21.5600 Z0.0000
M3S245
G4 P0.5; Tool Off

G0 Z0; move to z-safe height
G0 X1200.0000 Y41.5600
M3S0
G4 P0.5; Tool On
G1 F300 Z0.0000
G1 F15000 X10.0000 Y41.5600 Z0.0000
M3S245
G4 P0.5; Tool Off

G0 Z0; move to z-safe height
G0 X10.0000 Y61.5600
M3S0
G4 P0.5; Tool On
G1 F300 Z0.0000
G1 F15000 X1200.0000 Y61.5600 Z0.0000
M3S245
G4 P0.5; Tool Off

G0 Z0; move to z-safe height
G0 X1200.0000 Y81.5600
M3S0
G4 P0.5; Tool On
G1 F300 Z0.0000
G1 F15000 X10.0000 Y81.5600 Z0.0000
M3S245
G4 P0.5; Tool Off

G0 Z0; move to z-safe height
G0 X10.0000 Y101.5600
M3S0
G4 P0.5; Tool On
G1 F300 Z0.0000
G1 F15000 X1200.0000 Y101.5600 Z0.0000
M3S245
G4 P0.5; Tool Off

G0 Z0; move to z-safe height
G0 X1200.0000 Y121.5600
M3S0
G4 P0.5; Tool On
G1 F300 Z0.0000
G1 F15000 X10.0000 Y121.5600 Z0.0000
M3S245
G4 P0.5; Tool Off

G0 Z0; move to z-safe height
G0 X10.0000 Y141.5600
M3S0
G4 P0.5; Tool On
G1 F300 Z0.0000
G1 F15000 X1200.0000 Y141.5600 Z0.0000
M3S245
G4 P0.5; Tool Off

G0 Z0; move to z-safe height
G0 X1200.0000 Y161.5600
M3S0
G4 P0.5; Tool On
G1 F300 Z0.0000
G1 F15000 X10.0000 Y161.5600 Z0.0000
M3S245
G4 P0.5; Tool Off

G0 Z0; move to z-safe height
G0 X10.0000 Y181.5600
M3S0
G4 P0.5; Tool On
G1 F300 Z0.0000
G1 F15000 X1200.0000 Y181.5600 Z0.0000
M3S245
G4 P0.5; Tool Off

G0 Z0; move to z-safe height
G0 X1200.0000 Y201.5600
M3S0
G4 P0.5; Tool On
G1 F300 Z0.0000
G1 F15000 X10.0000 Y201.5600 Z0.0000
M3S245
G4 P0.5; Tool Off

G0 Z0; move to z-safe height
G0 X10.0000 Y221.5600
M3S0
G4 P0.5; Tool On
G1 F300 Z0.0000
G1 F15000 X1200.0000 Y221.5600 Z0.0000
M3S245
G4 P0.5; Tool Off

G0 Z0; move to z-safe height
G0 X1200.0000 Y241.5600
M3S0
G4 P0.5; Tool On
G1 F300 Z0.0000
G1 F15000 X10.0000 Y241.5600 Z0.0000
M3S245
G4 P0.5; Tool Off

G0 Z0; move to z-safe height
G0 X10.0000 Y261.5600
M3S0
G4 P0.5; Tool On
G1 F300 Z0.0000
G1 F15000 X1200.0000 Y261.5600 Z0.0000
M3S245
G4 P0.5; Tool Off

G0 Z0; move to z-safe height
G0 X1200.0000 Y281.5600
M3S0
G4 P0.5; Tool On
G1 F300 Z0.0000
G1 F15000 X10.0000 Y281.5600 Z0.0000
M3S245
G4 P0.5; Tool Off

G0 Z0; move to z-safe height
G0 X10.0000 Y301.5600
M3S0
G4 P0.5; Tool On
G1 F300 Z0.0000
G1 F15000 X1200.0000 Y301.5600 Z0.0000
M3S245
G4 P0.5; Tool Off

G0 Z0; move to z-safe height
G0 X1200.0000 Y321.5600
M3S0
G4 P0.5; Tool On
G1 F300 Z0.0000
G1 F15000 X10.0000 Y321.5600 Z0.0000
M3S245
G4 P0.5; Tool Off

G0 Z0; move to z-safe height
G0 X10.0000 Y341.5600
M3S0
G4 P0.5; Tool On
G1 F300 Z0.0000
G1 F15000 X1200.0000 Y341.5600 Z0.0000
M3S245
G4 P0.5; Tool Off

G0 Z0; move to z-safe height
G0 X1200.0000 Y361.5600
M3S0
G4 P0.5; Tool On
G1 F300 Z0.0000
G1 F15000 X10.0000 Y361.5600 Z0.0000
M3S245
G4 P0.5; Tool Off

G0 Z0; move to z-safe height
G0 X10.0000 Y381.5600
M3S0
G4 P0.5; Tool On
G1 F300 Z0.0000
G1 F15000 X1200.0000 Y381.5600 Z0.0000
M3S245
G4 P0.5; Tool Off

G0 Z0; move to z-safe height
G0 X1200.0000 Y401.5600
M3S0
G4 P0.5; Tool On
G1 F300 Z0.0000
G1 F15000 X10.0000 Y401.5600 Z0.0000
M3S245
G4 P0.5; Tool Off

G0 Z0; move to z-safe height
G0 X10.0000 Y421.5600
M3S0
G4 P0.5; Tool On
G1 F300 Z0.0000
G1 F15000 X1200.0000 Y421.5600 Z0.0000
M3S245
G4 P0.5; Tool Off

G0 Z0; move to z-safe height
G0 X1200.0000 Y441.5600
M3S0
G4 P0.5; Tool On
G1 F300 Z0.0000
G1 F15000 X10.0000 Y441.5600 Z0.0000
M3S245
G4 P0.5; Tool Off

G0 Z0; move to z-safe height
G0 X10.0000 Y461.5600
M3S0
G4 P0.5; Tool On
G1 F300 Z0.0000
G1 F15000 X1200.0000 Y461.5600 Z0.0000
M3S245
G4 P0.5; Tool Off

G0 Z0; move to z-safe height
G0 X1200.0000 Y481.5600
M3S0
G4 P0.5; Tool On
G1 F300 Z0.0000
G1 F15000 X10.0000 Y481.5600 Z0.0000
M3S245
G4 P0.5; Tool Off

G0 Z0; move to z-safe height
G0 X10.0000 Y501.5600
M3S0
G4 P0.5; Tool On
G1 F300 Z0.0000
G1 F15000 X1200.0000 Y501.5600 Z0.0000
M3S245
G4 P0.5; Tool Off

G0 Z0; move to z-safe height
G0 X1200.0000 Y521.5600
M3S0
G4 P0.5; Tool On
G1 F300 Z0.0000
G1 F15000 X10.0000 Y521.5600 Z0.0000
M3S245
G4 P0.5; Tool Off

G0 Z0; move to z-safe height
G0 X10.0000 Y541.5600
M3S0
G4 P0.5; Tool On
G1 F300 Z0.0000
G1 F15000 X1200.0000 Y541.5600 Z0.0000
M3S245
G4 P0.5; Tool Off

G0 Z0; move to z-safe height
G0 X1200.0000 Y561.5600
M3S0
G4 P0.5; Tool On
G1 F300 Z0.0000
G1 F15000 X10.0000 Y561.5600 Z0.0000
M3S245
G4 P0.5; Tool Off

G0 Z0; move to z-safe height
G0 X10.0000 Y581.5600
M3S0
G4 P0.5; Tool On
G1 F300 Z0.0000
G1 F15000 X1200.0000 Y581.5600 Z0.0000
M3S245
G4 P0.5; Tool Off

G0 Z0; move to z-safe height
G0 X1200.0000 Y601.5600
M3S0
G4 P0.5; Tool On
G1 F300 Z0.0000
G1 F15000 X10.0000 Y601.5600 Z0.0000
M3S245
G4 P0.5; Tool Off

G0 Z0; move to z-safe height
G0 X10.0000 Y621.5600
M3S0
G4 P0.5; Tool On
G1 F300 Z0.0000
G1 F15000 X1200.0000 Y621.5600 Z0.0000
M3S245
G4 P0.5; Tool Off

G0 Z0; move to z-safe height
G0 X1200.0000 Y641.5600
M3S0
G4 P0.5; Tool On
G1 F300 Z0.0000
G1 F15000 X10.0000 Y641.5600 Z0.0000
M3S245
G4 P0.5; Tool Off

G0 Z0; move to z-safe height
G0 X10.0000 Y661.5600
M3S0
G4 P0.5; Tool On
G1 F300 Z0.0000
G1 F15000 X1200.0000 Y661.5600 Z0.0000
M3S245
G4 P0.5; Tool Off

G0 Z0; move to z-safe height
G0 X1200.0000 Y681.5600
M3S0
G4 P0.5; Tool On
G1 F300 Z0.0000
G1 F15000 X10.0000 Y681.5600 Z0.0000
M3S245
G4 P0.5; Tool Off

G0 Z0; move to z-safe height
G0 X10.0000 Y701.5600
M3S0
G4 P0.5; Tool On
G1 F300 Z0.0000
G1 F15000 X1200.0000 Y701.5600 Z0.0000
M3S245
G4 P0.5; Tool Off

G0 Z0; move to z-safe height
G0 X1200.0000 Y721.5600
M3S0
G4 P0.5; Tool On
G1 F300 Z0.0000
G1 F15000 X10.0000 Y721.5600 Z0.0000
M3S245
G4 P0.5; Tool Off

G0 Z0; move to z-safe height
G0 X10.0000 Y741.5600
M3S0
G4 P0.5; Tool On
G1 F300 Z0.0000
G1 F15000 X1200.0000 Y741.5600 Z0.0000
M3S245
G4 P0.5; Tool Off

G0 Z0; move to z-safe height
G0 X1200.0000 Y761.5600
M3S0
G4 P0.5; Tool On
G1 F300 Z0.0000
G1 F15000 X10.0000 Y761.5600 Z0.0000
M3S245
G4 P0.5; Tool Off

G0 Z0; move to z-safe height
G0 X10.0000 Y781.5600
M3S0
G4 P0.5; Tool On
G1 F300 Z0.0000
G1 F15000 X1200.0000 Y781.5600 Z0.0000
M3S245
G4 P0.5; Tool Off

G0 Z0; move to z-safe height
G0 X1200.0000 Y801.5600
M3S0
G4 P0.5; Tool On
G1 F300 Z0.0000
G1 F15000 X10.0000 Y801.5600 Z0.0000
M3S245
G4 P0.5; Tool Off

G0 Z0; move to z-safe height
G0 X10.0000 Y821.5600
M3S0
G4 P0.5; Tool On
G1 F300 Z0.0000
G1 F15000 X1200.0000 Y821.5600 Z0.0000
M3S245
G4 P0.5; Tool Off

G0 Z0; move to z-safe height
G0 X1200.0000 Y841.5600
M3S0
G4 P0.5; Tool On
G1 F300 Z0.0000
G1 F15000 X10.0000 Y841.5600 Z0.0000
M3S245
G4 P0.5; Tool Off

G0 Z0; move to z-safe height
G0 X10.0000 Y861.5600
M3S0
G4 P0.5; Tool On
G1 F300 Z0.0000
G1 F15000 X1200.0000 Y861.5600 Z0.0000
M3S245
G4 P0.5; Tool Off

G0 Z0; move to z-safe height
G0 X1200.0000 Y881.5600
M3S0
G4 P0.5; Tool On
G1 F300 Z0.0000
G1 F15000 X10.0000 Y881.5600 Z0.0000
M3S245
G4 P0.5; Tool Off

G0 Z0; move to z-safe height
G0 X10.0000 Y901.5600
M3S0
G4 P0.5; Tool On
G1 F300 Z0.0000
G1 F15000 X1200.0000 Y901.5600 Z0.0000
M3S245
G4 P0.5; Tool Off

G0 Z0; move to z-safe height
G0 X1200.0000 Y921.5600
M3S0
G4 P0.5; Tool On
G1 F300 Z0.0000
G1 F15000 X10.0000 Y921.5600 Z0.0000
M3S245
G4 P0.5; Tool Off

G0 Z0; move to z-safe height
G0 X10.0000 Y941.5600
M3S0
G4 P0.5; Tool On
G1 F300 Z0.0000
G1 F15000 X1200.0000 Y941.5600 Z0.0000
M3S245
G4 P0.5; Tool Off

G0 Z0; move to z-safe height
G0 X1200.0000 Y961.5600
M3S0
G4 P0.5; Tool On
G1 F300 Z0.0000
G1 F15000 X10.0000 Y961.5600 Z0.0000
M3S245
G4 P0.5; Tool Off

G0 Z0; move to z-safe height
G0 X10.0000 Y981.5600
M3S0
G4 P0.5; Tool On
G1 F300 Z0.0000
G1 F15000 X1200.0000 Y981.5600 Z0.0000
M3S245
G4 P0.5; Tool Off

G0 Z0; move to z-safe height
G0 X1200.0000 Y1001.5600
M3S0
G4 P0.5; Tool On
G1 F300 Z0.0000
G1 F15000 X10.0000 Y1001.5600 Z0.0000
M3S245
G4 P0.5; Tool Off

G0 Z0; move to z-safe height
G0 X10.0000 Y1021.5600
M3S0
G4 P0.5; Tool On
G1 F300 Z0.0000
G1 F15000 X1200.0000 Y1021.5600 Z0.0000
M3S245
G4 P0.5; Tool Off

G0 Z0; move to z-safe height
G0 X1200.0000 Y1041.5600
M3S0
G4 P0.5; Tool On
G1 F300 Z0.0000
G1 F15000 X10.0000 Y1041.5600 Z0.0000
M3S245
G4 P0.5; Tool Off

G0 Z0; move to z-safe height
G0 X10.0000 Y1061.5600
M3S0
G4 P0.5; Tool On
G1 F300 Z0.0000
G1 F15000 X1200.0000 Y1061.5600 Z0.0000
M3S245
G4 P0.5; Tool Off

G0 Z0; move to z-safe height
G0 X1200.0000 Y1081.5600
M3S0
G4 P0.5; Tool On
G1 F300 Z0.0000
G1 F15000 X10.0000 Y1081.5600 Z0.0000
M3S245
G4 P0.5; Tool Off

G0 Z0; move to z-safe height
G0 X10.0000 Y1101.5600
M3S0
G4 P0.5; Tool On
G1 F300 Z0.0000
G1 F15000 X1200.0000 Y1101.5600 Z0.0000
M3S245
G4 P0.5; Tool Off

G0 Z0; move to z-safe height
G0 X1200.0000 Y1121.5600
M3S0
G4 P0.5; Tool On
G1 F300 Z0.0000
G1 F15000 X10.0000 Y1121.5600 Z0.0000
M3S245
G4 P0.5; Tool Off

G0 Z0; move to z-safe height
G0 X10.0000 Y1141.5600
M3S0
G4 P0.5; Tool On
G1 F300 Z0.0000
G1 F15000 X1200.0000 Y1141.5600 Z0.0000
M3S245
G4 P0.5; Tool Off

G0 Z0; move to z-safe height
G0 X1200.0000 Y1161.5600
M3S0
G4 P0.5; Tool On
G1 F300 Z0.0000
G1 F15000 X10.0000 Y1161.5600 Z0.0000
M3S245
G4 P0.5; Tool Off

G0 Z0; move to z-safe height
G0 X10.0000 Y1181.5600
M3S0
G4 P0.5; Tool On
G1 F300 Z0.0000
G1 F15000 X1200.0000 Y1181.5600 Z0.0000
M3S245
G4 P0.5; Tool Off

G0 Z0; move to z-safe height
G0 X1200.0000 Y1201.5600
M3S0
G4 P0.5; Tool On
G1 F300 Z0.0000
G1 F15000 X10.0000 Y1201.5600 Z0.0000
M3S245
G4 P0.5; Tool Off

G0 Z0; move to z-safe height
G0 X10.0000 Y1221.5600
M3S0
G4 P0.5; Tool On
G1 F300 Z0.0000
G1 F15000 X1200.0000 Y1221.5600 Z0.0000
M3S245
G4 P0.5; Tool Off

G0 Z0; move to z-safe height
G0 X1200.0000 Y1241.5600
M3S0
G4 P0.5; Tool On
G1 F300 Z0.0000
G1 F15000 X10.0000 Y1241.5600 Z0.0000
M3S245
G4 P0.5; Tool Off

G0 Z0; move to z-safe height
G0 X10.0000 Y1261.5600
M3S0
G4 P0.5; Tool On
G1 F300 Z0.0000
G1 F15000 X1200.0000 Y1261.5600 Z0.0000
M3S245
G4 P0.5; Tool Off

G0 Z0; move to z-safe height
G0 X1200.0000 Y1281.5600
M3S0
G4 P0.5; Tool On
G1 F300 Z0.0000
G1 F15000 X10.0000 Y1281.5600 Z0.0000
M3S245
G4 P0.5; Tool Off

G0 Z0; move to z-safe height
G0 X10.0000 Y1301.5600
M3S0
G4 P0.5; Tool On
G1 F300 Z0.0000
G1 F15000 X1200.0000 Y1301.5600 Z0.0000
M3S245
G4 P0.5; Tool Off

G0 Z0; move to z-safe height
G0 X1200.0000 Y1321.5600
M3S0
G4 P0.5; Tool On
G1 F300 Z0.0000
G1 F15000 X10.0000 Y1321.5600 Z0.0000
M3S245
G4 P0.5; Tool Off

G0 Z0; move to z-safe height
G0 X10.0000 Y1341.5600
M3S0
G4 P0.5; Tool On
G1 F300 Z0.0000
G1 F15000 X1200.0000 Y1341.5600 Z0.0000
M3S245
G4 P0.5; Tool Off

G0 Z0; move to z-safe height
G0 X1200.0000 Y1361.5600
M3S0
G4 P0.5; Tool On
G1 F300 Z0.0000
G1 F15000 X10.0000 Y1361.5600 Z0.0000
M3S245
G4 P0.5; Tool Off

G0 Z0; move to z-safe height
G0 X10.0000 Y1381.5600
M3S0
G4 P0.5; Tool On
G1 F300 Z0.0000
G1 F15000 X1200.0000 Y1381.5600 Z0.0000
M3S245
G4 P0.5; Tool Off

G0 Z0; move to z-safe height
G0 X1200.0000 Y1401.5600
M3S0
G4 P0.5; Tool On
G1 F300 Z0.0000
G1 F15000 X10.0000 Y1401.5600 Z0.0000
M3S245
G4 P0.5; Tool Off

G0 Z0; move to z-safe height
G0 X10.0000 Y1421.5600
M3S0
G4 P0.5; Tool On
G1 F300 Z0.0000
G1 F15000 X1200.0000 Y1421.5600 Z0.0000
M3S245
G4 P0.5; Tool Off

G0 Z0; move to z-safe height
G0 X1200.0000 Y1441.5600
M3S0
G4 P0.5; Tool On
G1 F300 Z0.0000
G1 F15000 X10.0000 Y1441.5600 Z0.0000
M3S245
G4 P0.5; Tool Off

G0 Z0; move to z-safe height
G0 X10.0000 Y1461.5600
M3S0
G4 P0.5; Tool On
G1 F300 Z0.0000
G1 F15000 X1200.0000 Y1461.5600 Z0.0000
M3S245
G4 P0.5; Tool Off

G0 Z0; move to z-safe height
G0 X1200.0000 Y1481.5600
M3S0
G4 P0.5; Tool On
G1 F300 Z0.0000
G1 F15000 X10.0000 Y1481.5600 Z0.0000
M3S245
G4 P0.5; Tool Off
; retracting back to z-safe
G0 Z0

; Plotter Mode Complete
