; GCODE Generated by cam.openbuilds.com on 2023-06-13 
G21 ; mm-mode
G54; Work Coordinates
G21; mm-mode
G90; Absolute Positioning
; Plotter Mode Active

; Operation 0: Pen Plotter: (lines fill)
; Pen Diameter: 2

G0 Z0; move to z-safe height
G0 F1000 X6.0000 Y12.0900
M3S0
G4 P0.5; Tool On
G1 F300 Z0.0000
G1 F15000 X1144.0000 Y12.0900 Z0.0000
M3S245
G4 P0.5; Tool Off

G0 Z0; move to z-safe height
G0 X1144.0000 Y24.0900
M3S0
G4 P0.5; Tool On
G1 F300 Z0.0000
G1 F15000 X6.0000 Y24.0900 Z0.0000
M3S245
G4 P0.5; Tool Off

G0 Z0; move to z-safe height
G0 X6.0000 Y36.0900
M3S0
G4 P0.5; Tool On
G1 F300 Z0.0000
G1 F15000 X1144.0000 Y36.0900 Z0.0000
M3S245
G4 P0.5; Tool Off

G0 Z0; move to z-safe height
G0 X1144.0000 Y48.0900
M3S0
G4 P0.5; Tool On
G1 F300 Z0.0000
G1 F15000 X6.0000 Y48.0900 Z0.0000
M3S245
G4 P0.5; Tool Off

G0 Z0; move to z-safe height
G0 X6.0000 Y60.0900
M3S0
G4 P0.5; Tool On
G1 F300 Z0.0000
G1 F15000 X1144.0000 Y60.0900 Z0.0000
M3S245
G4 P0.5; Tool Off

G0 Z0; move to z-safe height
G0 X1144.0000 Y72.0900
M3S0
G4 P0.5; Tool On
G1 F300 Z0.0000
G1 F15000 X6.0000 Y72.0900 Z0.0000
M3S245
G4 P0.5; Tool Off

G0 Z0; move to z-safe height
G0 X6.0000 Y84.0900
M3S0
G4 P0.5; Tool On
G1 F300 Z0.0000
G1 F15000 X1144.0000 Y84.0900 Z0.0000
M3S245
G4 P0.5; Tool Off

G0 Z0; move to z-safe height
G0 X1144.0000 Y96.0900
M3S0
G4 P0.5; Tool On
G1 F300 Z0.0000
G1 F15000 X6.0000 Y96.0900 Z0.0000
M3S245
G4 P0.5; Tool Off

G0 Z0; move to z-safe height
G0 X6.0000 Y108.0900
M3S0
G4 P0.5; Tool On
G1 F300 Z0.0000
G1 F15000 X1144.0000 Y108.0900 Z0.0000
M3S245
G4 P0.5; Tool Off

G0 Z0; move to z-safe height
G0 X1144.0000 Y120.0900
M3S0
G4 P0.5; Tool On
G1 F300 Z0.0000
G1 F15000 X6.0000 Y120.0900 Z0.0000
M3S245
G4 P0.5; Tool Off

G0 Z0; move to z-safe height
G0 X6.0000 Y132.0900
M3S0
G4 P0.5; Tool On
G1 F300 Z0.0000
G1 F15000 X1144.0000 Y132.0900 Z0.0000
M3S245
G4 P0.5; Tool Off

G0 Z0; move to z-safe height
G0 X1144.0000 Y144.0900
M3S0
G4 P0.5; Tool On
G1 F300 Z0.0000
G1 F15000 X6.0000 Y144.0900 Z0.0000
M3S245
G4 P0.5; Tool Off

G0 Z0; move to z-safe height
G0 X6.0000 Y156.0900
M3S0
G4 P0.5; Tool On
G1 F300 Z0.0000
G1 F15000 X1144.0000 Y156.0900 Z0.0000
M3S245
G4 P0.5; Tool Off

G0 Z0; move to z-safe height
G0 X1144.0000 Y168.0900
M3S0
G4 P0.5; Tool On
G1 F300 Z0.0000
G1 F15000 X6.0000 Y168.0900 Z0.0000
M3S245
G4 P0.5; Tool Off

G0 Z0; move to z-safe height
G0 X6.0000 Y180.0900
M3S0
G4 P0.5; Tool On
G1 F300 Z0.0000
G1 F15000 X1144.0000 Y180.0900 Z0.0000
M3S245
G4 P0.5; Tool Off

G0 Z0; move to z-safe height
G0 X1144.0000 Y192.0900
M3S0
G4 P0.5; Tool On
G1 F300 Z0.0000
G1 F15000 X6.0000 Y192.0900 Z0.0000
M3S245
G4 P0.5; Tool Off

G0 Z0; move to z-safe height
G0 X6.0000 Y204.0900
M3S0
G4 P0.5; Tool On
G1 F300 Z0.0000
G1 F15000 X1144.0000 Y204.0900 Z0.0000
M3S245
G4 P0.5; Tool Off

G0 Z0; move to z-safe height
G0 X1144.0000 Y216.0900
M3S0
G4 P0.5; Tool On
G1 F300 Z0.0000
G1 F15000 X6.0000 Y216.0900 Z0.0000
M3S245
G4 P0.5; Tool Off

G0 Z0; move to z-safe height
G0 X6.0000 Y228.0900
M3S0
G4 P0.5; Tool On
G1 F300 Z0.0000
G1 F15000 X1144.0000 Y228.0900 Z0.0000
M3S245
G4 P0.5; Tool Off

G0 Z0; move to z-safe height
G0 X1144.0000 Y240.0900
M3S0
G4 P0.5; Tool On
G1 F300 Z0.0000
G1 F15000 X6.0000 Y240.0900 Z0.0000
M3S245
G4 P0.5; Tool Off

G0 Z0; move to z-safe height
G0 X6.0000 Y252.0900
M3S0
G4 P0.5; Tool On
G1 F300 Z0.0000
G1 F15000 X1144.0000 Y252.0900 Z0.0000
M3S245
G4 P0.5; Tool Off

G0 Z0; move to z-safe height
G0 X1144.0000 Y264.0900
M3S0
G4 P0.5; Tool On
G1 F300 Z0.0000
G1 F15000 X6.0000 Y264.0900 Z0.0000
M3S245
G4 P0.5; Tool Off

G0 Z0; move to z-safe height
G0 X6.0000 Y276.0900
M3S0
G4 P0.5; Tool On
G1 F300 Z0.0000
G1 F15000 X1144.0000 Y276.0900 Z0.0000
M3S245
G4 P0.5; Tool Off

G0 Z0; move to z-safe height
G0 X1144.0000 Y288.0900
M3S0
G4 P0.5; Tool On
G1 F300 Z0.0000
G1 F15000 X6.0000 Y288.0900 Z0.0000
M3S245
G4 P0.5; Tool Off

G0 Z0; move to z-safe height
G0 X6.0000 Y300.0900
M3S0
G4 P0.5; Tool On
G1 F300 Z0.0000
G1 F15000 X1144.0000 Y300.0900 Z0.0000
M3S245
G4 P0.5; Tool Off

G0 Z0; move to z-safe height
G0 X1144.0000 Y312.0900
M3S0
G4 P0.5; Tool On
G1 F300 Z0.0000
G1 F15000 X6.0000 Y312.0900 Z0.0000
M3S245
G4 P0.5; Tool Off

G0 Z0; move to z-safe height
G0 X6.0000 Y324.0900
M3S0
G4 P0.5; Tool On
G1 F300 Z0.0000
G1 F15000 X1144.0000 Y324.0900 Z0.0000
M3S245
G4 P0.5; Tool Off

G0 Z0; move to z-safe height
G0 X1144.0000 Y336.0900
M3S0
G4 P0.5; Tool On
G1 F300 Z0.0000
G1 F15000 X6.0000 Y336.0900 Z0.0000
M3S245
G4 P0.5; Tool Off

G0 Z0; move to z-safe height
G0 X6.0000 Y348.0900
M3S0
G4 P0.5; Tool On
G1 F300 Z0.0000
G1 F15000 X1144.0000 Y348.0900 Z0.0000
M3S245
G4 P0.5; Tool Off

G0 Z0; move to z-safe height
G0 X1144.0000 Y360.0900
M3S0
G4 P0.5; Tool On
G1 F300 Z0.0000
G1 F15000 X6.0000 Y360.0900 Z0.0000
M3S245
G4 P0.5; Tool Off

G0 Z0; move to z-safe height
G0 X6.0000 Y372.0900
M3S0
G4 P0.5; Tool On
G1 F300 Z0.0000
G1 F15000 X1144.0000 Y372.0900 Z0.0000
M3S245
G4 P0.5; Tool Off

G0 Z0; move to z-safe height
G0 X1144.0000 Y384.0900
M3S0
G4 P0.5; Tool On
G1 F300 Z0.0000
G1 F15000 X6.0000 Y384.0900 Z0.0000
M3S245
G4 P0.5; Tool Off

G0 Z0; move to z-safe height
G0 X6.0000 Y396.0900
M3S0
G4 P0.5; Tool On
G1 F300 Z0.0000
G1 F15000 X1144.0000 Y396.0900 Z0.0000
M3S245
G4 P0.5; Tool Off

G0 Z0; move to z-safe height
G0 X1144.0000 Y408.0900
M3S0
G4 P0.5; Tool On
G1 F300 Z0.0000
G1 F15000 X6.0000 Y408.0900 Z0.0000
M3S245
G4 P0.5; Tool Off

G0 Z0; move to z-safe height
G0 X6.0000 Y420.0900
M3S0
G4 P0.5; Tool On
G1 F300 Z0.0000
G1 F15000 X1144.0000 Y420.0900 Z0.0000
M3S245
G4 P0.5; Tool Off

G0 Z0; move to z-safe height
G0 X1144.0000 Y432.0900
M3S0
G4 P0.5; Tool On
G1 F300 Z0.0000
G1 F15000 X6.0000 Y432.0900 Z0.0000
M3S245
G4 P0.5; Tool Off

G0 Z0; move to z-safe height
G0 X6.0000 Y444.0900
M3S0
G4 P0.5; Tool On
G1 F300 Z0.0000
G1 F15000 X1144.0000 Y444.0900 Z0.0000
M3S245
G4 P0.5; Tool Off

G0 Z0; move to z-safe height
G0 X1144.0000 Y456.0900
M3S0
G4 P0.5; Tool On
G1 F300 Z0.0000
G1 F15000 X6.0000 Y456.0900 Z0.0000
M3S245
G4 P0.5; Tool Off

G0 Z0; move to z-safe height
G0 X6.0000 Y468.0900
M3S0
G4 P0.5; Tool On
G1 F300 Z0.0000
G1 F15000 X1144.0000 Y468.0900 Z0.0000
M3S245
G4 P0.5; Tool Off

G0 Z0; move to z-safe height
G0 X1144.0000 Y480.0900
M3S0
G4 P0.5; Tool On
G1 F300 Z0.0000
G1 F15000 X6.0000 Y480.0900 Z0.0000
M3S245
G4 P0.5; Tool Off

G0 Z0; move to z-safe height
G0 X6.0000 Y492.0900
M3S0
G4 P0.5; Tool On
G1 F300 Z0.0000
G1 F15000 X1144.0000 Y492.0900 Z0.0000
M3S245
G4 P0.5; Tool Off

G0 Z0; move to z-safe height
G0 X1144.0000 Y504.0900
M3S0
G4 P0.5; Tool On
G1 F300 Z0.0000
G1 F15000 X6.0000 Y504.0900 Z0.0000
M3S245
G4 P0.5; Tool Off

G0 Z0; move to z-safe height
G0 X6.0000 Y516.0900
M3S0
G4 P0.5; Tool On
G1 F300 Z0.0000
G1 F15000 X1144.0000 Y516.0900 Z0.0000
M3S245
G4 P0.5; Tool Off

G0 Z0; move to z-safe height
G0 X1144.0000 Y528.0900
M3S0
G4 P0.5; Tool On
G1 F300 Z0.0000
G1 F15000 X6.0000 Y528.0900 Z0.0000
M3S245
G4 P0.5; Tool Off

G0 Z0; move to z-safe height
G0 X6.0000 Y540.0900
M3S0
G4 P0.5; Tool On
G1 F300 Z0.0000
G1 F15000 X1144.0000 Y540.0900 Z0.0000
M3S245
G4 P0.5; Tool Off

G0 Z0; move to z-safe height
G0 X1144.0000 Y552.0900
M3S0
G4 P0.5; Tool On
G1 F300 Z0.0000
G1 F15000 X6.0000 Y552.0900 Z0.0000
M3S245
G4 P0.5; Tool Off

G0 Z0; move to z-safe height
G0 X6.0000 Y564.0900
M3S0
G4 P0.5; Tool On
G1 F300 Z0.0000
G1 F15000 X1144.0000 Y564.0900 Z0.0000
M3S245
G4 P0.5; Tool Off

G0 Z0; move to z-safe height
G0 X1144.0000 Y576.0900
M3S0
G4 P0.5; Tool On
G1 F300 Z0.0000
G1 F15000 X6.0000 Y576.0900 Z0.0000
M3S245
G4 P0.5; Tool Off

G0 Z0; move to z-safe height
G0 X6.0000 Y588.0900
M3S0
G4 P0.5; Tool On
G1 F300 Z0.0000
G1 F15000 X1144.0000 Y588.0900 Z0.0000
M3S245
G4 P0.5; Tool Off

G0 Z0; move to z-safe height
G0 X1144.0000 Y600.0900
M3S0
G4 P0.5; Tool On
G1 F300 Z0.0000
G1 F15000 X6.0000 Y600.0900 Z0.0000
M3S245
G4 P0.5; Tool Off

G0 Z0; move to z-safe height
G0 X6.0000 Y612.0900
M3S0
G4 P0.5; Tool On
G1 F300 Z0.0000
G1 F15000 X1144.0000 Y612.0900 Z0.0000
M3S245
G4 P0.5; Tool Off

G0 Z0; move to z-safe height
G0 X1144.0000 Y624.0900
M3S0
G4 P0.5; Tool On
G1 F300 Z0.0000
G1 F15000 X6.0000 Y624.0900 Z0.0000
M3S245
G4 P0.5; Tool Off

G0 Z0; move to z-safe height
G0 X6.0000 Y636.0900
M3S0
G4 P0.5; Tool On
G1 F300 Z0.0000
G1 F15000 X1144.0000 Y636.0900 Z0.0000
M3S245
G4 P0.5; Tool Off

G0 Z0; move to z-safe height
G0 X1144.0000 Y648.0900
M3S0
G4 P0.5; Tool On
G1 F300 Z0.0000
G1 F15000 X6.0000 Y648.0900 Z0.0000
M3S245
G4 P0.5; Tool Off

G0 Z0; move to z-safe height
G0 X6.0000 Y660.0900
M3S0
G4 P0.5; Tool On
G1 F300 Z0.0000
G1 F15000 X1144.0000 Y660.0900 Z0.0000
M3S245
G4 P0.5; Tool Off

G0 Z0; move to z-safe height
G0 X1144.0000 Y672.0900
M3S0
G4 P0.5; Tool On
G1 F300 Z0.0000
G1 F15000 X6.0000 Y672.0900 Z0.0000
M3S245
G4 P0.5; Tool Off

G0 Z0; move to z-safe height
G0 X6.0000 Y684.0900
M3S0
G4 P0.5; Tool On
G1 F300 Z0.0000
G1 F15000 X1144.0000 Y684.0900 Z0.0000
M3S245
G4 P0.5; Tool Off

G0 Z0; move to z-safe height
G0 X1144.0000 Y696.0900
M3S0
G4 P0.5; Tool On
G1 F300 Z0.0000
G1 F15000 X6.0000 Y696.0900 Z0.0000
M3S245
G4 P0.5; Tool Off

G0 Z0; move to z-safe height
G0 X6.0000 Y708.0900
M3S0
G4 P0.5; Tool On
G1 F300 Z0.0000
G1 F15000 X1144.0000 Y708.0900 Z0.0000
M3S245
G4 P0.5; Tool Off

G0 Z0; move to z-safe height
G0 X1144.0000 Y720.0900
M3S0
G4 P0.5; Tool On
G1 F300 Z0.0000
G1 F15000 X6.0000 Y720.0900 Z0.0000
M3S245
G4 P0.5; Tool Off

G0 Z0; move to z-safe height
G0 X6.0000 Y732.0900
M3S0
G4 P0.5; Tool On
G1 F300 Z0.0000
G1 F15000 X1144.0000 Y732.0900 Z0.0000
M3S245
G4 P0.5; Tool Off

G0 Z0; move to z-safe height
G0 X1144.0000 Y744.0900
M3S0
G4 P0.5; Tool On
G1 F300 Z0.0000
G1 F15000 X6.0000 Y744.0900 Z0.0000
M3S245
G4 P0.5; Tool Off

G0 Z0; move to z-safe height
G0 X6.0000 Y756.0900
M3S0
G4 P0.5; Tool On
G1 F300 Z0.0000
G1 F15000 X1144.0000 Y756.0900 Z0.0000
M3S245
G4 P0.5; Tool Off

G0 Z0; move to z-safe height
G0 X1144.0000 Y768.0900
M3S0
G4 P0.5; Tool On
G1 F300 Z0.0000
G1 F15000 X6.0000 Y768.0900 Z0.0000
M3S245
G4 P0.5; Tool Off

G0 Z0; move to z-safe height
G0 X6.0000 Y780.0900
M3S0
G4 P0.5; Tool On
G1 F300 Z0.0000
G1 F15000 X1144.0000 Y780.0900 Z0.0000
M3S245
G4 P0.5; Tool Off

G0 Z0; move to z-safe height
G0 X1144.0000 Y792.0900
M3S0
G4 P0.5; Tool On
G1 F300 Z0.0000
G1 F15000 X6.0000 Y792.0900 Z0.0000
M3S245
G4 P0.5; Tool Off

G0 Z0; move to z-safe height
G0 X6.0000 Y804.0900
M3S0
G4 P0.5; Tool On
G1 F300 Z0.0000
G1 F15000 X1144.0000 Y804.0900 Z0.0000
M3S245
G4 P0.5; Tool Off

G0 Z0; move to z-safe height
G0 X1144.0000 Y816.0900
M3S0
G4 P0.5; Tool On
G1 F300 Z0.0000
G1 F15000 X6.0000 Y816.0900 Z0.0000
M3S245
G4 P0.5; Tool Off

G0 Z0; move to z-safe height
G0 X6.0000 Y828.0900
M3S0
G4 P0.5; Tool On
G1 F300 Z0.0000
G1 F15000 X1144.0000 Y828.0900 Z0.0000
M3S245
G4 P0.5; Tool Off

G0 Z0; move to z-safe height
G0 X1144.0000 Y840.0900
M3S0
G4 P0.5; Tool On
G1 F300 Z0.0000
G1 F15000 X6.0000 Y840.0900 Z0.0000
M3S245
G4 P0.5; Tool Off

G0 Z0; move to z-safe height
G0 X6.0000 Y852.0900
M3S0
G4 P0.5; Tool On
G1 F300 Z0.0000
G1 F15000 X1144.0000 Y852.0900 Z0.0000
M3S245
G4 P0.5; Tool Off

G0 Z0; move to z-safe height
G0 X1144.0000 Y864.0900
M3S0
G4 P0.5; Tool On
G1 F300 Z0.0000
G1 F15000 X6.0000 Y864.0900 Z0.0000
M3S245
G4 P0.5; Tool Off

G0 Z0; move to z-safe height
G0 X6.0000 Y876.0900
M3S0
G4 P0.5; Tool On
G1 F300 Z0.0000
G1 F15000 X1144.0000 Y876.0900 Z0.0000
M3S245
G4 P0.5; Tool Off

G0 Z0; move to z-safe height
G0 X1144.0000 Y888.0900
M3S0
G4 P0.5; Tool On
G1 F300 Z0.0000
G1 F15000 X6.0000 Y888.0900 Z0.0000
M3S245
G4 P0.5; Tool Off

G0 Z0; move to z-safe height
G0 X6.0000 Y900.0900
M3S0
G4 P0.5; Tool On
G1 F300 Z0.0000
G1 F15000 X1144.0000 Y900.0900 Z0.0000
M3S245
G4 P0.5; Tool Off

G0 Z0; move to z-safe height
G0 X1144.0000 Y912.0900
M3S0
G4 P0.5; Tool On
G1 F300 Z0.0000
G1 F15000 X6.0000 Y912.0900 Z0.0000
M3S245
G4 P0.5; Tool Off

G0 Z0; move to z-safe height
G0 X6.0000 Y924.0900
M3S0
G4 P0.5; Tool On
G1 F300 Z0.0000
G1 F15000 X1144.0000 Y924.0900 Z0.0000
M3S245
G4 P0.5; Tool Off

G0 Z0; move to z-safe height
G0 X1144.0000 Y936.0900
M3S0
G4 P0.5; Tool On
G1 F300 Z0.0000
G1 F15000 X6.0000 Y936.0900 Z0.0000
M3S245
G4 P0.5; Tool Off

G0 Z0; move to z-safe height
G0 X6.0000 Y948.0900
M3S0
G4 P0.5; Tool On
G1 F300 Z0.0000
G1 F15000 X1144.0000 Y948.0900 Z0.0000
M3S245
G4 P0.5; Tool Off

G0 Z0; move to z-safe height
G0 X1144.0000 Y960.0900
M3S0
G4 P0.5; Tool On
G1 F300 Z0.0000
G1 F15000 X6.0000 Y960.0900 Z0.0000
M3S245
G4 P0.5; Tool Off

G0 Z0; move to z-safe height
G0 X6.0000 Y972.0900
M3S0
G4 P0.5; Tool On
G1 F300 Z0.0000
G1 F15000 X1144.0000 Y972.0900 Z0.0000
M3S245
G4 P0.5; Tool Off

G0 Z0; move to z-safe height
G0 X1144.0000 Y984.0900
M3S0
G4 P0.5; Tool On
G1 F300 Z0.0000
G1 F15000 X6.0000 Y984.0900 Z0.0000
M3S245
G4 P0.5; Tool Off

G0 Z0; move to z-safe height
G0 X6.0000 Y996.0900
M3S0
G4 P0.5; Tool On
G1 F300 Z0.0000
G1 F15000 X1144.0000 Y996.0900 Z0.0000
M3S245
G4 P0.5; Tool Off

G0 Z0; move to z-safe height
G0 X1144.0000 Y1008.0900
M3S0
G4 P0.5; Tool On
G1 F300 Z0.0000
G1 F15000 X6.0000 Y1008.0900 Z0.0000
M3S245
G4 P0.5; Tool Off

G0 Z0; move to z-safe height
G0 X6.0000 Y1020.0900
M3S0
G4 P0.5; Tool On
G1 F300 Z0.0000
G1 F15000 X1144.0000 Y1020.0900 Z0.0000
M3S245
G4 P0.5; Tool Off

G0 Z0; move to z-safe height
G0 X1144.0000 Y1032.0900
M3S0
G4 P0.5; Tool On
G1 F300 Z0.0000
G1 F15000 X6.0000 Y1032.0900 Z0.0000
M3S245
G4 P0.5; Tool Off

G0 Z0; move to z-safe height
G0 X6.0000 Y1044.0900
M3S0
G4 P0.5; Tool On
G1 F300 Z0.0000
G1 F15000 X1144.0000 Y1044.0900 Z0.0000
M3S245
G4 P0.5; Tool Off

G0 Z0; move to z-safe height
G0 X1144.0000 Y1056.0900
M3S0
G4 P0.5; Tool On
G1 F300 Z0.0000
G1 F15000 X6.0000 Y1056.0900 Z0.0000
M3S245
G4 P0.5; Tool Off

G0 Z0; move to z-safe height
G0 X6.0000 Y1068.0900
M3S0
G4 P0.5; Tool On
G1 F300 Z0.0000
G1 F15000 X1144.0000 Y1068.0900 Z0.0000
M3S245
G4 P0.5; Tool Off

G0 Z0; move to z-safe height
G0 X1144.0000 Y1080.0900
M3S0
G4 P0.5; Tool On
G1 F300 Z0.0000
G1 F15000 X6.0000 Y1080.0900 Z0.0000
M3S245
G4 P0.5; Tool Off

G0 Z0; move to z-safe height
G0 X6.0000 Y1092.0900
M3S0
G4 P0.5; Tool On
G1 F300 Z0.0000
G1 F15000 X1144.0000 Y1092.0900 Z0.0000
M3S245
G4 P0.5; Tool Off

G0 Z0; move to z-safe height
G0 X1144.0000 Y1104.0900
M3S0
G4 P0.5; Tool On
G1 F300 Z0.0000
G1 F15000 X6.0000 Y1104.0900 Z0.0000
M3S245
G4 P0.5; Tool Off

G0 Z0; move to z-safe height
G0 X6.0000 Y1116.0900
M3S0
G4 P0.5; Tool On
G1 F300 Z0.0000
G1 F15000 X1144.0000 Y1116.0900 Z0.0000
M3S245
G4 P0.5; Tool Off

G0 Z0; move to z-safe height
G0 X1144.0000 Y1128.0900
M3S0
G4 P0.5; Tool On
G1 F300 Z0.0000
G1 F15000 X6.0000 Y1128.0900 Z0.0000
M3S245
G4 P0.5; Tool Off

G0 Z0; move to z-safe height
G0 X6.0000 Y1140.0900
M3S0
G4 P0.5; Tool On
G1 F300 Z0.0000
G1 F15000 X1144.0000 Y1140.0900 Z0.0000
M3S245
G4 P0.5; Tool Off

G0 Z0; move to z-safe height
G0 X1144.0000 Y1152.0900
M3S0
G4 P0.5; Tool On
G1 F300 Z0.0000
G1 F15000 X6.0000 Y1152.0900 Z0.0000
M3S245
G4 P0.5; Tool Off

G0 Z0; move to z-safe height
G0 X6.0000 Y1164.0900
M3S0
G4 P0.5; Tool On
G1 F300 Z0.0000
G1 F15000 X1144.0000 Y1164.0900 Z0.0000
M3S245
G4 P0.5; Tool Off

G0 Z0; move to z-safe height
G0 X1144.0000 Y1176.0900
M3S0
G4 P0.5; Tool On
G1 F300 Z0.0000
G1 F15000 X6.0000 Y1176.0900 Z0.0000
M3S245
G4 P0.5; Tool Off

G0 Z0; move to z-safe height
G0 X6.0000 Y1188.0900
M3S0
G4 P0.5; Tool On
G1 F300 Z0.0000
G1 F15000 X1144.0000 Y1188.0900 Z0.0000
M3S245
G4 P0.5; Tool Off

G0 Z0; move to z-safe height
G0 X1144.0000 Y1200.0900
M3S0
G4 P0.5; Tool On
G1 F300 Z0.0000
G1 F15000 X6.0000 Y1200.0900 Z0.0000
M3S245
G4 P0.5; Tool Off

G0 Z0; move to z-safe height
G0 X6.0000 Y1212.0900
M3S0
G4 P0.5; Tool On
G1 F300 Z0.0000
G1 F15000 X1144.0000 Y1212.0900 Z0.0000
M3S245
G4 P0.5; Tool Off

G0 Z0; move to z-safe height
G0 X1144.0000 Y1224.0900
M3S0
G4 P0.5; Tool On
G1 F300 Z0.0000
G1 F15000 X6.0000 Y1224.0900 Z0.0000
M3S245
G4 P0.5; Tool Off

G0 Z0; move to z-safe height
G0 X6.0000 Y1236.0900
M3S0
G4 P0.5; Tool On
G1 F300 Z0.0000
G1 F15000 X1144.0000 Y1236.0900 Z0.0000
M3S245
G4 P0.5; Tool Off

G0 Z0; move to z-safe height
G0 X1144.0000 Y1248.0900
M3S0
G4 P0.5; Tool On
G1 F300 Z0.0000
G1 F15000 X6.0000 Y1248.0900 Z0.0000
M3S245
G4 P0.5; Tool Off

G0 Z0; move to z-safe height
G0 X6.0000 Y1260.0900
M3S0
G4 P0.5; Tool On
G1 F300 Z0.0000
G1 F15000 X1144.0000 Y1260.0900 Z0.0000
M3S245
G4 P0.5; Tool Off

G0 Z0; move to z-safe height
G0 X1144.0000 Y1272.0900
M3S0
G4 P0.5; Tool On
G1 F300 Z0.0000
G1 F15000 X6.0000 Y1272.0900 Z0.0000
M3S245
G4 P0.5; Tool Off

G0 Z0; move to z-safe height
G0 X6.0000 Y1284.0900
M3S0
G4 P0.5; Tool On
G1 F300 Z0.0000
G1 F15000 X1144.0000 Y1284.0900 Z0.0000
M3S245
G4 P0.5; Tool Off

G0 Z0; move to z-safe height
G0 X1144.0000 Y1296.0900
M3S0
G4 P0.5; Tool On
G1 F300 Z0.0000
G1 F15000 X6.0000 Y1296.0900 Z0.0000
M3S245
G4 P0.5; Tool Off

G0 Z0; move to z-safe height
G0 X6.0000 Y1308.0900
M3S0
G4 P0.5; Tool On
G1 F300 Z0.0000
G1 F15000 X1144.0000 Y1308.0900 Z0.0000
M3S245
G4 P0.5; Tool Off

G0 Z0; move to z-safe height
G0 X1144.0000 Y1320.0900
M3S0
G4 P0.5; Tool On
G1 F300 Z0.0000
G1 F15000 X6.0000 Y1320.0900 Z0.0000
M3S245
G4 P0.5; Tool Off

G0 Z0; move to z-safe height
G0 X6.0000 Y1332.0900
M3S0
G4 P0.5; Tool On
G1 F300 Z0.0000
G1 F15000 X1144.0000 Y1332.0900 Z0.0000
M3S245
G4 P0.5; Tool Off

G0 Z0; move to z-safe height
G0 X1144.0000 Y1344.0900
M3S0
G4 P0.5; Tool On
G1 F300 Z0.0000
G1 F15000 X6.0000 Y1344.0900 Z0.0000
M3S245
G4 P0.5; Tool Off

G0 Z0; move to z-safe height
G0 X6.0000 Y1356.0900
M3S0
G4 P0.5; Tool On
G1 F300 Z0.0000
G1 F15000 X1144.0000 Y1356.0900 Z0.0000
M3S245
G4 P0.5; Tool Off

G0 Z0; move to z-safe height
G0 X1144.0000 Y1368.0900
M3S0
G4 P0.5; Tool On
G1 F300 Z0.0000
G1 F15000 X6.0000 Y1368.0900 Z0.0000
M3S245
G4 P0.5; Tool Off

G0 Z0; move to z-safe height
G0 X6.0000 Y1380.0900
M3S0
G4 P0.5; Tool On
G1 F300 Z0.0000
G1 F15000 X1144.0000 Y1380.0900 Z0.0000
M3S245
G4 P0.5; Tool Off

G0 Z0; move to z-safe height
G0 X1144.0000 Y1392.0900
M3S0
G4 P0.5; Tool On
G1 F300 Z0.0000
G1 F15000 X6.0000 Y1392.0900 Z0.0000
M3S245
G4 P0.5; Tool Off

G0 Z0; move to z-safe height
G0 X6.0000 Y1404.0900
M3S0
G4 P0.5; Tool On
G1 F300 Z0.0000
G1 F15000 X1144.0000 Y1404.0900 Z0.0000
M3S245
G4 P0.5; Tool Off

G0 Z0; move to z-safe height
G0 X1144.0000 Y1416.0900
M3S0
G4 P0.5; Tool On
G1 F300 Z0.0000
G1 F15000 X6.0000 Y1416.0900 Z0.0000
M3S245
G4 P0.5; Tool Off

G0 Z0; move to z-safe height
G0 X6.0000 Y1428.0900
M3S0
G4 P0.5; Tool On
G1 F300 Z0.0000
G1 F15000 X1144.0000 Y1428.0900 Z0.0000
M3S245
G4 P0.5; Tool Off

G0 Z0; move to z-safe height
G0 X1144.0000 Y1440.0900
M3S0
G4 P0.5; Tool On
G1 F300 Z0.0000
G1 F15000 X6.0000 Y1440.0900 Z0.0000
M3S245
G4 P0.5; Tool Off
; retracting back to z-safe
G0 Z0

; Plotter Mode Complete
