; GCODE Generated by cam.openbuilds.com on 2024-01-15 
G21 ; mm-mode
G54; Work Coordinates
G21; mm-mode
G90; Absolute Positioning
; Plotter Mode Active

; Operation 0: Pen Plotter: (no offset)
; Pen Diameter: 2

G0 Z0; move to z-safe height
G0 F1000 X333.8024 Y347.2846
M3S0
G4 P0.5; Tool On
G1 F300 Z-0.1000
G1 F15000 X145.2174 Y15.9242 Z-0.1000
M3S245
G4 P0.5; Tool Off

G0 Z0; move to z-safe height
G0 X413.5301 Y259.4590
M3S0
G4 P0.5; Tool On
G1 F300 Z-0.1000
G1 F15000 X24.8115 Y21.5697 Z-0.1000
M3S245
G4 P0.5; Tool Off

G0 Z0; move to z-safe height
G0 X396.7674 Y195.2941
M3S0
G4 P0.5; Tool On
G1 F300 Z-0.1000
G1 F15000 X0.4343 Y0.6473 Z-0.1000
M3S245
G4 P0.5; Tool Off

G0 Z0; move to z-safe height
G0 X257.7027 Y146.4274
M3S0
G4 P0.5; Tool On
G1 F300 Z-0.1000
G1 F15000 X118.3578 Y2.7572 Z-0.1000
M3S245
G4 P0.5; Tool Off

G0 Z0; move to z-safe height
G0 X430.3447 Y21.8003
M3S0
G4 P0.5; Tool On
G1 F300 Z-0.1000
G1 F15000 X18.3502 Y15.5136 Z-0.1000
M3S245
G4 P0.5; Tool Off

G0 Z0; move to z-safe height
G0 X378.5751 Y147.7524
M3S0
G4 P0.5; Tool On
G1 F300 Z-0.1000
G1 F15000 X82.7317 Y4.2034 Z-0.1000
M3S245
G4 P0.5; Tool Off

G0 Z0; move to z-safe height
G0 X412.1220 Y32.4816
M3S0
G4 P0.5; Tool On
G1 F300 Z-0.1000
G1 F15000 X150.5034 Y12.8172 Z-0.1000
M3S245
G4 P0.5; Tool Off

G0 Z0; move to z-safe height
G0 X328.4727 Y118.1441
M3S0
G4 P0.5; Tool On
G1 F300 Z-0.1000
G1 F15000 X212.6258 Y20.8643 Z-0.1000
M3S245
G4 P0.5; Tool Off

G0 Z0; move to z-safe height
G0 X258.5711 Y315.5887
M3S0
G4 P0.5; Tool On
G1 F300 Z-0.1000
G1 F15000 X115.0354 Y13.3960 Z-0.1000
M3S245
G4 P0.5; Tool Off

G0 Z0; move to z-safe height
G0 X269.5914 Y164.1045
M3S0
G4 P0.5; Tool On
G1 F300 Z-0.1000
G1 F15000 X173.5114 Y25.2794 Z-0.1000
M3S245
G4 P0.5; Tool Off

G0 Z0; move to z-safe height
G0 X213.5420 Y28.2828
M3S0
G4 P0.5; Tool On
G1 F300 Z-0.1000
G1 F15000 X21.8378 Y15.7409 Z-0.1000
M3S245
G4 P0.5; Tool Off

G0 Z0; move to z-safe height
G0 X311.5924 Y139.7340
M3S0
G4 P0.5; Tool On
G1 F300 Z-0.1000
G1 F15000 X260.3428 Y23.8843 Z-0.1000
M3S245
G4 P0.5; Tool Off

G0 Z0; move to z-safe height
G0 X302.3432 Y31.7619
M3S0
G4 P0.5; Tool On
G1 F300 Z-0.1000
G1 F15000 X431.7710 Y20.3336 Z-0.1000
M3S245
G4 P0.5; Tool Off

G0 Z0; move to z-safe height
G0 X323.7086 Y0.5448
M3S0
G4 P0.5; Tool On
G1 F300 Z-0.1000
G1 F15000 X84.3919 Y7.8748 Z-0.1000
M3S245
G4 P0.5; Tool Off

G0 Z0; move to z-safe height
G0 X344.2802 Y69.4608
M3S0
G4 P0.5; Tool On
G1 F300 Z-0.1000
G1 F15000 X140.5704 Y17.2773 Z-0.1000
M3S245
G4 P0.5; Tool Off

G0 Z0; move to z-safe height
G0 X449.2548 Y10.5430
M3S0
G4 P0.5; Tool On
G1 F300 Z-0.1000
G1 F15000 X294.6633 Y12.3126 Z-0.1000
M3S245
G4 P0.5; Tool Off

G0 Z0; move to z-safe height
G0 X304.0827 Y142.6070
M3S0
G4 P0.5; Tool On
G1 F300 Z-0.1000
G1 F15000 X332.0858 Y20.6105 Z-0.1000
M3S245
G4 P0.5; Tool Off

G0 Z0; move to z-safe height
G0 X121.7239 Y97.7284
M3S0
G4 P0.5; Tool On
G1 F300 Z-0.1000
G1 F15000 X92.4413 Y17.1303 Z-0.1000
M3S245
G4 P0.5; Tool Off

G0 Z0; move to z-safe height
G0 X273.9797 Y5.4857
M3S0
G4 P0.5; Tool On
G1 F300 Z-0.1000
G1 F15000 X16.2327 Y9.1354 Z-0.1000
M3S245
G4 P0.5; Tool Off

G0 Z0; move to z-safe height
G0 X201.2954 Y32.6176
M3S0
G4 P0.5; Tool On
G1 F300 Z-0.1000
G1 F15000 X67.1806 Y15.4699 Z-0.1000
M3S245
G4 P0.5; Tool Off

G0 Z0; move to z-safe height
G0 X434.5547 Y41.5103
M3S0
G4 P0.5; Tool On
G1 F300 Z-0.1000
G1 F15000 X102.6691 Y17.9929 Z-0.1000
M3S245
G4 P0.5; Tool Off

G0 Z0; move to z-safe height
G0 X234.2057 Y5.6470
M3S0
G4 P0.5; Tool On
G1 F300 Z-0.1000
G1 F15000 X297.0704 Y5.1150 Z-0.1000
M3S245
G4 P0.5; Tool Off

G0 Z0; move to z-safe height
G0 X397.1217 Y188.2246
M3S0
G4 P0.5; Tool On
G1 F300 Z-0.1000
G1 F15000 X70.0211 Y10.4042 Z-0.1000
M3S245
G4 P0.5; Tool Off

G0 Z0; move to z-safe height
G0 X408.4245 Y187.6141
M3S0
G4 P0.5; Tool On
G1 F300 Z-0.1000
G1 F15000 X17.0132 Y24.4733 Z-0.1000
M3S245
G4 P0.5; Tool Off

G0 Z0; move to z-safe height
G0 X89.6312 Y1.7532
M3S0
G4 P0.5; Tool On
G1 F300 Z-0.1000
G1 F15000 X141.7344 Y10.8889 Z-0.1000
M3S245
G4 P0.5; Tool Off

G0 Z0; move to z-safe height
G0 X354.7427 Y1.3708
M3S0
G4 P0.5; Tool On
G1 F300 Z-0.1000
G1 F15000 X315.1270 Y2.8001 Z-0.1000
M3S245
G4 P0.5; Tool Off

G0 Z0; move to z-safe height
G0 X221.4910 Y21.9214
M3S0
G4 P0.5; Tool On
G1 F300 Z-0.1000
G1 F15000 X104.6125 Y4.5641 Z-0.1000
M3S245
G4 P0.5; Tool Off

G0 Z0; move to z-safe height
G0 X427.2493 Y142.5298
M3S0
G4 P0.5; Tool On
G1 F300 Z-0.1000
G1 F15000 X36.0192 Y3.7711 Z-0.1000
M3S245
G4 P0.5; Tool Off

G0 Z0; move to z-safe height
G0 X23.5051 Y39.3895
M3S0
G4 P0.5; Tool On
G1 F300 Z-0.1000
G1 F15000 X256.9483 Y22.9054 Z-0.1000
M3S245
G4 P0.5; Tool Off

G0 Z0; move to z-safe height
G0 X5.7605 Y251.4028
M3S0
G4 P0.5; Tool On
G1 F300 Z-0.1000
G1 F15000 X62.4603 Y0.3058 Z-0.1000
M3S245
G4 P0.5; Tool Off

G0 Z0; move to z-safe height
G0 X134.0736 Y57.9054
M3S0
G4 P0.5; Tool On
G1 F300 Z-0.1000
G1 F15000 X192.3722 Y10.0994 Z-0.1000
M3S245
G4 P0.5; Tool Off

G0 Z0; move to z-safe height
G0 X27.2849 Y30.1608
M3S0
G4 P0.5; Tool On
G1 F300 Z-0.1000
G1 F15000 X293.9991 Y23.3613 Z-0.1000
M3S245
G4 P0.5; Tool Off

G0 Z0; move to z-safe height
G0 X156.4294 Y60.6697
M3S0
G4 P0.5; Tool On
G1 F300 Z-0.1000
G1 F15000 X288.2526 Y3.8133 Z-0.1000
M3S245
G4 P0.5; Tool Off

G0 Z0; move to z-safe height
G0 X124.9380 Y110.7911
M3S0
G4 P0.5; Tool On
G1 F300 Z-0.1000
G1 F15000 X140.8268 Y23.0816 Z-0.1000
M3S245
G4 P0.5; Tool Off

G0 Z0; move to z-safe height
G0 X280.7196 Y75.6631
M3S0
G4 P0.5; Tool On
G1 F300 Z-0.1000
G1 F15000 X93.2686 Y2.1669 Z-0.1000
M3S245
G4 P0.5; Tool Off

G0 Z0; move to z-safe height
G0 X399.6309 Y87.4270
M3S0
G4 P0.5; Tool On
G1 F300 Z-0.1000
G1 F15000 X132.4303 Y6.3703 Z-0.1000
M3S245
G4 P0.5; Tool Off

G0 Z0; move to z-safe height
G0 X93.9113 Y265.2316
M3S0
G4 P0.5; Tool On
G1 F300 Z-0.1000
G1 F15000 X21.4190 Y7.7590 Z-0.1000
M3S245
G4 P0.5; Tool Off

G0 Z0; move to z-safe height
G0 X37.0873 Y227.4077
M3S0
G4 P0.5; Tool On
G1 F300 Z-0.1000
G1 F15000 X304.9314 Y4.3059 Z-0.1000
M3S245
G4 P0.5; Tool Off

G0 Z0; move to z-safe height
G0 X160.0709 Y231.6433
M3S0
G4 P0.5; Tool On
G1 F300 Z-0.1000
G1 F15000 X104.9533 Y4.9898 Z-0.1000
M3S245
G4 P0.5; Tool Off

G0 Z0; move to z-safe height
G0 X139.7733 Y183.9220
M3S0
G4 P0.5; Tool On
G1 F300 Z-0.1000
G1 F15000 X78.3018 Y4.4744 Z-0.1000
M3S245
G4 P0.5; Tool Off

G0 Z0; move to z-safe height
G0 X13.6805 Y49.1468
M3S0
G4 P0.5; Tool On
G1 F300 Z-0.1000
G1 F15000 X178.2054 Y23.9127 Z-0.1000
M3S245
G4 P0.5; Tool Off

G0 Z0; move to z-safe height
G0 X276.1297 Y84.6497
M3S0
G4 P0.5; Tool On
G1 F300 Z-0.1000
G1 F15000 X129.2958 Y14.8532 Z-0.1000
M3S245
G4 P0.5; Tool Off

G0 Z0; move to z-safe height
G0 X332.4209 Y41.7555
M3S0
G4 P0.5; Tool On
G1 F300 Z-0.1000
G1 F15000 X359.2616 Y14.8036 Z-0.1000
M3S245
G4 P0.5; Tool Off

G0 Z0; move to z-safe height
G0 X329.9273 Y325.8206
M3S0
G4 P0.5; Tool On
G1 F300 Z-0.1000
G1 F15000 X209.3208 Y16.9414 Z-0.1000
M3S245
G4 P0.5; Tool Off

G0 Z0; move to z-safe height
G0 X234.7326 Y260.9970
M3S0
G4 P0.5; Tool On
G1 F300 Z-0.1000
G1 F15000 X98.3215 Y18.9462 Z-0.1000
M3S245
G4 P0.5; Tool Off

G0 Z0; move to z-safe height
G0 X405.7318 Y114.9168
M3S0
G4 P0.5; Tool On
G1 F300 Z-0.1000
G1 F15000 X365.2067 Y12.6979 Z-0.1000
M3S245
G4 P0.5; Tool Off

G0 Z0; move to z-safe height
G0 X212.1554 Y198.9284
M3S0
G4 P0.5; Tool On
G1 F300 Z-0.1000
G1 F15000 X179.1766 Y19.2742 Z-0.1000
M3S245
G4 P0.5; Tool Off

G0 Z0; move to z-safe height
G0 X341.1140 Y318.1462
M3S0
G4 P0.5; Tool On
G1 F300 Z-0.1000
G1 F15000 X104.9283 Y16.6522 Z-0.1000
M3S245
G4 P0.5; Tool Off

G0 Z0; move to z-safe height
G0 X144.4080 Y63.7559
M3S0
G4 P0.5; Tool On
G1 F300 Z-0.1000
G1 F15000 X218.7506 Y5.0951 Z-0.1000
M3S245
G4 P0.5; Tool Off

G0 Z0; move to z-safe height
G0 X150.9820 Y149.6307
M3S0
G4 P0.5; Tool On
G1 F300 Z-0.1000
G1 F15000 X144.6138 Y8.0637 Z-0.1000
M3S245
G4 P0.5; Tool Off

G0 Z0; move to z-safe height
G0 X165.8450 Y334.4022
M3S0
G4 P0.5; Tool On
G1 F300 Z-0.1000
G1 F15000 X350.6278 Y0.9594 Z-0.1000
M3S245
G4 P0.5; Tool Off

G0 Z0; move to z-safe height
G0 X126.1382 Y110.5904
M3S0
G4 P0.5; Tool On
G1 F300 Z-0.1000
G1 F15000 X249.0454 Y9.3517 Z-0.1000
M3S245
G4 P0.5; Tool Off

G0 Z0; move to z-safe height
G0 X73.3228 Y284.0510
M3S0
G4 P0.5; Tool On
G1 F300 Z-0.1000
G1 F15000 X390.0620 Y3.7141 Z-0.1000
M3S245
G4 P0.5; Tool Off

G0 Z0; move to z-safe height
G0 X392.6451 Y59.1376
M3S0
G4 P0.5; Tool On
G1 F300 Z-0.1000
G1 F15000 X373.1873 Y21.5653 Z-0.1000
M3S245
G4 P0.5; Tool Off

G0 Z0; move to z-safe height
G0 X455.4099 Y229.0544
M3S0
G4 P0.5; Tool On
G1 F300 Z-0.1000
G1 F15000 X92.2900 Y13.0103 Z-0.1000
M3S245
G4 P0.5; Tool Off

G0 Z0; move to z-safe height
G0 X192.8804 Y89.2624
M3S0
G4 P0.5; Tool On
G1 F300 Z-0.1000
G1 F15000 X361.6846 Y18.0103 Z-0.1000
M3S245
G4 P0.5; Tool Off

G0 Z0; move to z-safe height
G0 X240.6688 Y265.4333
M3S0
G4 P0.5; Tool On
G1 F300 Z-0.1000
G1 F15000 X352.8243 Y25.1056 Z-0.1000
M3S245
G4 P0.5; Tool Off

G0 Z0; move to z-safe height
G0 X334.0256 Y190.8248
M3S0
G4 P0.5; Tool On
G1 F300 Z-0.1000
G1 F15000 X219.1188 Y21.5357 Z-0.1000
M3S245
G4 P0.5; Tool Off

G0 Z0; move to z-safe height
G0 X360.9933 Y322.5748
M3S0
G4 P0.5; Tool On
G1 F300 Z-0.1000
G1 F15000 X153.4268 Y10.0197 Z-0.1000
M3S245
G4 P0.5; Tool Off

G0 Z0; move to z-safe height
G0 X61.1598 Y319.9286
M3S0
G4 P0.5; Tool On
G1 F300 Z-0.1000
G1 F15000 X284.4674 Y8.2846 Z-0.1000
M3S245
G4 P0.5; Tool Off

G0 Z0; move to z-safe height
G0 X91.1135 Y348.2331
M3S0
G4 P0.5; Tool On
G1 F300 Z-0.1000
G1 F15000 X292.2555 Y18.6266 Z-0.1000
M3S245
G4 P0.5; Tool Off

G0 Z0; move to z-safe height
G0 X34.5671 Y275.2694
M3S0
G4 P0.5; Tool On
G1 F300 Z-0.1000
G1 F15000 X214.0247 Y3.2516 Z-0.1000
M3S245
G4 P0.5; Tool Off

G0 Z0; move to z-safe height
G0 X14.2524 Y129.4218
M3S0
G4 P0.5; Tool On
G1 F300 Z-0.1000
G1 F15000 X267.3077 Y0.6713 Z-0.1000
M3S245
G4 P0.5; Tool Off

G0 Z0; move to z-safe height
G0 X107.3743 Y102.6553
M3S0
G4 P0.5; Tool On
G1 F300 Z-0.1000
G1 F15000 X375.2530 Y14.7147 Z-0.1000
M3S245
G4 P0.5; Tool Off

G0 Z0; move to z-safe height
G0 X371.2175 Y114.9385
M3S0
G4 P0.5; Tool On
G1 F300 Z-0.1000
G1 F15000 X385.9856 Y11.4027 Z-0.1000
M3S245
G4 P0.5; Tool Off

G0 Z0; move to z-safe height
G0 X393.6661 Y100.4048
M3S0
G4 P0.5; Tool On
G1 F300 Z-0.1000
G1 F15000 X337.6262 Y0.0074 Z-0.1000
M3S245
G4 P0.5; Tool Off

G0 Z0; move to z-safe height
G0 X390.1849 Y180.5929
M3S0
G4 P0.5; Tool On
G1 F300 Z-0.1000
G1 F15000 X212.8648 Y1.1520 Z-0.1000
M3S245
G4 P0.5; Tool Off

G0 Z0; move to z-safe height
G0 X174.7214 Y139.0136
M3S0
G4 P0.5; Tool On
G1 F300 Z-0.1000
G1 F15000 X237.3016 Y15.0429 Z-0.1000
M3S245
G4 P0.5; Tool Off

G0 Z0; move to z-safe height
G0 X47.4580 Y298.3040
M3S0
G4 P0.5; Tool On
G1 F300 Z-0.1000
G1 F15000 X283.5484 Y15.6368 Z-0.1000
M3S245
G4 P0.5; Tool Off

G0 Z0; move to z-safe height
G0 X164.8525 Y136.6056
M3S0
G4 P0.5; Tool On
G1 F300 Z-0.1000
G1 F15000 X197.5565 Y20.7426 Z-0.1000
M3S245
G4 P0.5; Tool Off

G0 Z0; move to z-safe height
G0 X351.0261 Y122.8926
M3S0
G4 P0.5; Tool On
G1 F300 Z-0.1000
G1 F15000 X390.4470 Y1.7532 Z-0.1000
M3S245
G4 P0.5; Tool Off

G0 Z0; move to z-safe height
G0 X199.9676 Y269.3496
M3S0
G4 P0.5; Tool On
G1 F300 Z-0.1000
G1 F15000 X199.0718 Y12.1720 Z-0.1000
M3S245
G4 P0.5; Tool Off

G0 Z0; move to z-safe height
G0 X266.0016 Y223.7067
M3S0
G4 P0.5; Tool On
G1 F300 Z-0.1000
G1 F15000 X342.4598 Y0.4144 Z-0.1000
M3S245
G4 P0.5; Tool Off

G0 Z0; move to z-safe height
G0 X195.7560 Y286.4523
M3S0
G4 P0.5; Tool On
G1 F300 Z-0.1000
G1 F15000 X175.3761 Y9.1630 Z-0.1000
M3S245
G4 P0.5; Tool Off

G0 Z0; move to z-safe height
G0 X41.6992 Y278.8580
M3S0
G4 P0.5; Tool On
G1 F300 Z-0.1000
G1 F15000 X393.9698 Y15.1968 Z-0.1000
M3S245
G4 P0.5; Tool Off
; retracting back to z-safe
G0 Z0

; Plotter Mode Complete
