; GCODE Generated by cam.openbuilds.com on 2024-01-15 
G21 ; mm-mode
G54; Work Coordinates
G21; mm-mode
G90; Absolute Positioning
; Plotter Mode Active

; Operation 0: Pen Plotter: (no offset)
; Pen Diameter: 2

G0 Z0; move to z-safe height
G0 F1000 X89.2393 Y25.7656
M3S0
G4 P0.5; Tool On
G1 F300 Z-0.1000
G1 F15000 X45.0675 Y21.2707 Z-0.1000
M3S245
G4 P0.5; Tool Off

G0 Z0; move to z-safe height
G0 X409.2462 Y43.8139
M3S0
G4 P0.5; Tool On
G1 F300 Z-0.1000
G1 F15000 X248.2901 Y13.9631 Z-0.1000
M3S245
G4 P0.5; Tool Off

G0 Z0; move to z-safe height
G0 X308.8770 Y74.0449
M3S0
G4 P0.5; Tool On
G1 F300 Z-0.1000
G1 F15000 X455.0404 Y20.8451 Z-0.1000
M3S245
G4 P0.5; Tool Off

G0 Z0; move to z-safe height
G0 X303.4845 Y7.6175
M3S0
G4 P0.5; Tool On
G1 F300 Z-0.1000
G1 F15000 X86.5620 Y12.7001 Z-0.1000
M3S245
G4 P0.5; Tool Off

G0 Z0; move to z-safe height
G0 X329.5284 Y226.1780
M3S0
G4 P0.5; Tool On
G1 F300 Z-0.1000
G1 F15000 X9.7678 Y8.2068 Z-0.1000
M3S245
G4 P0.5; Tool Off

G0 Z0; move to z-safe height
G0 X265.1402 Y14.6963
M3S0
G4 P0.5; Tool On
G1 F300 Z-0.1000
G1 F15000 X362.3920 Y19.7187 Z-0.1000
M3S245
G4 P0.5; Tool Off

G0 Z0; move to z-safe height
G0 X104.1308 Y94.5599
M3S0
G4 P0.5; Tool On
G1 F300 Z-0.1000
G1 F15000 X13.4602 Y18.3596 Z-0.1000
M3S245
G4 P0.5; Tool Off

G0 Z0; move to z-safe height
G0 X242.5638 Y180.9490
M3S0
G4 P0.5; Tool On
G1 F300 Z-0.1000
G1 F15000 X34.5411 Y14.0715 Z-0.1000
M3S245
G4 P0.5; Tool Off

G0 Z0; move to z-safe height
G0 X156.8828 Y172.5118
M3S0
G4 P0.5; Tool On
G1 F300 Z-0.1000
G1 F15000 X29.9248 Y19.1259 Z-0.1000
M3S245
G4 P0.5; Tool Off

G0 Z0; move to z-safe height
G0 X61.6973 Y7.3864
M3S0
G4 P0.5; Tool On
G1 F300 Z-0.1000
G1 F15000 X450.0605 Y23.2201 Z-0.1000
M3S245
G4 P0.5; Tool Off

G0 Z0; move to z-safe height
G0 X452.2917 Y39.8821
M3S0
G4 P0.5; Tool On
G1 F300 Z-0.1000
G1 F15000 X198.4998 Y14.8154 Z-0.1000
M3S245
G4 P0.5; Tool Off

G0 Z0; move to z-safe height
G0 X196.1395 Y40.8891
M3S0
G4 P0.5; Tool On
G1 F300 Z-0.1000
G1 F15000 X23.4116 Y15.6813 Z-0.1000
M3S245
G4 P0.5; Tool Off

G0 Z0; move to z-safe height
G0 X332.5729 Y260.9454
M3S0
G4 P0.5; Tool On
G1 F300 Z-0.1000
G1 F15000 X50.9929 Y23.6103 Z-0.1000
M3S245
G4 P0.5; Tool Off

G0 Z0; move to z-safe height
G0 X264.2763 Y284.8838
M3S0
G4 P0.5; Tool On
G1 F300 Z-0.1000
G1 F15000 X54.9255 Y24.6724 Z-0.1000
M3S245
G4 P0.5; Tool Off

G0 Z0; move to z-safe height
G0 X424.9810 Y302.2929
M3S0
G4 P0.5; Tool On
G1 F300 Z-0.1000
G1 F15000 X59.2842 Y21.0330 Z-0.1000
M3S245
G4 P0.5; Tool Off

G0 Z0; move to z-safe height
G0 X330.7351 Y345.7443
M3S0
G4 P0.5; Tool On
G1 F300 Z-0.1000
G1 F15000 X22.2197 Y18.1946 Z-0.1000
M3S245
G4 P0.5; Tool Off

G0 Z0; move to z-safe height
G0 X139.3784 Y3.9822
M3S0
G4 P0.5; Tool On
G1 F300 Z-0.1000
G1 F15000 X358.7545 Y14.3688 Z-0.1000
M3S245
G4 P0.5; Tool Off

G0 Z0; move to z-safe height
G0 X406.4861 Y234.9365
M3S0
G4 P0.5; Tool On
G1 F300 Z-0.1000
G1 F15000 X17.2026 Y20.5123 Z-0.1000
M3S245
G4 P0.5; Tool Off

G0 Z0; move to z-safe height
G0 X307.6846 Y191.6454
M3S0
G4 P0.5; Tool On
G1 F300 Z-0.1000
G1 F15000 X21.3081 Y2.3127 Z-0.1000
M3S245
G4 P0.5; Tool Off

G0 Z0; move to z-safe height
G0 X355.7705 Y118.3238
M3S0
G4 P0.5; Tool On
G1 F300 Z-0.1000
G1 F15000 X37.2889 Y24.6336 Z-0.1000
M3S245
G4 P0.5; Tool Off

G0 Z0; move to z-safe height
G0 X91.5353 Y19.8021
M3S0
G4 P0.5; Tool On
G1 F300 Z-0.1000
G1 F15000 X325.2485 Y17.8662 Z-0.1000
M3S245
G4 P0.5; Tool Off

G0 Z0; move to z-safe height
G0 X388.8483 Y152.8301
M3S0
G4 P0.5; Tool On
G1 F300 Z-0.1000
G1 F15000 X121.5728 Y19.9082 Z-0.1000
M3S245
G4 P0.5; Tool Off

G0 Z0; move to z-safe height
G0 X317.6480 Y67.9591
M3S0
G4 P0.5; Tool On
G1 F300 Z-0.1000
G1 F15000 X147.7197 Y14.0853 Z-0.1000
M3S245
G4 P0.5; Tool Off

G0 Z0; move to z-safe height
G0 X125.2062 Y39.8140
M3S0
G4 P0.5; Tool On
G1 F300 Z-0.1000
G1 F15000 X193.8160 Y24.4549 Z-0.1000
M3S245
G4 P0.5; Tool Off

G0 Z0; move to z-safe height
G0 X366.6383 Y265.3174
M3S0
G4 P0.5; Tool On
G1 F300 Z-0.1000
G1 F15000 X21.9966 Y22.4256 Z-0.1000
M3S245
G4 P0.5; Tool Off

G0 Z0; move to z-safe height
G0 X99.1302 Y18.8262
M3S0
G4 P0.5; Tool On
G1 F300 Z-0.1000
G1 F15000 X367.0188 Y5.8873 Z-0.1000
M3S245
G4 P0.5; Tool Off

G0 Z0; move to z-safe height
G0 X0.0284 Y302.5045
M3S0
G4 P0.5; Tool On
G1 F300 Z-0.1000
G1 F15000 X293.4791 Y1.1058 Z-0.1000
M3S245
G4 P0.5; Tool Off

G0 Z0; move to z-safe height
G0 X288.1680 Y7.2551
M3S0
G4 P0.5; Tool On
G1 F300 Z-0.1000
G1 F15000 X351.5765 Y1.4335 Z-0.1000
M3S245
G4 P0.5; Tool Off

G0 Z0; move to z-safe height
G0 X11.8963 Y99.6545
M3S0
G4 P0.5; Tool On
G1 F300 Z-0.1000
G1 F15000 X130.9346 Y5.7868 Z-0.1000
M3S245
G4 P0.5; Tool Off

G0 Z0; move to z-safe height
G0 X65.1658 Y135.0393
M3S0
G4 P0.5; Tool On
G1 F300 Z-0.1000
G1 F15000 X265.2419 Y20.2746 Z-0.1000
M3S245
G4 P0.5; Tool Off

G0 Z0; move to z-safe height
G0 X132.3121 Y155.3511
M3S0
G4 P0.5; Tool On
G1 F300 Z-0.1000
G1 F15000 X56.8283 Y8.3945 Z-0.1000
M3S245
G4 P0.5; Tool Off

G0 Z0; move to z-safe height
G0 X382.3029 Y309.2888
M3S0
G4 P0.5; Tool On
G1 F300 Z-0.1000
G1 F15000 X359.2780 Y8.1224 Z-0.1000
M3S245
G4 P0.5; Tool Off

G0 Z0; move to z-safe height
G0 X313.0682 Y251.4936
M3S0
G4 P0.5; Tool On
G1 F300 Z-0.1000
G1 F15000 X62.6839 Y10.5648 Z-0.1000
M3S245
G4 P0.5; Tool Off

G0 Z0; move to z-safe height
G0 X363.7670 Y321.3465
M3S0
G4 P0.5; Tool On
G1 F300 Z-0.1000
G1 F15000 X36.5586 Y9.2854 Z-0.1000
M3S245
G4 P0.5; Tool Off

G0 Z0; move to z-safe height
G0 X293.6719 Y251.2396
M3S0
G4 P0.5; Tool On
G1 F300 Z-0.1000
G1 F15000 X263.2229 Y10.2389 Z-0.1000
M3S245
G4 P0.5; Tool Off

G0 Z0; move to z-safe height
G0 X375.8231 Y13.6849
M3S0
G4 P0.5; Tool On
G1 F300 Z-0.1000
G1 F15000 X139.9990 Y14.8498 Z-0.1000
M3S245
G4 P0.5; Tool Off

G0 Z0; move to z-safe height
G0 X183.9090 Y315.1115
M3S0
G4 P0.5; Tool On
G1 F300 Z-0.1000
G1 F15000 X138.7567 Y21.5377 Z-0.1000
M3S245
G4 P0.5; Tool Off

G0 Z0; move to z-safe height
G0 X345.7783 Y220.0871
M3S0
G4 P0.5; Tool On
G1 F300 Z-0.1000
G1 F15000 X75.4665 Y15.4824 Z-0.1000
M3S245
G4 P0.5; Tool Off

G0 Z0; move to z-safe height
G0 X172.3302 Y335.9903
M3S0
G4 P0.5; Tool On
G1 F300 Z-0.1000
G1 F15000 X226.2866 Y16.6924 Z-0.1000
M3S245
G4 P0.5; Tool Off

G0 Z0; move to z-safe height
G0 X39.9157 Y187.8510
M3S0
G4 P0.5; Tool On
G1 F300 Z-0.1000
G1 F15000 X130.0604 Y16.7852 Z-0.1000
M3S245
G4 P0.5; Tool Off

G0 Z0; move to z-safe height
G0 X46.6995 Y81.1869
M3S0
G4 P0.5; Tool On
G1 F300 Z-0.1000
G1 F15000 X277.8933 Y4.6064 Z-0.1000
M3S245
G4 P0.5; Tool Off

G0 Z0; move to z-safe height
G0 X98.9902 Y175.8054
M3S0
G4 P0.5; Tool On
G1 F300 Z-0.1000
G1 F15000 X142.3662 Y13.5477 Z-0.1000
M3S245
G4 P0.5; Tool Off

G0 Z0; move to z-safe height
G0 X23.7497 Y65.9757
M3S0
G4 P0.5; Tool On
G1 F300 Z-0.1000
G1 F15000 X280.6870 Y17.7160 Z-0.1000
M3S245
G4 P0.5; Tool Off

G0 Z0; move to z-safe height
G0 X10.5443 Y141.3707
M3S0
G4 P0.5; Tool On
G1 F300 Z-0.1000
G1 F15000 X128.6901 Y20.4095 Z-0.1000
M3S245
G4 P0.5; Tool Off

G0 Z0; move to z-safe height
G0 X139.9335 Y237.5298
M3S0
G4 P0.5; Tool On
G1 F300 Z-0.1000
G1 F15000 X163.1857 Y23.5065 Z-0.1000
M3S245
G4 P0.5; Tool Off

G0 Z0; move to z-safe height
G0 X275.8686 Y191.6794
M3S0
G4 P0.5; Tool On
G1 F300 Z-0.1000
G1 F15000 X101.7560 Y19.0749 Z-0.1000
M3S245
G4 P0.5; Tool Off

G0 Z0; move to z-safe height
G0 X348.5262 Y253.0948
M3S0
G4 P0.5; Tool On
G1 F300 Z-0.1000
G1 F15000 X225.7358 Y7.9895 Z-0.1000
M3S245
G4 P0.5; Tool Off

G0 Z0; move to z-safe height
G0 X293.5686 Y165.9667
M3S0
G4 P0.5; Tool On
G1 F300 Z-0.1000
G1 F15000 X205.2752 Y12.7519 Z-0.1000
M3S245
G4 P0.5; Tool Off

G0 Z0; move to z-safe height
G0 X408.0138 Y208.4764
M3S0
G4 P0.5; Tool On
G1 F300 Z-0.1000
G1 F15000 X235.1351 Y13.8754 Z-0.1000
M3S245
G4 P0.5; Tool Off

G0 Z0; move to z-safe height
G0 X426.5043 Y197.3131
M3S0
G4 P0.5; Tool On
G1 F300 Z-0.1000
G1 F15000 X235.7459 Y20.0571 Z-0.1000
M3S245
G4 P0.5; Tool Off

G0 Z0; move to z-safe height
G0 X367.4997 Y101.7851
M3S0
G4 P0.5; Tool On
G1 F300 Z-0.1000
G1 F15000 X353.8128 Y7.5336 Z-0.1000
M3S245
G4 P0.5; Tool Off

G0 Z0; move to z-safe height
G0 X337.2014 Y289.4531
M3S0
G4 P0.5; Tool On
G1 F300 Z-0.1000
G1 F15000 X124.5800 Y0.3362 Z-0.1000
M3S245
G4 P0.5; Tool Off

G0 Z0; move to z-safe height
G0 X120.4671 Y185.0935
M3S0
G4 P0.5; Tool On
G1 F300 Z-0.1000
G1 F15000 X271.3311 Y2.7551 Z-0.1000
M3S245
G4 P0.5; Tool Off

G0 Z0; move to z-safe height
G0 X151.1938 Y323.4974
M3S0
G4 P0.5; Tool On
G1 F300 Z-0.1000
G1 F15000 X273.9981 Y20.9147 Z-0.1000
M3S245
G4 P0.5; Tool Off

G0 Z0; move to z-safe height
G0 X381.5935 Y252.3836
M3S0
G4 P0.5; Tool On
G1 F300 Z-0.1000
G1 F15000 X258.4745 Y11.1561 Z-0.1000
M3S245
G4 P0.5; Tool Off

G0 Z0; move to z-safe height
G0 X43.7182 Y320.9622
M3S0
G4 P0.5; Tool On
G1 F300 Z-0.1000
G1 F15000 X298.5136 Y24.3906 Z-0.1000
M3S245
G4 P0.5; Tool Off

G0 Z0; move to z-safe height
G0 X184.8752 Y326.8389
M3S0
G4 P0.5; Tool On
G1 F300 Z-0.1000
G1 F15000 X256.6737 Y24.5798 Z-0.1000
M3S245
G4 P0.5; Tool Off

G0 Z0; move to z-safe height
G0 X366.4256 Y164.7703
M3S0
G4 P0.5; Tool On
G1 F300 Z-0.1000
G1 F15000 X173.0243 Y4.2607 Z-0.1000
M3S245
G4 P0.5; Tool Off

G0 Z0; move to z-safe height
G0 X391.4643 Y266.7023
M3S0
G4 P0.5; Tool On
G1 F300 Z-0.1000
G1 F15000 X374.5956 Y23.1628 Z-0.1000
M3S245
G4 P0.5; Tool Off

G0 Z0; move to z-safe height
G0 X444.0075 Y104.0933
M3S0
G4 P0.5; Tool On
G1 F300 Z-0.1000
G1 F15000 X287.4478 Y6.0258 Z-0.1000
M3S245
G4 P0.5; Tool Off

G0 Z0; move to z-safe height
G0 X197.7351 Y266.6001
M3S0
G4 P0.5; Tool On
G1 F300 Z-0.1000
G1 F15000 X194.1370 Y20.7395 Z-0.1000
M3S245
G4 P0.5; Tool Off

G0 Z0; move to z-safe height
G0 X22.0377 Y115.1445
M3S0
G4 P0.5; Tool On
G1 F300 Z-0.1000
G1 F15000 X439.0320 Y16.8875 Z-0.1000
M3S245
G4 P0.5; Tool Off

G0 Z0; move to z-safe height
G0 X398.5270 Y172.8392
M3S0
G4 P0.5; Tool On
G1 F300 Z-0.1000
G1 F15000 X359.0097 Y0.0942 Z-0.1000
M3S245
G4 P0.5; Tool Off

G0 Z0; move to z-safe height
G0 X50.8162 Y216.2618
M3S0
G4 P0.5; Tool On
G1 F300 Z-0.1000
G1 F15000 X351.1282 Y3.0239 Z-0.1000
M3S245
G4 P0.5; Tool Off

G0 Z0; move to z-safe height
G0 X267.5372 Y345.6722
M3S0
G4 P0.5; Tool On
G1 F300 Z-0.1000
G1 F15000 X276.9661 Y18.0306 Z-0.1000
M3S245
G4 P0.5; Tool Off

G0 Z0; move to z-safe height
G0 X209.6053 Y259.9961
M3S0
G4 P0.5; Tool On
G1 F300 Z-0.1000
G1 F15000 X383.0618 Y19.3296 Z-0.1000
M3S245
G4 P0.5; Tool Off

G0 Z0; move to z-safe height
G0 X391.5064 Y201.8829
M3S0
G4 P0.5; Tool On
G1 F300 Z-0.1000
G1 F15000 X394.1857 Y8.7790 Z-0.1000
M3S245
G4 P0.5; Tool Off

G0 Z0; move to z-safe height
G0 X238.6080 Y274.2470
M3S0
G4 P0.5; Tool On
G1 F300 Z-0.1000
G1 F15000 X450.0253 Y3.4396 Z-0.1000
M3S245
G4 P0.5; Tool Off

G0 Z0; move to z-safe height
G0 X46.1178 Y151.2356
M3S0
G4 P0.5; Tool On
G1 F300 Z-0.1000
G1 F15000 X429.4725 Y20.6225 Z-0.1000
M3S245
G4 P0.5; Tool Off

G0 Z0; move to z-safe height
G0 X432.4639 Y217.0307
M3S0
G4 P0.5; Tool On
G1 F300 Z-0.1000
G1 F15000 X318.3666 Y10.5046 Z-0.1000
M3S245
G4 P0.5; Tool Off

G0 Z0; move to z-safe height
G0 X324.5197 Y334.2574
M3S0
G4 P0.5; Tool On
G1 F300 Z-0.1000
G1 F15000 X243.2166 Y17.4987 Z-0.1000
M3S245
G4 P0.5; Tool Off

G0 Z0; move to z-safe height
G0 X319.3634 Y284.5691
M3S0
G4 P0.5; Tool On
G1 F300 Z-0.1000
G1 F15000 X390.9877 Y17.7935 Z-0.1000
M3S245
G4 P0.5; Tool Off

G0 Z0; move to z-safe height
G0 X243.3793 Y264.9581
M3S0
G4 P0.5; Tool On
G1 F300 Z-0.1000
G1 F15000 X372.0035 Y7.2498 Z-0.1000
M3S245
G4 P0.5; Tool Off

G0 Z0; move to z-safe height
G0 X243.2987 Y333.0981
M3S0
G4 P0.5; Tool On
G1 F300 Z-0.1000
G1 F15000 X391.6099 Y20.2522 Z-0.1000
M3S245
G4 P0.5; Tool Off

G0 Z0; move to z-safe height
G0 X90.4745 Y317.3086
M3S0
G4 P0.5; Tool On
G1 F300 Z-0.1000
G1 F15000 X324.2566 Y0.3423 Z-0.1000
M3S245
G4 P0.5; Tool Off
; retracting back to z-safe
G0 Z0

; Plotter Mode Complete
