; GCODE Generated by cam.openbuilds.com on 2023-11-01 
G21 ; mm-mode
G54; Work Coordinates
G21; mm-mode
G90; Absolute Positioning
; Plotter Mode Active

; Operation 0: Pen Plotter: (lines fill)
; Pen Diameter: 2

G0 Z0; move to z-safe height
G0 F1000 X4.0000 Y4.8400
M3S0
G4 P0.5; Tool On
G1 F300 Z0.0000
G1 F15000 X746.0000 Y4.8400 Z0.0000
M3S245
G4 P0.5; Tool Off

G0 Z0; move to z-safe height
G0 X746.0000 Y12.8400
M3S0
G4 P0.5; Tool On
G1 F300 Z0.0000
G1 F15000 X4.0000 Y12.8400 Z0.0000
M3S245
G4 P0.5; Tool Off

G0 Z0; move to z-safe height
G0 X4.0000 Y20.8400
M3S0
G4 P0.5; Tool On
G1 F300 Z0.0000
G1 F15000 X746.0000 Y20.8400 Z0.0000
M3S245
G4 P0.5; Tool Off

G0 Z0; move to z-safe height
G0 X746.0000 Y28.8400
M3S0
G4 P0.5; Tool On
G1 F300 Z0.0000
G1 F15000 X4.0000 Y28.8400 Z0.0000
M3S245
G4 P0.5; Tool Off

G0 Z0; move to z-safe height
G0 X4.0000 Y36.8400
M3S0
G4 P0.5; Tool On
G1 F300 Z0.0000
G1 F15000 X746.0000 Y36.8400 Z0.0000
M3S245
G4 P0.5; Tool Off

G0 Z0; move to z-safe height
G0 X746.0000 Y44.8400
M3S0
G4 P0.5; Tool On
G1 F300 Z0.0000
G1 F15000 X4.0000 Y44.8400 Z0.0000
M3S245
G4 P0.5; Tool Off

G0 Z0; move to z-safe height
G0 X4.0000 Y52.8400
M3S0
G4 P0.5; Tool On
G1 F300 Z0.0000
G1 F15000 X746.0000 Y52.8400 Z0.0000
M3S245
G4 P0.5; Tool Off

G0 Z0; move to z-safe height
G0 X746.0000 Y60.8400
M3S0
G4 P0.5; Tool On
G1 F300 Z0.0000
G1 F15000 X4.0000 Y60.8400 Z0.0000
M3S245
G4 P0.5; Tool Off

G0 Z0; move to z-safe height
G0 X4.0000 Y68.8400
M3S0
G4 P0.5; Tool On
G1 F300 Z0.0000
G1 F15000 X746.0000 Y68.8400 Z0.0000
M3S245
G4 P0.5; Tool Off

G0 Z0; move to z-safe height
G0 X746.0000 Y76.8400
M3S0
G4 P0.5; Tool On
G1 F300 Z0.0000
G1 F15000 X4.0000 Y76.8400 Z0.0000
M3S245
G4 P0.5; Tool Off

G0 Z0; move to z-safe height
G0 X4.0000 Y84.8400
M3S0
G4 P0.5; Tool On
G1 F300 Z0.0000
G1 F15000 X746.0000 Y84.8400 Z0.0000
M3S245
G4 P0.5; Tool Off

G0 Z0; move to z-safe height
G0 X746.0000 Y92.8400
M3S0
G4 P0.5; Tool On
G1 F300 Z0.0000
G1 F15000 X4.0000 Y92.8400 Z0.0000
M3S245
G4 P0.5; Tool Off

G0 Z0; move to z-safe height
G0 X4.0000 Y100.8400
M3S0
G4 P0.5; Tool On
G1 F300 Z0.0000
G1 F15000 X746.0000 Y100.8400 Z0.0000
M3S245
G4 P0.5; Tool Off

G0 Z0; move to z-safe height
G0 X746.0000 Y108.8400
M3S0
G4 P0.5; Tool On
G1 F300 Z0.0000
G1 F15000 X4.0000 Y108.8400 Z0.0000
M3S245
G4 P0.5; Tool Off

G0 Z0; move to z-safe height
G0 X4.0000 Y116.8400
M3S0
G4 P0.5; Tool On
G1 F300 Z0.0000
G1 F15000 X746.0000 Y116.8400 Z0.0000
M3S245
G4 P0.5; Tool Off

G0 Z0; move to z-safe height
G0 X746.0000 Y124.8400
M3S0
G4 P0.5; Tool On
G1 F300 Z0.0000
G1 F15000 X4.0000 Y124.8400 Z0.0000
M3S245
G4 P0.5; Tool Off

G0 Z0; move to z-safe height
G0 X4.0000 Y132.8400
M3S0
G4 P0.5; Tool On
G1 F300 Z0.0000
G1 F15000 X746.0000 Y132.8400 Z0.0000
M3S245
G4 P0.5; Tool Off

G0 Z0; move to z-safe height
G0 X746.0000 Y140.8400
M3S0
G4 P0.5; Tool On
G1 F300 Z0.0000
G1 F15000 X4.0000 Y140.8400 Z0.0000
M3S245
G4 P0.5; Tool Off

G0 Z0; move to z-safe height
G0 X4.0000 Y148.8400
M3S0
G4 P0.5; Tool On
G1 F300 Z0.0000
G1 F15000 X746.0000 Y148.8400 Z0.0000
M3S245
G4 P0.5; Tool Off

G0 Z0; move to z-safe height
G0 X746.0000 Y156.8400
M3S0
G4 P0.5; Tool On
G1 F300 Z0.0000
G1 F15000 X4.0000 Y156.8400 Z0.0000
M3S245
G4 P0.5; Tool Off

G0 Z0; move to z-safe height
G0 X4.0000 Y164.8400
M3S0
G4 P0.5; Tool On
G1 F300 Z0.0000
G1 F15000 X746.0000 Y164.8400 Z0.0000
M3S245
G4 P0.5; Tool Off

G0 Z0; move to z-safe height
G0 X746.0000 Y172.8400
M3S0
G4 P0.5; Tool On
G1 F300 Z0.0000
G1 F15000 X4.0000 Y172.8400 Z0.0000
M3S245
G4 P0.5; Tool Off

G0 Z0; move to z-safe height
G0 X4.0000 Y180.8400
M3S0
G4 P0.5; Tool On
G1 F300 Z0.0000
G1 F15000 X746.0000 Y180.8400 Z0.0000
M3S245
G4 P0.5; Tool Off

G0 Z0; move to z-safe height
G0 X746.0000 Y188.8400
M3S0
G4 P0.5; Tool On
G1 F300 Z0.0000
G1 F15000 X4.0000 Y188.8400 Z0.0000
M3S245
G4 P0.5; Tool Off

G0 Z0; move to z-safe height
G0 X4.0000 Y196.8400
M3S0
G4 P0.5; Tool On
G1 F300 Z0.0000
G1 F15000 X746.0000 Y196.8400 Z0.0000
M3S245
G4 P0.5; Tool Off

G0 Z0; move to z-safe height
G0 X746.0000 Y204.8400
M3S0
G4 P0.5; Tool On
G1 F300 Z0.0000
G1 F15000 X4.0000 Y204.8400 Z0.0000
M3S245
G4 P0.5; Tool Off

G0 Z0; move to z-safe height
G0 X4.0000 Y212.8400
M3S0
G4 P0.5; Tool On
G1 F300 Z0.0000
G1 F15000 X746.0000 Y212.8400 Z0.0000
M3S245
G4 P0.5; Tool Off

G0 Z0; move to z-safe height
G0 X746.0000 Y220.8400
M3S0
G4 P0.5; Tool On
G1 F300 Z0.0000
G1 F15000 X4.0000 Y220.8400 Z0.0000
M3S245
G4 P0.5; Tool Off

G0 Z0; move to z-safe height
G0 X4.0000 Y228.8400
M3S0
G4 P0.5; Tool On
G1 F300 Z0.0000
G1 F15000 X746.0000 Y228.8400 Z0.0000
M3S245
G4 P0.5; Tool Off

G0 Z0; move to z-safe height
G0 X746.0000 Y236.8400
M3S0
G4 P0.5; Tool On
G1 F300 Z0.0000
G1 F15000 X4.0000 Y236.8400 Z0.0000
M3S245
G4 P0.5; Tool Off

G0 Z0; move to z-safe height
G0 X4.0000 Y244.8400
M3S0
G4 P0.5; Tool On
G1 F300 Z0.0000
G1 F15000 X746.0000 Y244.8400 Z0.0000
M3S245
G4 P0.5; Tool Off

G0 Z0; move to z-safe height
G0 X746.0000 Y252.8400
M3S0
G4 P0.5; Tool On
G1 F300 Z0.0000
G1 F15000 X4.0000 Y252.8400 Z0.0000
M3S245
G4 P0.5; Tool Off

G0 Z0; move to z-safe height
G0 X4.0000 Y260.8400
M3S0
G4 P0.5; Tool On
G1 F300 Z0.0000
G1 F15000 X746.0000 Y260.8400 Z0.0000
M3S245
G4 P0.5; Tool Off

G0 Z0; move to z-safe height
G0 X746.0000 Y268.8400
M3S0
G4 P0.5; Tool On
G1 F300 Z0.0000
G1 F15000 X4.0000 Y268.8400 Z0.0000
M3S245
G4 P0.5; Tool Off

G0 Z0; move to z-safe height
G0 X4.0000 Y276.8400
M3S0
G4 P0.5; Tool On
G1 F300 Z0.0000
G1 F15000 X746.0000 Y276.8400 Z0.0000
M3S245
G4 P0.5; Tool Off

G0 Z0; move to z-safe height
G0 X746.0000 Y284.8400
M3S0
G4 P0.5; Tool On
G1 F300 Z0.0000
G1 F15000 X4.0000 Y284.8400 Z0.0000
M3S245
G4 P0.5; Tool Off

G0 Z0; move to z-safe height
G0 X4.0000 Y292.8400
M3S0
G4 P0.5; Tool On
G1 F300 Z0.0000
G1 F15000 X746.0000 Y292.8400 Z0.0000
M3S245
G4 P0.5; Tool Off

G0 Z0; move to z-safe height
G0 X746.0000 Y300.8400
M3S0
G4 P0.5; Tool On
G1 F300 Z0.0000
G1 F15000 X4.0000 Y300.8400 Z0.0000
M3S245
G4 P0.5; Tool Off

G0 Z0; move to z-safe height
G0 X4.0000 Y308.8400
M3S0
G4 P0.5; Tool On
G1 F300 Z0.0000
G1 F15000 X746.0000 Y308.8400 Z0.0000
M3S245
G4 P0.5; Tool Off

G0 Z0; move to z-safe height
G0 X746.0000 Y316.8400
M3S0
G4 P0.5; Tool On
G1 F300 Z0.0000
G1 F15000 X4.0000 Y316.8400 Z0.0000
M3S245
G4 P0.5; Tool Off

G0 Z0; move to z-safe height
G0 X4.0000 Y324.8400
M3S0
G4 P0.5; Tool On
G1 F300 Z0.0000
G1 F15000 X746.0000 Y324.8400 Z0.0000
M3S245
G4 P0.5; Tool Off

G0 Z0; move to z-safe height
G0 X746.0000 Y332.8400
M3S0
G4 P0.5; Tool On
G1 F300 Z0.0000
G1 F15000 X4.0000 Y332.8400 Z0.0000
M3S245
G4 P0.5; Tool Off

G0 Z0; move to z-safe height
G0 X4.0000 Y340.8400
M3S0
G4 P0.5; Tool On
G1 F300 Z0.0000
G1 F15000 X746.0000 Y340.8400 Z0.0000
M3S245
G4 P0.5; Tool Off

G0 Z0; move to z-safe height
G0 X746.0000 Y348.8400
M3S0
G4 P0.5; Tool On
G1 F300 Z0.0000
G1 F15000 X4.0000 Y348.8400 Z0.0000
M3S245
G4 P0.5; Tool Off

G0 Z0; move to z-safe height
G0 X4.0000 Y356.8400
M3S0
G4 P0.5; Tool On
G1 F300 Z0.0000
G1 F15000 X746.0000 Y356.8400 Z0.0000
M3S245
G4 P0.5; Tool Off

G0 Z0; move to z-safe height
G0 X746.0000 Y364.8400
M3S0
G4 P0.5; Tool On
G1 F300 Z0.0000
G1 F15000 X4.0000 Y364.8400 Z0.0000
M3S245
G4 P0.5; Tool Off

G0 Z0; move to z-safe height
G0 X4.0000 Y372.8400
M3S0
G4 P0.5; Tool On
G1 F300 Z0.0000
G1 F15000 X746.0000 Y372.8400 Z0.0000
M3S245
G4 P0.5; Tool Off

G0 Z0; move to z-safe height
G0 X746.0000 Y380.8400
M3S0
G4 P0.5; Tool On
G1 F300 Z0.0000
G1 F15000 X4.0000 Y380.8400 Z0.0000
M3S245
G4 P0.5; Tool Off

G0 Z0; move to z-safe height
G0 X4.0000 Y388.8400
M3S0
G4 P0.5; Tool On
G1 F300 Z0.0000
G1 F15000 X746.0000 Y388.8400 Z0.0000
M3S245
G4 P0.5; Tool Off

G0 Z0; move to z-safe height
G0 X746.0000 Y396.8400
M3S0
G4 P0.5; Tool On
G1 F300 Z0.0000
G1 F15000 X4.0000 Y396.8400 Z0.0000
M3S245
G4 P0.5; Tool Off

G0 Z0; move to z-safe height
G0 X4.0000 Y404.8400
M3S0
G4 P0.5; Tool On
G1 F300 Z0.0000
G1 F15000 X746.0000 Y404.8400 Z0.0000
M3S245
G4 P0.5; Tool Off

G0 Z0; move to z-safe height
G0 X746.0000 Y412.8400
M3S0
G4 P0.5; Tool On
G1 F300 Z0.0000
G1 F15000 X4.0000 Y412.8400 Z0.0000
M3S245
G4 P0.5; Tool Off

G0 Z0; move to z-safe height
G0 X4.0000 Y420.8400
M3S0
G4 P0.5; Tool On
G1 F300 Z0.0000
G1 F15000 X746.0000 Y420.8400 Z0.0000
M3S245
G4 P0.5; Tool Off

G0 Z0; move to z-safe height
G0 X746.0000 Y428.8400
M3S0
G4 P0.5; Tool On
G1 F300 Z0.0000
G1 F15000 X4.0000 Y428.8400 Z0.0000
M3S245
G4 P0.5; Tool Off

G0 Z0; move to z-safe height
G0 X4.0000 Y436.8400
M3S0
G4 P0.5; Tool On
G1 F300 Z0.0000
G1 F15000 X746.0000 Y436.8400 Z0.0000
M3S245
G4 P0.5; Tool Off

G0 Z0; move to z-safe height
G0 X746.0000 Y444.8400
M3S0
G4 P0.5; Tool On
G1 F300 Z0.0000
G1 F15000 X4.0000 Y444.8400 Z0.0000
M3S245
G4 P0.5; Tool Off

G0 Z0; move to z-safe height
G0 X4.0000 Y452.8400
M3S0
G4 P0.5; Tool On
G1 F300 Z0.0000
G1 F15000 X746.0000 Y452.8400 Z0.0000
M3S245
G4 P0.5; Tool Off

G0 Z0; move to z-safe height
G0 X746.0000 Y460.8400
M3S0
G4 P0.5; Tool On
G1 F300 Z0.0000
G1 F15000 X4.0000 Y460.8400 Z0.0000
M3S245
G4 P0.5; Tool Off

G0 Z0; move to z-safe height
G0 X4.0000 Y468.8400
M3S0
G4 P0.5; Tool On
G1 F300 Z0.0000
G1 F15000 X746.0000 Y468.8400 Z0.0000
M3S245
G4 P0.5; Tool Off

G0 Z0; move to z-safe height
G0 X746.0000 Y476.8400
M3S0
G4 P0.5; Tool On
G1 F300 Z0.0000
G1 F15000 X4.0000 Y476.8400 Z0.0000
M3S245
G4 P0.5; Tool Off

G0 Z0; move to z-safe height
G0 X4.0000 Y484.8400
M3S0
G4 P0.5; Tool On
G1 F300 Z0.0000
G1 F15000 X746.0000 Y484.8400 Z0.0000
M3S245
G4 P0.5; Tool Off

G0 Z0; move to z-safe height
G0 X746.0000 Y492.8400
M3S0
G4 P0.5; Tool On
G1 F300 Z0.0000
G1 F15000 X4.0000 Y492.8400 Z0.0000
M3S245
G4 P0.5; Tool Off

G0 Z0; move to z-safe height
G0 X4.0000 Y500.8400
M3S0
G4 P0.5; Tool On
G1 F300 Z0.0000
G1 F15000 X746.0000 Y500.8400 Z0.0000
M3S245
G4 P0.5; Tool Off

G0 Z0; move to z-safe height
G0 X746.0000 Y508.8400
M3S0
G4 P0.5; Tool On
G1 F300 Z0.0000
G1 F15000 X4.0000 Y508.8400 Z0.0000
M3S245
G4 P0.5; Tool Off

G0 Z0; move to z-safe height
G0 X4.0000 Y516.8400
M3S0
G4 P0.5; Tool On
G1 F300 Z0.0000
G1 F15000 X746.0000 Y516.8400 Z0.0000
M3S245
G4 P0.5; Tool Off

G0 Z0; move to z-safe height
G0 X746.0000 Y524.8400
M3S0
G4 P0.5; Tool On
G1 F300 Z0.0000
G1 F15000 X4.0000 Y524.8400 Z0.0000
M3S245
G4 P0.5; Tool Off

G0 Z0; move to z-safe height
G0 X4.0000 Y532.8400
M3S0
G4 P0.5; Tool On
G1 F300 Z0.0000
G1 F15000 X746.0000 Y532.8400 Z0.0000
M3S245
G4 P0.5; Tool Off

G0 Z0; move to z-safe height
G0 X746.0000 Y540.8400
M3S0
G4 P0.5; Tool On
G1 F300 Z0.0000
G1 F15000 X4.0000 Y540.8400 Z0.0000
M3S245
G4 P0.5; Tool Off

G0 Z0; move to z-safe height
G0 X4.0000 Y548.8400
M3S0
G4 P0.5; Tool On
G1 F300 Z0.0000
G1 F15000 X746.0000 Y548.8400 Z0.0000
M3S245
G4 P0.5; Tool Off

G0 Z0; move to z-safe height
G0 X746.0000 Y556.8400
M3S0
G4 P0.5; Tool On
G1 F300 Z0.0000
G1 F15000 X4.0000 Y556.8400 Z0.0000
M3S245
G4 P0.5; Tool Off

G0 Z0; move to z-safe height
G0 X4.0000 Y564.8400
M3S0
G4 P0.5; Tool On
G1 F300 Z0.0000
G1 F15000 X746.0000 Y564.8400 Z0.0000
M3S245
G4 P0.5; Tool Off

G0 Z0; move to z-safe height
G0 X746.0000 Y572.8400
M3S0
G4 P0.5; Tool On
G1 F300 Z0.0000
G1 F15000 X4.0000 Y572.8400 Z0.0000
M3S245
G4 P0.5; Tool Off

G0 Z0; move to z-safe height
G0 X4.0000 Y580.8400
M3S0
G4 P0.5; Tool On
G1 F300 Z0.0000
G1 F15000 X746.0000 Y580.8400 Z0.0000
M3S245
G4 P0.5; Tool Off

G0 Z0; move to z-safe height
G0 X746.0000 Y588.8400
M3S0
G4 P0.5; Tool On
G1 F300 Z0.0000
G1 F15000 X4.0000 Y588.8400 Z0.0000
M3S245
G4 P0.5; Tool Off

G0 Z0; move to z-safe height
G0 X4.0000 Y596.8400
M3S0
G4 P0.5; Tool On
G1 F300 Z0.0000
G1 F15000 X746.0000 Y596.8400 Z0.0000
M3S245
G4 P0.5; Tool Off

G0 Z0; move to z-safe height
G0 X746.0000 Y604.8400
M3S0
G4 P0.5; Tool On
G1 F300 Z0.0000
G1 F15000 X4.0000 Y604.8400 Z0.0000
M3S245
G4 P0.5; Tool Off

G0 Z0; move to z-safe height
G0 X4.0000 Y612.8400
M3S0
G4 P0.5; Tool On
G1 F300 Z0.0000
G1 F15000 X746.0000 Y612.8400 Z0.0000
M3S245
G4 P0.5; Tool Off

G0 Z0; move to z-safe height
G0 X746.0000 Y620.8400
M3S0
G4 P0.5; Tool On
G1 F300 Z0.0000
G1 F15000 X4.0000 Y620.8400 Z0.0000
M3S245
G4 P0.5; Tool Off

G0 Z0; move to z-safe height
G0 X4.0000 Y628.8400
M3S0
G4 P0.5; Tool On
G1 F300 Z0.0000
G1 F15000 X746.0000 Y628.8400 Z0.0000
M3S245
G4 P0.5; Tool Off

G0 Z0; move to z-safe height
G0 X746.0000 Y636.8400
M3S0
G4 P0.5; Tool On
G1 F300 Z0.0000
G1 F15000 X4.0000 Y636.8400 Z0.0000
M3S245
G4 P0.5; Tool Off

G0 Z0; move to z-safe height
G0 X4.0000 Y644.8400
M3S0
G4 P0.5; Tool On
G1 F300 Z0.0000
G1 F15000 X746.0000 Y644.8400 Z0.0000
M3S245
G4 P0.5; Tool Off

G0 Z0; move to z-safe height
G0 X746.0000 Y652.8400
M3S0
G4 P0.5; Tool On
G1 F300 Z0.0000
G1 F15000 X4.0000 Y652.8400 Z0.0000
M3S245
G4 P0.5; Tool Off

G0 Z0; move to z-safe height
G0 X4.0000 Y660.8400
M3S0
G4 P0.5; Tool On
G1 F300 Z0.0000
G1 F15000 X746.0000 Y660.8400 Z0.0000
M3S245
G4 P0.5; Tool Off

G0 Z0; move to z-safe height
G0 X746.0000 Y668.8400
M3S0
G4 P0.5; Tool On
G1 F300 Z0.0000
G1 F15000 X4.0000 Y668.8400 Z0.0000
M3S245
G4 P0.5; Tool Off

G0 Z0; move to z-safe height
G0 X4.0000 Y676.8400
M3S0
G4 P0.5; Tool On
G1 F300 Z0.0000
G1 F15000 X746.0000 Y676.8400 Z0.0000
M3S245
G4 P0.5; Tool Off

G0 Z0; move to z-safe height
G0 X746.0000 Y684.8400
M3S0
G4 P0.5; Tool On
G1 F300 Z0.0000
G1 F15000 X4.0000 Y684.8400 Z0.0000
M3S245
G4 P0.5; Tool Off

G0 Z0; move to z-safe height
G0 X4.0000 Y692.8400
M3S0
G4 P0.5; Tool On
G1 F300 Z0.0000
G1 F15000 X746.0000 Y692.8400 Z0.0000
M3S245
G4 P0.5; Tool Off

G0 Z0; move to z-safe height
G0 X746.0000 Y700.8400
M3S0
G4 P0.5; Tool On
G1 F300 Z0.0000
G1 F15000 X4.0000 Y700.8400 Z0.0000
M3S245
G4 P0.5; Tool Off

G0 Z0; move to z-safe height
G0 X4.0000 Y708.8400
M3S0
G4 P0.5; Tool On
G1 F300 Z0.0000
G1 F15000 X746.0000 Y708.8400 Z0.0000
M3S245
G4 P0.5; Tool Off

G0 Z0; move to z-safe height
G0 X746.0000 Y716.8400
M3S0
G4 P0.5; Tool On
G1 F300 Z0.0000
G1 F15000 X4.0000 Y716.8400 Z0.0000
M3S245
G4 P0.5; Tool Off

G0 Z0; move to z-safe height
G0 X4.0000 Y724.8400
M3S0
G4 P0.5; Tool On
G1 F300 Z0.0000
G1 F15000 X746.0000 Y724.8400 Z0.0000
M3S245
G4 P0.5; Tool Off

G0 Z0; move to z-safe height
G0 X746.0000 Y732.8400
M3S0
G4 P0.5; Tool On
G1 F300 Z0.0000
G1 F15000 X4.0000 Y732.8400 Z0.0000
M3S245
G4 P0.5; Tool Off

G0 Z0; move to z-safe height
G0 X4.0000 Y740.8400
M3S0
G4 P0.5; Tool On
G1 F300 Z0.0000
G1 F15000 X746.0000 Y740.8400 Z0.0000
M3S245
G4 P0.5; Tool Off

G0 Z0; move to z-safe height
G0 X746.0000 Y748.8400
M3S0
G4 P0.5; Tool On
G1 F300 Z0.0000
G1 F15000 X4.0000 Y748.8400 Z0.0000
M3S245
G4 P0.5; Tool Off

G0 Z0; move to z-safe height
G0 X4.0000 Y756.8400
M3S0
G4 P0.5; Tool On
G1 F300 Z0.0000
G1 F15000 X746.0000 Y756.8400 Z0.0000
M3S245
G4 P0.5; Tool Off

G0 Z0; move to z-safe height
G0 X746.0000 Y764.8400
M3S0
G4 P0.5; Tool On
G1 F300 Z0.0000
G1 F15000 X4.0000 Y764.8400 Z0.0000
M3S245
G4 P0.5; Tool Off

G0 Z0; move to z-safe height
G0 X4.0000 Y772.8400
M3S0
G4 P0.5; Tool On
G1 F300 Z0.0000
G1 F15000 X746.0000 Y772.8400 Z0.0000
M3S245
G4 P0.5; Tool Off

G0 Z0; move to z-safe height
G0 X746.0000 Y780.8400
M3S0
G4 P0.5; Tool On
G1 F300 Z0.0000
G1 F15000 X4.0000 Y780.8400 Z0.0000
M3S245
G4 P0.5; Tool Off

G0 Z0; move to z-safe height
G0 X4.0000 Y788.8400
M3S0
G4 P0.5; Tool On
G1 F300 Z0.0000
G1 F15000 X746.0000 Y788.8400 Z0.0000
M3S245
G4 P0.5; Tool Off

G0 Z0; move to z-safe height
G0 X746.0000 Y796.8400
M3S0
G4 P0.5; Tool On
G1 F300 Z0.0000
G1 F15000 X4.0000 Y796.8400 Z0.0000
M3S245
G4 P0.5; Tool Off

G0 Z0; move to z-safe height
G0 X4.0000 Y804.8400
M3S0
G4 P0.5; Tool On
G1 F300 Z0.0000
G1 F15000 X746.0000 Y804.8400 Z0.0000
M3S245
G4 P0.5; Tool Off

G0 Z0; move to z-safe height
G0 X746.0000 Y812.8400
M3S0
G4 P0.5; Tool On
G1 F300 Z0.0000
G1 F15000 X4.0000 Y812.8400 Z0.0000
M3S245
G4 P0.5; Tool Off

G0 Z0; move to z-safe height
G0 X4.0000 Y820.8400
M3S0
G4 P0.5; Tool On
G1 F300 Z0.0000
G1 F15000 X746.0000 Y820.8400 Z0.0000
M3S245
G4 P0.5; Tool Off

G0 Z0; move to z-safe height
G0 X746.0000 Y828.8400
M3S0
G4 P0.5; Tool On
G1 F300 Z0.0000
G1 F15000 X4.0000 Y828.8400 Z0.0000
M3S245
G4 P0.5; Tool Off

G0 Z0; move to z-safe height
G0 X4.0000 Y836.8400
M3S0
G4 P0.5; Tool On
G1 F300 Z0.0000
G1 F15000 X746.0000 Y836.8400 Z0.0000
M3S245
G4 P0.5; Tool Off

G0 Z0; move to z-safe height
G0 X746.0000 Y844.8400
M3S0
G4 P0.5; Tool On
G1 F300 Z0.0000
G1 F15000 X4.0000 Y844.8400 Z0.0000
M3S245
G4 P0.5; Tool Off

G0 Z0; move to z-safe height
G0 X4.0000 Y852.8400
M3S0
G4 P0.5; Tool On
G1 F300 Z0.0000
G1 F15000 X746.0000 Y852.8400 Z0.0000
M3S245
G4 P0.5; Tool Off

G0 Z0; move to z-safe height
G0 X746.0000 Y860.8400
M3S0
G4 P0.5; Tool On
G1 F300 Z0.0000
G1 F15000 X4.0000 Y860.8400 Z0.0000
M3S245
G4 P0.5; Tool Off

G0 Z0; move to z-safe height
G0 X4.0000 Y868.8400
M3S0
G4 P0.5; Tool On
G1 F300 Z0.0000
G1 F15000 X746.0000 Y868.8400 Z0.0000
M3S245
G4 P0.5; Tool Off

G0 Z0; move to z-safe height
G0 X746.0000 Y876.8400
M3S0
G4 P0.5; Tool On
G1 F300 Z0.0000
G1 F15000 X4.0000 Y876.8400 Z0.0000
M3S245
G4 P0.5; Tool Off

G0 Z0; move to z-safe height
G0 X4.0000 Y884.8400
M3S0
G4 P0.5; Tool On
G1 F300 Z0.0000
G1 F15000 X746.0000 Y884.8400 Z0.0000
M3S245
G4 P0.5; Tool Off

G0 Z0; move to z-safe height
G0 X746.0000 Y892.8400
M3S0
G4 P0.5; Tool On
G1 F300 Z0.0000
G1 F15000 X4.0000 Y892.8400 Z0.0000
M3S245
G4 P0.5; Tool Off

G0 Z0; move to z-safe height
G0 X4.0000 Y900.8400
M3S0
G4 P0.5; Tool On
G1 F300 Z0.0000
G1 F15000 X746.0000 Y900.8400 Z0.0000
M3S245
G4 P0.5; Tool Off

G0 Z0; move to z-safe height
G0 X746.0000 Y908.8400
M3S0
G4 P0.5; Tool On
G1 F300 Z0.0000
G1 F15000 X4.0000 Y908.8400 Z0.0000
M3S245
G4 P0.5; Tool Off

G0 Z0; move to z-safe height
G0 X4.0000 Y916.8400
M3S0
G4 P0.5; Tool On
G1 F300 Z0.0000
G1 F15000 X746.0000 Y916.8400 Z0.0000
M3S245
G4 P0.5; Tool Off

G0 Z0; move to z-safe height
G0 X746.0000 Y924.8400
M3S0
G4 P0.5; Tool On
G1 F300 Z0.0000
G1 F15000 X4.0000 Y924.8400 Z0.0000
M3S245
G4 P0.5; Tool Off

G0 Z0; move to z-safe height
G0 X4.0000 Y932.8400
M3S0
G4 P0.5; Tool On
G1 F300 Z0.0000
G1 F15000 X746.0000 Y932.8400 Z0.0000
M3S245
G4 P0.5; Tool Off

G0 Z0; move to z-safe height
G0 X746.0000 Y940.8400
M3S0
G4 P0.5; Tool On
G1 F300 Z0.0000
G1 F15000 X4.0000 Y940.8400 Z0.0000
M3S245
G4 P0.5; Tool Off

G0 Z0; move to z-safe height
G0 X4.0000 Y948.8400
M3S0
G4 P0.5; Tool On
G1 F300 Z0.0000
G1 F15000 X746.0000 Y948.8400 Z0.0000
M3S245
G4 P0.5; Tool Off

G0 Z0; move to z-safe height
G0 X746.0000 Y956.8400
M3S0
G4 P0.5; Tool On
G1 F300 Z0.0000
G1 F15000 X4.0000 Y956.8400 Z0.0000
M3S245
G4 P0.5; Tool Off

G0 Z0; move to z-safe height
G0 X4.0000 Y964.8400
M3S0
G4 P0.5; Tool On
G1 F300 Z0.0000
G1 F15000 X746.0000 Y964.8400 Z0.0000
M3S245
G4 P0.5; Tool Off

G0 Z0; move to z-safe height
G0 X746.0000 Y972.8400
M3S0
G4 P0.5; Tool On
G1 F300 Z0.0000
G1 F15000 X4.0000 Y972.8400 Z0.0000
M3S245
G4 P0.5; Tool Off

G0 Z0; move to z-safe height
G0 X4.0000 Y980.8400
M3S0
G4 P0.5; Tool On
G1 F300 Z0.0000
G1 F15000 X746.0000 Y980.8400 Z0.0000
M3S245
G4 P0.5; Tool Off

G0 Z0; move to z-safe height
G0 X746.0000 Y988.8400
M3S0
G4 P0.5; Tool On
G1 F300 Z0.0000
G1 F15000 X4.0000 Y988.8400 Z0.0000
M3S245
G4 P0.5; Tool Off

G0 Z0; move to z-safe height
G0 X4.0000 Y996.8400
M3S0
G4 P0.5; Tool On
G1 F300 Z0.0000
G1 F15000 X746.0000 Y996.8400 Z0.0000
M3S245
G4 P0.5; Tool Off

G0 Z0; move to z-safe height
G0 X746.0000 Y1004.8400
M3S0
G4 P0.5; Tool On
G1 F300 Z0.0000
G1 F15000 X4.0000 Y1004.8400 Z0.0000
M3S245
G4 P0.5; Tool Off

G0 Z0; move to z-safe height
G0 X4.0000 Y1012.8400
M3S0
G4 P0.5; Tool On
G1 F300 Z0.0000
G1 F15000 X746.0000 Y1012.8400 Z0.0000
M3S245
G4 P0.5; Tool Off

G0 Z0; move to z-safe height
G0 X746.0000 Y1020.8400
M3S0
G4 P0.5; Tool On
G1 F300 Z0.0000
G1 F15000 X4.0000 Y1020.8400 Z0.0000
M3S245
G4 P0.5; Tool Off

G0 Z0; move to z-safe height
G0 X4.0000 Y1028.8400
M3S0
G4 P0.5; Tool On
G1 F300 Z0.0000
G1 F15000 X746.0000 Y1028.8400 Z0.0000
M3S245
G4 P0.5; Tool Off

G0 Z0; move to z-safe height
G0 X746.0000 Y1036.8400
M3S0
G4 P0.5; Tool On
G1 F300 Z0.0000
G1 F15000 X4.0000 Y1036.8400 Z0.0000
M3S245
G4 P0.5; Tool Off

G0 Z0; move to z-safe height
G0 X4.0000 Y1044.8400
M3S0
G4 P0.5; Tool On
G1 F300 Z0.0000
G1 F15000 X746.0000 Y1044.8400 Z0.0000
M3S245
G4 P0.5; Tool Off

G0 Z0; move to z-safe height
G0 X746.0000 Y1052.8400
M3S0
G4 P0.5; Tool On
G1 F300 Z0.0000
G1 F15000 X4.0000 Y1052.8400 Z0.0000
M3S245
G4 P0.5; Tool Off

G0 Z0; move to z-safe height
G0 X4.0000 Y1060.8400
M3S0
G4 P0.5; Tool On
G1 F300 Z0.0000
G1 F15000 X746.0000 Y1060.8400 Z0.0000
M3S245
G4 P0.5; Tool Off

G0 Z0; move to z-safe height
G0 X746.0000 Y1068.8400
M3S0
G4 P0.5; Tool On
G1 F300 Z0.0000
G1 F15000 X4.0000 Y1068.8400 Z0.0000
M3S245
G4 P0.5; Tool Off

G0 Z0; move to z-safe height
G0 X4.0000 Y1076.8400
M3S0
G4 P0.5; Tool On
G1 F300 Z0.0000
G1 F15000 X746.0000 Y1076.8400 Z0.0000
M3S245
G4 P0.5; Tool Off

G0 Z0; move to z-safe height
G0 X746.0000 Y1084.8400
M3S0
G4 P0.5; Tool On
G1 F300 Z0.0000
G1 F15000 X4.0000 Y1084.8400 Z0.0000
M3S245
G4 P0.5; Tool Off

G0 Z0; move to z-safe height
G0 X4.0000 Y1092.8400
M3S0
G4 P0.5; Tool On
G1 F300 Z0.0000
G1 F15000 X746.0000 Y1092.8400 Z0.0000
M3S245
G4 P0.5; Tool Off

G0 Z0; move to z-safe height
G0 X746.0000 Y1100.8400
M3S0
G4 P0.5; Tool On
G1 F300 Z0.0000
G1 F15000 X4.0000 Y1100.8400 Z0.0000
M3S245
G4 P0.5; Tool Off

G0 Z0; move to z-safe height
G0 X4.0000 Y1108.8400
M3S0
G4 P0.5; Tool On
G1 F300 Z0.0000
G1 F15000 X746.0000 Y1108.8400 Z0.0000
M3S245
G4 P0.5; Tool Off

G0 Z0; move to z-safe height
G0 X746.0000 Y1116.8400
M3S0
G4 P0.5; Tool On
G1 F300 Z0.0000
G1 F15000 X4.0000 Y1116.8400 Z0.0000
M3S245
G4 P0.5; Tool Off

G0 Z0; move to z-safe height
G0 X4.0000 Y1124.8400
M3S0
G4 P0.5; Tool On
G1 F300 Z0.0000
G1 F15000 X746.0000 Y1124.8400 Z0.0000
M3S245
G4 P0.5; Tool Off

G0 Z0; move to z-safe height
G0 X746.0000 Y1132.8400
M3S0
G4 P0.5; Tool On
G1 F300 Z0.0000
G1 F15000 X4.0000 Y1132.8400 Z0.0000
M3S245
G4 P0.5; Tool Off

G0 Z0; move to z-safe height
G0 X4.0000 Y1140.8400
M3S0
G4 P0.5; Tool On
G1 F300 Z0.0000
G1 F15000 X746.0000 Y1140.8400 Z0.0000
M3S245
G4 P0.5; Tool Off

G0 Z0; move to z-safe height
G0 X746.0000 Y1148.8400
M3S0
G4 P0.5; Tool On
G1 F300 Z0.0000
G1 F15000 X4.0000 Y1148.8400 Z0.0000
M3S245
G4 P0.5; Tool Off

G0 Z0; move to z-safe height
G0 X4.0000 Y1156.8400
M3S0
G4 P0.5; Tool On
G1 F300 Z0.0000
G1 F15000 X746.0000 Y1156.8400 Z0.0000
M3S245
G4 P0.5; Tool Off

G0 Z0; move to z-safe height
G0 X746.0000 Y1164.8400
M3S0
G4 P0.5; Tool On
G1 F300 Z0.0000
G1 F15000 X4.0000 Y1164.8400 Z0.0000
M3S245
G4 P0.5; Tool Off

G0 Z0; move to z-safe height
G0 X4.0000 Y1172.8400
M3S0
G4 P0.5; Tool On
G1 F300 Z0.0000
G1 F15000 X746.0000 Y1172.8400 Z0.0000
M3S245
G4 P0.5; Tool Off

G0 Z0; move to z-safe height
G0 X746.0000 Y1180.8400
M3S0
G4 P0.5; Tool On
G1 F300 Z0.0000
G1 F15000 X4.0000 Y1180.8400 Z0.0000
M3S245
G4 P0.5; Tool Off

G0 Z0; move to z-safe height
G0 X4.0000 Y1188.8400
M3S0
G4 P0.5; Tool On
G1 F300 Z0.0000
G1 F15000 X746.0000 Y1188.8400 Z0.0000
M3S245
G4 P0.5; Tool Off

G0 Z0; move to z-safe height
G0 X746.0000 Y1196.8400
M3S0
G4 P0.5; Tool On
G1 F300 Z0.0000
G1 F15000 X4.0000 Y1196.8400 Z0.0000
M3S245
G4 P0.5; Tool Off

G0 Z0; move to z-safe height
G0 X4.0000 Y1204.8400
M3S0
G4 P0.5; Tool On
G1 F300 Z0.0000
G1 F15000 X746.0000 Y1204.8400 Z0.0000
M3S245
G4 P0.5; Tool Off

G0 Z0; move to z-safe height
G0 X746.0000 Y1212.8400
M3S0
G4 P0.5; Tool On
G1 F300 Z0.0000
G1 F15000 X4.0000 Y1212.8400 Z0.0000
M3S245
G4 P0.5; Tool Off

G0 Z0; move to z-safe height
G0 X4.0000 Y1220.8400
M3S0
G4 P0.5; Tool On
G1 F300 Z0.0000
G1 F15000 X746.0000 Y1220.8400 Z0.0000
M3S245
G4 P0.5; Tool Off

G0 Z0; move to z-safe height
G0 X746.0000 Y1228.8400
M3S0
G4 P0.5; Tool On
G1 F300 Z0.0000
G1 F15000 X4.0000 Y1228.8400 Z0.0000
M3S245
G4 P0.5; Tool Off

G0 Z0; move to z-safe height
G0 X4.0000 Y1236.8400
M3S0
G4 P0.5; Tool On
G1 F300 Z0.0000
G1 F15000 X746.0000 Y1236.8400 Z0.0000
M3S245
G4 P0.5; Tool Off

G0 Z0; move to z-safe height
G0 X746.0000 Y1244.8400
M3S0
G4 P0.5; Tool On
G1 F300 Z0.0000
G1 F15000 X4.0000 Y1244.8400 Z0.0000
M3S245
G4 P0.5; Tool Off

G0 Z0; move to z-safe height
G0 X4.0000 Y1252.8400
M3S0
G4 P0.5; Tool On
G1 F300 Z0.0000
G1 F15000 X746.0000 Y1252.8400 Z0.0000
M3S245
G4 P0.5; Tool Off

G0 Z0; move to z-safe height
G0 X746.0000 Y1260.8400
M3S0
G4 P0.5; Tool On
G1 F300 Z0.0000
G1 F15000 X4.0000 Y1260.8400 Z0.0000
M3S245
G4 P0.5; Tool Off

G0 Z0; move to z-safe height
G0 X4.0000 Y1268.8400
M3S0
G4 P0.5; Tool On
G1 F300 Z0.0000
G1 F15000 X746.0000 Y1268.8400 Z0.0000
M3S245
G4 P0.5; Tool Off

G0 Z0; move to z-safe height
G0 X746.0000 Y1276.8400
M3S0
G4 P0.5; Tool On
G1 F300 Z0.0000
G1 F15000 X4.0000 Y1276.8400 Z0.0000
M3S245
G4 P0.5; Tool Off

G0 Z0; move to z-safe height
G0 X4.0000 Y1284.8400
M3S0
G4 P0.5; Tool On
G1 F300 Z0.0000
G1 F15000 X746.0000 Y1284.8400 Z0.0000
M3S245
G4 P0.5; Tool Off

G0 Z0; move to z-safe height
G0 X746.0000 Y1292.8400
M3S0
G4 P0.5; Tool On
G1 F300 Z0.0000
G1 F15000 X4.0000 Y1292.8400 Z0.0000
M3S245
G4 P0.5; Tool Off

G0 Z0; move to z-safe height
G0 X4.0000 Y1300.8400
M3S0
G4 P0.5; Tool On
G1 F300 Z0.0000
G1 F15000 X746.0000 Y1300.8400 Z0.0000
M3S245
G4 P0.5; Tool Off

G0 Z0; move to z-safe height
G0 X746.0000 Y1308.8400
M3S0
G4 P0.5; Tool On
G1 F300 Z0.0000
G1 F15000 X4.0000 Y1308.8400 Z0.0000
M3S245
G4 P0.5; Tool Off

G0 Z0; move to z-safe height
G0 X4.0000 Y1316.8400
M3S0
G4 P0.5; Tool On
G1 F300 Z0.0000
G1 F15000 X746.0000 Y1316.8400 Z0.0000
M3S245
G4 P0.5; Tool Off

G0 Z0; move to z-safe height
G0 X746.0000 Y1324.8400
M3S0
G4 P0.5; Tool On
G1 F300 Z0.0000
G1 F15000 X4.0000 Y1324.8400 Z0.0000
M3S245
G4 P0.5; Tool Off

G0 Z0; move to z-safe height
G0 X4.0000 Y1332.8400
M3S0
G4 P0.5; Tool On
G1 F300 Z0.0000
G1 F15000 X746.0000 Y1332.8400 Z0.0000
M3S245
G4 P0.5; Tool Off

G0 Z0; move to z-safe height
G0 X746.0000 Y1340.8400
M3S0
G4 P0.5; Tool On
G1 F300 Z0.0000
G1 F15000 X4.0000 Y1340.8400 Z0.0000
M3S245
G4 P0.5; Tool Off

G0 Z0; move to z-safe height
G0 X4.0000 Y1348.8400
M3S0
G4 P0.5; Tool On
G1 F300 Z0.0000
G1 F15000 X746.0000 Y1348.8400 Z0.0000
M3S245
G4 P0.5; Tool Off

G0 Z0; move to z-safe height
G0 X746.0000 Y1356.8400
M3S0
G4 P0.5; Tool On
G1 F300 Z0.0000
G1 F15000 X4.0000 Y1356.8400 Z0.0000
M3S245
G4 P0.5; Tool Off

G0 Z0; move to z-safe height
G0 X4.0000 Y1364.8400
M3S0
G4 P0.5; Tool On
G1 F300 Z0.0000
G1 F15000 X746.0000 Y1364.8400 Z0.0000
M3S245
G4 P0.5; Tool Off

G0 Z0; move to z-safe height
G0 X746.0000 Y1372.8400
M3S0
G4 P0.5; Tool On
G1 F300 Z0.0000
G1 F15000 X4.0000 Y1372.8400 Z0.0000
M3S245
G4 P0.5; Tool Off

G0 Z0; move to z-safe height
G0 X4.0000 Y1380.8400
M3S0
G4 P0.5; Tool On
G1 F300 Z0.0000
G1 F15000 X746.0000 Y1380.8400 Z0.0000
M3S245
G4 P0.5; Tool Off

G0 Z0; move to z-safe height
G0 X746.0000 Y1388.8400
M3S0
G4 P0.5; Tool On
G1 F300 Z0.0000
G1 F15000 X4.0000 Y1388.8400 Z0.0000
M3S245
G4 P0.5; Tool Off

G0 Z0; move to z-safe height
G0 X4.0000 Y1396.8400
M3S0
G4 P0.5; Tool On
G1 F300 Z0.0000
G1 F15000 X746.0000 Y1396.8400 Z0.0000
M3S245
G4 P0.5; Tool Off

G0 Z0; move to z-safe height
G0 X746.0000 Y1404.8400
M3S0
G4 P0.5; Tool On
G1 F300 Z0.0000
G1 F15000 X4.0000 Y1404.8400 Z0.0000
M3S245
G4 P0.5; Tool Off

G0 Z0; move to z-safe height
G0 X4.0000 Y1412.8400
M3S0
G4 P0.5; Tool On
G1 F300 Z0.0000
G1 F15000 X746.0000 Y1412.8400 Z0.0000
M3S245
G4 P0.5; Tool Off

G0 Z0; move to z-safe height
G0 X746.0000 Y1420.8400
M3S0
G4 P0.5; Tool On
G1 F300 Z0.0000
G1 F15000 X4.0000 Y1420.8400 Z0.0000
M3S245
G4 P0.5; Tool Off

G0 Z0; move to z-safe height
G0 X4.0000 Y1428.8400
M3S0
G4 P0.5; Tool On
G1 F300 Z0.0000
G1 F15000 X746.0000 Y1428.8400 Z0.0000
M3S245
G4 P0.5; Tool Off

G0 Z0; move to z-safe height
G0 X746.0000 Y1436.8400
M3S0
G4 P0.5; Tool On
G1 F300 Z0.0000
G1 F15000 X4.0000 Y1436.8400 Z0.0000
M3S245
G4 P0.5; Tool Off

G0 Z0; move to z-safe height
G0 X4.0000 Y1444.8400
M3S0
G4 P0.5; Tool On
G1 F300 Z0.0000
G1 F15000 X746.0000 Y1444.8400 Z0.0000
M3S245
G4 P0.5; Tool Off

G0 Z0; move to z-safe height
G0 X746.0000 Y1452.8400
M3S0
G4 P0.5; Tool On
G1 F300 Z0.0000
G1 F15000 X4.0000 Y1452.8400 Z0.0000
M3S245
G4 P0.5; Tool Off

G0 Z0; move to z-safe height
G0 X4.0000 Y1460.8400
M3S0
G4 P0.5; Tool On
G1 F300 Z0.0000
G1 F15000 X746.0000 Y1460.8400 Z0.0000
M3S245
G4 P0.5; Tool Off

G0 Z0; move to z-safe height
G0 X746.0000 Y1468.8400
M3S0
G4 P0.5; Tool On
G1 F300 Z0.0000
G1 F15000 X4.0000 Y1468.8400 Z0.0000
M3S245
G4 P0.5; Tool Off

G0 Z0; move to z-safe height
G0 X4.0000 Y1476.8400
M3S0
G4 P0.5; Tool On
G1 F300 Z0.0000
G1 F15000 X746.0000 Y1476.8400 Z0.0000
M3S245
G4 P0.5; Tool Off

G0 Z0; move to z-safe height
G0 X746.0000 Y1484.8400
M3S0
G4 P0.5; Tool On
G1 F300 Z0.0000
G1 F15000 X4.0000 Y1484.8400 Z0.0000
M3S245
G4 P0.5; Tool Off

G0 Z0; move to z-safe height
G0 X4.0000 Y1492.8400
M3S0
G4 P0.5; Tool On
G1 F300 Z0.0000
G1 F15000 X746.0000 Y1492.8400 Z0.0000
M3S245
G4 P0.5; Tool Off
; retracting back to z-safe
G0 Z0

; Plotter Mode Complete
