; GCODE Generated by cam.openbuilds.com on 2023-11-01 
G21 ; mm-mode
G54; Work Coordinates
G21; mm-mode
G90; Absolute Positioning
; Plotter Mode Active

; Operation 0: Pen Plotter: (lines fill)
; Pen Diameter: 2

G0 Z0; move to z-safe height
G0 F1000 X744.0000 Y15.5200
M3S0
G4 P0.5; Tool On
G1 F300 Z0.0000
G1 F15000 X6.0000 Y15.5200 Z0.0000
M3S245
G4 P0.5; Tool Off

G0 Z0; move to z-safe height
G0 X6.0000 Y27.5200
M3S0
G4 P0.5; Tool On
G1 F300 Z0.0000
G1 F15000 X744.0000 Y27.5200 Z0.0000
M3S245
G4 P0.5; Tool Off

G0 Z0; move to z-safe height
G0 X744.0000 Y39.5200
M3S0
G4 P0.5; Tool On
G1 F300 Z0.0000
G1 F15000 X6.0000 Y39.5200 Z0.0000
M3S245
G4 P0.5; Tool Off

G0 Z0; move to z-safe height
G0 X6.0000 Y51.5200
M3S0
G4 P0.5; Tool On
G1 F300 Z0.0000
G1 F15000 X744.0000 Y51.5200 Z0.0000
M3S245
G4 P0.5; Tool Off

G0 Z0; move to z-safe height
G0 X744.0000 Y63.5200
M3S0
G4 P0.5; Tool On
G1 F300 Z0.0000
G1 F15000 X6.0000 Y63.5200 Z0.0000
M3S245
G4 P0.5; Tool Off

G0 Z0; move to z-safe height
G0 X6.0000 Y75.5200
M3S0
G4 P0.5; Tool On
G1 F300 Z0.0000
G1 F15000 X744.0000 Y75.5200 Z0.0000
M3S245
G4 P0.5; Tool Off

G0 Z0; move to z-safe height
G0 X744.0000 Y87.5200
M3S0
G4 P0.5; Tool On
G1 F300 Z0.0000
G1 F15000 X6.0000 Y87.5200 Z0.0000
M3S245
G4 P0.5; Tool Off

G0 Z0; move to z-safe height
G0 X6.0000 Y99.5200
M3S0
G4 P0.5; Tool On
G1 F300 Z0.0000
G1 F15000 X744.0000 Y99.5200 Z0.0000
M3S245
G4 P0.5; Tool Off

G0 Z0; move to z-safe height
G0 X744.0000 Y111.5200
M3S0
G4 P0.5; Tool On
G1 F300 Z0.0000
G1 F15000 X6.0000 Y111.5200 Z0.0000
M3S245
G4 P0.5; Tool Off

G0 Z0; move to z-safe height
G0 X6.0000 Y123.5200
M3S0
G4 P0.5; Tool On
G1 F300 Z0.0000
G1 F15000 X744.0000 Y123.5200 Z0.0000
M3S245
G4 P0.5; Tool Off

G0 Z0; move to z-safe height
G0 X744.0000 Y135.5200
M3S0
G4 P0.5; Tool On
G1 F300 Z0.0000
G1 F15000 X6.0000 Y135.5200 Z0.0000
M3S245
G4 P0.5; Tool Off

G0 Z0; move to z-safe height
G0 X6.0000 Y147.5200
M3S0
G4 P0.5; Tool On
G1 F300 Z0.0000
G1 F15000 X744.0000 Y147.5200 Z0.0000
M3S245
G4 P0.5; Tool Off

G0 Z0; move to z-safe height
G0 X744.0000 Y159.5200
M3S0
G4 P0.5; Tool On
G1 F300 Z0.0000
G1 F15000 X6.0000 Y159.5200 Z0.0000
M3S245
G4 P0.5; Tool Off

G0 Z0; move to z-safe height
G0 X6.0000 Y171.5200
M3S0
G4 P0.5; Tool On
G1 F300 Z0.0000
G1 F15000 X744.0000 Y171.5200 Z0.0000
M3S245
G4 P0.5; Tool Off

G0 Z0; move to z-safe height
G0 X744.0000 Y183.5200
M3S0
G4 P0.5; Tool On
G1 F300 Z0.0000
G1 F15000 X6.0000 Y183.5200 Z0.0000
M3S245
G4 P0.5; Tool Off

G0 Z0; move to z-safe height
G0 X6.0000 Y195.5200
M3S0
G4 P0.5; Tool On
G1 F300 Z0.0000
G1 F15000 X744.0000 Y195.5200 Z0.0000
M3S245
G4 P0.5; Tool Off

G0 Z0; move to z-safe height
G0 X744.0000 Y207.5200
M3S0
G4 P0.5; Tool On
G1 F300 Z0.0000
G1 F15000 X6.0000 Y207.5200 Z0.0000
M3S245
G4 P0.5; Tool Off

G0 Z0; move to z-safe height
G0 X6.0000 Y219.5200
M3S0
G4 P0.5; Tool On
G1 F300 Z0.0000
G1 F15000 X744.0000 Y219.5200 Z0.0000
M3S245
G4 P0.5; Tool Off

G0 Z0; move to z-safe height
G0 X744.0000 Y231.5200
M3S0
G4 P0.5; Tool On
G1 F300 Z0.0000
G1 F15000 X6.0000 Y231.5200 Z0.0000
M3S245
G4 P0.5; Tool Off

G0 Z0; move to z-safe height
G0 X6.0000 Y243.5200
M3S0
G4 P0.5; Tool On
G1 F300 Z0.0000
G1 F15000 X744.0000 Y243.5200 Z0.0000
M3S245
G4 P0.5; Tool Off

G0 Z0; move to z-safe height
G0 X744.0000 Y255.5200
M3S0
G4 P0.5; Tool On
G1 F300 Z0.0000
G1 F15000 X6.0000 Y255.5200 Z0.0000
M3S245
G4 P0.5; Tool Off

G0 Z0; move to z-safe height
G0 X6.0000 Y267.5200
M3S0
G4 P0.5; Tool On
G1 F300 Z0.0000
G1 F15000 X744.0000 Y267.5200 Z0.0000
M3S245
G4 P0.5; Tool Off

G0 Z0; move to z-safe height
G0 X744.0000 Y279.5200
M3S0
G4 P0.5; Tool On
G1 F300 Z0.0000
G1 F15000 X6.0000 Y279.5200 Z0.0000
M3S245
G4 P0.5; Tool Off

G0 Z0; move to z-safe height
G0 X6.0000 Y291.5200
M3S0
G4 P0.5; Tool On
G1 F300 Z0.0000
G1 F15000 X744.0000 Y291.5200 Z0.0000
M3S245
G4 P0.5; Tool Off

G0 Z0; move to z-safe height
G0 X744.0000 Y303.5200
M3S0
G4 P0.5; Tool On
G1 F300 Z0.0000
G1 F15000 X6.0000 Y303.5200 Z0.0000
M3S245
G4 P0.5; Tool Off

G0 Z0; move to z-safe height
G0 X6.0000 Y315.5200
M3S0
G4 P0.5; Tool On
G1 F300 Z0.0000
G1 F15000 X744.0000 Y315.5200 Z0.0000
M3S245
G4 P0.5; Tool Off

G0 Z0; move to z-safe height
G0 X744.0000 Y327.5200
M3S0
G4 P0.5; Tool On
G1 F300 Z0.0000
G1 F15000 X6.0000 Y327.5200 Z0.0000
M3S245
G4 P0.5; Tool Off

G0 Z0; move to z-safe height
G0 X6.0000 Y339.5200
M3S0
G4 P0.5; Tool On
G1 F300 Z0.0000
G1 F15000 X744.0000 Y339.5200 Z0.0000
M3S245
G4 P0.5; Tool Off

G0 Z0; move to z-safe height
G0 X744.0000 Y351.5200
M3S0
G4 P0.5; Tool On
G1 F300 Z0.0000
G1 F15000 X6.0000 Y351.5200 Z0.0000
M3S245
G4 P0.5; Tool Off

G0 Z0; move to z-safe height
G0 X6.0000 Y363.5200
M3S0
G4 P0.5; Tool On
G1 F300 Z0.0000
G1 F15000 X744.0000 Y363.5200 Z0.0000
M3S245
G4 P0.5; Tool Off

G0 Z0; move to z-safe height
G0 X744.0000 Y375.5200
M3S0
G4 P0.5; Tool On
G1 F300 Z0.0000
G1 F15000 X6.0000 Y375.5200 Z0.0000
M3S245
G4 P0.5; Tool Off

G0 Z0; move to z-safe height
G0 X6.0000 Y387.5200
M3S0
G4 P0.5; Tool On
G1 F300 Z0.0000
G1 F15000 X744.0000 Y387.5200 Z0.0000
M3S245
G4 P0.5; Tool Off

G0 Z0; move to z-safe height
G0 X744.0000 Y399.5200
M3S0
G4 P0.5; Tool On
G1 F300 Z0.0000
G1 F15000 X6.0000 Y399.5200 Z0.0000
M3S245
G4 P0.5; Tool Off

G0 Z0; move to z-safe height
G0 X6.0000 Y411.5200
M3S0
G4 P0.5; Tool On
G1 F300 Z0.0000
G1 F15000 X744.0000 Y411.5200 Z0.0000
M3S245
G4 P0.5; Tool Off

G0 Z0; move to z-safe height
G0 X744.0000 Y423.5200
M3S0
G4 P0.5; Tool On
G1 F300 Z0.0000
G1 F15000 X6.0000 Y423.5200 Z0.0000
M3S245
G4 P0.5; Tool Off

G0 Z0; move to z-safe height
G0 X6.0000 Y435.5200
M3S0
G4 P0.5; Tool On
G1 F300 Z0.0000
G1 F15000 X744.0000 Y435.5200 Z0.0000
M3S245
G4 P0.5; Tool Off

G0 Z0; move to z-safe height
G0 X744.0000 Y447.5200
M3S0
G4 P0.5; Tool On
G1 F300 Z0.0000
G1 F15000 X6.0000 Y447.5200 Z0.0000
M3S245
G4 P0.5; Tool Off

G0 Z0; move to z-safe height
G0 X6.0000 Y459.5200
M3S0
G4 P0.5; Tool On
G1 F300 Z0.0000
G1 F15000 X744.0000 Y459.5200 Z0.0000
M3S245
G4 P0.5; Tool Off

G0 Z0; move to z-safe height
G0 X744.0000 Y471.5200
M3S0
G4 P0.5; Tool On
G1 F300 Z0.0000
G1 F15000 X6.0000 Y471.5200 Z0.0000
M3S245
G4 P0.5; Tool Off

G0 Z0; move to z-safe height
G0 X6.0000 Y483.5200
M3S0
G4 P0.5; Tool On
G1 F300 Z0.0000
G1 F15000 X744.0000 Y483.5200 Z0.0000
M3S245
G4 P0.5; Tool Off

G0 Z0; move to z-safe height
G0 X744.0000 Y495.5200
M3S0
G4 P0.5; Tool On
G1 F300 Z0.0000
G1 F15000 X6.0000 Y495.5200 Z0.0000
M3S245
G4 P0.5; Tool Off

G0 Z0; move to z-safe height
G0 X6.0000 Y507.5200
M3S0
G4 P0.5; Tool On
G1 F300 Z0.0000
G1 F15000 X744.0000 Y507.5200 Z0.0000
M3S245
G4 P0.5; Tool Off

G0 Z0; move to z-safe height
G0 X744.0000 Y519.5200
M3S0
G4 P0.5; Tool On
G1 F300 Z0.0000
G1 F15000 X6.0000 Y519.5200 Z0.0000
M3S245
G4 P0.5; Tool Off

G0 Z0; move to z-safe height
G0 X6.0000 Y531.5200
M3S0
G4 P0.5; Tool On
G1 F300 Z0.0000
G1 F15000 X744.0000 Y531.5200 Z0.0000
M3S245
G4 P0.5; Tool Off

G0 Z0; move to z-safe height
G0 X744.0000 Y543.5200
M3S0
G4 P0.5; Tool On
G1 F300 Z0.0000
G1 F15000 X6.0000 Y543.5200 Z0.0000
M3S245
G4 P0.5; Tool Off

G0 Z0; move to z-safe height
G0 X6.0000 Y555.5200
M3S0
G4 P0.5; Tool On
G1 F300 Z0.0000
G1 F15000 X744.0000 Y555.5200 Z0.0000
M3S245
G4 P0.5; Tool Off

G0 Z0; move to z-safe height
G0 X744.0000 Y567.5200
M3S0
G4 P0.5; Tool On
G1 F300 Z0.0000
G1 F15000 X6.0000 Y567.5200 Z0.0000
M3S245
G4 P0.5; Tool Off

G0 Z0; move to z-safe height
G0 X6.0000 Y579.5200
M3S0
G4 P0.5; Tool On
G1 F300 Z0.0000
G1 F15000 X744.0000 Y579.5200 Z0.0000
M3S245
G4 P0.5; Tool Off

G0 Z0; move to z-safe height
G0 X744.0000 Y591.5200
M3S0
G4 P0.5; Tool On
G1 F300 Z0.0000
G1 F15000 X6.0000 Y591.5200 Z0.0000
M3S245
G4 P0.5; Tool Off

G0 Z0; move to z-safe height
G0 X6.0000 Y603.5200
M3S0
G4 P0.5; Tool On
G1 F300 Z0.0000
G1 F15000 X744.0000 Y603.5200 Z0.0000
M3S245
G4 P0.5; Tool Off

G0 Z0; move to z-safe height
G0 X744.0000 Y615.5200
M3S0
G4 P0.5; Tool On
G1 F300 Z0.0000
G1 F15000 X6.0000 Y615.5200 Z0.0000
M3S245
G4 P0.5; Tool Off

G0 Z0; move to z-safe height
G0 X6.0000 Y627.5200
M3S0
G4 P0.5; Tool On
G1 F300 Z0.0000
G1 F15000 X744.0000 Y627.5200 Z0.0000
M3S245
G4 P0.5; Tool Off

G0 Z0; move to z-safe height
G0 X744.0000 Y639.5200
M3S0
G4 P0.5; Tool On
G1 F300 Z0.0000
G1 F15000 X6.0000 Y639.5200 Z0.0000
M3S245
G4 P0.5; Tool Off

G0 Z0; move to z-safe height
G0 X6.0000 Y651.5200
M3S0
G4 P0.5; Tool On
G1 F300 Z0.0000
G1 F15000 X744.0000 Y651.5200 Z0.0000
M3S245
G4 P0.5; Tool Off

G0 Z0; move to z-safe height
G0 X744.0000 Y663.5200
M3S0
G4 P0.5; Tool On
G1 F300 Z0.0000
G1 F15000 X6.0000 Y663.5200 Z0.0000
M3S245
G4 P0.5; Tool Off

G0 Z0; move to z-safe height
G0 X6.0000 Y675.5200
M3S0
G4 P0.5; Tool On
G1 F300 Z0.0000
G1 F15000 X744.0000 Y675.5200 Z0.0000
M3S245
G4 P0.5; Tool Off

G0 Z0; move to z-safe height
G0 X744.0000 Y687.5200
M3S0
G4 P0.5; Tool On
G1 F300 Z0.0000
G1 F15000 X6.0000 Y687.5200 Z0.0000
M3S245
G4 P0.5; Tool Off

G0 Z0; move to z-safe height
G0 X6.0000 Y699.5200
M3S0
G4 P0.5; Tool On
G1 F300 Z0.0000
G1 F15000 X744.0000 Y699.5200 Z0.0000
M3S245
G4 P0.5; Tool Off

G0 Z0; move to z-safe height
G0 X744.0000 Y711.5200
M3S0
G4 P0.5; Tool On
G1 F300 Z0.0000
G1 F15000 X6.0000 Y711.5200 Z0.0000
M3S245
G4 P0.5; Tool Off

G0 Z0; move to z-safe height
G0 X6.0000 Y723.5200
M3S0
G4 P0.5; Tool On
G1 F300 Z0.0000
G1 F15000 X744.0000 Y723.5200 Z0.0000
M3S245
G4 P0.5; Tool Off

G0 Z0; move to z-safe height
G0 X744.0000 Y735.5200
M3S0
G4 P0.5; Tool On
G1 F300 Z0.0000
G1 F15000 X6.0000 Y735.5200 Z0.0000
M3S245
G4 P0.5; Tool Off

G0 Z0; move to z-safe height
G0 X6.0000 Y747.5200
M3S0
G4 P0.5; Tool On
G1 F300 Z0.0000
G1 F15000 X744.0000 Y747.5200 Z0.0000
M3S245
G4 P0.5; Tool Off

G0 Z0; move to z-safe height
G0 X744.0000 Y759.5200
M3S0
G4 P0.5; Tool On
G1 F300 Z0.0000
G1 F15000 X6.0000 Y759.5200 Z0.0000
M3S245
G4 P0.5; Tool Off

G0 Z0; move to z-safe height
G0 X6.0000 Y771.5200
M3S0
G4 P0.5; Tool On
G1 F300 Z0.0000
G1 F15000 X744.0000 Y771.5200 Z0.0000
M3S245
G4 P0.5; Tool Off

G0 Z0; move to z-safe height
G0 X744.0000 Y783.5200
M3S0
G4 P0.5; Tool On
G1 F300 Z0.0000
G1 F15000 X6.0000 Y783.5200 Z0.0000
M3S245
G4 P0.5; Tool Off

G0 Z0; move to z-safe height
G0 X6.0000 Y795.5200
M3S0
G4 P0.5; Tool On
G1 F300 Z0.0000
G1 F15000 X744.0000 Y795.5200 Z0.0000
M3S245
G4 P0.5; Tool Off

G0 Z0; move to z-safe height
G0 X744.0000 Y807.5200
M3S0
G4 P0.5; Tool On
G1 F300 Z0.0000
G1 F15000 X6.0000 Y807.5200 Z0.0000
M3S245
G4 P0.5; Tool Off

G0 Z0; move to z-safe height
G0 X6.0000 Y819.5200
M3S0
G4 P0.5; Tool On
G1 F300 Z0.0000
G1 F15000 X744.0000 Y819.5200 Z0.0000
M3S245
G4 P0.5; Tool Off

G0 Z0; move to z-safe height
G0 X744.0000 Y831.5200
M3S0
G4 P0.5; Tool On
G1 F300 Z0.0000
G1 F15000 X6.0000 Y831.5200 Z0.0000
M3S245
G4 P0.5; Tool Off

G0 Z0; move to z-safe height
G0 X6.0000 Y843.5200
M3S0
G4 P0.5; Tool On
G1 F300 Z0.0000
G1 F15000 X744.0000 Y843.5200 Z0.0000
M3S245
G4 P0.5; Tool Off

G0 Z0; move to z-safe height
G0 X744.0000 Y855.5200
M3S0
G4 P0.5; Tool On
G1 F300 Z0.0000
G1 F15000 X6.0000 Y855.5200 Z0.0000
M3S245
G4 P0.5; Tool Off

G0 Z0; move to z-safe height
G0 X6.0000 Y867.5200
M3S0
G4 P0.5; Tool On
G1 F300 Z0.0000
G1 F15000 X744.0000 Y867.5200 Z0.0000
M3S245
G4 P0.5; Tool Off

G0 Z0; move to z-safe height
G0 X744.0000 Y879.5200
M3S0
G4 P0.5; Tool On
G1 F300 Z0.0000
G1 F15000 X6.0000 Y879.5200 Z0.0000
M3S245
G4 P0.5; Tool Off

G0 Z0; move to z-safe height
G0 X6.0000 Y891.5200
M3S0
G4 P0.5; Tool On
G1 F300 Z0.0000
G1 F15000 X744.0000 Y891.5200 Z0.0000
M3S245
G4 P0.5; Tool Off

G0 Z0; move to z-safe height
G0 X744.0000 Y903.5200
M3S0
G4 P0.5; Tool On
G1 F300 Z0.0000
G1 F15000 X6.0000 Y903.5200 Z0.0000
M3S245
G4 P0.5; Tool Off

G0 Z0; move to z-safe height
G0 X6.0000 Y915.5200
M3S0
G4 P0.5; Tool On
G1 F300 Z0.0000
G1 F15000 X744.0000 Y915.5200 Z0.0000
M3S245
G4 P0.5; Tool Off

G0 Z0; move to z-safe height
G0 X744.0000 Y927.5200
M3S0
G4 P0.5; Tool On
G1 F300 Z0.0000
G1 F15000 X6.0000 Y927.5200 Z0.0000
M3S245
G4 P0.5; Tool Off

G0 Z0; move to z-safe height
G0 X6.0000 Y939.5200
M3S0
G4 P0.5; Tool On
G1 F300 Z0.0000
G1 F15000 X744.0000 Y939.5200 Z0.0000
M3S245
G4 P0.5; Tool Off

G0 Z0; move to z-safe height
G0 X744.0000 Y951.5200
M3S0
G4 P0.5; Tool On
G1 F300 Z0.0000
G1 F15000 X6.0000 Y951.5200 Z0.0000
M3S245
G4 P0.5; Tool Off

G0 Z0; move to z-safe height
G0 X6.0000 Y963.5200
M3S0
G4 P0.5; Tool On
G1 F300 Z0.0000
G1 F15000 X744.0000 Y963.5200 Z0.0000
M3S245
G4 P0.5; Tool Off

G0 Z0; move to z-safe height
G0 X744.0000 Y975.5200
M3S0
G4 P0.5; Tool On
G1 F300 Z0.0000
G1 F15000 X6.0000 Y975.5200 Z0.0000
M3S245
G4 P0.5; Tool Off

G0 Z0; move to z-safe height
G0 X6.0000 Y987.5200
M3S0
G4 P0.5; Tool On
G1 F300 Z0.0000
G1 F15000 X744.0000 Y987.5200 Z0.0000
M3S245
G4 P0.5; Tool Off

G0 Z0; move to z-safe height
G0 X744.0000 Y999.5200
M3S0
G4 P0.5; Tool On
G1 F300 Z0.0000
G1 F15000 X6.0000 Y999.5200 Z0.0000
M3S245
G4 P0.5; Tool Off

G0 Z0; move to z-safe height
G0 X6.0000 Y1011.5200
M3S0
G4 P0.5; Tool On
G1 F300 Z0.0000
G1 F15000 X744.0000 Y1011.5200 Z0.0000
M3S245
G4 P0.5; Tool Off

G0 Z0; move to z-safe height
G0 X744.0000 Y1023.5200
M3S0
G4 P0.5; Tool On
G1 F300 Z0.0000
G1 F15000 X6.0000 Y1023.5200 Z0.0000
M3S245
G4 P0.5; Tool Off

G0 Z0; move to z-safe height
G0 X6.0000 Y1035.5200
M3S0
G4 P0.5; Tool On
G1 F300 Z0.0000
G1 F15000 X744.0000 Y1035.5200 Z0.0000
M3S245
G4 P0.5; Tool Off

G0 Z0; move to z-safe height
G0 X744.0000 Y1047.5200
M3S0
G4 P0.5; Tool On
G1 F300 Z0.0000
G1 F15000 X6.0000 Y1047.5200 Z0.0000
M3S245
G4 P0.5; Tool Off

G0 Z0; move to z-safe height
G0 X6.0000 Y1059.5200
M3S0
G4 P0.5; Tool On
G1 F300 Z0.0000
G1 F15000 X744.0000 Y1059.5200 Z0.0000
M3S245
G4 P0.5; Tool Off

G0 Z0; move to z-safe height
G0 X744.0000 Y1071.5200
M3S0
G4 P0.5; Tool On
G1 F300 Z0.0000
G1 F15000 X6.0000 Y1071.5200 Z0.0000
M3S245
G4 P0.5; Tool Off

G0 Z0; move to z-safe height
G0 X6.0000 Y1083.5200
M3S0
G4 P0.5; Tool On
G1 F300 Z0.0000
G1 F15000 X744.0000 Y1083.5200 Z0.0000
M3S245
G4 P0.5; Tool Off

G0 Z0; move to z-safe height
G0 X744.0000 Y1095.5200
M3S0
G4 P0.5; Tool On
G1 F300 Z0.0000
G1 F15000 X6.0000 Y1095.5200 Z0.0000
M3S245
G4 P0.5; Tool Off

G0 Z0; move to z-safe height
G0 X6.0000 Y1107.5200
M3S0
G4 P0.5; Tool On
G1 F300 Z0.0000
G1 F15000 X744.0000 Y1107.5200 Z0.0000
M3S245
G4 P0.5; Tool Off

G0 Z0; move to z-safe height
G0 X744.0000 Y1119.5200
M3S0
G4 P0.5; Tool On
G1 F300 Z0.0000
G1 F15000 X6.0000 Y1119.5200 Z0.0000
M3S245
G4 P0.5; Tool Off

G0 Z0; move to z-safe height
G0 X6.0000 Y1131.5200
M3S0
G4 P0.5; Tool On
G1 F300 Z0.0000
G1 F15000 X744.0000 Y1131.5200 Z0.0000
M3S245
G4 P0.5; Tool Off

G0 Z0; move to z-safe height
G0 X744.0000 Y1143.5200
M3S0
G4 P0.5; Tool On
G1 F300 Z0.0000
G1 F15000 X6.0000 Y1143.5200 Z0.0000
M3S245
G4 P0.5; Tool Off

G0 Z0; move to z-safe height
G0 X6.0000 Y1155.5200
M3S0
G4 P0.5; Tool On
G1 F300 Z0.0000
G1 F15000 X744.0000 Y1155.5200 Z0.0000
M3S245
G4 P0.5; Tool Off

G0 Z0; move to z-safe height
G0 X744.0000 Y1167.5200
M3S0
G4 P0.5; Tool On
G1 F300 Z0.0000
G1 F15000 X6.0000 Y1167.5200 Z0.0000
M3S245
G4 P0.5; Tool Off

G0 Z0; move to z-safe height
G0 X6.0000 Y1179.5200
M3S0
G4 P0.5; Tool On
G1 F300 Z0.0000
G1 F15000 X744.0000 Y1179.5200 Z0.0000
M3S245
G4 P0.5; Tool Off

G0 Z0; move to z-safe height
G0 X744.0000 Y1191.5200
M3S0
G4 P0.5; Tool On
G1 F300 Z0.0000
G1 F15000 X6.0000 Y1191.5200 Z0.0000
M3S245
G4 P0.5; Tool Off

G0 Z0; move to z-safe height
G0 X6.0000 Y1203.5200
M3S0
G4 P0.5; Tool On
G1 F300 Z0.0000
G1 F15000 X744.0000 Y1203.5200 Z0.0000
M3S245
G4 P0.5; Tool Off

G0 Z0; move to z-safe height
G0 X744.0000 Y1215.5200
M3S0
G4 P0.5; Tool On
G1 F300 Z0.0000
G1 F15000 X6.0000 Y1215.5200 Z0.0000
M3S245
G4 P0.5; Tool Off

G0 Z0; move to z-safe height
G0 X6.0000 Y1227.5200
M3S0
G4 P0.5; Tool On
G1 F300 Z0.0000
G1 F15000 X744.0000 Y1227.5200 Z0.0000
M3S245
G4 P0.5; Tool Off

G0 Z0; move to z-safe height
G0 X744.0000 Y1239.5200
M3S0
G4 P0.5; Tool On
G1 F300 Z0.0000
G1 F15000 X6.0000 Y1239.5200 Z0.0000
M3S245
G4 P0.5; Tool Off

G0 Z0; move to z-safe height
G0 X6.0000 Y1251.5200
M3S0
G4 P0.5; Tool On
G1 F300 Z0.0000
G1 F15000 X744.0000 Y1251.5200 Z0.0000
M3S245
G4 P0.5; Tool Off

G0 Z0; move to z-safe height
G0 X744.0000 Y1263.5200
M3S0
G4 P0.5; Tool On
G1 F300 Z0.0000
G1 F15000 X6.0000 Y1263.5200 Z0.0000
M3S245
G4 P0.5; Tool Off

G0 Z0; move to z-safe height
G0 X6.0000 Y1275.5200
M3S0
G4 P0.5; Tool On
G1 F300 Z0.0000
G1 F15000 X744.0000 Y1275.5200 Z0.0000
M3S245
G4 P0.5; Tool Off

G0 Z0; move to z-safe height
G0 X744.0000 Y1287.5200
M3S0
G4 P0.5; Tool On
G1 F300 Z0.0000
G1 F15000 X6.0000 Y1287.5200 Z0.0000
M3S245
G4 P0.5; Tool Off

G0 Z0; move to z-safe height
G0 X6.0000 Y1299.5200
M3S0
G4 P0.5; Tool On
G1 F300 Z0.0000
G1 F15000 X744.0000 Y1299.5200 Z0.0000
M3S245
G4 P0.5; Tool Off

G0 Z0; move to z-safe height
G0 X744.0000 Y1311.5200
M3S0
G4 P0.5; Tool On
G1 F300 Z0.0000
G1 F15000 X6.0000 Y1311.5200 Z0.0000
M3S245
G4 P0.5; Tool Off

G0 Z0; move to z-safe height
G0 X6.0000 Y1323.5200
M3S0
G4 P0.5; Tool On
G1 F300 Z0.0000
G1 F15000 X744.0000 Y1323.5200 Z0.0000
M3S245
G4 P0.5; Tool Off

G0 Z0; move to z-safe height
G0 X744.0000 Y1335.5200
M3S0
G4 P0.5; Tool On
G1 F300 Z0.0000
G1 F15000 X6.0000 Y1335.5200 Z0.0000
M3S245
G4 P0.5; Tool Off

G0 Z0; move to z-safe height
G0 X6.0000 Y1347.5200
M3S0
G4 P0.5; Tool On
G1 F300 Z0.0000
G1 F15000 X744.0000 Y1347.5200 Z0.0000
M3S245
G4 P0.5; Tool Off

G0 Z0; move to z-safe height
G0 X744.0000 Y1359.5200
M3S0
G4 P0.5; Tool On
G1 F300 Z0.0000
G1 F15000 X6.0000 Y1359.5200 Z0.0000
M3S245
G4 P0.5; Tool Off

G0 Z0; move to z-safe height
G0 X6.0000 Y1371.5200
M3S0
G4 P0.5; Tool On
G1 F300 Z0.0000
G1 F15000 X744.0000 Y1371.5200 Z0.0000
M3S245
G4 P0.5; Tool Off

G0 Z0; move to z-safe height
G0 X744.0000 Y1383.5200
M3S0
G4 P0.5; Tool On
G1 F300 Z0.0000
G1 F15000 X6.0000 Y1383.5200 Z0.0000
M3S245
G4 P0.5; Tool Off

G0 Z0; move to z-safe height
G0 X6.0000 Y1395.5200
M3S0
G4 P0.5; Tool On
G1 F300 Z0.0000
G1 F15000 X744.0000 Y1395.5200 Z0.0000
M3S245
G4 P0.5; Tool Off

G0 Z0; move to z-safe height
G0 X744.0000 Y1407.5200
M3S0
G4 P0.5; Tool On
G1 F300 Z0.0000
G1 F15000 X6.0000 Y1407.5200 Z0.0000
M3S245
G4 P0.5; Tool Off

G0 Z0; move to z-safe height
G0 X6.0000 Y1419.5200
M3S0
G4 P0.5; Tool On
G1 F300 Z0.0000
G1 F15000 X744.0000 Y1419.5200 Z0.0000
M3S245
G4 P0.5; Tool Off

G0 Z0; move to z-safe height
G0 X744.0000 Y1431.5200
M3S0
G4 P0.5; Tool On
G1 F300 Z0.0000
G1 F15000 X6.0000 Y1431.5200 Z0.0000
M3S245
G4 P0.5; Tool Off

G0 Z0; move to z-safe height
G0 X6.0000 Y1443.5200
M3S0
G4 P0.5; Tool On
G1 F300 Z0.0000
G1 F15000 X744.0000 Y1443.5200 Z0.0000
M3S245
G4 P0.5; Tool Off

G0 Z0; move to z-safe height
G0 X744.0000 Y1455.5200
M3S0
G4 P0.5; Tool On
G1 F300 Z0.0000
G1 F15000 X6.0000 Y1455.5200 Z0.0000
M3S245
G4 P0.5; Tool Off

G0 Z0; move to z-safe height
G0 X6.0000 Y1467.5200
M3S0
G4 P0.5; Tool On
G1 F300 Z0.0000
G1 F15000 X744.0000 Y1467.5200 Z0.0000
M3S245
G4 P0.5; Tool Off

G0 Z0; move to z-safe height
G0 X744.0000 Y1479.5200
M3S0
G4 P0.5; Tool On
G1 F300 Z0.0000
G1 F15000 X6.0000 Y1479.5200 Z0.0000
M3S245
G4 P0.5; Tool Off

G0 Z0; move to z-safe height
G0 X6.0000 Y1491.5200
M3S0
G4 P0.5; Tool On
G1 F300 Z0.0000
G1 F15000 X744.0000 Y1491.5200 Z0.0000
M3S245
G4 P0.5; Tool Off
; retracting back to z-safe
G0 Z0

; Plotter Mode Complete
