; GCODE Generated by cam.openbuilds.com on 2023-11-01 
G21 ; mm-mode
G54; Work Coordinates
G21; mm-mode
G90; Absolute Positioning
; Plotter Mode Active

; Operation 0: Pen Plotter: (lines fill)
; Pen Diameter: 2

G0 Z0; move to z-safe height
G0 F1000 X748.0000 Y2.1600
M3S0
G4 P0.5; Tool On
G1 F300 Z0.0000
G1 F15000 X2.0000 Y2.1600 Z0.0000
M3S245
G4 P0.5; Tool Off

G0 Z0; move to z-safe height
G0 X2.0000 Y6.1600
M3S0
G4 P0.5; Tool On
G1 F300 Z0.0000
G1 F15000 X748.0000 Y6.1600 Z0.0000
M3S245
G4 P0.5; Tool Off

G0 Z0; move to z-safe height
G0 X748.0000 Y10.1600
M3S0
G4 P0.5; Tool On
G1 F300 Z0.0000
G1 F15000 X2.0000 Y10.1600 Z0.0000
M3S245
G4 P0.5; Tool Off

G0 Z0; move to z-safe height
G0 X2.0000 Y14.1600
M3S0
G4 P0.5; Tool On
G1 F300 Z0.0000
G1 F15000 X748.0000 Y14.1600 Z0.0000
M3S245
G4 P0.5; Tool Off

G0 Z0; move to z-safe height
G0 X748.0000 Y18.1600
M3S0
G4 P0.5; Tool On
G1 F300 Z0.0000
G1 F15000 X2.0000 Y18.1600 Z0.0000
M3S245
G4 P0.5; Tool Off

G0 Z0; move to z-safe height
G0 X2.0000 Y22.1600
M3S0
G4 P0.5; Tool On
G1 F300 Z0.0000
G1 F15000 X748.0000 Y22.1600 Z0.0000
M3S245
G4 P0.5; Tool Off

G0 Z0; move to z-safe height
G0 X748.0000 Y26.1600
M3S0
G4 P0.5; Tool On
G1 F300 Z0.0000
G1 F15000 X2.0000 Y26.1600 Z0.0000
M3S245
G4 P0.5; Tool Off

G0 Z0; move to z-safe height
G0 X2.0000 Y30.1600
M3S0
G4 P0.5; Tool On
G1 F300 Z0.0000
G1 F15000 X748.0000 Y30.1600 Z0.0000
M3S245
G4 P0.5; Tool Off

G0 Z0; move to z-safe height
G0 X748.0000 Y34.1600
M3S0
G4 P0.5; Tool On
G1 F300 Z0.0000
G1 F15000 X2.0000 Y34.1600 Z0.0000
M3S245
G4 P0.5; Tool Off

G0 Z0; move to z-safe height
G0 X2.0000 Y38.1600
M3S0
G4 P0.5; Tool On
G1 F300 Z0.0000
G1 F15000 X748.0000 Y38.1600 Z0.0000
M3S245
G4 P0.5; Tool Off

G0 Z0; move to z-safe height
G0 X748.0000 Y42.1600
M3S0
G4 P0.5; Tool On
G1 F300 Z0.0000
G1 F15000 X2.0000 Y42.1600 Z0.0000
M3S245
G4 P0.5; Tool Off

G0 Z0; move to z-safe height
G0 X2.0000 Y46.1600
M3S0
G4 P0.5; Tool On
G1 F300 Z0.0000
G1 F15000 X748.0000 Y46.1600 Z0.0000
M3S245
G4 P0.5; Tool Off

G0 Z0; move to z-safe height
G0 X748.0000 Y50.1600
M3S0
G4 P0.5; Tool On
G1 F300 Z0.0000
G1 F15000 X2.0000 Y50.1600 Z0.0000
M3S245
G4 P0.5; Tool Off

G0 Z0; move to z-safe height
G0 X2.0000 Y54.1600
M3S0
G4 P0.5; Tool On
G1 F300 Z0.0000
G1 F15000 X748.0000 Y54.1600 Z0.0000
M3S245
G4 P0.5; Tool Off

G0 Z0; move to z-safe height
G0 X748.0000 Y58.1600
M3S0
G4 P0.5; Tool On
G1 F300 Z0.0000
G1 F15000 X2.0000 Y58.1600 Z0.0000
M3S245
G4 P0.5; Tool Off

G0 Z0; move to z-safe height
G0 X2.0000 Y62.1600
M3S0
G4 P0.5; Tool On
G1 F300 Z0.0000
G1 F15000 X748.0000 Y62.1600 Z0.0000
M3S245
G4 P0.5; Tool Off

G0 Z0; move to z-safe height
G0 X748.0000 Y66.1600
M3S0
G4 P0.5; Tool On
G1 F300 Z0.0000
G1 F15000 X2.0000 Y66.1600 Z0.0000
M3S245
G4 P0.5; Tool Off

G0 Z0; move to z-safe height
G0 X2.0000 Y70.1600
M3S0
G4 P0.5; Tool On
G1 F300 Z0.0000
G1 F15000 X748.0000 Y70.1600 Z0.0000
M3S245
G4 P0.5; Tool Off

G0 Z0; move to z-safe height
G0 X748.0000 Y74.1600
M3S0
G4 P0.5; Tool On
G1 F300 Z0.0000
G1 F15000 X2.0000 Y74.1600 Z0.0000
M3S245
G4 P0.5; Tool Off

G0 Z0; move to z-safe height
G0 X2.0000 Y78.1600
M3S0
G4 P0.5; Tool On
G1 F300 Z0.0000
G1 F15000 X748.0000 Y78.1600 Z0.0000
M3S245
G4 P0.5; Tool Off

G0 Z0; move to z-safe height
G0 X748.0000 Y82.1600
M3S0
G4 P0.5; Tool On
G1 F300 Z0.0000
G1 F15000 X2.0000 Y82.1600 Z0.0000
M3S245
G4 P0.5; Tool Off

G0 Z0; move to z-safe height
G0 X2.0000 Y86.1600
M3S0
G4 P0.5; Tool On
G1 F300 Z0.0000
G1 F15000 X748.0000 Y86.1600 Z0.0000
M3S245
G4 P0.5; Tool Off

G0 Z0; move to z-safe height
G0 X748.0000 Y90.1600
M3S0
G4 P0.5; Tool On
G1 F300 Z0.0000
G1 F15000 X2.0000 Y90.1600 Z0.0000
M3S245
G4 P0.5; Tool Off

G0 Z0; move to z-safe height
G0 X2.0000 Y94.1600
M3S0
G4 P0.5; Tool On
G1 F300 Z0.0000
G1 F15000 X748.0000 Y94.1600 Z0.0000
M3S245
G4 P0.5; Tool Off

G0 Z0; move to z-safe height
G0 X748.0000 Y98.1600
M3S0
G4 P0.5; Tool On
G1 F300 Z0.0000
G1 F15000 X2.0000 Y98.1600 Z0.0000
M3S245
G4 P0.5; Tool Off

G0 Z0; move to z-safe height
G0 X2.0000 Y102.1600
M3S0
G4 P0.5; Tool On
G1 F300 Z0.0000
G1 F15000 X748.0000 Y102.1600 Z0.0000
M3S245
G4 P0.5; Tool Off

G0 Z0; move to z-safe height
G0 X748.0000 Y106.1600
M3S0
G4 P0.5; Tool On
G1 F300 Z0.0000
G1 F15000 X2.0000 Y106.1600 Z0.0000
M3S245
G4 P0.5; Tool Off

G0 Z0; move to z-safe height
G0 X2.0000 Y110.1600
M3S0
G4 P0.5; Tool On
G1 F300 Z0.0000
G1 F15000 X748.0000 Y110.1600 Z0.0000
M3S245
G4 P0.5; Tool Off

G0 Z0; move to z-safe height
G0 X748.0000 Y114.1600
M3S0
G4 P0.5; Tool On
G1 F300 Z0.0000
G1 F15000 X2.0000 Y114.1600 Z0.0000
M3S245
G4 P0.5; Tool Off

G0 Z0; move to z-safe height
G0 X2.0000 Y118.1600
M3S0
G4 P0.5; Tool On
G1 F300 Z0.0000
G1 F15000 X748.0000 Y118.1600 Z0.0000
M3S245
G4 P0.5; Tool Off

G0 Z0; move to z-safe height
G0 X748.0000 Y122.1600
M3S0
G4 P0.5; Tool On
G1 F300 Z0.0000
G1 F15000 X2.0000 Y122.1600 Z0.0000
M3S245
G4 P0.5; Tool Off

G0 Z0; move to z-safe height
G0 X2.0000 Y126.1600
M3S0
G4 P0.5; Tool On
G1 F300 Z0.0000
G1 F15000 X748.0000 Y126.1600 Z0.0000
M3S245
G4 P0.5; Tool Off

G0 Z0; move to z-safe height
G0 X748.0000 Y130.1600
M3S0
G4 P0.5; Tool On
G1 F300 Z0.0000
G1 F15000 X2.0000 Y130.1600 Z0.0000
M3S245
G4 P0.5; Tool Off

G0 Z0; move to z-safe height
G0 X2.0000 Y134.1600
M3S0
G4 P0.5; Tool On
G1 F300 Z0.0000
G1 F15000 X748.0000 Y134.1600 Z0.0000
M3S245
G4 P0.5; Tool Off

G0 Z0; move to z-safe height
G0 X748.0000 Y138.1600
M3S0
G4 P0.5; Tool On
G1 F300 Z0.0000
G1 F15000 X2.0000 Y138.1600 Z0.0000
M3S245
G4 P0.5; Tool Off

G0 Z0; move to z-safe height
G0 X2.0000 Y142.1600
M3S0
G4 P0.5; Tool On
G1 F300 Z0.0000
G1 F15000 X748.0000 Y142.1600 Z0.0000
M3S245
G4 P0.5; Tool Off

G0 Z0; move to z-safe height
G0 X748.0000 Y146.1600
M3S0
G4 P0.5; Tool On
G1 F300 Z0.0000
G1 F15000 X2.0000 Y146.1600 Z0.0000
M3S245
G4 P0.5; Tool Off

G0 Z0; move to z-safe height
G0 X2.0000 Y150.1600
M3S0
G4 P0.5; Tool On
G1 F300 Z0.0000
G1 F15000 X748.0000 Y150.1600 Z0.0000
M3S245
G4 P0.5; Tool Off

G0 Z0; move to z-safe height
G0 X748.0000 Y154.1600
M3S0
G4 P0.5; Tool On
G1 F300 Z0.0000
G1 F15000 X2.0000 Y154.1600 Z0.0000
M3S245
G4 P0.5; Tool Off

G0 Z0; move to z-safe height
G0 X2.0000 Y158.1600
M3S0
G4 P0.5; Tool On
G1 F300 Z0.0000
G1 F15000 X748.0000 Y158.1600 Z0.0000
M3S245
G4 P0.5; Tool Off

G0 Z0; move to z-safe height
G0 X748.0000 Y162.1600
M3S0
G4 P0.5; Tool On
G1 F300 Z0.0000
G1 F15000 X2.0000 Y162.1600 Z0.0000
M3S245
G4 P0.5; Tool Off

G0 Z0; move to z-safe height
G0 X2.0000 Y166.1600
M3S0
G4 P0.5; Tool On
G1 F300 Z0.0000
G1 F15000 X748.0000 Y166.1600 Z0.0000
M3S245
G4 P0.5; Tool Off

G0 Z0; move to z-safe height
G0 X748.0000 Y170.1600
M3S0
G4 P0.5; Tool On
G1 F300 Z0.0000
G1 F15000 X2.0000 Y170.1600 Z0.0000
M3S245
G4 P0.5; Tool Off

G0 Z0; move to z-safe height
G0 X2.0000 Y174.1600
M3S0
G4 P0.5; Tool On
G1 F300 Z0.0000
G1 F15000 X748.0000 Y174.1600 Z0.0000
M3S245
G4 P0.5; Tool Off

G0 Z0; move to z-safe height
G0 X748.0000 Y178.1600
M3S0
G4 P0.5; Tool On
G1 F300 Z0.0000
G1 F15000 X2.0000 Y178.1600 Z0.0000
M3S245
G4 P0.5; Tool Off

G0 Z0; move to z-safe height
G0 X2.0000 Y182.1600
M3S0
G4 P0.5; Tool On
G1 F300 Z0.0000
G1 F15000 X748.0000 Y182.1600 Z0.0000
M3S245
G4 P0.5; Tool Off

G0 Z0; move to z-safe height
G0 X748.0000 Y186.1600
M3S0
G4 P0.5; Tool On
G1 F300 Z0.0000
G1 F15000 X2.0000 Y186.1600 Z0.0000
M3S245
G4 P0.5; Tool Off

G0 Z0; move to z-safe height
G0 X2.0000 Y190.1600
M3S0
G4 P0.5; Tool On
G1 F300 Z0.0000
G1 F15000 X748.0000 Y190.1600 Z0.0000
M3S245
G4 P0.5; Tool Off

G0 Z0; move to z-safe height
G0 X748.0000 Y194.1600
M3S0
G4 P0.5; Tool On
G1 F300 Z0.0000
G1 F15000 X2.0000 Y194.1600 Z0.0000
M3S245
G4 P0.5; Tool Off

G0 Z0; move to z-safe height
G0 X2.0000 Y198.1600
M3S0
G4 P0.5; Tool On
G1 F300 Z0.0000
G1 F15000 X748.0000 Y198.1600 Z0.0000
M3S245
G4 P0.5; Tool Off

G0 Z0; move to z-safe height
G0 X748.0000 Y202.1600
M3S0
G4 P0.5; Tool On
G1 F300 Z0.0000
G1 F15000 X2.0000 Y202.1600 Z0.0000
M3S245
G4 P0.5; Tool Off

G0 Z0; move to z-safe height
G0 X2.0000 Y206.1600
M3S0
G4 P0.5; Tool On
G1 F300 Z0.0000
G1 F15000 X748.0000 Y206.1600 Z0.0000
M3S245
G4 P0.5; Tool Off

G0 Z0; move to z-safe height
G0 X748.0000 Y210.1600
M3S0
G4 P0.5; Tool On
G1 F300 Z0.0000
G1 F15000 X2.0000 Y210.1600 Z0.0000
M3S245
G4 P0.5; Tool Off

G0 Z0; move to z-safe height
G0 X2.0000 Y214.1600
M3S0
G4 P0.5; Tool On
G1 F300 Z0.0000
G1 F15000 X748.0000 Y214.1600 Z0.0000
M3S245
G4 P0.5; Tool Off

G0 Z0; move to z-safe height
G0 X748.0000 Y218.1600
M3S0
G4 P0.5; Tool On
G1 F300 Z0.0000
G1 F15000 X2.0000 Y218.1600 Z0.0000
M3S245
G4 P0.5; Tool Off

G0 Z0; move to z-safe height
G0 X2.0000 Y222.1600
M3S0
G4 P0.5; Tool On
G1 F300 Z0.0000
G1 F15000 X748.0000 Y222.1600 Z0.0000
M3S245
G4 P0.5; Tool Off

G0 Z0; move to z-safe height
G0 X748.0000 Y226.1600
M3S0
G4 P0.5; Tool On
G1 F300 Z0.0000
G1 F15000 X2.0000 Y226.1600 Z0.0000
M3S245
G4 P0.5; Tool Off

G0 Z0; move to z-safe height
G0 X2.0000 Y230.1600
M3S0
G4 P0.5; Tool On
G1 F300 Z0.0000
G1 F15000 X748.0000 Y230.1600 Z0.0000
M3S245
G4 P0.5; Tool Off

G0 Z0; move to z-safe height
G0 X748.0000 Y234.1600
M3S0
G4 P0.5; Tool On
G1 F300 Z0.0000
G1 F15000 X2.0000 Y234.1600 Z0.0000
M3S245
G4 P0.5; Tool Off

G0 Z0; move to z-safe height
G0 X2.0000 Y238.1600
M3S0
G4 P0.5; Tool On
G1 F300 Z0.0000
G1 F15000 X748.0000 Y238.1600 Z0.0000
M3S245
G4 P0.5; Tool Off

G0 Z0; move to z-safe height
G0 X748.0000 Y242.1600
M3S0
G4 P0.5; Tool On
G1 F300 Z0.0000
G1 F15000 X2.0000 Y242.1600 Z0.0000
M3S245
G4 P0.5; Tool Off

G0 Z0; move to z-safe height
G0 X2.0000 Y246.1600
M3S0
G4 P0.5; Tool On
G1 F300 Z0.0000
G1 F15000 X748.0000 Y246.1600 Z0.0000
M3S245
G4 P0.5; Tool Off

G0 Z0; move to z-safe height
G0 X748.0000 Y250.1600
M3S0
G4 P0.5; Tool On
G1 F300 Z0.0000
G1 F15000 X2.0000 Y250.1600 Z0.0000
M3S245
G4 P0.5; Tool Off

G0 Z0; move to z-safe height
G0 X2.0000 Y254.1600
M3S0
G4 P0.5; Tool On
G1 F300 Z0.0000
G1 F15000 X748.0000 Y254.1600 Z0.0000
M3S245
G4 P0.5; Tool Off

G0 Z0; move to z-safe height
G0 X748.0000 Y258.1600
M3S0
G4 P0.5; Tool On
G1 F300 Z0.0000
G1 F15000 X2.0000 Y258.1600 Z0.0000
M3S245
G4 P0.5; Tool Off

G0 Z0; move to z-safe height
G0 X2.0000 Y262.1600
M3S0
G4 P0.5; Tool On
G1 F300 Z0.0000
G1 F15000 X748.0000 Y262.1600 Z0.0000
M3S245
G4 P0.5; Tool Off

G0 Z0; move to z-safe height
G0 X748.0000 Y266.1600
M3S0
G4 P0.5; Tool On
G1 F300 Z0.0000
G1 F15000 X2.0000 Y266.1600 Z0.0000
M3S245
G4 P0.5; Tool Off

G0 Z0; move to z-safe height
G0 X2.0000 Y270.1600
M3S0
G4 P0.5; Tool On
G1 F300 Z0.0000
G1 F15000 X748.0000 Y270.1600 Z0.0000
M3S245
G4 P0.5; Tool Off

G0 Z0; move to z-safe height
G0 X748.0000 Y274.1600
M3S0
G4 P0.5; Tool On
G1 F300 Z0.0000
G1 F15000 X2.0000 Y274.1600 Z0.0000
M3S245
G4 P0.5; Tool Off

G0 Z0; move to z-safe height
G0 X2.0000 Y278.1600
M3S0
G4 P0.5; Tool On
G1 F300 Z0.0000
G1 F15000 X748.0000 Y278.1600 Z0.0000
M3S245
G4 P0.5; Tool Off

G0 Z0; move to z-safe height
G0 X748.0000 Y282.1600
M3S0
G4 P0.5; Tool On
G1 F300 Z0.0000
G1 F15000 X2.0000 Y282.1600 Z0.0000
M3S245
G4 P0.5; Tool Off

G0 Z0; move to z-safe height
G0 X2.0000 Y286.1600
M3S0
G4 P0.5; Tool On
G1 F300 Z0.0000
G1 F15000 X748.0000 Y286.1600 Z0.0000
M3S245
G4 P0.5; Tool Off

G0 Z0; move to z-safe height
G0 X748.0000 Y290.1600
M3S0
G4 P0.5; Tool On
G1 F300 Z0.0000
G1 F15000 X2.0000 Y290.1600 Z0.0000
M3S245
G4 P0.5; Tool Off

G0 Z0; move to z-safe height
G0 X2.0000 Y294.1600
M3S0
G4 P0.5; Tool On
G1 F300 Z0.0000
G1 F15000 X748.0000 Y294.1600 Z0.0000
M3S245
G4 P0.5; Tool Off

G0 Z0; move to z-safe height
G0 X748.0000 Y298.1600
M3S0
G4 P0.5; Tool On
G1 F300 Z0.0000
G1 F15000 X2.0000 Y298.1600 Z0.0000
M3S245
G4 P0.5; Tool Off

G0 Z0; move to z-safe height
G0 X2.0000 Y302.1600
M3S0
G4 P0.5; Tool On
G1 F300 Z0.0000
G1 F15000 X748.0000 Y302.1600 Z0.0000
M3S245
G4 P0.5; Tool Off

G0 Z0; move to z-safe height
G0 X748.0000 Y306.1600
M3S0
G4 P0.5; Tool On
G1 F300 Z0.0000
G1 F15000 X2.0000 Y306.1600 Z0.0000
M3S245
G4 P0.5; Tool Off

G0 Z0; move to z-safe height
G0 X2.0000 Y310.1600
M3S0
G4 P0.5; Tool On
G1 F300 Z0.0000
G1 F15000 X748.0000 Y310.1600 Z0.0000
M3S245
G4 P0.5; Tool Off

G0 Z0; move to z-safe height
G0 X748.0000 Y314.1600
M3S0
G4 P0.5; Tool On
G1 F300 Z0.0000
G1 F15000 X2.0000 Y314.1600 Z0.0000
M3S245
G4 P0.5; Tool Off

G0 Z0; move to z-safe height
G0 X2.0000 Y318.1600
M3S0
G4 P0.5; Tool On
G1 F300 Z0.0000
G1 F15000 X748.0000 Y318.1600 Z0.0000
M3S245
G4 P0.5; Tool Off

G0 Z0; move to z-safe height
G0 X748.0000 Y322.1600
M3S0
G4 P0.5; Tool On
G1 F300 Z0.0000
G1 F15000 X2.0000 Y322.1600 Z0.0000
M3S245
G4 P0.5; Tool Off

G0 Z0; move to z-safe height
G0 X2.0000 Y326.1600
M3S0
G4 P0.5; Tool On
G1 F300 Z0.0000
G1 F15000 X748.0000 Y326.1600 Z0.0000
M3S245
G4 P0.5; Tool Off

G0 Z0; move to z-safe height
G0 X748.0000 Y330.1600
M3S0
G4 P0.5; Tool On
G1 F300 Z0.0000
G1 F15000 X2.0000 Y330.1600 Z0.0000
M3S245
G4 P0.5; Tool Off

G0 Z0; move to z-safe height
G0 X2.0000 Y334.1600
M3S0
G4 P0.5; Tool On
G1 F300 Z0.0000
G1 F15000 X748.0000 Y334.1600 Z0.0000
M3S245
G4 P0.5; Tool Off

G0 Z0; move to z-safe height
G0 X748.0000 Y338.1600
M3S0
G4 P0.5; Tool On
G1 F300 Z0.0000
G1 F15000 X2.0000 Y338.1600 Z0.0000
M3S245
G4 P0.5; Tool Off

G0 Z0; move to z-safe height
G0 X2.0000 Y342.1600
M3S0
G4 P0.5; Tool On
G1 F300 Z0.0000
G1 F15000 X748.0000 Y342.1600 Z0.0000
M3S245
G4 P0.5; Tool Off

G0 Z0; move to z-safe height
G0 X748.0000 Y346.1600
M3S0
G4 P0.5; Tool On
G1 F300 Z0.0000
G1 F15000 X2.0000 Y346.1600 Z0.0000
M3S245
G4 P0.5; Tool Off

G0 Z0; move to z-safe height
G0 X2.0000 Y350.1600
M3S0
G4 P0.5; Tool On
G1 F300 Z0.0000
G1 F15000 X748.0000 Y350.1600 Z0.0000
M3S245
G4 P0.5; Tool Off

G0 Z0; move to z-safe height
G0 X748.0000 Y354.1600
M3S0
G4 P0.5; Tool On
G1 F300 Z0.0000
G1 F15000 X2.0000 Y354.1600 Z0.0000
M3S245
G4 P0.5; Tool Off

G0 Z0; move to z-safe height
G0 X2.0000 Y358.1600
M3S0
G4 P0.5; Tool On
G1 F300 Z0.0000
G1 F15000 X748.0000 Y358.1600 Z0.0000
M3S245
G4 P0.5; Tool Off

G0 Z0; move to z-safe height
G0 X748.0000 Y362.1600
M3S0
G4 P0.5; Tool On
G1 F300 Z0.0000
G1 F15000 X2.0000 Y362.1600 Z0.0000
M3S245
G4 P0.5; Tool Off

G0 Z0; move to z-safe height
G0 X2.0000 Y366.1600
M3S0
G4 P0.5; Tool On
G1 F300 Z0.0000
G1 F15000 X748.0000 Y366.1600 Z0.0000
M3S245
G4 P0.5; Tool Off

G0 Z0; move to z-safe height
G0 X748.0000 Y370.1600
M3S0
G4 P0.5; Tool On
G1 F300 Z0.0000
G1 F15000 X2.0000 Y370.1600 Z0.0000
M3S245
G4 P0.5; Tool Off

G0 Z0; move to z-safe height
G0 X2.0000 Y374.1600
M3S0
G4 P0.5; Tool On
G1 F300 Z0.0000
G1 F15000 X748.0000 Y374.1600 Z0.0000
M3S245
G4 P0.5; Tool Off

G0 Z0; move to z-safe height
G0 X748.0000 Y378.1600
M3S0
G4 P0.5; Tool On
G1 F300 Z0.0000
G1 F15000 X2.0000 Y378.1600 Z0.0000
M3S245
G4 P0.5; Tool Off

G0 Z0; move to z-safe height
G0 X2.0000 Y382.1600
M3S0
G4 P0.5; Tool On
G1 F300 Z0.0000
G1 F15000 X748.0000 Y382.1600 Z0.0000
M3S245
G4 P0.5; Tool Off

G0 Z0; move to z-safe height
G0 X748.0000 Y386.1600
M3S0
G4 P0.5; Tool On
G1 F300 Z0.0000
G1 F15000 X2.0000 Y386.1600 Z0.0000
M3S245
G4 P0.5; Tool Off

G0 Z0; move to z-safe height
G0 X2.0000 Y390.1600
M3S0
G4 P0.5; Tool On
G1 F300 Z0.0000
G1 F15000 X748.0000 Y390.1600 Z0.0000
M3S245
G4 P0.5; Tool Off

G0 Z0; move to z-safe height
G0 X748.0000 Y394.1600
M3S0
G4 P0.5; Tool On
G1 F300 Z0.0000
G1 F15000 X2.0000 Y394.1600 Z0.0000
M3S245
G4 P0.5; Tool Off

G0 Z0; move to z-safe height
G0 X2.0000 Y398.1600
M3S0
G4 P0.5; Tool On
G1 F300 Z0.0000
G1 F15000 X748.0000 Y398.1600 Z0.0000
M3S245
G4 P0.5; Tool Off

G0 Z0; move to z-safe height
G0 X748.0000 Y402.1600
M3S0
G4 P0.5; Tool On
G1 F300 Z0.0000
G1 F15000 X2.0000 Y402.1600 Z0.0000
M3S245
G4 P0.5; Tool Off

G0 Z0; move to z-safe height
G0 X2.0000 Y406.1600
M3S0
G4 P0.5; Tool On
G1 F300 Z0.0000
G1 F15000 X748.0000 Y406.1600 Z0.0000
M3S245
G4 P0.5; Tool Off

G0 Z0; move to z-safe height
G0 X748.0000 Y410.1600
M3S0
G4 P0.5; Tool On
G1 F300 Z0.0000
G1 F15000 X2.0000 Y410.1600 Z0.0000
M3S245
G4 P0.5; Tool Off

G0 Z0; move to z-safe height
G0 X2.0000 Y414.1600
M3S0
G4 P0.5; Tool On
G1 F300 Z0.0000
G1 F15000 X748.0000 Y414.1600 Z0.0000
M3S245
G4 P0.5; Tool Off

G0 Z0; move to z-safe height
G0 X748.0000 Y418.1600
M3S0
G4 P0.5; Tool On
G1 F300 Z0.0000
G1 F15000 X2.0000 Y418.1600 Z0.0000
M3S245
G4 P0.5; Tool Off

G0 Z0; move to z-safe height
G0 X2.0000 Y422.1600
M3S0
G4 P0.5; Tool On
G1 F300 Z0.0000
G1 F15000 X748.0000 Y422.1600 Z0.0000
M3S245
G4 P0.5; Tool Off

G0 Z0; move to z-safe height
G0 X748.0000 Y426.1600
M3S0
G4 P0.5; Tool On
G1 F300 Z0.0000
G1 F15000 X2.0000 Y426.1600 Z0.0000
M3S245
G4 P0.5; Tool Off

G0 Z0; move to z-safe height
G0 X2.0000 Y430.1600
M3S0
G4 P0.5; Tool On
G1 F300 Z0.0000
G1 F15000 X748.0000 Y430.1600 Z0.0000
M3S245
G4 P0.5; Tool Off

G0 Z0; move to z-safe height
G0 X748.0000 Y434.1600
M3S0
G4 P0.5; Tool On
G1 F300 Z0.0000
G1 F15000 X2.0000 Y434.1600 Z0.0000
M3S245
G4 P0.5; Tool Off

G0 Z0; move to z-safe height
G0 X2.0000 Y438.1600
M3S0
G4 P0.5; Tool On
G1 F300 Z0.0000
G1 F15000 X748.0000 Y438.1600 Z0.0000
M3S245
G4 P0.5; Tool Off

G0 Z0; move to z-safe height
G0 X748.0000 Y442.1600
M3S0
G4 P0.5; Tool On
G1 F300 Z0.0000
G1 F15000 X2.0000 Y442.1600 Z0.0000
M3S245
G4 P0.5; Tool Off

G0 Z0; move to z-safe height
G0 X2.0000 Y446.1600
M3S0
G4 P0.5; Tool On
G1 F300 Z0.0000
G1 F15000 X748.0000 Y446.1600 Z0.0000
M3S245
G4 P0.5; Tool Off

G0 Z0; move to z-safe height
G0 X748.0000 Y450.1600
M3S0
G4 P0.5; Tool On
G1 F300 Z0.0000
G1 F15000 X2.0000 Y450.1600 Z0.0000
M3S245
G4 P0.5; Tool Off

G0 Z0; move to z-safe height
G0 X2.0000 Y454.1600
M3S0
G4 P0.5; Tool On
G1 F300 Z0.0000
G1 F15000 X748.0000 Y454.1600 Z0.0000
M3S245
G4 P0.5; Tool Off

G0 Z0; move to z-safe height
G0 X748.0000 Y458.1600
M3S0
G4 P0.5; Tool On
G1 F300 Z0.0000
G1 F15000 X2.0000 Y458.1600 Z0.0000
M3S245
G4 P0.5; Tool Off

G0 Z0; move to z-safe height
G0 X2.0000 Y462.1600
M3S0
G4 P0.5; Tool On
G1 F300 Z0.0000
G1 F15000 X748.0000 Y462.1600 Z0.0000
M3S245
G4 P0.5; Tool Off

G0 Z0; move to z-safe height
G0 X748.0000 Y466.1600
M3S0
G4 P0.5; Tool On
G1 F300 Z0.0000
G1 F15000 X2.0000 Y466.1600 Z0.0000
M3S245
G4 P0.5; Tool Off

G0 Z0; move to z-safe height
G0 X2.0000 Y470.1600
M3S0
G4 P0.5; Tool On
G1 F300 Z0.0000
G1 F15000 X748.0000 Y470.1600 Z0.0000
M3S245
G4 P0.5; Tool Off

G0 Z0; move to z-safe height
G0 X748.0000 Y474.1600
M3S0
G4 P0.5; Tool On
G1 F300 Z0.0000
G1 F15000 X2.0000 Y474.1600 Z0.0000
M3S245
G4 P0.5; Tool Off

G0 Z0; move to z-safe height
G0 X2.0000 Y478.1600
M3S0
G4 P0.5; Tool On
G1 F300 Z0.0000
G1 F15000 X748.0000 Y478.1600 Z0.0000
M3S245
G4 P0.5; Tool Off

G0 Z0; move to z-safe height
G0 X748.0000 Y482.1600
M3S0
G4 P0.5; Tool On
G1 F300 Z0.0000
G1 F15000 X2.0000 Y482.1600 Z0.0000
M3S245
G4 P0.5; Tool Off

G0 Z0; move to z-safe height
G0 X2.0000 Y486.1600
M3S0
G4 P0.5; Tool On
G1 F300 Z0.0000
G1 F15000 X748.0000 Y486.1600 Z0.0000
M3S245
G4 P0.5; Tool Off

G0 Z0; move to z-safe height
G0 X748.0000 Y490.1600
M3S0
G4 P0.5; Tool On
G1 F300 Z0.0000
G1 F15000 X2.0000 Y490.1600 Z0.0000
M3S245
G4 P0.5; Tool Off

G0 Z0; move to z-safe height
G0 X2.0000 Y494.1600
M3S0
G4 P0.5; Tool On
G1 F300 Z0.0000
G1 F15000 X748.0000 Y494.1600 Z0.0000
M3S245
G4 P0.5; Tool Off

G0 Z0; move to z-safe height
G0 X748.0000 Y498.1600
M3S0
G4 P0.5; Tool On
G1 F300 Z0.0000
G1 F15000 X2.0000 Y498.1600 Z0.0000
M3S245
G4 P0.5; Tool Off

G0 Z0; move to z-safe height
G0 X2.0000 Y502.1600
M3S0
G4 P0.5; Tool On
G1 F300 Z0.0000
G1 F15000 X748.0000 Y502.1600 Z0.0000
M3S245
G4 P0.5; Tool Off

G0 Z0; move to z-safe height
G0 X748.0000 Y506.1600
M3S0
G4 P0.5; Tool On
G1 F300 Z0.0000
G1 F15000 X2.0000 Y506.1600 Z0.0000
M3S245
G4 P0.5; Tool Off

G0 Z0; move to z-safe height
G0 X2.0000 Y510.1600
M3S0
G4 P0.5; Tool On
G1 F300 Z0.0000
G1 F15000 X748.0000 Y510.1600 Z0.0000
M3S245
G4 P0.5; Tool Off

G0 Z0; move to z-safe height
G0 X748.0000 Y514.1600
M3S0
G4 P0.5; Tool On
G1 F300 Z0.0000
G1 F15000 X2.0000 Y514.1600 Z0.0000
M3S245
G4 P0.5; Tool Off

G0 Z0; move to z-safe height
G0 X2.0000 Y518.1600
M3S0
G4 P0.5; Tool On
G1 F300 Z0.0000
G1 F15000 X748.0000 Y518.1600 Z0.0000
M3S245
G4 P0.5; Tool Off

G0 Z0; move to z-safe height
G0 X748.0000 Y522.1600
M3S0
G4 P0.5; Tool On
G1 F300 Z0.0000
G1 F15000 X2.0000 Y522.1600 Z0.0000
M3S245
G4 P0.5; Tool Off

G0 Z0; move to z-safe height
G0 X2.0000 Y526.1600
M3S0
G4 P0.5; Tool On
G1 F300 Z0.0000
G1 F15000 X748.0000 Y526.1600 Z0.0000
M3S245
G4 P0.5; Tool Off

G0 Z0; move to z-safe height
G0 X748.0000 Y530.1600
M3S0
G4 P0.5; Tool On
G1 F300 Z0.0000
G1 F15000 X2.0000 Y530.1600 Z0.0000
M3S245
G4 P0.5; Tool Off

G0 Z0; move to z-safe height
G0 X2.0000 Y534.1600
M3S0
G4 P0.5; Tool On
G1 F300 Z0.0000
G1 F15000 X748.0000 Y534.1600 Z0.0000
M3S245
G4 P0.5; Tool Off

G0 Z0; move to z-safe height
G0 X748.0000 Y538.1600
M3S0
G4 P0.5; Tool On
G1 F300 Z0.0000
G1 F15000 X2.0000 Y538.1600 Z0.0000
M3S245
G4 P0.5; Tool Off

G0 Z0; move to z-safe height
G0 X2.0000 Y542.1600
M3S0
G4 P0.5; Tool On
G1 F300 Z0.0000
G1 F15000 X748.0000 Y542.1600 Z0.0000
M3S245
G4 P0.5; Tool Off

G0 Z0; move to z-safe height
G0 X748.0000 Y546.1600
M3S0
G4 P0.5; Tool On
G1 F300 Z0.0000
G1 F15000 X2.0000 Y546.1600 Z0.0000
M3S245
G4 P0.5; Tool Off

G0 Z0; move to z-safe height
G0 X2.0000 Y550.1600
M3S0
G4 P0.5; Tool On
G1 F300 Z0.0000
G1 F15000 X748.0000 Y550.1600 Z0.0000
M3S245
G4 P0.5; Tool Off

G0 Z0; move to z-safe height
G0 X748.0000 Y554.1600
M3S0
G4 P0.5; Tool On
G1 F300 Z0.0000
G1 F15000 X2.0000 Y554.1600 Z0.0000
M3S245
G4 P0.5; Tool Off

G0 Z0; move to z-safe height
G0 X2.0000 Y558.1600
M3S0
G4 P0.5; Tool On
G1 F300 Z0.0000
G1 F15000 X748.0000 Y558.1600 Z0.0000
M3S245
G4 P0.5; Tool Off

G0 Z0; move to z-safe height
G0 X748.0000 Y562.1600
M3S0
G4 P0.5; Tool On
G1 F300 Z0.0000
G1 F15000 X2.0000 Y562.1600 Z0.0000
M3S245
G4 P0.5; Tool Off

G0 Z0; move to z-safe height
G0 X2.0000 Y566.1600
M3S0
G4 P0.5; Tool On
G1 F300 Z0.0000
G1 F15000 X748.0000 Y566.1600 Z0.0000
M3S245
G4 P0.5; Tool Off

G0 Z0; move to z-safe height
G0 X748.0000 Y570.1600
M3S0
G4 P0.5; Tool On
G1 F300 Z0.0000
G1 F15000 X2.0000 Y570.1600 Z0.0000
M3S245
G4 P0.5; Tool Off

G0 Z0; move to z-safe height
G0 X2.0000 Y574.1600
M3S0
G4 P0.5; Tool On
G1 F300 Z0.0000
G1 F15000 X748.0000 Y574.1600 Z0.0000
M3S245
G4 P0.5; Tool Off

G0 Z0; move to z-safe height
G0 X748.0000 Y578.1600
M3S0
G4 P0.5; Tool On
G1 F300 Z0.0000
G1 F15000 X2.0000 Y578.1600 Z0.0000
M3S245
G4 P0.5; Tool Off

G0 Z0; move to z-safe height
G0 X2.0000 Y582.1600
M3S0
G4 P0.5; Tool On
G1 F300 Z0.0000
G1 F15000 X748.0000 Y582.1600 Z0.0000
M3S245
G4 P0.5; Tool Off

G0 Z0; move to z-safe height
G0 X748.0000 Y586.1600
M3S0
G4 P0.5; Tool On
G1 F300 Z0.0000
G1 F15000 X2.0000 Y586.1600 Z0.0000
M3S245
G4 P0.5; Tool Off

G0 Z0; move to z-safe height
G0 X2.0000 Y590.1600
M3S0
G4 P0.5; Tool On
G1 F300 Z0.0000
G1 F15000 X748.0000 Y590.1600 Z0.0000
M3S245
G4 P0.5; Tool Off

G0 Z0; move to z-safe height
G0 X748.0000 Y594.1600
M3S0
G4 P0.5; Tool On
G1 F300 Z0.0000
G1 F15000 X2.0000 Y594.1600 Z0.0000
M3S245
G4 P0.5; Tool Off

G0 Z0; move to z-safe height
G0 X2.0000 Y598.1600
M3S0
G4 P0.5; Tool On
G1 F300 Z0.0000
G1 F15000 X748.0000 Y598.1600 Z0.0000
M3S245
G4 P0.5; Tool Off

G0 Z0; move to z-safe height
G0 X748.0000 Y602.1600
M3S0
G4 P0.5; Tool On
G1 F300 Z0.0000
G1 F15000 X2.0000 Y602.1600 Z0.0000
M3S245
G4 P0.5; Tool Off

G0 Z0; move to z-safe height
G0 X2.0000 Y606.1600
M3S0
G4 P0.5; Tool On
G1 F300 Z0.0000
G1 F15000 X748.0000 Y606.1600 Z0.0000
M3S245
G4 P0.5; Tool Off

G0 Z0; move to z-safe height
G0 X748.0000 Y610.1600
M3S0
G4 P0.5; Tool On
G1 F300 Z0.0000
G1 F15000 X2.0000 Y610.1600 Z0.0000
M3S245
G4 P0.5; Tool Off

G0 Z0; move to z-safe height
G0 X2.0000 Y614.1600
M3S0
G4 P0.5; Tool On
G1 F300 Z0.0000
G1 F15000 X748.0000 Y614.1600 Z0.0000
M3S245
G4 P0.5; Tool Off

G0 Z0; move to z-safe height
G0 X748.0000 Y618.1600
M3S0
G4 P0.5; Tool On
G1 F300 Z0.0000
G1 F15000 X2.0000 Y618.1600 Z0.0000
M3S245
G4 P0.5; Tool Off

G0 Z0; move to z-safe height
G0 X2.0000 Y622.1600
M3S0
G4 P0.5; Tool On
G1 F300 Z0.0000
G1 F15000 X748.0000 Y622.1600 Z0.0000
M3S245
G4 P0.5; Tool Off

G0 Z0; move to z-safe height
G0 X748.0000 Y626.1600
M3S0
G4 P0.5; Tool On
G1 F300 Z0.0000
G1 F15000 X2.0000 Y626.1600 Z0.0000
M3S245
G4 P0.5; Tool Off

G0 Z0; move to z-safe height
G0 X2.0000 Y630.1600
M3S0
G4 P0.5; Tool On
G1 F300 Z0.0000
G1 F15000 X748.0000 Y630.1600 Z0.0000
M3S245
G4 P0.5; Tool Off

G0 Z0; move to z-safe height
G0 X748.0000 Y634.1600
M3S0
G4 P0.5; Tool On
G1 F300 Z0.0000
G1 F15000 X2.0000 Y634.1600 Z0.0000
M3S245
G4 P0.5; Tool Off

G0 Z0; move to z-safe height
G0 X2.0000 Y638.1600
M3S0
G4 P0.5; Tool On
G1 F300 Z0.0000
G1 F15000 X748.0000 Y638.1600 Z0.0000
M3S245
G4 P0.5; Tool Off

G0 Z0; move to z-safe height
G0 X748.0000 Y642.1600
M3S0
G4 P0.5; Tool On
G1 F300 Z0.0000
G1 F15000 X2.0000 Y642.1600 Z0.0000
M3S245
G4 P0.5; Tool Off

G0 Z0; move to z-safe height
G0 X2.0000 Y646.1600
M3S0
G4 P0.5; Tool On
G1 F300 Z0.0000
G1 F15000 X748.0000 Y646.1600 Z0.0000
M3S245
G4 P0.5; Tool Off

G0 Z0; move to z-safe height
G0 X748.0000 Y650.1600
M3S0
G4 P0.5; Tool On
G1 F300 Z0.0000
G1 F15000 X2.0000 Y650.1600 Z0.0000
M3S245
G4 P0.5; Tool Off

G0 Z0; move to z-safe height
G0 X2.0000 Y654.1600
M3S0
G4 P0.5; Tool On
G1 F300 Z0.0000
G1 F15000 X748.0000 Y654.1600 Z0.0000
M3S245
G4 P0.5; Tool Off

G0 Z0; move to z-safe height
G0 X748.0000 Y658.1600
M3S0
G4 P0.5; Tool On
G1 F300 Z0.0000
G1 F15000 X2.0000 Y658.1600 Z0.0000
M3S245
G4 P0.5; Tool Off

G0 Z0; move to z-safe height
G0 X2.0000 Y662.1600
M3S0
G4 P0.5; Tool On
G1 F300 Z0.0000
G1 F15000 X748.0000 Y662.1600 Z0.0000
M3S245
G4 P0.5; Tool Off

G0 Z0; move to z-safe height
G0 X748.0000 Y666.1600
M3S0
G4 P0.5; Tool On
G1 F300 Z0.0000
G1 F15000 X2.0000 Y666.1600 Z0.0000
M3S245
G4 P0.5; Tool Off

G0 Z0; move to z-safe height
G0 X2.0000 Y670.1600
M3S0
G4 P0.5; Tool On
G1 F300 Z0.0000
G1 F15000 X748.0000 Y670.1600 Z0.0000
M3S245
G4 P0.5; Tool Off

G0 Z0; move to z-safe height
G0 X748.0000 Y674.1600
M3S0
G4 P0.5; Tool On
G1 F300 Z0.0000
G1 F15000 X2.0000 Y674.1600 Z0.0000
M3S245
G4 P0.5; Tool Off

G0 Z0; move to z-safe height
G0 X2.0000 Y678.1600
M3S0
G4 P0.5; Tool On
G1 F300 Z0.0000
G1 F15000 X748.0000 Y678.1600 Z0.0000
M3S245
G4 P0.5; Tool Off

G0 Z0; move to z-safe height
G0 X748.0000 Y682.1600
M3S0
G4 P0.5; Tool On
G1 F300 Z0.0000
G1 F15000 X2.0000 Y682.1600 Z0.0000
M3S245
G4 P0.5; Tool Off

G0 Z0; move to z-safe height
G0 X2.0000 Y686.1600
M3S0
G4 P0.5; Tool On
G1 F300 Z0.0000
G1 F15000 X748.0000 Y686.1600 Z0.0000
M3S245
G4 P0.5; Tool Off

G0 Z0; move to z-safe height
G0 X748.0000 Y690.1600
M3S0
G4 P0.5; Tool On
G1 F300 Z0.0000
G1 F15000 X2.0000 Y690.1600 Z0.0000
M3S245
G4 P0.5; Tool Off

G0 Z0; move to z-safe height
G0 X2.0000 Y694.1600
M3S0
G4 P0.5; Tool On
G1 F300 Z0.0000
G1 F15000 X748.0000 Y694.1600 Z0.0000
M3S245
G4 P0.5; Tool Off

G0 Z0; move to z-safe height
G0 X748.0000 Y698.1600
M3S0
G4 P0.5; Tool On
G1 F300 Z0.0000
G1 F15000 X2.0000 Y698.1600 Z0.0000
M3S245
G4 P0.5; Tool Off

G0 Z0; move to z-safe height
G0 X2.0000 Y702.1600
M3S0
G4 P0.5; Tool On
G1 F300 Z0.0000
G1 F15000 X748.0000 Y702.1600 Z0.0000
M3S245
G4 P0.5; Tool Off

G0 Z0; move to z-safe height
G0 X748.0000 Y706.1600
M3S0
G4 P0.5; Tool On
G1 F300 Z0.0000
G1 F15000 X2.0000 Y706.1600 Z0.0000
M3S245
G4 P0.5; Tool Off

G0 Z0; move to z-safe height
G0 X2.0000 Y710.1600
M3S0
G4 P0.5; Tool On
G1 F300 Z0.0000
G1 F15000 X748.0000 Y710.1600 Z0.0000
M3S245
G4 P0.5; Tool Off

G0 Z0; move to z-safe height
G0 X748.0000 Y714.1600
M3S0
G4 P0.5; Tool On
G1 F300 Z0.0000
G1 F15000 X2.0000 Y714.1600 Z0.0000
M3S245
G4 P0.5; Tool Off

G0 Z0; move to z-safe height
G0 X2.0000 Y718.1600
M3S0
G4 P0.5; Tool On
G1 F300 Z0.0000
G1 F15000 X748.0000 Y718.1600 Z0.0000
M3S245
G4 P0.5; Tool Off

G0 Z0; move to z-safe height
G0 X748.0000 Y722.1600
M3S0
G4 P0.5; Tool On
G1 F300 Z0.0000
G1 F15000 X2.0000 Y722.1600 Z0.0000
M3S245
G4 P0.5; Tool Off

G0 Z0; move to z-safe height
G0 X2.0000 Y726.1600
M3S0
G4 P0.5; Tool On
G1 F300 Z0.0000
G1 F15000 X748.0000 Y726.1600 Z0.0000
M3S245
G4 P0.5; Tool Off

G0 Z0; move to z-safe height
G0 X748.0000 Y730.1600
M3S0
G4 P0.5; Tool On
G1 F300 Z0.0000
G1 F15000 X2.0000 Y730.1600 Z0.0000
M3S245
G4 P0.5; Tool Off

G0 Z0; move to z-safe height
G0 X2.0000 Y734.1600
M3S0
G4 P0.5; Tool On
G1 F300 Z0.0000
G1 F15000 X748.0000 Y734.1600 Z0.0000
M3S245
G4 P0.5; Tool Off

G0 Z0; move to z-safe height
G0 X748.0000 Y738.1600
M3S0
G4 P0.5; Tool On
G1 F300 Z0.0000
G1 F15000 X2.0000 Y738.1600 Z0.0000
M3S245
G4 P0.5; Tool Off

G0 Z0; move to z-safe height
G0 X2.0000 Y742.1600
M3S0
G4 P0.5; Tool On
G1 F300 Z0.0000
G1 F15000 X748.0000 Y742.1600 Z0.0000
M3S245
G4 P0.5; Tool Off

G0 Z0; move to z-safe height
G0 X748.0000 Y746.1600
M3S0
G4 P0.5; Tool On
G1 F300 Z0.0000
G1 F15000 X2.0000 Y746.1600 Z0.0000
M3S245
G4 P0.5; Tool Off

G0 Z0; move to z-safe height
G0 X2.0000 Y750.1600
M3S0
G4 P0.5; Tool On
G1 F300 Z0.0000
G1 F15000 X748.0000 Y750.1600 Z0.0000
M3S245
G4 P0.5; Tool Off

G0 Z0; move to z-safe height
G0 X748.0000 Y754.1600
M3S0
G4 P0.5; Tool On
G1 F300 Z0.0000
G1 F15000 X2.0000 Y754.1600 Z0.0000
M3S245
G4 P0.5; Tool Off

G0 Z0; move to z-safe height
G0 X2.0000 Y758.1600
M3S0
G4 P0.5; Tool On
G1 F300 Z0.0000
G1 F15000 X748.0000 Y758.1600 Z0.0000
M3S245
G4 P0.5; Tool Off

G0 Z0; move to z-safe height
G0 X748.0000 Y762.1600
M3S0
G4 P0.5; Tool On
G1 F300 Z0.0000
G1 F15000 X2.0000 Y762.1600 Z0.0000
M3S245
G4 P0.5; Tool Off

G0 Z0; move to z-safe height
G0 X2.0000 Y766.1600
M3S0
G4 P0.5; Tool On
G1 F300 Z0.0000
G1 F15000 X748.0000 Y766.1600 Z0.0000
M3S245
G4 P0.5; Tool Off

G0 Z0; move to z-safe height
G0 X748.0000 Y770.1600
M3S0
G4 P0.5; Tool On
G1 F300 Z0.0000
G1 F15000 X2.0000 Y770.1600 Z0.0000
M3S245
G4 P0.5; Tool Off

G0 Z0; move to z-safe height
G0 X2.0000 Y774.1600
M3S0
G4 P0.5; Tool On
G1 F300 Z0.0000
G1 F15000 X748.0000 Y774.1600 Z0.0000
M3S245
G4 P0.5; Tool Off

G0 Z0; move to z-safe height
G0 X748.0000 Y778.1600
M3S0
G4 P0.5; Tool On
G1 F300 Z0.0000
G1 F15000 X2.0000 Y778.1600 Z0.0000
M3S245
G4 P0.5; Tool Off

G0 Z0; move to z-safe height
G0 X2.0000 Y782.1600
M3S0
G4 P0.5; Tool On
G1 F300 Z0.0000
G1 F15000 X748.0000 Y782.1600 Z0.0000
M3S245
G4 P0.5; Tool Off

G0 Z0; move to z-safe height
G0 X748.0000 Y786.1600
M3S0
G4 P0.5; Tool On
G1 F300 Z0.0000
G1 F15000 X2.0000 Y786.1600 Z0.0000
M3S245
G4 P0.5; Tool Off

G0 Z0; move to z-safe height
G0 X2.0000 Y790.1600
M3S0
G4 P0.5; Tool On
G1 F300 Z0.0000
G1 F15000 X748.0000 Y790.1600 Z0.0000
M3S245
G4 P0.5; Tool Off

G0 Z0; move to z-safe height
G0 X748.0000 Y794.1600
M3S0
G4 P0.5; Tool On
G1 F300 Z0.0000
G1 F15000 X2.0000 Y794.1600 Z0.0000
M3S245
G4 P0.5; Tool Off

G0 Z0; move to z-safe height
G0 X2.0000 Y798.1600
M3S0
G4 P0.5; Tool On
G1 F300 Z0.0000
G1 F15000 X748.0000 Y798.1600 Z0.0000
M3S245
G4 P0.5; Tool Off

G0 Z0; move to z-safe height
G0 X748.0000 Y802.1600
M3S0
G4 P0.5; Tool On
G1 F300 Z0.0000
G1 F15000 X2.0000 Y802.1600 Z0.0000
M3S245
G4 P0.5; Tool Off

G0 Z0; move to z-safe height
G0 X2.0000 Y806.1600
M3S0
G4 P0.5; Tool On
G1 F300 Z0.0000
G1 F15000 X748.0000 Y806.1600 Z0.0000
M3S245
G4 P0.5; Tool Off

G0 Z0; move to z-safe height
G0 X748.0000 Y810.1600
M3S0
G4 P0.5; Tool On
G1 F300 Z0.0000
G1 F15000 X2.0000 Y810.1600 Z0.0000
M3S245
G4 P0.5; Tool Off

G0 Z0; move to z-safe height
G0 X2.0000 Y814.1600
M3S0
G4 P0.5; Tool On
G1 F300 Z0.0000
G1 F15000 X748.0000 Y814.1600 Z0.0000
M3S245
G4 P0.5; Tool Off

G0 Z0; move to z-safe height
G0 X748.0000 Y818.1600
M3S0
G4 P0.5; Tool On
G1 F300 Z0.0000
G1 F15000 X2.0000 Y818.1600 Z0.0000
M3S245
G4 P0.5; Tool Off

G0 Z0; move to z-safe height
G0 X2.0000 Y822.1600
M3S0
G4 P0.5; Tool On
G1 F300 Z0.0000
G1 F15000 X748.0000 Y822.1600 Z0.0000
M3S245
G4 P0.5; Tool Off

G0 Z0; move to z-safe height
G0 X748.0000 Y826.1600
M3S0
G4 P0.5; Tool On
G1 F300 Z0.0000
G1 F15000 X2.0000 Y826.1600 Z0.0000
M3S245
G4 P0.5; Tool Off

G0 Z0; move to z-safe height
G0 X2.0000 Y830.1600
M3S0
G4 P0.5; Tool On
G1 F300 Z0.0000
G1 F15000 X748.0000 Y830.1600 Z0.0000
M3S245
G4 P0.5; Tool Off

G0 Z0; move to z-safe height
G0 X748.0000 Y834.1600
M3S0
G4 P0.5; Tool On
G1 F300 Z0.0000
G1 F15000 X2.0000 Y834.1600 Z0.0000
M3S245
G4 P0.5; Tool Off

G0 Z0; move to z-safe height
G0 X2.0000 Y838.1600
M3S0
G4 P0.5; Tool On
G1 F300 Z0.0000
G1 F15000 X748.0000 Y838.1600 Z0.0000
M3S245
G4 P0.5; Tool Off

G0 Z0; move to z-safe height
G0 X748.0000 Y842.1600
M3S0
G4 P0.5; Tool On
G1 F300 Z0.0000
G1 F15000 X2.0000 Y842.1600 Z0.0000
M3S245
G4 P0.5; Tool Off

G0 Z0; move to z-safe height
G0 X2.0000 Y846.1600
M3S0
G4 P0.5; Tool On
G1 F300 Z0.0000
G1 F15000 X748.0000 Y846.1600 Z0.0000
M3S245
G4 P0.5; Tool Off

G0 Z0; move to z-safe height
G0 X748.0000 Y850.1600
M3S0
G4 P0.5; Tool On
G1 F300 Z0.0000
G1 F15000 X2.0000 Y850.1600 Z0.0000
M3S245
G4 P0.5; Tool Off

G0 Z0; move to z-safe height
G0 X2.0000 Y854.1600
M3S0
G4 P0.5; Tool On
G1 F300 Z0.0000
G1 F15000 X748.0000 Y854.1600 Z0.0000
M3S245
G4 P0.5; Tool Off

G0 Z0; move to z-safe height
G0 X748.0000 Y858.1600
M3S0
G4 P0.5; Tool On
G1 F300 Z0.0000
G1 F15000 X2.0000 Y858.1600 Z0.0000
M3S245
G4 P0.5; Tool Off

G0 Z0; move to z-safe height
G0 X2.0000 Y862.1600
M3S0
G4 P0.5; Tool On
G1 F300 Z0.0000
G1 F15000 X748.0000 Y862.1600 Z0.0000
M3S245
G4 P0.5; Tool Off

G0 Z0; move to z-safe height
G0 X748.0000 Y866.1600
M3S0
G4 P0.5; Tool On
G1 F300 Z0.0000
G1 F15000 X2.0000 Y866.1600 Z0.0000
M3S245
G4 P0.5; Tool Off

G0 Z0; move to z-safe height
G0 X2.0000 Y870.1600
M3S0
G4 P0.5; Tool On
G1 F300 Z0.0000
G1 F15000 X748.0000 Y870.1600 Z0.0000
M3S245
G4 P0.5; Tool Off

G0 Z0; move to z-safe height
G0 X748.0000 Y874.1600
M3S0
G4 P0.5; Tool On
G1 F300 Z0.0000
G1 F15000 X2.0000 Y874.1600 Z0.0000
M3S245
G4 P0.5; Tool Off

G0 Z0; move to z-safe height
G0 X2.0000 Y878.1600
M3S0
G4 P0.5; Tool On
G1 F300 Z0.0000
G1 F15000 X748.0000 Y878.1600 Z0.0000
M3S245
G4 P0.5; Tool Off

G0 Z0; move to z-safe height
G0 X748.0000 Y882.1600
M3S0
G4 P0.5; Tool On
G1 F300 Z0.0000
G1 F15000 X2.0000 Y882.1600 Z0.0000
M3S245
G4 P0.5; Tool Off

G0 Z0; move to z-safe height
G0 X2.0000 Y886.1600
M3S0
G4 P0.5; Tool On
G1 F300 Z0.0000
G1 F15000 X748.0000 Y886.1600 Z0.0000
M3S245
G4 P0.5; Tool Off

G0 Z0; move to z-safe height
G0 X748.0000 Y890.1600
M3S0
G4 P0.5; Tool On
G1 F300 Z0.0000
G1 F15000 X2.0000 Y890.1600 Z0.0000
M3S245
G4 P0.5; Tool Off

G0 Z0; move to z-safe height
G0 X2.0000 Y894.1600
M3S0
G4 P0.5; Tool On
G1 F300 Z0.0000
G1 F15000 X748.0000 Y894.1600 Z0.0000
M3S245
G4 P0.5; Tool Off

G0 Z0; move to z-safe height
G0 X748.0000 Y898.1600
M3S0
G4 P0.5; Tool On
G1 F300 Z0.0000
G1 F15000 X2.0000 Y898.1600 Z0.0000
M3S245
G4 P0.5; Tool Off

G0 Z0; move to z-safe height
G0 X2.0000 Y902.1600
M3S0
G4 P0.5; Tool On
G1 F300 Z0.0000
G1 F15000 X748.0000 Y902.1600 Z0.0000
M3S245
G4 P0.5; Tool Off

G0 Z0; move to z-safe height
G0 X748.0000 Y906.1600
M3S0
G4 P0.5; Tool On
G1 F300 Z0.0000
G1 F15000 X2.0000 Y906.1600 Z0.0000
M3S245
G4 P0.5; Tool Off

G0 Z0; move to z-safe height
G0 X2.0000 Y910.1600
M3S0
G4 P0.5; Tool On
G1 F300 Z0.0000
G1 F15000 X748.0000 Y910.1600 Z0.0000
M3S245
G4 P0.5; Tool Off

G0 Z0; move to z-safe height
G0 X748.0000 Y914.1600
M3S0
G4 P0.5; Tool On
G1 F300 Z0.0000
G1 F15000 X2.0000 Y914.1600 Z0.0000
M3S245
G4 P0.5; Tool Off

G0 Z0; move to z-safe height
G0 X2.0000 Y918.1600
M3S0
G4 P0.5; Tool On
G1 F300 Z0.0000
G1 F15000 X748.0000 Y918.1600 Z0.0000
M3S245
G4 P0.5; Tool Off

G0 Z0; move to z-safe height
G0 X748.0000 Y922.1600
M3S0
G4 P0.5; Tool On
G1 F300 Z0.0000
G1 F15000 X2.0000 Y922.1600 Z0.0000
M3S245
G4 P0.5; Tool Off

G0 Z0; move to z-safe height
G0 X2.0000 Y926.1600
M3S0
G4 P0.5; Tool On
G1 F300 Z0.0000
G1 F15000 X748.0000 Y926.1600 Z0.0000
M3S245
G4 P0.5; Tool Off

G0 Z0; move to z-safe height
G0 X748.0000 Y930.1600
M3S0
G4 P0.5; Tool On
G1 F300 Z0.0000
G1 F15000 X2.0000 Y930.1600 Z0.0000
M3S245
G4 P0.5; Tool Off

G0 Z0; move to z-safe height
G0 X2.0000 Y934.1600
M3S0
G4 P0.5; Tool On
G1 F300 Z0.0000
G1 F15000 X748.0000 Y934.1600 Z0.0000
M3S245
G4 P0.5; Tool Off

G0 Z0; move to z-safe height
G0 X748.0000 Y938.1600
M3S0
G4 P0.5; Tool On
G1 F300 Z0.0000
G1 F15000 X2.0000 Y938.1600 Z0.0000
M3S245
G4 P0.5; Tool Off

G0 Z0; move to z-safe height
G0 X2.0000 Y942.1600
M3S0
G4 P0.5; Tool On
G1 F300 Z0.0000
G1 F15000 X748.0000 Y942.1600 Z0.0000
M3S245
G4 P0.5; Tool Off

G0 Z0; move to z-safe height
G0 X748.0000 Y946.1600
M3S0
G4 P0.5; Tool On
G1 F300 Z0.0000
G1 F15000 X2.0000 Y946.1600 Z0.0000
M3S245
G4 P0.5; Tool Off

G0 Z0; move to z-safe height
G0 X2.0000 Y950.1600
M3S0
G4 P0.5; Tool On
G1 F300 Z0.0000
G1 F15000 X748.0000 Y950.1600 Z0.0000
M3S245
G4 P0.5; Tool Off

G0 Z0; move to z-safe height
G0 X748.0000 Y954.1600
M3S0
G4 P0.5; Tool On
G1 F300 Z0.0000
G1 F15000 X2.0000 Y954.1600 Z0.0000
M3S245
G4 P0.5; Tool Off

G0 Z0; move to z-safe height
G0 X2.0000 Y958.1600
M3S0
G4 P0.5; Tool On
G1 F300 Z0.0000
G1 F15000 X748.0000 Y958.1600 Z0.0000
M3S245
G4 P0.5; Tool Off

G0 Z0; move to z-safe height
G0 X748.0000 Y962.1600
M3S0
G4 P0.5; Tool On
G1 F300 Z0.0000
G1 F15000 X2.0000 Y962.1600 Z0.0000
M3S245
G4 P0.5; Tool Off

G0 Z0; move to z-safe height
G0 X2.0000 Y966.1600
M3S0
G4 P0.5; Tool On
G1 F300 Z0.0000
G1 F15000 X748.0000 Y966.1600 Z0.0000
M3S245
G4 P0.5; Tool Off

G0 Z0; move to z-safe height
G0 X748.0000 Y970.1600
M3S0
G4 P0.5; Tool On
G1 F300 Z0.0000
G1 F15000 X2.0000 Y970.1600 Z0.0000
M3S245
G4 P0.5; Tool Off

G0 Z0; move to z-safe height
G0 X2.0000 Y974.1600
M3S0
G4 P0.5; Tool On
G1 F300 Z0.0000
G1 F15000 X748.0000 Y974.1600 Z0.0000
M3S245
G4 P0.5; Tool Off

G0 Z0; move to z-safe height
G0 X748.0000 Y978.1600
M3S0
G4 P0.5; Tool On
G1 F300 Z0.0000
G1 F15000 X2.0000 Y978.1600 Z0.0000
M3S245
G4 P0.5; Tool Off

G0 Z0; move to z-safe height
G0 X2.0000 Y982.1600
M3S0
G4 P0.5; Tool On
G1 F300 Z0.0000
G1 F15000 X748.0000 Y982.1600 Z0.0000
M3S245
G4 P0.5; Tool Off

G0 Z0; move to z-safe height
G0 X748.0000 Y986.1600
M3S0
G4 P0.5; Tool On
G1 F300 Z0.0000
G1 F15000 X2.0000 Y986.1600 Z0.0000
M3S245
G4 P0.5; Tool Off

G0 Z0; move to z-safe height
G0 X2.0000 Y990.1600
M3S0
G4 P0.5; Tool On
G1 F300 Z0.0000
G1 F15000 X748.0000 Y990.1600 Z0.0000
M3S245
G4 P0.5; Tool Off

G0 Z0; move to z-safe height
G0 X748.0000 Y994.1600
M3S0
G4 P0.5; Tool On
G1 F300 Z0.0000
G1 F15000 X2.0000 Y994.1600 Z0.0000
M3S245
G4 P0.5; Tool Off

G0 Z0; move to z-safe height
G0 X2.0000 Y998.1600
M3S0
G4 P0.5; Tool On
G1 F300 Z0.0000
G1 F15000 X748.0000 Y998.1600 Z0.0000
M3S245
G4 P0.5; Tool Off

G0 Z0; move to z-safe height
G0 X748.0000 Y1002.1600
M3S0
G4 P0.5; Tool On
G1 F300 Z0.0000
G1 F15000 X2.0000 Y1002.1600 Z0.0000
M3S245
G4 P0.5; Tool Off

G0 Z0; move to z-safe height
G0 X2.0000 Y1006.1600
M3S0
G4 P0.5; Tool On
G1 F300 Z0.0000
G1 F15000 X748.0000 Y1006.1600 Z0.0000
M3S245
G4 P0.5; Tool Off

G0 Z0; move to z-safe height
G0 X748.0000 Y1010.1600
M3S0
G4 P0.5; Tool On
G1 F300 Z0.0000
G1 F15000 X2.0000 Y1010.1600 Z0.0000
M3S245
G4 P0.5; Tool Off

G0 Z0; move to z-safe height
G0 X2.0000 Y1014.1600
M3S0
G4 P0.5; Tool On
G1 F300 Z0.0000
G1 F15000 X748.0000 Y1014.1600 Z0.0000
M3S245
G4 P0.5; Tool Off

G0 Z0; move to z-safe height
G0 X748.0000 Y1018.1600
M3S0
G4 P0.5; Tool On
G1 F300 Z0.0000
G1 F15000 X2.0000 Y1018.1600 Z0.0000
M3S245
G4 P0.5; Tool Off

G0 Z0; move to z-safe height
G0 X2.0000 Y1022.1600
M3S0
G4 P0.5; Tool On
G1 F300 Z0.0000
G1 F15000 X748.0000 Y1022.1600 Z0.0000
M3S245
G4 P0.5; Tool Off

G0 Z0; move to z-safe height
G0 X748.0000 Y1026.1600
M3S0
G4 P0.5; Tool On
G1 F300 Z0.0000
G1 F15000 X2.0000 Y1026.1600 Z0.0000
M3S245
G4 P0.5; Tool Off

G0 Z0; move to z-safe height
G0 X2.0000 Y1030.1600
M3S0
G4 P0.5; Tool On
G1 F300 Z0.0000
G1 F15000 X748.0000 Y1030.1600 Z0.0000
M3S245
G4 P0.5; Tool Off

G0 Z0; move to z-safe height
G0 X748.0000 Y1034.1600
M3S0
G4 P0.5; Tool On
G1 F300 Z0.0000
G1 F15000 X2.0000 Y1034.1600 Z0.0000
M3S245
G4 P0.5; Tool Off

G0 Z0; move to z-safe height
G0 X2.0000 Y1038.1600
M3S0
G4 P0.5; Tool On
G1 F300 Z0.0000
G1 F15000 X748.0000 Y1038.1600 Z0.0000
M3S245
G4 P0.5; Tool Off

G0 Z0; move to z-safe height
G0 X748.0000 Y1042.1600
M3S0
G4 P0.5; Tool On
G1 F300 Z0.0000
G1 F15000 X2.0000 Y1042.1600 Z0.0000
M3S245
G4 P0.5; Tool Off

G0 Z0; move to z-safe height
G0 X2.0000 Y1046.1600
M3S0
G4 P0.5; Tool On
G1 F300 Z0.0000
G1 F15000 X748.0000 Y1046.1600 Z0.0000
M3S245
G4 P0.5; Tool Off

G0 Z0; move to z-safe height
G0 X748.0000 Y1050.1600
M3S0
G4 P0.5; Tool On
G1 F300 Z0.0000
G1 F15000 X2.0000 Y1050.1600 Z0.0000
M3S245
G4 P0.5; Tool Off

G0 Z0; move to z-safe height
G0 X2.0000 Y1054.1600
M3S0
G4 P0.5; Tool On
G1 F300 Z0.0000
G1 F15000 X748.0000 Y1054.1600 Z0.0000
M3S245
G4 P0.5; Tool Off

G0 Z0; move to z-safe height
G0 X748.0000 Y1058.1600
M3S0
G4 P0.5; Tool On
G1 F300 Z0.0000
G1 F15000 X2.0000 Y1058.1600 Z0.0000
M3S245
G4 P0.5; Tool Off

G0 Z0; move to z-safe height
G0 X2.0000 Y1062.1600
M3S0
G4 P0.5; Tool On
G1 F300 Z0.0000
G1 F15000 X748.0000 Y1062.1600 Z0.0000
M3S245
G4 P0.5; Tool Off

G0 Z0; move to z-safe height
G0 X748.0000 Y1066.1600
M3S0
G4 P0.5; Tool On
G1 F300 Z0.0000
G1 F15000 X2.0000 Y1066.1600 Z0.0000
M3S245
G4 P0.5; Tool Off

G0 Z0; move to z-safe height
G0 X2.0000 Y1070.1600
M3S0
G4 P0.5; Tool On
G1 F300 Z0.0000
G1 F15000 X748.0000 Y1070.1600 Z0.0000
M3S245
G4 P0.5; Tool Off

G0 Z0; move to z-safe height
G0 X748.0000 Y1074.1600
M3S0
G4 P0.5; Tool On
G1 F300 Z0.0000
G1 F15000 X2.0000 Y1074.1600 Z0.0000
M3S245
G4 P0.5; Tool Off

G0 Z0; move to z-safe height
G0 X2.0000 Y1078.1600
M3S0
G4 P0.5; Tool On
G1 F300 Z0.0000
G1 F15000 X748.0000 Y1078.1600 Z0.0000
M3S245
G4 P0.5; Tool Off

G0 Z0; move to z-safe height
G0 X748.0000 Y1082.1600
M3S0
G4 P0.5; Tool On
G1 F300 Z0.0000
G1 F15000 X2.0000 Y1082.1600 Z0.0000
M3S245
G4 P0.5; Tool Off

G0 Z0; move to z-safe height
G0 X2.0000 Y1086.1600
M3S0
G4 P0.5; Tool On
G1 F300 Z0.0000
G1 F15000 X748.0000 Y1086.1600 Z0.0000
M3S245
G4 P0.5; Tool Off

G0 Z0; move to z-safe height
G0 X748.0000 Y1090.1600
M3S0
G4 P0.5; Tool On
G1 F300 Z0.0000
G1 F15000 X2.0000 Y1090.1600 Z0.0000
M3S245
G4 P0.5; Tool Off

G0 Z0; move to z-safe height
G0 X2.0000 Y1094.1600
M3S0
G4 P0.5; Tool On
G1 F300 Z0.0000
G1 F15000 X748.0000 Y1094.1600 Z0.0000
M3S245
G4 P0.5; Tool Off

G0 Z0; move to z-safe height
G0 X748.0000 Y1098.1600
M3S0
G4 P0.5; Tool On
G1 F300 Z0.0000
G1 F15000 X2.0000 Y1098.1600 Z0.0000
M3S245
G4 P0.5; Tool Off

G0 Z0; move to z-safe height
G0 X2.0000 Y1102.1600
M3S0
G4 P0.5; Tool On
G1 F300 Z0.0000
G1 F15000 X748.0000 Y1102.1600 Z0.0000
M3S245
G4 P0.5; Tool Off

G0 Z0; move to z-safe height
G0 X748.0000 Y1106.1600
M3S0
G4 P0.5; Tool On
G1 F300 Z0.0000
G1 F15000 X2.0000 Y1106.1600 Z0.0000
M3S245
G4 P0.5; Tool Off

G0 Z0; move to z-safe height
G0 X2.0000 Y1110.1600
M3S0
G4 P0.5; Tool On
G1 F300 Z0.0000
G1 F15000 X748.0000 Y1110.1600 Z0.0000
M3S245
G4 P0.5; Tool Off

G0 Z0; move to z-safe height
G0 X748.0000 Y1114.1600
M3S0
G4 P0.5; Tool On
G1 F300 Z0.0000
G1 F15000 X2.0000 Y1114.1600 Z0.0000
M3S245
G4 P0.5; Tool Off

G0 Z0; move to z-safe height
G0 X2.0000 Y1118.1600
M3S0
G4 P0.5; Tool On
G1 F300 Z0.0000
G1 F15000 X748.0000 Y1118.1600 Z0.0000
M3S245
G4 P0.5; Tool Off

G0 Z0; move to z-safe height
G0 X748.0000 Y1122.1600
M3S0
G4 P0.5; Tool On
G1 F300 Z0.0000
G1 F15000 X2.0000 Y1122.1600 Z0.0000
M3S245
G4 P0.5; Tool Off

G0 Z0; move to z-safe height
G0 X2.0000 Y1126.1600
M3S0
G4 P0.5; Tool On
G1 F300 Z0.0000
G1 F15000 X748.0000 Y1126.1600 Z0.0000
M3S245
G4 P0.5; Tool Off

G0 Z0; move to z-safe height
G0 X748.0000 Y1130.1600
M3S0
G4 P0.5; Tool On
G1 F300 Z0.0000
G1 F15000 X2.0000 Y1130.1600 Z0.0000
M3S245
G4 P0.5; Tool Off

G0 Z0; move to z-safe height
G0 X2.0000 Y1134.1600
M3S0
G4 P0.5; Tool On
G1 F300 Z0.0000
G1 F15000 X748.0000 Y1134.1600 Z0.0000
M3S245
G4 P0.5; Tool Off

G0 Z0; move to z-safe height
G0 X748.0000 Y1138.1600
M3S0
G4 P0.5; Tool On
G1 F300 Z0.0000
G1 F15000 X2.0000 Y1138.1600 Z0.0000
M3S245
G4 P0.5; Tool Off

G0 Z0; move to z-safe height
G0 X2.0000 Y1142.1600
M3S0
G4 P0.5; Tool On
G1 F300 Z0.0000
G1 F15000 X748.0000 Y1142.1600 Z0.0000
M3S245
G4 P0.5; Tool Off

G0 Z0; move to z-safe height
G0 X748.0000 Y1146.1600
M3S0
G4 P0.5; Tool On
G1 F300 Z0.0000
G1 F15000 X2.0000 Y1146.1600 Z0.0000
M3S245
G4 P0.5; Tool Off

G0 Z0; move to z-safe height
G0 X2.0000 Y1150.1600
M3S0
G4 P0.5; Tool On
G1 F300 Z0.0000
G1 F15000 X748.0000 Y1150.1600 Z0.0000
M3S245
G4 P0.5; Tool Off

G0 Z0; move to z-safe height
G0 X748.0000 Y1154.1600
M3S0
G4 P0.5; Tool On
G1 F300 Z0.0000
G1 F15000 X2.0000 Y1154.1600 Z0.0000
M3S245
G4 P0.5; Tool Off

G0 Z0; move to z-safe height
G0 X2.0000 Y1158.1600
M3S0
G4 P0.5; Tool On
G1 F300 Z0.0000
G1 F15000 X748.0000 Y1158.1600 Z0.0000
M3S245
G4 P0.5; Tool Off

G0 Z0; move to z-safe height
G0 X748.0000 Y1162.1600
M3S0
G4 P0.5; Tool On
G1 F300 Z0.0000
G1 F15000 X2.0000 Y1162.1600 Z0.0000
M3S245
G4 P0.5; Tool Off

G0 Z0; move to z-safe height
G0 X2.0000 Y1166.1600
M3S0
G4 P0.5; Tool On
G1 F300 Z0.0000
G1 F15000 X748.0000 Y1166.1600 Z0.0000
M3S245
G4 P0.5; Tool Off

G0 Z0; move to z-safe height
G0 X748.0000 Y1170.1600
M3S0
G4 P0.5; Tool On
G1 F300 Z0.0000
G1 F15000 X2.0000 Y1170.1600 Z0.0000
M3S245
G4 P0.5; Tool Off

G0 Z0; move to z-safe height
G0 X2.0000 Y1174.1600
M3S0
G4 P0.5; Tool On
G1 F300 Z0.0000
G1 F15000 X748.0000 Y1174.1600 Z0.0000
M3S245
G4 P0.5; Tool Off

G0 Z0; move to z-safe height
G0 X748.0000 Y1178.1600
M3S0
G4 P0.5; Tool On
G1 F300 Z0.0000
G1 F15000 X2.0000 Y1178.1600 Z0.0000
M3S245
G4 P0.5; Tool Off

G0 Z0; move to z-safe height
G0 X2.0000 Y1182.1600
M3S0
G4 P0.5; Tool On
G1 F300 Z0.0000
G1 F15000 X748.0000 Y1182.1600 Z0.0000
M3S245
G4 P0.5; Tool Off

G0 Z0; move to z-safe height
G0 X748.0000 Y1186.1600
M3S0
G4 P0.5; Tool On
G1 F300 Z0.0000
G1 F15000 X2.0000 Y1186.1600 Z0.0000
M3S245
G4 P0.5; Tool Off

G0 Z0; move to z-safe height
G0 X2.0000 Y1190.1600
M3S0
G4 P0.5; Tool On
G1 F300 Z0.0000
G1 F15000 X748.0000 Y1190.1600 Z0.0000
M3S245
G4 P0.5; Tool Off

G0 Z0; move to z-safe height
G0 X748.0000 Y1194.1600
M3S0
G4 P0.5; Tool On
G1 F300 Z0.0000
G1 F15000 X2.0000 Y1194.1600 Z0.0000
M3S245
G4 P0.5; Tool Off

G0 Z0; move to z-safe height
G0 X2.0000 Y1198.1600
M3S0
G4 P0.5; Tool On
G1 F300 Z0.0000
G1 F15000 X748.0000 Y1198.1600 Z0.0000
M3S245
G4 P0.5; Tool Off

G0 Z0; move to z-safe height
G0 X748.0000 Y1202.1600
M3S0
G4 P0.5; Tool On
G1 F300 Z0.0000
G1 F15000 X2.0000 Y1202.1600 Z0.0000
M3S245
G4 P0.5; Tool Off

G0 Z0; move to z-safe height
G0 X2.0000 Y1206.1600
M3S0
G4 P0.5; Tool On
G1 F300 Z0.0000
G1 F15000 X748.0000 Y1206.1600 Z0.0000
M3S245
G4 P0.5; Tool Off

G0 Z0; move to z-safe height
G0 X748.0000 Y1210.1600
M3S0
G4 P0.5; Tool On
G1 F300 Z0.0000
G1 F15000 X2.0000 Y1210.1600 Z0.0000
M3S245
G4 P0.5; Tool Off

G0 Z0; move to z-safe height
G0 X2.0000 Y1214.1600
M3S0
G4 P0.5; Tool On
G1 F300 Z0.0000
G1 F15000 X748.0000 Y1214.1600 Z0.0000
M3S245
G4 P0.5; Tool Off

G0 Z0; move to z-safe height
G0 X748.0000 Y1218.1600
M3S0
G4 P0.5; Tool On
G1 F300 Z0.0000
G1 F15000 X2.0000 Y1218.1600 Z0.0000
M3S245
G4 P0.5; Tool Off

G0 Z0; move to z-safe height
G0 X2.0000 Y1222.1600
M3S0
G4 P0.5; Tool On
G1 F300 Z0.0000
G1 F15000 X748.0000 Y1222.1600 Z0.0000
M3S245
G4 P0.5; Tool Off

G0 Z0; move to z-safe height
G0 X748.0000 Y1226.1600
M3S0
G4 P0.5; Tool On
G1 F300 Z0.0000
G1 F15000 X2.0000 Y1226.1600 Z0.0000
M3S245
G4 P0.5; Tool Off

G0 Z0; move to z-safe height
G0 X2.0000 Y1230.1600
M3S0
G4 P0.5; Tool On
G1 F300 Z0.0000
G1 F15000 X748.0000 Y1230.1600 Z0.0000
M3S245
G4 P0.5; Tool Off

G0 Z0; move to z-safe height
G0 X748.0000 Y1234.1600
M3S0
G4 P0.5; Tool On
G1 F300 Z0.0000
G1 F15000 X2.0000 Y1234.1600 Z0.0000
M3S245
G4 P0.5; Tool Off

G0 Z0; move to z-safe height
G0 X2.0000 Y1238.1600
M3S0
G4 P0.5; Tool On
G1 F300 Z0.0000
G1 F15000 X748.0000 Y1238.1600 Z0.0000
M3S245
G4 P0.5; Tool Off

G0 Z0; move to z-safe height
G0 X748.0000 Y1242.1600
M3S0
G4 P0.5; Tool On
G1 F300 Z0.0000
G1 F15000 X2.0000 Y1242.1600 Z0.0000
M3S245
G4 P0.5; Tool Off

G0 Z0; move to z-safe height
G0 X2.0000 Y1246.1600
M3S0
G4 P0.5; Tool On
G1 F300 Z0.0000
G1 F15000 X748.0000 Y1246.1600 Z0.0000
M3S245
G4 P0.5; Tool Off

G0 Z0; move to z-safe height
G0 X748.0000 Y1250.1600
M3S0
G4 P0.5; Tool On
G1 F300 Z0.0000
G1 F15000 X2.0000 Y1250.1600 Z0.0000
M3S245
G4 P0.5; Tool Off

G0 Z0; move to z-safe height
G0 X2.0000 Y1254.1600
M3S0
G4 P0.5; Tool On
G1 F300 Z0.0000
G1 F15000 X748.0000 Y1254.1600 Z0.0000
M3S245
G4 P0.5; Tool Off

G0 Z0; move to z-safe height
G0 X748.0000 Y1258.1600
M3S0
G4 P0.5; Tool On
G1 F300 Z0.0000
G1 F15000 X2.0000 Y1258.1600 Z0.0000
M3S245
G4 P0.5; Tool Off

G0 Z0; move to z-safe height
G0 X2.0000 Y1262.1600
M3S0
G4 P0.5; Tool On
G1 F300 Z0.0000
G1 F15000 X748.0000 Y1262.1600 Z0.0000
M3S245
G4 P0.5; Tool Off

G0 Z0; move to z-safe height
G0 X748.0000 Y1266.1600
M3S0
G4 P0.5; Tool On
G1 F300 Z0.0000
G1 F15000 X2.0000 Y1266.1600 Z0.0000
M3S245
G4 P0.5; Tool Off

G0 Z0; move to z-safe height
G0 X2.0000 Y1270.1600
M3S0
G4 P0.5; Tool On
G1 F300 Z0.0000
G1 F15000 X748.0000 Y1270.1600 Z0.0000
M3S245
G4 P0.5; Tool Off

G0 Z0; move to z-safe height
G0 X748.0000 Y1274.1600
M3S0
G4 P0.5; Tool On
G1 F300 Z0.0000
G1 F15000 X2.0000 Y1274.1600 Z0.0000
M3S245
G4 P0.5; Tool Off

G0 Z0; move to z-safe height
G0 X2.0000 Y1278.1600
M3S0
G4 P0.5; Tool On
G1 F300 Z0.0000
G1 F15000 X748.0000 Y1278.1600 Z0.0000
M3S245
G4 P0.5; Tool Off

G0 Z0; move to z-safe height
G0 X748.0000 Y1282.1600
M3S0
G4 P0.5; Tool On
G1 F300 Z0.0000
G1 F15000 X2.0000 Y1282.1600 Z0.0000
M3S245
G4 P0.5; Tool Off

G0 Z0; move to z-safe height
G0 X2.0000 Y1286.1600
M3S0
G4 P0.5; Tool On
G1 F300 Z0.0000
G1 F15000 X748.0000 Y1286.1600 Z0.0000
M3S245
G4 P0.5; Tool Off

G0 Z0; move to z-safe height
G0 X748.0000 Y1290.1600
M3S0
G4 P0.5; Tool On
G1 F300 Z0.0000
G1 F15000 X2.0000 Y1290.1600 Z0.0000
M3S245
G4 P0.5; Tool Off

G0 Z0; move to z-safe height
G0 X2.0000 Y1294.1600
M3S0
G4 P0.5; Tool On
G1 F300 Z0.0000
G1 F15000 X748.0000 Y1294.1600 Z0.0000
M3S245
G4 P0.5; Tool Off

G0 Z0; move to z-safe height
G0 X748.0000 Y1298.1600
M3S0
G4 P0.5; Tool On
G1 F300 Z0.0000
G1 F15000 X2.0000 Y1298.1600 Z0.0000
M3S245
G4 P0.5; Tool Off

G0 Z0; move to z-safe height
G0 X2.0000 Y1302.1600
M3S0
G4 P0.5; Tool On
G1 F300 Z0.0000
G1 F15000 X748.0000 Y1302.1600 Z0.0000
M3S245
G4 P0.5; Tool Off

G0 Z0; move to z-safe height
G0 X748.0000 Y1306.1600
M3S0
G4 P0.5; Tool On
G1 F300 Z0.0000
G1 F15000 X2.0000 Y1306.1600 Z0.0000
M3S245
G4 P0.5; Tool Off

G0 Z0; move to z-safe height
G0 X2.0000 Y1310.1600
M3S0
G4 P0.5; Tool On
G1 F300 Z0.0000
G1 F15000 X748.0000 Y1310.1600 Z0.0000
M3S245
G4 P0.5; Tool Off

G0 Z0; move to z-safe height
G0 X748.0000 Y1314.1600
M3S0
G4 P0.5; Tool On
G1 F300 Z0.0000
G1 F15000 X2.0000 Y1314.1600 Z0.0000
M3S245
G4 P0.5; Tool Off

G0 Z0; move to z-safe height
G0 X2.0000 Y1318.1600
M3S0
G4 P0.5; Tool On
G1 F300 Z0.0000
G1 F15000 X748.0000 Y1318.1600 Z0.0000
M3S245
G4 P0.5; Tool Off

G0 Z0; move to z-safe height
G0 X748.0000 Y1322.1600
M3S0
G4 P0.5; Tool On
G1 F300 Z0.0000
G1 F15000 X2.0000 Y1322.1600 Z0.0000
M3S245
G4 P0.5; Tool Off

G0 Z0; move to z-safe height
G0 X2.0000 Y1326.1600
M3S0
G4 P0.5; Tool On
G1 F300 Z0.0000
G1 F15000 X748.0000 Y1326.1600 Z0.0000
M3S245
G4 P0.5; Tool Off

G0 Z0; move to z-safe height
G0 X748.0000 Y1330.1600
M3S0
G4 P0.5; Tool On
G1 F300 Z0.0000
G1 F15000 X2.0000 Y1330.1600 Z0.0000
M3S245
G4 P0.5; Tool Off

G0 Z0; move to z-safe height
G0 X2.0000 Y1334.1600
M3S0
G4 P0.5; Tool On
G1 F300 Z0.0000
G1 F15000 X748.0000 Y1334.1600 Z0.0000
M3S245
G4 P0.5; Tool Off

G0 Z0; move to z-safe height
G0 X748.0000 Y1338.1600
M3S0
G4 P0.5; Tool On
G1 F300 Z0.0000
G1 F15000 X2.0000 Y1338.1600 Z0.0000
M3S245
G4 P0.5; Tool Off

G0 Z0; move to z-safe height
G0 X2.0000 Y1342.1600
M3S0
G4 P0.5; Tool On
G1 F300 Z0.0000
G1 F15000 X748.0000 Y1342.1600 Z0.0000
M3S245
G4 P0.5; Tool Off

G0 Z0; move to z-safe height
G0 X748.0000 Y1346.1600
M3S0
G4 P0.5; Tool On
G1 F300 Z0.0000
G1 F15000 X2.0000 Y1346.1600 Z0.0000
M3S245
G4 P0.5; Tool Off

G0 Z0; move to z-safe height
G0 X2.0000 Y1350.1600
M3S0
G4 P0.5; Tool On
G1 F300 Z0.0000
G1 F15000 X748.0000 Y1350.1600 Z0.0000
M3S245
G4 P0.5; Tool Off

G0 Z0; move to z-safe height
G0 X748.0000 Y1354.1600
M3S0
G4 P0.5; Tool On
G1 F300 Z0.0000
G1 F15000 X2.0000 Y1354.1600 Z0.0000
M3S245
G4 P0.5; Tool Off

G0 Z0; move to z-safe height
G0 X2.0000 Y1358.1600
M3S0
G4 P0.5; Tool On
G1 F300 Z0.0000
G1 F15000 X748.0000 Y1358.1600 Z0.0000
M3S245
G4 P0.5; Tool Off

G0 Z0; move to z-safe height
G0 X748.0000 Y1362.1600
M3S0
G4 P0.5; Tool On
G1 F300 Z0.0000
G1 F15000 X2.0000 Y1362.1600 Z0.0000
M3S245
G4 P0.5; Tool Off

G0 Z0; move to z-safe height
G0 X2.0000 Y1366.1600
M3S0
G4 P0.5; Tool On
G1 F300 Z0.0000
G1 F15000 X748.0000 Y1366.1600 Z0.0000
M3S245
G4 P0.5; Tool Off

G0 Z0; move to z-safe height
G0 X748.0000 Y1370.1600
M3S0
G4 P0.5; Tool On
G1 F300 Z0.0000
G1 F15000 X2.0000 Y1370.1600 Z0.0000
M3S245
G4 P0.5; Tool Off

G0 Z0; move to z-safe height
G0 X2.0000 Y1374.1600
M3S0
G4 P0.5; Tool On
G1 F300 Z0.0000
G1 F15000 X748.0000 Y1374.1600 Z0.0000
M3S245
G4 P0.5; Tool Off

G0 Z0; move to z-safe height
G0 X748.0000 Y1378.1600
M3S0
G4 P0.5; Tool On
G1 F300 Z0.0000
G1 F15000 X2.0000 Y1378.1600 Z0.0000
M3S245
G4 P0.5; Tool Off

G0 Z0; move to z-safe height
G0 X2.0000 Y1382.1600
M3S0
G4 P0.5; Tool On
G1 F300 Z0.0000
G1 F15000 X748.0000 Y1382.1600 Z0.0000
M3S245
G4 P0.5; Tool Off

G0 Z0; move to z-safe height
G0 X748.0000 Y1386.1600
M3S0
G4 P0.5; Tool On
G1 F300 Z0.0000
G1 F15000 X2.0000 Y1386.1600 Z0.0000
M3S245
G4 P0.5; Tool Off

G0 Z0; move to z-safe height
G0 X2.0000 Y1390.1600
M3S0
G4 P0.5; Tool On
G1 F300 Z0.0000
G1 F15000 X748.0000 Y1390.1600 Z0.0000
M3S245
G4 P0.5; Tool Off

G0 Z0; move to z-safe height
G0 X748.0000 Y1394.1600
M3S0
G4 P0.5; Tool On
G1 F300 Z0.0000
G1 F15000 X2.0000 Y1394.1600 Z0.0000
M3S245
G4 P0.5; Tool Off

G0 Z0; move to z-safe height
G0 X2.0000 Y1398.1600
M3S0
G4 P0.5; Tool On
G1 F300 Z0.0000
G1 F15000 X748.0000 Y1398.1600 Z0.0000
M3S245
G4 P0.5; Tool Off

G0 Z0; move to z-safe height
G0 X748.0000 Y1402.1600
M3S0
G4 P0.5; Tool On
G1 F300 Z0.0000
G1 F15000 X2.0000 Y1402.1600 Z0.0000
M3S245
G4 P0.5; Tool Off

G0 Z0; move to z-safe height
G0 X2.0000 Y1406.1600
M3S0
G4 P0.5; Tool On
G1 F300 Z0.0000
G1 F15000 X748.0000 Y1406.1600 Z0.0000
M3S245
G4 P0.5; Tool Off

G0 Z0; move to z-safe height
G0 X748.0000 Y1410.1600
M3S0
G4 P0.5; Tool On
G1 F300 Z0.0000
G1 F15000 X2.0000 Y1410.1600 Z0.0000
M3S245
G4 P0.5; Tool Off

G0 Z0; move to z-safe height
G0 X2.0000 Y1414.1600
M3S0
G4 P0.5; Tool On
G1 F300 Z0.0000
G1 F15000 X748.0000 Y1414.1600 Z0.0000
M3S245
G4 P0.5; Tool Off

G0 Z0; move to z-safe height
G0 X748.0000 Y1418.1600
M3S0
G4 P0.5; Tool On
G1 F300 Z0.0000
G1 F15000 X2.0000 Y1418.1600 Z0.0000
M3S245
G4 P0.5; Tool Off

G0 Z0; move to z-safe height
G0 X2.0000 Y1422.1600
M3S0
G4 P0.5; Tool On
G1 F300 Z0.0000
G1 F15000 X748.0000 Y1422.1600 Z0.0000
M3S245
G4 P0.5; Tool Off

G0 Z0; move to z-safe height
G0 X748.0000 Y1426.1600
M3S0
G4 P0.5; Tool On
G1 F300 Z0.0000
G1 F15000 X2.0000 Y1426.1600 Z0.0000
M3S245
G4 P0.5; Tool Off

G0 Z0; move to z-safe height
G0 X2.0000 Y1430.1600
M3S0
G4 P0.5; Tool On
G1 F300 Z0.0000
G1 F15000 X748.0000 Y1430.1600 Z0.0000
M3S245
G4 P0.5; Tool Off

G0 Z0; move to z-safe height
G0 X748.0000 Y1434.1600
M3S0
G4 P0.5; Tool On
G1 F300 Z0.0000
G1 F15000 X2.0000 Y1434.1600 Z0.0000
M3S245
G4 P0.5; Tool Off

G0 Z0; move to z-safe height
G0 X2.0000 Y1438.1600
M3S0
G4 P0.5; Tool On
G1 F300 Z0.0000
G1 F15000 X748.0000 Y1438.1600 Z0.0000
M3S245
G4 P0.5; Tool Off

G0 Z0; move to z-safe height
G0 X748.0000 Y1442.1600
M3S0
G4 P0.5; Tool On
G1 F300 Z0.0000
G1 F15000 X2.0000 Y1442.1600 Z0.0000
M3S245
G4 P0.5; Tool Off

G0 Z0; move to z-safe height
G0 X2.0000 Y1446.1600
M3S0
G4 P0.5; Tool On
G1 F300 Z0.0000
G1 F15000 X748.0000 Y1446.1600 Z0.0000
M3S245
G4 P0.5; Tool Off

G0 Z0; move to z-safe height
G0 X748.0000 Y1450.1600
M3S0
G4 P0.5; Tool On
G1 F300 Z0.0000
G1 F15000 X2.0000 Y1450.1600 Z0.0000
M3S245
G4 P0.5; Tool Off

G0 Z0; move to z-safe height
G0 X2.0000 Y1454.1600
M3S0
G4 P0.5; Tool On
G1 F300 Z0.0000
G1 F15000 X748.0000 Y1454.1600 Z0.0000
M3S245
G4 P0.5; Tool Off

G0 Z0; move to z-safe height
G0 X748.0000 Y1458.1600
M3S0
G4 P0.5; Tool On
G1 F300 Z0.0000
G1 F15000 X2.0000 Y1458.1600 Z0.0000
M3S245
G4 P0.5; Tool Off

G0 Z0; move to z-safe height
G0 X2.0000 Y1462.1600
M3S0
G4 P0.5; Tool On
G1 F300 Z0.0000
G1 F15000 X748.0000 Y1462.1600 Z0.0000
M3S245
G4 P0.5; Tool Off

G0 Z0; move to z-safe height
G0 X748.0000 Y1466.1600
M3S0
G4 P0.5; Tool On
G1 F300 Z0.0000
G1 F15000 X2.0000 Y1466.1600 Z0.0000
M3S245
G4 P0.5; Tool Off

G0 Z0; move to z-safe height
G0 X2.0000 Y1470.1600
M3S0
G4 P0.5; Tool On
G1 F300 Z0.0000
G1 F15000 X748.0000 Y1470.1600 Z0.0000
M3S245
G4 P0.5; Tool Off

G0 Z0; move to z-safe height
G0 X748.0000 Y1474.1600
M3S0
G4 P0.5; Tool On
G1 F300 Z0.0000
G1 F15000 X2.0000 Y1474.1600 Z0.0000
M3S245
G4 P0.5; Tool Off

G0 Z0; move to z-safe height
G0 X2.0000 Y1478.1600
M3S0
G4 P0.5; Tool On
G1 F300 Z0.0000
G1 F15000 X748.0000 Y1478.1600 Z0.0000
M3S245
G4 P0.5; Tool Off

G0 Z0; move to z-safe height
G0 X748.0000 Y1482.1600
M3S0
G4 P0.5; Tool On
G1 F300 Z0.0000
G1 F15000 X2.0000 Y1482.1600 Z0.0000
M3S245
G4 P0.5; Tool Off

G0 Z0; move to z-safe height
G0 X2.0000 Y1486.1600
M3S0
G4 P0.5; Tool On
G1 F300 Z0.0000
G1 F15000 X748.0000 Y1486.1600 Z0.0000
M3S245
G4 P0.5; Tool Off

G0 Z0; move to z-safe height
G0 X748.0000 Y1490.1600
M3S0
G4 P0.5; Tool On
G1 F300 Z0.0000
G1 F15000 X2.0000 Y1490.1600 Z0.0000
M3S245
G4 P0.5; Tool Off

G0 Z0; move to z-safe height
G0 X2.0000 Y1494.1600
M3S0
G4 P0.5; Tool On
G1 F300 Z0.0000
G1 F15000 X748.0000 Y1494.1600 Z0.0000
M3S245
G4 P0.5; Tool Off
; retracting back to z-safe
G0 Z0

; Plotter Mode Complete
