; GCODE Generated by cam.openbuilds.com on 2023-11-01 
G21 ; mm-mode
G54; Work Coordinates
G21; mm-mode
G90; Absolute Positioning
; Plotter Mode Active

; Operation 0: Pen Plotter: (lines fill)
; Pen Diameter: 2

G0 Z0; move to z-safe height
G0 F1000 X5.0000 Y8.1800
M3S0
G4 P0.5; Tool On
G1 F300 Z0.0000
G1 F15000 X745.0000 Y8.1800 Z0.0000
M3S245
G4 P0.5; Tool Off

G0 Z0; move to z-safe height
G0 X745.0000 Y18.1800
M3S0
G4 P0.5; Tool On
G1 F300 Z0.0000
G1 F15000 X5.0000 Y18.1800 Z0.0000
M3S245
G4 P0.5; Tool Off

G0 Z0; move to z-safe height
G0 X5.0000 Y28.1800
M3S0
G4 P0.5; Tool On
G1 F300 Z0.0000
G1 F15000 X745.0000 Y28.1800 Z0.0000
M3S245
G4 P0.5; Tool Off

G0 Z0; move to z-safe height
G0 X745.0000 Y38.1800
M3S0
G4 P0.5; Tool On
G1 F300 Z0.0000
G1 F15000 X5.0000 Y38.1800 Z0.0000
M3S245
G4 P0.5; Tool Off

G0 Z0; move to z-safe height
G0 X5.0000 Y48.1800
M3S0
G4 P0.5; Tool On
G1 F300 Z0.0000
G1 F15000 X745.0000 Y48.1800 Z0.0000
M3S245
G4 P0.5; Tool Off

G0 Z0; move to z-safe height
G0 X745.0000 Y58.1800
M3S0
G4 P0.5; Tool On
G1 F300 Z0.0000
G1 F15000 X5.0000 Y58.1800 Z0.0000
M3S245
G4 P0.5; Tool Off

G0 Z0; move to z-safe height
G0 X5.0000 Y68.1800
M3S0
G4 P0.5; Tool On
G1 F300 Z0.0000
G1 F15000 X745.0000 Y68.1800 Z0.0000
M3S245
G4 P0.5; Tool Off

G0 Z0; move to z-safe height
G0 X745.0000 Y78.1800
M3S0
G4 P0.5; Tool On
G1 F300 Z0.0000
G1 F15000 X5.0000 Y78.1800 Z0.0000
M3S245
G4 P0.5; Tool Off

G0 Z0; move to z-safe height
G0 X5.0000 Y88.1800
M3S0
G4 P0.5; Tool On
G1 F300 Z0.0000
G1 F15000 X745.0000 Y88.1800 Z0.0000
M3S245
G4 P0.5; Tool Off

G0 Z0; move to z-safe height
G0 X745.0000 Y98.1800
M3S0
G4 P0.5; Tool On
G1 F300 Z0.0000
G1 F15000 X5.0000 Y98.1800 Z0.0000
M3S245
G4 P0.5; Tool Off

G0 Z0; move to z-safe height
G0 X5.0000 Y108.1800
M3S0
G4 P0.5; Tool On
G1 F300 Z0.0000
G1 F15000 X745.0000 Y108.1800 Z0.0000
M3S245
G4 P0.5; Tool Off

G0 Z0; move to z-safe height
G0 X745.0000 Y118.1800
M3S0
G4 P0.5; Tool On
G1 F300 Z0.0000
G1 F15000 X5.0000 Y118.1800 Z0.0000
M3S245
G4 P0.5; Tool Off

G0 Z0; move to z-safe height
G0 X5.0000 Y128.1800
M3S0
G4 P0.5; Tool On
G1 F300 Z0.0000
G1 F15000 X745.0000 Y128.1800 Z0.0000
M3S245
G4 P0.5; Tool Off

G0 Z0; move to z-safe height
G0 X745.0000 Y138.1800
M3S0
G4 P0.5; Tool On
G1 F300 Z0.0000
G1 F15000 X5.0000 Y138.1800 Z0.0000
M3S245
G4 P0.5; Tool Off

G0 Z0; move to z-safe height
G0 X5.0000 Y148.1800
M3S0
G4 P0.5; Tool On
G1 F300 Z0.0000
G1 F15000 X745.0000 Y148.1800 Z0.0000
M3S245
G4 P0.5; Tool Off

G0 Z0; move to z-safe height
G0 X745.0000 Y158.1800
M3S0
G4 P0.5; Tool On
G1 F300 Z0.0000
G1 F15000 X5.0000 Y158.1800 Z0.0000
M3S245
G4 P0.5; Tool Off

G0 Z0; move to z-safe height
G0 X5.0000 Y168.1800
M3S0
G4 P0.5; Tool On
G1 F300 Z0.0000
G1 F15000 X745.0000 Y168.1800 Z0.0000
M3S245
G4 P0.5; Tool Off

G0 Z0; move to z-safe height
G0 X745.0000 Y178.1800
M3S0
G4 P0.5; Tool On
G1 F300 Z0.0000
G1 F15000 X5.0000 Y178.1800 Z0.0000
M3S245
G4 P0.5; Tool Off

G0 Z0; move to z-safe height
G0 X5.0000 Y188.1800
M3S0
G4 P0.5; Tool On
G1 F300 Z0.0000
G1 F15000 X745.0000 Y188.1800 Z0.0000
M3S245
G4 P0.5; Tool Off

G0 Z0; move to z-safe height
G0 X745.0000 Y198.1800
M3S0
G4 P0.5; Tool On
G1 F300 Z0.0000
G1 F15000 X5.0000 Y198.1800 Z0.0000
M3S245
G4 P0.5; Tool Off

G0 Z0; move to z-safe height
G0 X5.0000 Y208.1800
M3S0
G4 P0.5; Tool On
G1 F300 Z0.0000
G1 F15000 X745.0000 Y208.1800 Z0.0000
M3S245
G4 P0.5; Tool Off

G0 Z0; move to z-safe height
G0 X745.0000 Y218.1800
M3S0
G4 P0.5; Tool On
G1 F300 Z0.0000
G1 F15000 X5.0000 Y218.1800 Z0.0000
M3S245
G4 P0.5; Tool Off

G0 Z0; move to z-safe height
G0 X5.0000 Y228.1800
M3S0
G4 P0.5; Tool On
G1 F300 Z0.0000
G1 F15000 X745.0000 Y228.1800 Z0.0000
M3S245
G4 P0.5; Tool Off

G0 Z0; move to z-safe height
G0 X745.0000 Y238.1800
M3S0
G4 P0.5; Tool On
G1 F300 Z0.0000
G1 F15000 X5.0000 Y238.1800 Z0.0000
M3S245
G4 P0.5; Tool Off

G0 Z0; move to z-safe height
G0 X5.0000 Y248.1800
M3S0
G4 P0.5; Tool On
G1 F300 Z0.0000
G1 F15000 X745.0000 Y248.1800 Z0.0000
M3S245
G4 P0.5; Tool Off

G0 Z0; move to z-safe height
G0 X745.0000 Y258.1800
M3S0
G4 P0.5; Tool On
G1 F300 Z0.0000
G1 F15000 X5.0000 Y258.1800 Z0.0000
M3S245
G4 P0.5; Tool Off

G0 Z0; move to z-safe height
G0 X5.0000 Y268.1800
M3S0
G4 P0.5; Tool On
G1 F300 Z0.0000
G1 F15000 X745.0000 Y268.1800 Z0.0000
M3S245
G4 P0.5; Tool Off

G0 Z0; move to z-safe height
G0 X745.0000 Y278.1800
M3S0
G4 P0.5; Tool On
G1 F300 Z0.0000
G1 F15000 X5.0000 Y278.1800 Z0.0000
M3S245
G4 P0.5; Tool Off

G0 Z0; move to z-safe height
G0 X5.0000 Y288.1800
M3S0
G4 P0.5; Tool On
G1 F300 Z0.0000
G1 F15000 X745.0000 Y288.1800 Z0.0000
M3S245
G4 P0.5; Tool Off

G0 Z0; move to z-safe height
G0 X745.0000 Y298.1800
M3S0
G4 P0.5; Tool On
G1 F300 Z0.0000
G1 F15000 X5.0000 Y298.1800 Z0.0000
M3S245
G4 P0.5; Tool Off

G0 Z0; move to z-safe height
G0 X5.0000 Y308.1800
M3S0
G4 P0.5; Tool On
G1 F300 Z0.0000
G1 F15000 X745.0000 Y308.1800 Z0.0000
M3S245
G4 P0.5; Tool Off

G0 Z0; move to z-safe height
G0 X745.0000 Y318.1800
M3S0
G4 P0.5; Tool On
G1 F300 Z0.0000
G1 F15000 X5.0000 Y318.1800 Z0.0000
M3S245
G4 P0.5; Tool Off

G0 Z0; move to z-safe height
G0 X5.0000 Y328.1800
M3S0
G4 P0.5; Tool On
G1 F300 Z0.0000
G1 F15000 X745.0000 Y328.1800 Z0.0000
M3S245
G4 P0.5; Tool Off

G0 Z0; move to z-safe height
G0 X745.0000 Y338.1800
M3S0
G4 P0.5; Tool On
G1 F300 Z0.0000
G1 F15000 X5.0000 Y338.1800 Z0.0000
M3S245
G4 P0.5; Tool Off

G0 Z0; move to z-safe height
G0 X5.0000 Y348.1800
M3S0
G4 P0.5; Tool On
G1 F300 Z0.0000
G1 F15000 X745.0000 Y348.1800 Z0.0000
M3S245
G4 P0.5; Tool Off

G0 Z0; move to z-safe height
G0 X745.0000 Y358.1800
M3S0
G4 P0.5; Tool On
G1 F300 Z0.0000
G1 F15000 X5.0000 Y358.1800 Z0.0000
M3S245
G4 P0.5; Tool Off

G0 Z0; move to z-safe height
G0 X5.0000 Y368.1800
M3S0
G4 P0.5; Tool On
G1 F300 Z0.0000
G1 F15000 X745.0000 Y368.1800 Z0.0000
M3S245
G4 P0.5; Tool Off

G0 Z0; move to z-safe height
G0 X745.0000 Y378.1800
M3S0
G4 P0.5; Tool On
G1 F300 Z0.0000
G1 F15000 X5.0000 Y378.1800 Z0.0000
M3S245
G4 P0.5; Tool Off

G0 Z0; move to z-safe height
G0 X5.0000 Y388.1800
M3S0
G4 P0.5; Tool On
G1 F300 Z0.0000
G1 F15000 X745.0000 Y388.1800 Z0.0000
M3S245
G4 P0.5; Tool Off

G0 Z0; move to z-safe height
G0 X745.0000 Y398.1800
M3S0
G4 P0.5; Tool On
G1 F300 Z0.0000
G1 F15000 X5.0000 Y398.1800 Z0.0000
M3S245
G4 P0.5; Tool Off

G0 Z0; move to z-safe height
G0 X5.0000 Y408.1800
M3S0
G4 P0.5; Tool On
G1 F300 Z0.0000
G1 F15000 X745.0000 Y408.1800 Z0.0000
M3S245
G4 P0.5; Tool Off

G0 Z0; move to z-safe height
G0 X745.0000 Y418.1800
M3S0
G4 P0.5; Tool On
G1 F300 Z0.0000
G1 F15000 X5.0000 Y418.1800 Z0.0000
M3S245
G4 P0.5; Tool Off

G0 Z0; move to z-safe height
G0 X5.0000 Y428.1800
M3S0
G4 P0.5; Tool On
G1 F300 Z0.0000
G1 F15000 X745.0000 Y428.1800 Z0.0000
M3S245
G4 P0.5; Tool Off

G0 Z0; move to z-safe height
G0 X745.0000 Y438.1800
M3S0
G4 P0.5; Tool On
G1 F300 Z0.0000
G1 F15000 X5.0000 Y438.1800 Z0.0000
M3S245
G4 P0.5; Tool Off

G0 Z0; move to z-safe height
G0 X5.0000 Y448.1800
M3S0
G4 P0.5; Tool On
G1 F300 Z0.0000
G1 F15000 X745.0000 Y448.1800 Z0.0000
M3S245
G4 P0.5; Tool Off

G0 Z0; move to z-safe height
G0 X745.0000 Y458.1800
M3S0
G4 P0.5; Tool On
G1 F300 Z0.0000
G1 F15000 X5.0000 Y458.1800 Z0.0000
M3S245
G4 P0.5; Tool Off

G0 Z0; move to z-safe height
G0 X5.0000 Y468.1800
M3S0
G4 P0.5; Tool On
G1 F300 Z0.0000
G1 F15000 X745.0000 Y468.1800 Z0.0000
M3S245
G4 P0.5; Tool Off

G0 Z0; move to z-safe height
G0 X745.0000 Y478.1800
M3S0
G4 P0.5; Tool On
G1 F300 Z0.0000
G1 F15000 X5.0000 Y478.1800 Z0.0000
M3S245
G4 P0.5; Tool Off

G0 Z0; move to z-safe height
G0 X5.0000 Y488.1800
M3S0
G4 P0.5; Tool On
G1 F300 Z0.0000
G1 F15000 X745.0000 Y488.1800 Z0.0000
M3S245
G4 P0.5; Tool Off

G0 Z0; move to z-safe height
G0 X745.0000 Y498.1800
M3S0
G4 P0.5; Tool On
G1 F300 Z0.0000
G1 F15000 X5.0000 Y498.1800 Z0.0000
M3S245
G4 P0.5; Tool Off

G0 Z0; move to z-safe height
G0 X5.0000 Y508.1800
M3S0
G4 P0.5; Tool On
G1 F300 Z0.0000
G1 F15000 X745.0000 Y508.1800 Z0.0000
M3S245
G4 P0.5; Tool Off

G0 Z0; move to z-safe height
G0 X745.0000 Y518.1800
M3S0
G4 P0.5; Tool On
G1 F300 Z0.0000
G1 F15000 X5.0000 Y518.1800 Z0.0000
M3S245
G4 P0.5; Tool Off

G0 Z0; move to z-safe height
G0 X5.0000 Y528.1800
M3S0
G4 P0.5; Tool On
G1 F300 Z0.0000
G1 F15000 X745.0000 Y528.1800 Z0.0000
M3S245
G4 P0.5; Tool Off

G0 Z0; move to z-safe height
G0 X745.0000 Y538.1800
M3S0
G4 P0.5; Tool On
G1 F300 Z0.0000
G1 F15000 X5.0000 Y538.1800 Z0.0000
M3S245
G4 P0.5; Tool Off

G0 Z0; move to z-safe height
G0 X5.0000 Y548.1800
M3S0
G4 P0.5; Tool On
G1 F300 Z0.0000
G1 F15000 X745.0000 Y548.1800 Z0.0000
M3S245
G4 P0.5; Tool Off

G0 Z0; move to z-safe height
G0 X745.0000 Y558.1800
M3S0
G4 P0.5; Tool On
G1 F300 Z0.0000
G1 F15000 X5.0000 Y558.1800 Z0.0000
M3S245
G4 P0.5; Tool Off

G0 Z0; move to z-safe height
G0 X5.0000 Y568.1800
M3S0
G4 P0.5; Tool On
G1 F300 Z0.0000
G1 F15000 X745.0000 Y568.1800 Z0.0000
M3S245
G4 P0.5; Tool Off

G0 Z0; move to z-safe height
G0 X745.0000 Y578.1800
M3S0
G4 P0.5; Tool On
G1 F300 Z0.0000
G1 F15000 X5.0000 Y578.1800 Z0.0000
M3S245
G4 P0.5; Tool Off

G0 Z0; move to z-safe height
G0 X5.0000 Y588.1800
M3S0
G4 P0.5; Tool On
G1 F300 Z0.0000
G1 F15000 X745.0000 Y588.1800 Z0.0000
M3S245
G4 P0.5; Tool Off

G0 Z0; move to z-safe height
G0 X745.0000 Y598.1800
M3S0
G4 P0.5; Tool On
G1 F300 Z0.0000
G1 F15000 X5.0000 Y598.1800 Z0.0000
M3S245
G4 P0.5; Tool Off

G0 Z0; move to z-safe height
G0 X5.0000 Y608.1800
M3S0
G4 P0.5; Tool On
G1 F300 Z0.0000
G1 F15000 X745.0000 Y608.1800 Z0.0000
M3S245
G4 P0.5; Tool Off

G0 Z0; move to z-safe height
G0 X745.0000 Y618.1800
M3S0
G4 P0.5; Tool On
G1 F300 Z0.0000
G1 F15000 X5.0000 Y618.1800 Z0.0000
M3S245
G4 P0.5; Tool Off

G0 Z0; move to z-safe height
G0 X5.0000 Y628.1800
M3S0
G4 P0.5; Tool On
G1 F300 Z0.0000
G1 F15000 X745.0000 Y628.1800 Z0.0000
M3S245
G4 P0.5; Tool Off

G0 Z0; move to z-safe height
G0 X745.0000 Y638.1800
M3S0
G4 P0.5; Tool On
G1 F300 Z0.0000
G1 F15000 X5.0000 Y638.1800 Z0.0000
M3S245
G4 P0.5; Tool Off

G0 Z0; move to z-safe height
G0 X5.0000 Y648.1800
M3S0
G4 P0.5; Tool On
G1 F300 Z0.0000
G1 F15000 X745.0000 Y648.1800 Z0.0000
M3S245
G4 P0.5; Tool Off

G0 Z0; move to z-safe height
G0 X745.0000 Y658.1800
M3S0
G4 P0.5; Tool On
G1 F300 Z0.0000
G1 F15000 X5.0000 Y658.1800 Z0.0000
M3S245
G4 P0.5; Tool Off

G0 Z0; move to z-safe height
G0 X5.0000 Y668.1800
M3S0
G4 P0.5; Tool On
G1 F300 Z0.0000
G1 F15000 X745.0000 Y668.1800 Z0.0000
M3S245
G4 P0.5; Tool Off

G0 Z0; move to z-safe height
G0 X745.0000 Y678.1800
M3S0
G4 P0.5; Tool On
G1 F300 Z0.0000
G1 F15000 X5.0000 Y678.1800 Z0.0000
M3S245
G4 P0.5; Tool Off

G0 Z0; move to z-safe height
G0 X5.0000 Y688.1800
M3S0
G4 P0.5; Tool On
G1 F300 Z0.0000
G1 F15000 X745.0000 Y688.1800 Z0.0000
M3S245
G4 P0.5; Tool Off

G0 Z0; move to z-safe height
G0 X745.0000 Y698.1800
M3S0
G4 P0.5; Tool On
G1 F300 Z0.0000
G1 F15000 X5.0000 Y698.1800 Z0.0000
M3S245
G4 P0.5; Tool Off

G0 Z0; move to z-safe height
G0 X5.0000 Y708.1800
M3S0
G4 P0.5; Tool On
G1 F300 Z0.0000
G1 F15000 X745.0000 Y708.1800 Z0.0000
M3S245
G4 P0.5; Tool Off

G0 Z0; move to z-safe height
G0 X745.0000 Y718.1800
M3S0
G4 P0.5; Tool On
G1 F300 Z0.0000
G1 F15000 X5.0000 Y718.1800 Z0.0000
M3S245
G4 P0.5; Tool Off

G0 Z0; move to z-safe height
G0 X5.0000 Y728.1800
M3S0
G4 P0.5; Tool On
G1 F300 Z0.0000
G1 F15000 X745.0000 Y728.1800 Z0.0000
M3S245
G4 P0.5; Tool Off

G0 Z0; move to z-safe height
G0 X745.0000 Y738.1800
M3S0
G4 P0.5; Tool On
G1 F300 Z0.0000
G1 F15000 X5.0000 Y738.1800 Z0.0000
M3S245
G4 P0.5; Tool Off

G0 Z0; move to z-safe height
G0 X5.0000 Y748.1800
M3S0
G4 P0.5; Tool On
G1 F300 Z0.0000
G1 F15000 X745.0000 Y748.1800 Z0.0000
M3S245
G4 P0.5; Tool Off

G0 Z0; move to z-safe height
G0 X745.0000 Y758.1800
M3S0
G4 P0.5; Tool On
G1 F300 Z0.0000
G1 F15000 X5.0000 Y758.1800 Z0.0000
M3S245
G4 P0.5; Tool Off

G0 Z0; move to z-safe height
G0 X5.0000 Y768.1800
M3S0
G4 P0.5; Tool On
G1 F300 Z0.0000
G1 F15000 X745.0000 Y768.1800 Z0.0000
M3S245
G4 P0.5; Tool Off

G0 Z0; move to z-safe height
G0 X745.0000 Y778.1800
M3S0
G4 P0.5; Tool On
G1 F300 Z0.0000
G1 F15000 X5.0000 Y778.1800 Z0.0000
M3S245
G4 P0.5; Tool Off

G0 Z0; move to z-safe height
G0 X5.0000 Y788.1800
M3S0
G4 P0.5; Tool On
G1 F300 Z0.0000
G1 F15000 X745.0000 Y788.1800 Z0.0000
M3S245
G4 P0.5; Tool Off

G0 Z0; move to z-safe height
G0 X745.0000 Y798.1800
M3S0
G4 P0.5; Tool On
G1 F300 Z0.0000
G1 F15000 X5.0000 Y798.1800 Z0.0000
M3S245
G4 P0.5; Tool Off

G0 Z0; move to z-safe height
G0 X5.0000 Y808.1800
M3S0
G4 P0.5; Tool On
G1 F300 Z0.0000
G1 F15000 X745.0000 Y808.1800 Z0.0000
M3S245
G4 P0.5; Tool Off

G0 Z0; move to z-safe height
G0 X745.0000 Y818.1800
M3S0
G4 P0.5; Tool On
G1 F300 Z0.0000
G1 F15000 X5.0000 Y818.1800 Z0.0000
M3S245
G4 P0.5; Tool Off

G0 Z0; move to z-safe height
G0 X5.0000 Y828.1800
M3S0
G4 P0.5; Tool On
G1 F300 Z0.0000
G1 F15000 X745.0000 Y828.1800 Z0.0000
M3S245
G4 P0.5; Tool Off

G0 Z0; move to z-safe height
G0 X745.0000 Y838.1800
M3S0
G4 P0.5; Tool On
G1 F300 Z0.0000
G1 F15000 X5.0000 Y838.1800 Z0.0000
M3S245
G4 P0.5; Tool Off

G0 Z0; move to z-safe height
G0 X5.0000 Y848.1800
M3S0
G4 P0.5; Tool On
G1 F300 Z0.0000
G1 F15000 X745.0000 Y848.1800 Z0.0000
M3S245
G4 P0.5; Tool Off

G0 Z0; move to z-safe height
G0 X745.0000 Y858.1800
M3S0
G4 P0.5; Tool On
G1 F300 Z0.0000
G1 F15000 X5.0000 Y858.1800 Z0.0000
M3S245
G4 P0.5; Tool Off

G0 Z0; move to z-safe height
G0 X5.0000 Y868.1800
M3S0
G4 P0.5; Tool On
G1 F300 Z0.0000
G1 F15000 X745.0000 Y868.1800 Z0.0000
M3S245
G4 P0.5; Tool Off

G0 Z0; move to z-safe height
G0 X745.0000 Y878.1800
M3S0
G4 P0.5; Tool On
G1 F300 Z0.0000
G1 F15000 X5.0000 Y878.1800 Z0.0000
M3S245
G4 P0.5; Tool Off

G0 Z0; move to z-safe height
G0 X5.0000 Y888.1800
M3S0
G4 P0.5; Tool On
G1 F300 Z0.0000
G1 F15000 X745.0000 Y888.1800 Z0.0000
M3S245
G4 P0.5; Tool Off

G0 Z0; move to z-safe height
G0 X745.0000 Y898.1800
M3S0
G4 P0.5; Tool On
G1 F300 Z0.0000
G1 F15000 X5.0000 Y898.1800 Z0.0000
M3S245
G4 P0.5; Tool Off

G0 Z0; move to z-safe height
G0 X5.0000 Y908.1800
M3S0
G4 P0.5; Tool On
G1 F300 Z0.0000
G1 F15000 X745.0000 Y908.1800 Z0.0000
M3S245
G4 P0.5; Tool Off

G0 Z0; move to z-safe height
G0 X745.0000 Y918.1800
M3S0
G4 P0.5; Tool On
G1 F300 Z0.0000
G1 F15000 X5.0000 Y918.1800 Z0.0000
M3S245
G4 P0.5; Tool Off

G0 Z0; move to z-safe height
G0 X5.0000 Y928.1800
M3S0
G4 P0.5; Tool On
G1 F300 Z0.0000
G1 F15000 X745.0000 Y928.1800 Z0.0000
M3S245
G4 P0.5; Tool Off

G0 Z0; move to z-safe height
G0 X745.0000 Y938.1800
M3S0
G4 P0.5; Tool On
G1 F300 Z0.0000
G1 F15000 X5.0000 Y938.1800 Z0.0000
M3S245
G4 P0.5; Tool Off

G0 Z0; move to z-safe height
G0 X5.0000 Y948.1800
M3S0
G4 P0.5; Tool On
G1 F300 Z0.0000
G1 F15000 X745.0000 Y948.1800 Z0.0000
M3S245
G4 P0.5; Tool Off

G0 Z0; move to z-safe height
G0 X745.0000 Y958.1800
M3S0
G4 P0.5; Tool On
G1 F300 Z0.0000
G1 F15000 X5.0000 Y958.1800 Z0.0000
M3S245
G4 P0.5; Tool Off

G0 Z0; move to z-safe height
G0 X5.0000 Y968.1800
M3S0
G4 P0.5; Tool On
G1 F300 Z0.0000
G1 F15000 X745.0000 Y968.1800 Z0.0000
M3S245
G4 P0.5; Tool Off

G0 Z0; move to z-safe height
G0 X745.0000 Y978.1800
M3S0
G4 P0.5; Tool On
G1 F300 Z0.0000
G1 F15000 X5.0000 Y978.1800 Z0.0000
M3S245
G4 P0.5; Tool Off

G0 Z0; move to z-safe height
G0 X5.0000 Y988.1800
M3S0
G4 P0.5; Tool On
G1 F300 Z0.0000
G1 F15000 X745.0000 Y988.1800 Z0.0000
M3S245
G4 P0.5; Tool Off

G0 Z0; move to z-safe height
G0 X745.0000 Y998.1800
M3S0
G4 P0.5; Tool On
G1 F300 Z0.0000
G1 F15000 X5.0000 Y998.1800 Z0.0000
M3S245
G4 P0.5; Tool Off

G0 Z0; move to z-safe height
G0 X5.0000 Y1008.1800
M3S0
G4 P0.5; Tool On
G1 F300 Z0.0000
G1 F15000 X745.0000 Y1008.1800 Z0.0000
M3S245
G4 P0.5; Tool Off

G0 Z0; move to z-safe height
G0 X745.0000 Y1018.1800
M3S0
G4 P0.5; Tool On
G1 F300 Z0.0000
G1 F15000 X5.0000 Y1018.1800 Z0.0000
M3S245
G4 P0.5; Tool Off

G0 Z0; move to z-safe height
G0 X5.0000 Y1028.1800
M3S0
G4 P0.5; Tool On
G1 F300 Z0.0000
G1 F15000 X745.0000 Y1028.1800 Z0.0000
M3S245
G4 P0.5; Tool Off

G0 Z0; move to z-safe height
G0 X745.0000 Y1038.1800
M3S0
G4 P0.5; Tool On
G1 F300 Z0.0000
G1 F15000 X5.0000 Y1038.1800 Z0.0000
M3S245
G4 P0.5; Tool Off

G0 Z0; move to z-safe height
G0 X5.0000 Y1048.1800
M3S0
G4 P0.5; Tool On
G1 F300 Z0.0000
G1 F15000 X745.0000 Y1048.1800 Z0.0000
M3S245
G4 P0.5; Tool Off

G0 Z0; move to z-safe height
G0 X745.0000 Y1058.1800
M3S0
G4 P0.5; Tool On
G1 F300 Z0.0000
G1 F15000 X5.0000 Y1058.1800 Z0.0000
M3S245
G4 P0.5; Tool Off

G0 Z0; move to z-safe height
G0 X5.0000 Y1068.1800
M3S0
G4 P0.5; Tool On
G1 F300 Z0.0000
G1 F15000 X745.0000 Y1068.1800 Z0.0000
M3S245
G4 P0.5; Tool Off

G0 Z0; move to z-safe height
G0 X745.0000 Y1078.1800
M3S0
G4 P0.5; Tool On
G1 F300 Z0.0000
G1 F15000 X5.0000 Y1078.1800 Z0.0000
M3S245
G4 P0.5; Tool Off

G0 Z0; move to z-safe height
G0 X5.0000 Y1088.1800
M3S0
G4 P0.5; Tool On
G1 F300 Z0.0000
G1 F15000 X745.0000 Y1088.1800 Z0.0000
M3S245
G4 P0.5; Tool Off

G0 Z0; move to z-safe height
G0 X745.0000 Y1098.1800
M3S0
G4 P0.5; Tool On
G1 F300 Z0.0000
G1 F15000 X5.0000 Y1098.1800 Z0.0000
M3S245
G4 P0.5; Tool Off

G0 Z0; move to z-safe height
G0 X5.0000 Y1108.1800
M3S0
G4 P0.5; Tool On
G1 F300 Z0.0000
G1 F15000 X745.0000 Y1108.1800 Z0.0000
M3S245
G4 P0.5; Tool Off

G0 Z0; move to z-safe height
G0 X745.0000 Y1118.1800
M3S0
G4 P0.5; Tool On
G1 F300 Z0.0000
G1 F15000 X5.0000 Y1118.1800 Z0.0000
M3S245
G4 P0.5; Tool Off

G0 Z0; move to z-safe height
G0 X5.0000 Y1128.1800
M3S0
G4 P0.5; Tool On
G1 F300 Z0.0000
G1 F15000 X745.0000 Y1128.1800 Z0.0000
M3S245
G4 P0.5; Tool Off

G0 Z0; move to z-safe height
G0 X745.0000 Y1138.1800
M3S0
G4 P0.5; Tool On
G1 F300 Z0.0000
G1 F15000 X5.0000 Y1138.1800 Z0.0000
M3S245
G4 P0.5; Tool Off

G0 Z0; move to z-safe height
G0 X5.0000 Y1148.1800
M3S0
G4 P0.5; Tool On
G1 F300 Z0.0000
G1 F15000 X745.0000 Y1148.1800 Z0.0000
M3S245
G4 P0.5; Tool Off

G0 Z0; move to z-safe height
G0 X745.0000 Y1158.1800
M3S0
G4 P0.5; Tool On
G1 F300 Z0.0000
G1 F15000 X5.0000 Y1158.1800 Z0.0000
M3S245
G4 P0.5; Tool Off

G0 Z0; move to z-safe height
G0 X5.0000 Y1168.1800
M3S0
G4 P0.5; Tool On
G1 F300 Z0.0000
G1 F15000 X745.0000 Y1168.1800 Z0.0000
M3S245
G4 P0.5; Tool Off

G0 Z0; move to z-safe height
G0 X745.0000 Y1178.1800
M3S0
G4 P0.5; Tool On
G1 F300 Z0.0000
G1 F15000 X5.0000 Y1178.1800 Z0.0000
M3S245
G4 P0.5; Tool Off

G0 Z0; move to z-safe height
G0 X5.0000 Y1188.1800
M3S0
G4 P0.5; Tool On
G1 F300 Z0.0000
G1 F15000 X745.0000 Y1188.1800 Z0.0000
M3S245
G4 P0.5; Tool Off

G0 Z0; move to z-safe height
G0 X745.0000 Y1198.1800
M3S0
G4 P0.5; Tool On
G1 F300 Z0.0000
G1 F15000 X5.0000 Y1198.1800 Z0.0000
M3S245
G4 P0.5; Tool Off

G0 Z0; move to z-safe height
G0 X5.0000 Y1208.1800
M3S0
G4 P0.5; Tool On
G1 F300 Z0.0000
G1 F15000 X745.0000 Y1208.1800 Z0.0000
M3S245
G4 P0.5; Tool Off

G0 Z0; move to z-safe height
G0 X745.0000 Y1218.1800
M3S0
G4 P0.5; Tool On
G1 F300 Z0.0000
G1 F15000 X5.0000 Y1218.1800 Z0.0000
M3S245
G4 P0.5; Tool Off

G0 Z0; move to z-safe height
G0 X5.0000 Y1228.1800
M3S0
G4 P0.5; Tool On
G1 F300 Z0.0000
G1 F15000 X745.0000 Y1228.1800 Z0.0000
M3S245
G4 P0.5; Tool Off

G0 Z0; move to z-safe height
G0 X745.0000 Y1238.1800
M3S0
G4 P0.5; Tool On
G1 F300 Z0.0000
G1 F15000 X5.0000 Y1238.1800 Z0.0000
M3S245
G4 P0.5; Tool Off

G0 Z0; move to z-safe height
G0 X5.0000 Y1248.1800
M3S0
G4 P0.5; Tool On
G1 F300 Z0.0000
G1 F15000 X745.0000 Y1248.1800 Z0.0000
M3S245
G4 P0.5; Tool Off

G0 Z0; move to z-safe height
G0 X745.0000 Y1258.1800
M3S0
G4 P0.5; Tool On
G1 F300 Z0.0000
G1 F15000 X5.0000 Y1258.1800 Z0.0000
M3S245
G4 P0.5; Tool Off

G0 Z0; move to z-safe height
G0 X5.0000 Y1268.1800
M3S0
G4 P0.5; Tool On
G1 F300 Z0.0000
G1 F15000 X745.0000 Y1268.1800 Z0.0000
M3S245
G4 P0.5; Tool Off

G0 Z0; move to z-safe height
G0 X745.0000 Y1278.1800
M3S0
G4 P0.5; Tool On
G1 F300 Z0.0000
G1 F15000 X5.0000 Y1278.1800 Z0.0000
M3S245
G4 P0.5; Tool Off

G0 Z0; move to z-safe height
G0 X5.0000 Y1288.1800
M3S0
G4 P0.5; Tool On
G1 F300 Z0.0000
G1 F15000 X745.0000 Y1288.1800 Z0.0000
M3S245
G4 P0.5; Tool Off

G0 Z0; move to z-safe height
G0 X745.0000 Y1298.1800
M3S0
G4 P0.5; Tool On
G1 F300 Z0.0000
G1 F15000 X5.0000 Y1298.1800 Z0.0000
M3S245
G4 P0.5; Tool Off

G0 Z0; move to z-safe height
G0 X5.0000 Y1308.1800
M3S0
G4 P0.5; Tool On
G1 F300 Z0.0000
G1 F15000 X745.0000 Y1308.1800 Z0.0000
M3S245
G4 P0.5; Tool Off

G0 Z0; move to z-safe height
G0 X745.0000 Y1318.1800
M3S0
G4 P0.5; Tool On
G1 F300 Z0.0000
G1 F15000 X5.0000 Y1318.1800 Z0.0000
M3S245
G4 P0.5; Tool Off

G0 Z0; move to z-safe height
G0 X5.0000 Y1328.1800
M3S0
G4 P0.5; Tool On
G1 F300 Z0.0000
G1 F15000 X745.0000 Y1328.1800 Z0.0000
M3S245
G4 P0.5; Tool Off

G0 Z0; move to z-safe height
G0 X745.0000 Y1338.1800
M3S0
G4 P0.5; Tool On
G1 F300 Z0.0000
G1 F15000 X5.0000 Y1338.1800 Z0.0000
M3S245
G4 P0.5; Tool Off

G0 Z0; move to z-safe height
G0 X5.0000 Y1348.1800
M3S0
G4 P0.5; Tool On
G1 F300 Z0.0000
G1 F15000 X745.0000 Y1348.1800 Z0.0000
M3S245
G4 P0.5; Tool Off

G0 Z0; move to z-safe height
G0 X745.0000 Y1358.1800
M3S0
G4 P0.5; Tool On
G1 F300 Z0.0000
G1 F15000 X5.0000 Y1358.1800 Z0.0000
M3S245
G4 P0.5; Tool Off

G0 Z0; move to z-safe height
G0 X5.0000 Y1368.1800
M3S0
G4 P0.5; Tool On
G1 F300 Z0.0000
G1 F15000 X745.0000 Y1368.1800 Z0.0000
M3S245
G4 P0.5; Tool Off

G0 Z0; move to z-safe height
G0 X745.0000 Y1378.1800
M3S0
G4 P0.5; Tool On
G1 F300 Z0.0000
G1 F15000 X5.0000 Y1378.1800 Z0.0000
M3S245
G4 P0.5; Tool Off

G0 Z0; move to z-safe height
G0 X5.0000 Y1388.1800
M3S0
G4 P0.5; Tool On
G1 F300 Z0.0000
G1 F15000 X745.0000 Y1388.1800 Z0.0000
M3S245
G4 P0.5; Tool Off

G0 Z0; move to z-safe height
G0 X745.0000 Y1398.1800
M3S0
G4 P0.5; Tool On
G1 F300 Z0.0000
G1 F15000 X5.0000 Y1398.1800 Z0.0000
M3S245
G4 P0.5; Tool Off

G0 Z0; move to z-safe height
G0 X5.0000 Y1408.1800
M3S0
G4 P0.5; Tool On
G1 F300 Z0.0000
G1 F15000 X745.0000 Y1408.1800 Z0.0000
M3S245
G4 P0.5; Tool Off

G0 Z0; move to z-safe height
G0 X745.0000 Y1418.1800
M3S0
G4 P0.5; Tool On
G1 F300 Z0.0000
G1 F15000 X5.0000 Y1418.1800 Z0.0000
M3S245
G4 P0.5; Tool Off

G0 Z0; move to z-safe height
G0 X5.0000 Y1428.1800
M3S0
G4 P0.5; Tool On
G1 F300 Z0.0000
G1 F15000 X745.0000 Y1428.1800 Z0.0000
M3S245
G4 P0.5; Tool Off

G0 Z0; move to z-safe height
G0 X745.0000 Y1438.1800
M3S0
G4 P0.5; Tool On
G1 F300 Z0.0000
G1 F15000 X5.0000 Y1438.1800 Z0.0000
M3S245
G4 P0.5; Tool Off

G0 Z0; move to z-safe height
G0 X5.0000 Y1448.1800
M3S0
G4 P0.5; Tool On
G1 F300 Z0.0000
G1 F15000 X745.0000 Y1448.1800 Z0.0000
M3S245
G4 P0.5; Tool Off

G0 Z0; move to z-safe height
G0 X745.0000 Y1458.1800
M3S0
G4 P0.5; Tool On
G1 F300 Z0.0000
G1 F15000 X5.0000 Y1458.1800 Z0.0000
M3S245
G4 P0.5; Tool Off

G0 Z0; move to z-safe height
G0 X5.0000 Y1468.1800
M3S0
G4 P0.5; Tool On
G1 F300 Z0.0000
G1 F15000 X745.0000 Y1468.1800 Z0.0000
M3S245
G4 P0.5; Tool Off

G0 Z0; move to z-safe height
G0 X745.0000 Y1478.1800
M3S0
G4 P0.5; Tool On
G1 F300 Z0.0000
G1 F15000 X5.0000 Y1478.1800 Z0.0000
M3S245
G4 P0.5; Tool Off

G0 Z0; move to z-safe height
G0 X5.0000 Y1488.1800
M3S0
G4 P0.5; Tool On
G1 F300 Z0.0000
G1 F15000 X745.0000 Y1488.1800 Z0.0000
M3S245
G4 P0.5; Tool Off
; retracting back to z-safe
G0 Z0

; Plotter Mode Complete
