; GCODE Generated by cam.openbuilds.com on 2023-11-01 
G21 ; mm-mode
G54; Work Coordinates
G21; mm-mode
G90; Absolute Positioning
; Plotter Mode Active

; Operation 0: Pen Plotter: (lines fill)
; Pen Diameter: 2

G0 Z0; move to z-safe height
G0 F1000 X3.0000 Y5.5000
M3S0
G4 P0.5; Tool On
G1 F300 Z0.0000
G1 F15000 X747.0000 Y5.5000 Z0.0000
M3S245
G4 P0.5; Tool Off

G0 Z0; move to z-safe height
G0 X747.0000 Y11.5000
M3S0
G4 P0.5; Tool On
G1 F300 Z0.0000
G1 F15000 X3.0000 Y11.5000 Z0.0000
M3S245
G4 P0.5; Tool Off

G0 Z0; move to z-safe height
G0 X3.0000 Y17.5000
M3S0
G4 P0.5; Tool On
G1 F300 Z0.0000
G1 F15000 X747.0000 Y17.5000 Z0.0000
M3S245
G4 P0.5; Tool Off

G0 Z0; move to z-safe height
G0 X747.0000 Y23.5000
M3S0
G4 P0.5; Tool On
G1 F300 Z0.0000
G1 F15000 X3.0000 Y23.5000 Z0.0000
M3S245
G4 P0.5; Tool Off

G0 Z0; move to z-safe height
G0 X3.0000 Y29.5000
M3S0
G4 P0.5; Tool On
G1 F300 Z0.0000
G1 F15000 X747.0000 Y29.5000 Z0.0000
M3S245
G4 P0.5; Tool Off

G0 Z0; move to z-safe height
G0 X747.0000 Y35.5000
M3S0
G4 P0.5; Tool On
G1 F300 Z0.0000
G1 F15000 X3.0000 Y35.5000 Z0.0000
M3S245
G4 P0.5; Tool Off

G0 Z0; move to z-safe height
G0 X3.0000 Y41.5000
M3S0
G4 P0.5; Tool On
G1 F300 Z0.0000
G1 F15000 X747.0000 Y41.5000 Z0.0000
M3S245
G4 P0.5; Tool Off

G0 Z0; move to z-safe height
G0 X747.0000 Y47.5000
M3S0
G4 P0.5; Tool On
G1 F300 Z0.0000
G1 F15000 X3.0000 Y47.5000 Z0.0000
M3S245
G4 P0.5; Tool Off

G0 Z0; move to z-safe height
G0 X3.0000 Y53.5000
M3S0
G4 P0.5; Tool On
G1 F300 Z0.0000
G1 F15000 X747.0000 Y53.5000 Z0.0000
M3S245
G4 P0.5; Tool Off

G0 Z0; move to z-safe height
G0 X747.0000 Y59.5000
M3S0
G4 P0.5; Tool On
G1 F300 Z0.0000
G1 F15000 X3.0000 Y59.5000 Z0.0000
M3S245
G4 P0.5; Tool Off

G0 Z0; move to z-safe height
G0 X3.0000 Y65.5000
M3S0
G4 P0.5; Tool On
G1 F300 Z0.0000
G1 F15000 X747.0000 Y65.5000 Z0.0000
M3S245
G4 P0.5; Tool Off

G0 Z0; move to z-safe height
G0 X747.0000 Y71.5000
M3S0
G4 P0.5; Tool On
G1 F300 Z0.0000
G1 F15000 X3.0000 Y71.5000 Z0.0000
M3S245
G4 P0.5; Tool Off

G0 Z0; move to z-safe height
G0 X3.0000 Y77.5000
M3S0
G4 P0.5; Tool On
G1 F300 Z0.0000
G1 F15000 X747.0000 Y77.5000 Z0.0000
M3S245
G4 P0.5; Tool Off

G0 Z0; move to z-safe height
G0 X747.0000 Y83.5000
M3S0
G4 P0.5; Tool On
G1 F300 Z0.0000
G1 F15000 X3.0000 Y83.5000 Z0.0000
M3S245
G4 P0.5; Tool Off

G0 Z0; move to z-safe height
G0 X3.0000 Y89.5000
M3S0
G4 P0.5; Tool On
G1 F300 Z0.0000
G1 F15000 X747.0000 Y89.5000 Z0.0000
M3S245
G4 P0.5; Tool Off

G0 Z0; move to z-safe height
G0 X747.0000 Y95.5000
M3S0
G4 P0.5; Tool On
G1 F300 Z0.0000
G1 F15000 X3.0000 Y95.5000 Z0.0000
M3S245
G4 P0.5; Tool Off

G0 Z0; move to z-safe height
G0 X3.0000 Y101.5000
M3S0
G4 P0.5; Tool On
G1 F300 Z0.0000
G1 F15000 X747.0000 Y101.5000 Z0.0000
M3S245
G4 P0.5; Tool Off

G0 Z0; move to z-safe height
G0 X747.0000 Y107.5000
M3S0
G4 P0.5; Tool On
G1 F300 Z0.0000
G1 F15000 X3.0000 Y107.5000 Z0.0000
M3S245
G4 P0.5; Tool Off

G0 Z0; move to z-safe height
G0 X3.0000 Y113.5000
M3S0
G4 P0.5; Tool On
G1 F300 Z0.0000
G1 F15000 X747.0000 Y113.5000 Z0.0000
M3S245
G4 P0.5; Tool Off

G0 Z0; move to z-safe height
G0 X747.0000 Y119.5000
M3S0
G4 P0.5; Tool On
G1 F300 Z0.0000
G1 F15000 X3.0000 Y119.5000 Z0.0000
M3S245
G4 P0.5; Tool Off

G0 Z0; move to z-safe height
G0 X3.0000 Y125.5000
M3S0
G4 P0.5; Tool On
G1 F300 Z0.0000
G1 F15000 X747.0000 Y125.5000 Z0.0000
M3S245
G4 P0.5; Tool Off

G0 Z0; move to z-safe height
G0 X747.0000 Y131.5000
M3S0
G4 P0.5; Tool On
G1 F300 Z0.0000
G1 F15000 X3.0000 Y131.5000 Z0.0000
M3S245
G4 P0.5; Tool Off

G0 Z0; move to z-safe height
G0 X3.0000 Y137.5000
M3S0
G4 P0.5; Tool On
G1 F300 Z0.0000
G1 F15000 X747.0000 Y137.5000 Z0.0000
M3S245
G4 P0.5; Tool Off

G0 Z0; move to z-safe height
G0 X747.0000 Y143.5000
M3S0
G4 P0.5; Tool On
G1 F300 Z0.0000
G1 F15000 X3.0000 Y143.5000 Z0.0000
M3S245
G4 P0.5; Tool Off

G0 Z0; move to z-safe height
G0 X3.0000 Y149.5000
M3S0
G4 P0.5; Tool On
G1 F300 Z0.0000
G1 F15000 X747.0000 Y149.5000 Z0.0000
M3S245
G4 P0.5; Tool Off

G0 Z0; move to z-safe height
G0 X747.0000 Y155.5000
M3S0
G4 P0.5; Tool On
G1 F300 Z0.0000
G1 F15000 X3.0000 Y155.5000 Z0.0000
M3S245
G4 P0.5; Tool Off

G0 Z0; move to z-safe height
G0 X3.0000 Y161.5000
M3S0
G4 P0.5; Tool On
G1 F300 Z0.0000
G1 F15000 X747.0000 Y161.5000 Z0.0000
M3S245
G4 P0.5; Tool Off

G0 Z0; move to z-safe height
G0 X747.0000 Y167.5000
M3S0
G4 P0.5; Tool On
G1 F300 Z0.0000
G1 F15000 X3.0000 Y167.5000 Z0.0000
M3S245
G4 P0.5; Tool Off

G0 Z0; move to z-safe height
G0 X3.0000 Y173.5000
M3S0
G4 P0.5; Tool On
G1 F300 Z0.0000
G1 F15000 X747.0000 Y173.5000 Z0.0000
M3S245
G4 P0.5; Tool Off

G0 Z0; move to z-safe height
G0 X747.0000 Y179.5000
M3S0
G4 P0.5; Tool On
G1 F300 Z0.0000
G1 F15000 X3.0000 Y179.5000 Z0.0000
M3S245
G4 P0.5; Tool Off

G0 Z0; move to z-safe height
G0 X3.0000 Y185.5000
M3S0
G4 P0.5; Tool On
G1 F300 Z0.0000
G1 F15000 X747.0000 Y185.5000 Z0.0000
M3S245
G4 P0.5; Tool Off

G0 Z0; move to z-safe height
G0 X747.0000 Y191.5000
M3S0
G4 P0.5; Tool On
G1 F300 Z0.0000
G1 F15000 X3.0000 Y191.5000 Z0.0000
M3S245
G4 P0.5; Tool Off

G0 Z0; move to z-safe height
G0 X3.0000 Y197.5000
M3S0
G4 P0.5; Tool On
G1 F300 Z0.0000
G1 F15000 X747.0000 Y197.5000 Z0.0000
M3S245
G4 P0.5; Tool Off

G0 Z0; move to z-safe height
G0 X747.0000 Y203.5000
M3S0
G4 P0.5; Tool On
G1 F300 Z0.0000
G1 F15000 X3.0000 Y203.5000 Z0.0000
M3S245
G4 P0.5; Tool Off

G0 Z0; move to z-safe height
G0 X3.0000 Y209.5000
M3S0
G4 P0.5; Tool On
G1 F300 Z0.0000
G1 F15000 X747.0000 Y209.5000 Z0.0000
M3S245
G4 P0.5; Tool Off

G0 Z0; move to z-safe height
G0 X747.0000 Y215.5000
M3S0
G4 P0.5; Tool On
G1 F300 Z0.0000
G1 F15000 X3.0000 Y215.5000 Z0.0000
M3S245
G4 P0.5; Tool Off

G0 Z0; move to z-safe height
G0 X3.0000 Y221.5000
M3S0
G4 P0.5; Tool On
G1 F300 Z0.0000
G1 F15000 X747.0000 Y221.5000 Z0.0000
M3S245
G4 P0.5; Tool Off

G0 Z0; move to z-safe height
G0 X747.0000 Y227.5000
M3S0
G4 P0.5; Tool On
G1 F300 Z0.0000
G1 F15000 X3.0000 Y227.5000 Z0.0000
M3S245
G4 P0.5; Tool Off

G0 Z0; move to z-safe height
G0 X3.0000 Y233.5000
M3S0
G4 P0.5; Tool On
G1 F300 Z0.0000
G1 F15000 X747.0000 Y233.5000 Z0.0000
M3S245
G4 P0.5; Tool Off

G0 Z0; move to z-safe height
G0 X747.0000 Y239.5000
M3S0
G4 P0.5; Tool On
G1 F300 Z0.0000
G1 F15000 X3.0000 Y239.5000 Z0.0000
M3S245
G4 P0.5; Tool Off

G0 Z0; move to z-safe height
G0 X3.0000 Y245.5000
M3S0
G4 P0.5; Tool On
G1 F300 Z0.0000
G1 F15000 X747.0000 Y245.5000 Z0.0000
M3S245
G4 P0.5; Tool Off

G0 Z0; move to z-safe height
G0 X747.0000 Y251.5000
M3S0
G4 P0.5; Tool On
G1 F300 Z0.0000
G1 F15000 X3.0000 Y251.5000 Z0.0000
M3S245
G4 P0.5; Tool Off

G0 Z0; move to z-safe height
G0 X3.0000 Y257.5000
M3S0
G4 P0.5; Tool On
G1 F300 Z0.0000
G1 F15000 X747.0000 Y257.5000 Z0.0000
M3S245
G4 P0.5; Tool Off

G0 Z0; move to z-safe height
G0 X747.0000 Y263.5000
M3S0
G4 P0.5; Tool On
G1 F300 Z0.0000
G1 F15000 X3.0000 Y263.5000 Z0.0000
M3S245
G4 P0.5; Tool Off

G0 Z0; move to z-safe height
G0 X3.0000 Y269.5000
M3S0
G4 P0.5; Tool On
G1 F300 Z0.0000
G1 F15000 X747.0000 Y269.5000 Z0.0000
M3S245
G4 P0.5; Tool Off

G0 Z0; move to z-safe height
G0 X747.0000 Y275.5000
M3S0
G4 P0.5; Tool On
G1 F300 Z0.0000
G1 F15000 X3.0000 Y275.5000 Z0.0000
M3S245
G4 P0.5; Tool Off

G0 Z0; move to z-safe height
G0 X3.0000 Y281.5000
M3S0
G4 P0.5; Tool On
G1 F300 Z0.0000
G1 F15000 X747.0000 Y281.5000 Z0.0000
M3S245
G4 P0.5; Tool Off

G0 Z0; move to z-safe height
G0 X747.0000 Y287.5000
M3S0
G4 P0.5; Tool On
G1 F300 Z0.0000
G1 F15000 X3.0000 Y287.5000 Z0.0000
M3S245
G4 P0.5; Tool Off

G0 Z0; move to z-safe height
G0 X3.0000 Y293.5000
M3S0
G4 P0.5; Tool On
G1 F300 Z0.0000
G1 F15000 X747.0000 Y293.5000 Z0.0000
M3S245
G4 P0.5; Tool Off

G0 Z0; move to z-safe height
G0 X747.0000 Y299.5000
M3S0
G4 P0.5; Tool On
G1 F300 Z0.0000
G1 F15000 X3.0000 Y299.5000 Z0.0000
M3S245
G4 P0.5; Tool Off

G0 Z0; move to z-safe height
G0 X3.0000 Y305.5000
M3S0
G4 P0.5; Tool On
G1 F300 Z0.0000
G1 F15000 X747.0000 Y305.5000 Z0.0000
M3S245
G4 P0.5; Tool Off

G0 Z0; move to z-safe height
G0 X747.0000 Y311.5000
M3S0
G4 P0.5; Tool On
G1 F300 Z0.0000
G1 F15000 X3.0000 Y311.5000 Z0.0000
M3S245
G4 P0.5; Tool Off

G0 Z0; move to z-safe height
G0 X3.0000 Y317.5000
M3S0
G4 P0.5; Tool On
G1 F300 Z0.0000
G1 F15000 X747.0000 Y317.5000 Z0.0000
M3S245
G4 P0.5; Tool Off

G0 Z0; move to z-safe height
G0 X747.0000 Y323.5000
M3S0
G4 P0.5; Tool On
G1 F300 Z0.0000
G1 F15000 X3.0000 Y323.5000 Z0.0000
M3S245
G4 P0.5; Tool Off

G0 Z0; move to z-safe height
G0 X3.0000 Y329.5000
M3S0
G4 P0.5; Tool On
G1 F300 Z0.0000
G1 F15000 X747.0000 Y329.5000 Z0.0000
M3S245
G4 P0.5; Tool Off

G0 Z0; move to z-safe height
G0 X747.0000 Y335.5000
M3S0
G4 P0.5; Tool On
G1 F300 Z0.0000
G1 F15000 X3.0000 Y335.5000 Z0.0000
M3S245
G4 P0.5; Tool Off

G0 Z0; move to z-safe height
G0 X3.0000 Y341.5000
M3S0
G4 P0.5; Tool On
G1 F300 Z0.0000
G1 F15000 X747.0000 Y341.5000 Z0.0000
M3S245
G4 P0.5; Tool Off

G0 Z0; move to z-safe height
G0 X747.0000 Y347.5000
M3S0
G4 P0.5; Tool On
G1 F300 Z0.0000
G1 F15000 X3.0000 Y347.5000 Z0.0000
M3S245
G4 P0.5; Tool Off

G0 Z0; move to z-safe height
G0 X3.0000 Y353.5000
M3S0
G4 P0.5; Tool On
G1 F300 Z0.0000
G1 F15000 X747.0000 Y353.5000 Z0.0000
M3S245
G4 P0.5; Tool Off

G0 Z0; move to z-safe height
G0 X747.0000 Y359.5000
M3S0
G4 P0.5; Tool On
G1 F300 Z0.0000
G1 F15000 X3.0000 Y359.5000 Z0.0000
M3S245
G4 P0.5; Tool Off

G0 Z0; move to z-safe height
G0 X3.0000 Y365.5000
M3S0
G4 P0.5; Tool On
G1 F300 Z0.0000
G1 F15000 X747.0000 Y365.5000 Z0.0000
M3S245
G4 P0.5; Tool Off

G0 Z0; move to z-safe height
G0 X747.0000 Y371.5000
M3S0
G4 P0.5; Tool On
G1 F300 Z0.0000
G1 F15000 X3.0000 Y371.5000 Z0.0000
M3S245
G4 P0.5; Tool Off

G0 Z0; move to z-safe height
G0 X3.0000 Y377.5000
M3S0
G4 P0.5; Tool On
G1 F300 Z0.0000
G1 F15000 X747.0000 Y377.5000 Z0.0000
M3S245
G4 P0.5; Tool Off

G0 Z0; move to z-safe height
G0 X747.0000 Y383.5000
M3S0
G4 P0.5; Tool On
G1 F300 Z0.0000
G1 F15000 X3.0000 Y383.5000 Z0.0000
M3S245
G4 P0.5; Tool Off

G0 Z0; move to z-safe height
G0 X3.0000 Y389.5000
M3S0
G4 P0.5; Tool On
G1 F300 Z0.0000
G1 F15000 X747.0000 Y389.5000 Z0.0000
M3S245
G4 P0.5; Tool Off

G0 Z0; move to z-safe height
G0 X747.0000 Y395.5000
M3S0
G4 P0.5; Tool On
G1 F300 Z0.0000
G1 F15000 X3.0000 Y395.5000 Z0.0000
M3S245
G4 P0.5; Tool Off

G0 Z0; move to z-safe height
G0 X3.0000 Y401.5000
M3S0
G4 P0.5; Tool On
G1 F300 Z0.0000
G1 F15000 X747.0000 Y401.5000 Z0.0000
M3S245
G4 P0.5; Tool Off

G0 Z0; move to z-safe height
G0 X747.0000 Y407.5000
M3S0
G4 P0.5; Tool On
G1 F300 Z0.0000
G1 F15000 X3.0000 Y407.5000 Z0.0000
M3S245
G4 P0.5; Tool Off

G0 Z0; move to z-safe height
G0 X3.0000 Y413.5000
M3S0
G4 P0.5; Tool On
G1 F300 Z0.0000
G1 F15000 X747.0000 Y413.5000 Z0.0000
M3S245
G4 P0.5; Tool Off

G0 Z0; move to z-safe height
G0 X747.0000 Y419.5000
M3S0
G4 P0.5; Tool On
G1 F300 Z0.0000
G1 F15000 X3.0000 Y419.5000 Z0.0000
M3S245
G4 P0.5; Tool Off

G0 Z0; move to z-safe height
G0 X3.0000 Y425.5000
M3S0
G4 P0.5; Tool On
G1 F300 Z0.0000
G1 F15000 X747.0000 Y425.5000 Z0.0000
M3S245
G4 P0.5; Tool Off

G0 Z0; move to z-safe height
G0 X747.0000 Y431.5000
M3S0
G4 P0.5; Tool On
G1 F300 Z0.0000
G1 F15000 X3.0000 Y431.5000 Z0.0000
M3S245
G4 P0.5; Tool Off

G0 Z0; move to z-safe height
G0 X3.0000 Y437.5000
M3S0
G4 P0.5; Tool On
G1 F300 Z0.0000
G1 F15000 X747.0000 Y437.5000 Z0.0000
M3S245
G4 P0.5; Tool Off

G0 Z0; move to z-safe height
G0 X747.0000 Y443.5000
M3S0
G4 P0.5; Tool On
G1 F300 Z0.0000
G1 F15000 X3.0000 Y443.5000 Z0.0000
M3S245
G4 P0.5; Tool Off

G0 Z0; move to z-safe height
G0 X3.0000 Y449.5000
M3S0
G4 P0.5; Tool On
G1 F300 Z0.0000
G1 F15000 X747.0000 Y449.5000 Z0.0000
M3S245
G4 P0.5; Tool Off

G0 Z0; move to z-safe height
G0 X747.0000 Y455.5000
M3S0
G4 P0.5; Tool On
G1 F300 Z0.0000
G1 F15000 X3.0000 Y455.5000 Z0.0000
M3S245
G4 P0.5; Tool Off

G0 Z0; move to z-safe height
G0 X3.0000 Y461.5000
M3S0
G4 P0.5; Tool On
G1 F300 Z0.0000
G1 F15000 X747.0000 Y461.5000 Z0.0000
M3S245
G4 P0.5; Tool Off

G0 Z0; move to z-safe height
G0 X747.0000 Y467.5000
M3S0
G4 P0.5; Tool On
G1 F300 Z0.0000
G1 F15000 X3.0000 Y467.5000 Z0.0000
M3S245
G4 P0.5; Tool Off

G0 Z0; move to z-safe height
G0 X3.0000 Y473.5000
M3S0
G4 P0.5; Tool On
G1 F300 Z0.0000
G1 F15000 X747.0000 Y473.5000 Z0.0000
M3S245
G4 P0.5; Tool Off

G0 Z0; move to z-safe height
G0 X747.0000 Y479.5000
M3S0
G4 P0.5; Tool On
G1 F300 Z0.0000
G1 F15000 X3.0000 Y479.5000 Z0.0000
M3S245
G4 P0.5; Tool Off

G0 Z0; move to z-safe height
G0 X3.0000 Y485.5000
M3S0
G4 P0.5; Tool On
G1 F300 Z0.0000
G1 F15000 X747.0000 Y485.5000 Z0.0000
M3S245
G4 P0.5; Tool Off

G0 Z0; move to z-safe height
G0 X747.0000 Y491.5000
M3S0
G4 P0.5; Tool On
G1 F300 Z0.0000
G1 F15000 X3.0000 Y491.5000 Z0.0000
M3S245
G4 P0.5; Tool Off

G0 Z0; move to z-safe height
G0 X3.0000 Y497.5000
M3S0
G4 P0.5; Tool On
G1 F300 Z0.0000
G1 F15000 X747.0000 Y497.5000 Z0.0000
M3S245
G4 P0.5; Tool Off

G0 Z0; move to z-safe height
G0 X747.0000 Y503.5000
M3S0
G4 P0.5; Tool On
G1 F300 Z0.0000
G1 F15000 X3.0000 Y503.5000 Z0.0000
M3S245
G4 P0.5; Tool Off

G0 Z0; move to z-safe height
G0 X3.0000 Y509.5000
M3S0
G4 P0.5; Tool On
G1 F300 Z0.0000
G1 F15000 X747.0000 Y509.5000 Z0.0000
M3S245
G4 P0.5; Tool Off

G0 Z0; move to z-safe height
G0 X747.0000 Y515.5000
M3S0
G4 P0.5; Tool On
G1 F300 Z0.0000
G1 F15000 X3.0000 Y515.5000 Z0.0000
M3S245
G4 P0.5; Tool Off

G0 Z0; move to z-safe height
G0 X3.0000 Y521.5000
M3S0
G4 P0.5; Tool On
G1 F300 Z0.0000
G1 F15000 X747.0000 Y521.5000 Z0.0000
M3S245
G4 P0.5; Tool Off

G0 Z0; move to z-safe height
G0 X747.0000 Y527.5000
M3S0
G4 P0.5; Tool On
G1 F300 Z0.0000
G1 F15000 X3.0000 Y527.5000 Z0.0000
M3S245
G4 P0.5; Tool Off

G0 Z0; move to z-safe height
G0 X3.0000 Y533.5000
M3S0
G4 P0.5; Tool On
G1 F300 Z0.0000
G1 F15000 X747.0000 Y533.5000 Z0.0000
M3S245
G4 P0.5; Tool Off

G0 Z0; move to z-safe height
G0 X747.0000 Y539.5000
M3S0
G4 P0.5; Tool On
G1 F300 Z0.0000
G1 F15000 X3.0000 Y539.5000 Z0.0000
M3S245
G4 P0.5; Tool Off

G0 Z0; move to z-safe height
G0 X3.0000 Y545.5000
M3S0
G4 P0.5; Tool On
G1 F300 Z0.0000
G1 F15000 X747.0000 Y545.5000 Z0.0000
M3S245
G4 P0.5; Tool Off

G0 Z0; move to z-safe height
G0 X747.0000 Y551.5000
M3S0
G4 P0.5; Tool On
G1 F300 Z0.0000
G1 F15000 X3.0000 Y551.5000 Z0.0000
M3S245
G4 P0.5; Tool Off

G0 Z0; move to z-safe height
G0 X3.0000 Y557.5000
M3S0
G4 P0.5; Tool On
G1 F300 Z0.0000
G1 F15000 X747.0000 Y557.5000 Z0.0000
M3S245
G4 P0.5; Tool Off

G0 Z0; move to z-safe height
G0 X747.0000 Y563.5000
M3S0
G4 P0.5; Tool On
G1 F300 Z0.0000
G1 F15000 X3.0000 Y563.5000 Z0.0000
M3S245
G4 P0.5; Tool Off

G0 Z0; move to z-safe height
G0 X3.0000 Y569.5000
M3S0
G4 P0.5; Tool On
G1 F300 Z0.0000
G1 F15000 X747.0000 Y569.5000 Z0.0000
M3S245
G4 P0.5; Tool Off

G0 Z0; move to z-safe height
G0 X747.0000 Y575.5000
M3S0
G4 P0.5; Tool On
G1 F300 Z0.0000
G1 F15000 X3.0000 Y575.5000 Z0.0000
M3S245
G4 P0.5; Tool Off

G0 Z0; move to z-safe height
G0 X3.0000 Y581.5000
M3S0
G4 P0.5; Tool On
G1 F300 Z0.0000
G1 F15000 X747.0000 Y581.5000 Z0.0000
M3S245
G4 P0.5; Tool Off

G0 Z0; move to z-safe height
G0 X747.0000 Y587.5000
M3S0
G4 P0.5; Tool On
G1 F300 Z0.0000
G1 F15000 X3.0000 Y587.5000 Z0.0000
M3S245
G4 P0.5; Tool Off

G0 Z0; move to z-safe height
G0 X3.0000 Y593.5000
M3S0
G4 P0.5; Tool On
G1 F300 Z0.0000
G1 F15000 X747.0000 Y593.5000 Z0.0000
M3S245
G4 P0.5; Tool Off

G0 Z0; move to z-safe height
G0 X747.0000 Y599.5000
M3S0
G4 P0.5; Tool On
G1 F300 Z0.0000
G1 F15000 X3.0000 Y599.5000 Z0.0000
M3S245
G4 P0.5; Tool Off

G0 Z0; move to z-safe height
G0 X3.0000 Y605.5000
M3S0
G4 P0.5; Tool On
G1 F300 Z0.0000
G1 F15000 X747.0000 Y605.5000 Z0.0000
M3S245
G4 P0.5; Tool Off

G0 Z0; move to z-safe height
G0 X747.0000 Y611.5000
M3S0
G4 P0.5; Tool On
G1 F300 Z0.0000
G1 F15000 X3.0000 Y611.5000 Z0.0000
M3S245
G4 P0.5; Tool Off

G0 Z0; move to z-safe height
G0 X3.0000 Y617.5000
M3S0
G4 P0.5; Tool On
G1 F300 Z0.0000
G1 F15000 X747.0000 Y617.5000 Z0.0000
M3S245
G4 P0.5; Tool Off

G0 Z0; move to z-safe height
G0 X747.0000 Y623.5000
M3S0
G4 P0.5; Tool On
G1 F300 Z0.0000
G1 F15000 X3.0000 Y623.5000 Z0.0000
M3S245
G4 P0.5; Tool Off

G0 Z0; move to z-safe height
G0 X3.0000 Y629.5000
M3S0
G4 P0.5; Tool On
G1 F300 Z0.0000
G1 F15000 X747.0000 Y629.5000 Z0.0000
M3S245
G4 P0.5; Tool Off

G0 Z0; move to z-safe height
G0 X747.0000 Y635.5000
M3S0
G4 P0.5; Tool On
G1 F300 Z0.0000
G1 F15000 X3.0000 Y635.5000 Z0.0000
M3S245
G4 P0.5; Tool Off

G0 Z0; move to z-safe height
G0 X3.0000 Y641.5000
M3S0
G4 P0.5; Tool On
G1 F300 Z0.0000
G1 F15000 X747.0000 Y641.5000 Z0.0000
M3S245
G4 P0.5; Tool Off

G0 Z0; move to z-safe height
G0 X747.0000 Y647.5000
M3S0
G4 P0.5; Tool On
G1 F300 Z0.0000
G1 F15000 X3.0000 Y647.5000 Z0.0000
M3S245
G4 P0.5; Tool Off

G0 Z0; move to z-safe height
G0 X3.0000 Y653.5000
M3S0
G4 P0.5; Tool On
G1 F300 Z0.0000
G1 F15000 X747.0000 Y653.5000 Z0.0000
M3S245
G4 P0.5; Tool Off

G0 Z0; move to z-safe height
G0 X747.0000 Y659.5000
M3S0
G4 P0.5; Tool On
G1 F300 Z0.0000
G1 F15000 X3.0000 Y659.5000 Z0.0000
M3S245
G4 P0.5; Tool Off

G0 Z0; move to z-safe height
G0 X3.0000 Y665.5000
M3S0
G4 P0.5; Tool On
G1 F300 Z0.0000
G1 F15000 X747.0000 Y665.5000 Z0.0000
M3S245
G4 P0.5; Tool Off

G0 Z0; move to z-safe height
G0 X747.0000 Y671.5000
M3S0
G4 P0.5; Tool On
G1 F300 Z0.0000
G1 F15000 X3.0000 Y671.5000 Z0.0000
M3S245
G4 P0.5; Tool Off

G0 Z0; move to z-safe height
G0 X3.0000 Y677.5000
M3S0
G4 P0.5; Tool On
G1 F300 Z0.0000
G1 F15000 X747.0000 Y677.5000 Z0.0000
M3S245
G4 P0.5; Tool Off

G0 Z0; move to z-safe height
G0 X747.0000 Y683.5000
M3S0
G4 P0.5; Tool On
G1 F300 Z0.0000
G1 F15000 X3.0000 Y683.5000 Z0.0000
M3S245
G4 P0.5; Tool Off

G0 Z0; move to z-safe height
G0 X3.0000 Y689.5000
M3S0
G4 P0.5; Tool On
G1 F300 Z0.0000
G1 F15000 X747.0000 Y689.5000 Z0.0000
M3S245
G4 P0.5; Tool Off

G0 Z0; move to z-safe height
G0 X747.0000 Y695.5000
M3S0
G4 P0.5; Tool On
G1 F300 Z0.0000
G1 F15000 X3.0000 Y695.5000 Z0.0000
M3S245
G4 P0.5; Tool Off

G0 Z0; move to z-safe height
G0 X3.0000 Y701.5000
M3S0
G4 P0.5; Tool On
G1 F300 Z0.0000
G1 F15000 X747.0000 Y701.5000 Z0.0000
M3S245
G4 P0.5; Tool Off

G0 Z0; move to z-safe height
G0 X747.0000 Y707.5000
M3S0
G4 P0.5; Tool On
G1 F300 Z0.0000
G1 F15000 X3.0000 Y707.5000 Z0.0000
M3S245
G4 P0.5; Tool Off

G0 Z0; move to z-safe height
G0 X3.0000 Y713.5000
M3S0
G4 P0.5; Tool On
G1 F300 Z0.0000
G1 F15000 X747.0000 Y713.5000 Z0.0000
M3S245
G4 P0.5; Tool Off

G0 Z0; move to z-safe height
G0 X747.0000 Y719.5000
M3S0
G4 P0.5; Tool On
G1 F300 Z0.0000
G1 F15000 X3.0000 Y719.5000 Z0.0000
M3S245
G4 P0.5; Tool Off

G0 Z0; move to z-safe height
G0 X3.0000 Y725.5000
M3S0
G4 P0.5; Tool On
G1 F300 Z0.0000
G1 F15000 X747.0000 Y725.5000 Z0.0000
M3S245
G4 P0.5; Tool Off

G0 Z0; move to z-safe height
G0 X747.0000 Y731.5000
M3S0
G4 P0.5; Tool On
G1 F300 Z0.0000
G1 F15000 X3.0000 Y731.5000 Z0.0000
M3S245
G4 P0.5; Tool Off

G0 Z0; move to z-safe height
G0 X3.0000 Y737.5000
M3S0
G4 P0.5; Tool On
G1 F300 Z0.0000
G1 F15000 X747.0000 Y737.5000 Z0.0000
M3S245
G4 P0.5; Tool Off

G0 Z0; move to z-safe height
G0 X747.0000 Y743.5000
M3S0
G4 P0.5; Tool On
G1 F300 Z0.0000
G1 F15000 X3.0000 Y743.5000 Z0.0000
M3S245
G4 P0.5; Tool Off

G0 Z0; move to z-safe height
G0 X3.0000 Y749.5000
M3S0
G4 P0.5; Tool On
G1 F300 Z0.0000
G1 F15000 X747.0000 Y749.5000 Z0.0000
M3S245
G4 P0.5; Tool Off

G0 Z0; move to z-safe height
G0 X747.0000 Y755.5000
M3S0
G4 P0.5; Tool On
G1 F300 Z0.0000
G1 F15000 X3.0000 Y755.5000 Z0.0000
M3S245
G4 P0.5; Tool Off

G0 Z0; move to z-safe height
G0 X3.0000 Y761.5000
M3S0
G4 P0.5; Tool On
G1 F300 Z0.0000
G1 F15000 X747.0000 Y761.5000 Z0.0000
M3S245
G4 P0.5; Tool Off

G0 Z0; move to z-safe height
G0 X747.0000 Y767.5000
M3S0
G4 P0.5; Tool On
G1 F300 Z0.0000
G1 F15000 X3.0000 Y767.5000 Z0.0000
M3S245
G4 P0.5; Tool Off

G0 Z0; move to z-safe height
G0 X3.0000 Y773.5000
M3S0
G4 P0.5; Tool On
G1 F300 Z0.0000
G1 F15000 X747.0000 Y773.5000 Z0.0000
M3S245
G4 P0.5; Tool Off

G0 Z0; move to z-safe height
G0 X747.0000 Y779.5000
M3S0
G4 P0.5; Tool On
G1 F300 Z0.0000
G1 F15000 X3.0000 Y779.5000 Z0.0000
M3S245
G4 P0.5; Tool Off

G0 Z0; move to z-safe height
G0 X3.0000 Y785.5000
M3S0
G4 P0.5; Tool On
G1 F300 Z0.0000
G1 F15000 X747.0000 Y785.5000 Z0.0000
M3S245
G4 P0.5; Tool Off

G0 Z0; move to z-safe height
G0 X747.0000 Y791.5000
M3S0
G4 P0.5; Tool On
G1 F300 Z0.0000
G1 F15000 X3.0000 Y791.5000 Z0.0000
M3S245
G4 P0.5; Tool Off

G0 Z0; move to z-safe height
G0 X3.0000 Y797.5000
M3S0
G4 P0.5; Tool On
G1 F300 Z0.0000
G1 F15000 X747.0000 Y797.5000 Z0.0000
M3S245
G4 P0.5; Tool Off

G0 Z0; move to z-safe height
G0 X747.0000 Y803.5000
M3S0
G4 P0.5; Tool On
G1 F300 Z0.0000
G1 F15000 X3.0000 Y803.5000 Z0.0000
M3S245
G4 P0.5; Tool Off

G0 Z0; move to z-safe height
G0 X3.0000 Y809.5000
M3S0
G4 P0.5; Tool On
G1 F300 Z0.0000
G1 F15000 X747.0000 Y809.5000 Z0.0000
M3S245
G4 P0.5; Tool Off

G0 Z0; move to z-safe height
G0 X747.0000 Y815.5000
M3S0
G4 P0.5; Tool On
G1 F300 Z0.0000
G1 F15000 X3.0000 Y815.5000 Z0.0000
M3S245
G4 P0.5; Tool Off

G0 Z0; move to z-safe height
G0 X3.0000 Y821.5000
M3S0
G4 P0.5; Tool On
G1 F300 Z0.0000
G1 F15000 X747.0000 Y821.5000 Z0.0000
M3S245
G4 P0.5; Tool Off

G0 Z0; move to z-safe height
G0 X747.0000 Y827.5000
M3S0
G4 P0.5; Tool On
G1 F300 Z0.0000
G1 F15000 X3.0000 Y827.5000 Z0.0000
M3S245
G4 P0.5; Tool Off

G0 Z0; move to z-safe height
G0 X3.0000 Y833.5000
M3S0
G4 P0.5; Tool On
G1 F300 Z0.0000
G1 F15000 X747.0000 Y833.5000 Z0.0000
M3S245
G4 P0.5; Tool Off

G0 Z0; move to z-safe height
G0 X747.0000 Y839.5000
M3S0
G4 P0.5; Tool On
G1 F300 Z0.0000
G1 F15000 X3.0000 Y839.5000 Z0.0000
M3S245
G4 P0.5; Tool Off

G0 Z0; move to z-safe height
G0 X3.0000 Y845.5000
M3S0
G4 P0.5; Tool On
G1 F300 Z0.0000
G1 F15000 X747.0000 Y845.5000 Z0.0000
M3S245
G4 P0.5; Tool Off

G0 Z0; move to z-safe height
G0 X747.0000 Y851.5000
M3S0
G4 P0.5; Tool On
G1 F300 Z0.0000
G1 F15000 X3.0000 Y851.5000 Z0.0000
M3S245
G4 P0.5; Tool Off

G0 Z0; move to z-safe height
G0 X3.0000 Y857.5000
M3S0
G4 P0.5; Tool On
G1 F300 Z0.0000
G1 F15000 X747.0000 Y857.5000 Z0.0000
M3S245
G4 P0.5; Tool Off

G0 Z0; move to z-safe height
G0 X747.0000 Y863.5000
M3S0
G4 P0.5; Tool On
G1 F300 Z0.0000
G1 F15000 X3.0000 Y863.5000 Z0.0000
M3S245
G4 P0.5; Tool Off

G0 Z0; move to z-safe height
G0 X3.0000 Y869.5000
M3S0
G4 P0.5; Tool On
G1 F300 Z0.0000
G1 F15000 X747.0000 Y869.5000 Z0.0000
M3S245
G4 P0.5; Tool Off

G0 Z0; move to z-safe height
G0 X747.0000 Y875.5000
M3S0
G4 P0.5; Tool On
G1 F300 Z0.0000
G1 F15000 X3.0000 Y875.5000 Z0.0000
M3S245
G4 P0.5; Tool Off

G0 Z0; move to z-safe height
G0 X3.0000 Y881.5000
M3S0
G4 P0.5; Tool On
G1 F300 Z0.0000
G1 F15000 X747.0000 Y881.5000 Z0.0000
M3S245
G4 P0.5; Tool Off

G0 Z0; move to z-safe height
G0 X747.0000 Y887.5000
M3S0
G4 P0.5; Tool On
G1 F300 Z0.0000
G1 F15000 X3.0000 Y887.5000 Z0.0000
M3S245
G4 P0.5; Tool Off

G0 Z0; move to z-safe height
G0 X3.0000 Y893.5000
M3S0
G4 P0.5; Tool On
G1 F300 Z0.0000
G1 F15000 X747.0000 Y893.5000 Z0.0000
M3S245
G4 P0.5; Tool Off

G0 Z0; move to z-safe height
G0 X747.0000 Y899.5000
M3S0
G4 P0.5; Tool On
G1 F300 Z0.0000
G1 F15000 X3.0000 Y899.5000 Z0.0000
M3S245
G4 P0.5; Tool Off

G0 Z0; move to z-safe height
G0 X3.0000 Y905.5000
M3S0
G4 P0.5; Tool On
G1 F300 Z0.0000
G1 F15000 X747.0000 Y905.5000 Z0.0000
M3S245
G4 P0.5; Tool Off

G0 Z0; move to z-safe height
G0 X747.0000 Y911.5000
M3S0
G4 P0.5; Tool On
G1 F300 Z0.0000
G1 F15000 X3.0000 Y911.5000 Z0.0000
M3S245
G4 P0.5; Tool Off

G0 Z0; move to z-safe height
G0 X3.0000 Y917.5000
M3S0
G4 P0.5; Tool On
G1 F300 Z0.0000
G1 F15000 X747.0000 Y917.5000 Z0.0000
M3S245
G4 P0.5; Tool Off

G0 Z0; move to z-safe height
G0 X747.0000 Y923.5000
M3S0
G4 P0.5; Tool On
G1 F300 Z0.0000
G1 F15000 X3.0000 Y923.5000 Z0.0000
M3S245
G4 P0.5; Tool Off

G0 Z0; move to z-safe height
G0 X3.0000 Y929.5000
M3S0
G4 P0.5; Tool On
G1 F300 Z0.0000
G1 F15000 X747.0000 Y929.5000 Z0.0000
M3S245
G4 P0.5; Tool Off

G0 Z0; move to z-safe height
G0 X747.0000 Y935.5000
M3S0
G4 P0.5; Tool On
G1 F300 Z0.0000
G1 F15000 X3.0000 Y935.5000 Z0.0000
M3S245
G4 P0.5; Tool Off

G0 Z0; move to z-safe height
G0 X3.0000 Y941.5000
M3S0
G4 P0.5; Tool On
G1 F300 Z0.0000
G1 F15000 X747.0000 Y941.5000 Z0.0000
M3S245
G4 P0.5; Tool Off

G0 Z0; move to z-safe height
G0 X747.0000 Y947.5000
M3S0
G4 P0.5; Tool On
G1 F300 Z0.0000
G1 F15000 X3.0000 Y947.5000 Z0.0000
M3S245
G4 P0.5; Tool Off

G0 Z0; move to z-safe height
G0 X3.0000 Y953.5000
M3S0
G4 P0.5; Tool On
G1 F300 Z0.0000
G1 F15000 X747.0000 Y953.5000 Z0.0000
M3S245
G4 P0.5; Tool Off

G0 Z0; move to z-safe height
G0 X747.0000 Y959.5000
M3S0
G4 P0.5; Tool On
G1 F300 Z0.0000
G1 F15000 X3.0000 Y959.5000 Z0.0000
M3S245
G4 P0.5; Tool Off

G0 Z0; move to z-safe height
G0 X3.0000 Y965.5000
M3S0
G4 P0.5; Tool On
G1 F300 Z0.0000
G1 F15000 X747.0000 Y965.5000 Z0.0000
M3S245
G4 P0.5; Tool Off

G0 Z0; move to z-safe height
G0 X747.0000 Y971.5000
M3S0
G4 P0.5; Tool On
G1 F300 Z0.0000
G1 F15000 X3.0000 Y971.5000 Z0.0000
M3S245
G4 P0.5; Tool Off

G0 Z0; move to z-safe height
G0 X3.0000 Y977.5000
M3S0
G4 P0.5; Tool On
G1 F300 Z0.0000
G1 F15000 X747.0000 Y977.5000 Z0.0000
M3S245
G4 P0.5; Tool Off

G0 Z0; move to z-safe height
G0 X747.0000 Y983.5000
M3S0
G4 P0.5; Tool On
G1 F300 Z0.0000
G1 F15000 X3.0000 Y983.5000 Z0.0000
M3S245
G4 P0.5; Tool Off

G0 Z0; move to z-safe height
G0 X3.0000 Y989.5000
M3S0
G4 P0.5; Tool On
G1 F300 Z0.0000
G1 F15000 X747.0000 Y989.5000 Z0.0000
M3S245
G4 P0.5; Tool Off

G0 Z0; move to z-safe height
G0 X747.0000 Y995.5000
M3S0
G4 P0.5; Tool On
G1 F300 Z0.0000
G1 F15000 X3.0000 Y995.5000 Z0.0000
M3S245
G4 P0.5; Tool Off

G0 Z0; move to z-safe height
G0 X3.0000 Y1001.5000
M3S0
G4 P0.5; Tool On
G1 F300 Z0.0000
G1 F15000 X747.0000 Y1001.5000 Z0.0000
M3S245
G4 P0.5; Tool Off

G0 Z0; move to z-safe height
G0 X747.0000 Y1007.5000
M3S0
G4 P0.5; Tool On
G1 F300 Z0.0000
G1 F15000 X3.0000 Y1007.5000 Z0.0000
M3S245
G4 P0.5; Tool Off

G0 Z0; move to z-safe height
G0 X3.0000 Y1013.5000
M3S0
G4 P0.5; Tool On
G1 F300 Z0.0000
G1 F15000 X747.0000 Y1013.5000 Z0.0000
M3S245
G4 P0.5; Tool Off

G0 Z0; move to z-safe height
G0 X747.0000 Y1019.5000
M3S0
G4 P0.5; Tool On
G1 F300 Z0.0000
G1 F15000 X3.0000 Y1019.5000 Z0.0000
M3S245
G4 P0.5; Tool Off

G0 Z0; move to z-safe height
G0 X3.0000 Y1025.5000
M3S0
G4 P0.5; Tool On
G1 F300 Z0.0000
G1 F15000 X747.0000 Y1025.5000 Z0.0000
M3S245
G4 P0.5; Tool Off

G0 Z0; move to z-safe height
G0 X747.0000 Y1031.5000
M3S0
G4 P0.5; Tool On
G1 F300 Z0.0000
G1 F15000 X3.0000 Y1031.5000 Z0.0000
M3S245
G4 P0.5; Tool Off

G0 Z0; move to z-safe height
G0 X3.0000 Y1037.5000
M3S0
G4 P0.5; Tool On
G1 F300 Z0.0000
G1 F15000 X747.0000 Y1037.5000 Z0.0000
M3S245
G4 P0.5; Tool Off

G0 Z0; move to z-safe height
G0 X747.0000 Y1043.5000
M3S0
G4 P0.5; Tool On
G1 F300 Z0.0000
G1 F15000 X3.0000 Y1043.5000 Z0.0000
M3S245
G4 P0.5; Tool Off

G0 Z0; move to z-safe height
G0 X3.0000 Y1049.5000
M3S0
G4 P0.5; Tool On
G1 F300 Z0.0000
G1 F15000 X747.0000 Y1049.5000 Z0.0000
M3S245
G4 P0.5; Tool Off

G0 Z0; move to z-safe height
G0 X747.0000 Y1055.5000
M3S0
G4 P0.5; Tool On
G1 F300 Z0.0000
G1 F15000 X3.0000 Y1055.5000 Z0.0000
M3S245
G4 P0.5; Tool Off

G0 Z0; move to z-safe height
G0 X3.0000 Y1061.5000
M3S0
G4 P0.5; Tool On
G1 F300 Z0.0000
G1 F15000 X747.0000 Y1061.5000 Z0.0000
M3S245
G4 P0.5; Tool Off

G0 Z0; move to z-safe height
G0 X747.0000 Y1067.5000
M3S0
G4 P0.5; Tool On
G1 F300 Z0.0000
G1 F15000 X3.0000 Y1067.5000 Z0.0000
M3S245
G4 P0.5; Tool Off

G0 Z0; move to z-safe height
G0 X3.0000 Y1073.5000
M3S0
G4 P0.5; Tool On
G1 F300 Z0.0000
G1 F15000 X747.0000 Y1073.5000 Z0.0000
M3S245
G4 P0.5; Tool Off

G0 Z0; move to z-safe height
G0 X747.0000 Y1079.5000
M3S0
G4 P0.5; Tool On
G1 F300 Z0.0000
G1 F15000 X3.0000 Y1079.5000 Z0.0000
M3S245
G4 P0.5; Tool Off

G0 Z0; move to z-safe height
G0 X3.0000 Y1085.5000
M3S0
G4 P0.5; Tool On
G1 F300 Z0.0000
G1 F15000 X747.0000 Y1085.5000 Z0.0000
M3S245
G4 P0.5; Tool Off

G0 Z0; move to z-safe height
G0 X747.0000 Y1091.5000
M3S0
G4 P0.5; Tool On
G1 F300 Z0.0000
G1 F15000 X3.0000 Y1091.5000 Z0.0000
M3S245
G4 P0.5; Tool Off

G0 Z0; move to z-safe height
G0 X3.0000 Y1097.5000
M3S0
G4 P0.5; Tool On
G1 F300 Z0.0000
G1 F15000 X747.0000 Y1097.5000 Z0.0000
M3S245
G4 P0.5; Tool Off

G0 Z0; move to z-safe height
G0 X747.0000 Y1103.5000
M3S0
G4 P0.5; Tool On
G1 F300 Z0.0000
G1 F15000 X3.0000 Y1103.5000 Z0.0000
M3S245
G4 P0.5; Tool Off

G0 Z0; move to z-safe height
G0 X3.0000 Y1109.5000
M3S0
G4 P0.5; Tool On
G1 F300 Z0.0000
G1 F15000 X747.0000 Y1109.5000 Z0.0000
M3S245
G4 P0.5; Tool Off

G0 Z0; move to z-safe height
G0 X747.0000 Y1115.5000
M3S0
G4 P0.5; Tool On
G1 F300 Z0.0000
G1 F15000 X3.0000 Y1115.5000 Z0.0000
M3S245
G4 P0.5; Tool Off

G0 Z0; move to z-safe height
G0 X3.0000 Y1121.5000
M3S0
G4 P0.5; Tool On
G1 F300 Z0.0000
G1 F15000 X747.0000 Y1121.5000 Z0.0000
M3S245
G4 P0.5; Tool Off

G0 Z0; move to z-safe height
G0 X747.0000 Y1127.5000
M3S0
G4 P0.5; Tool On
G1 F300 Z0.0000
G1 F15000 X3.0000 Y1127.5000 Z0.0000
M3S245
G4 P0.5; Tool Off

G0 Z0; move to z-safe height
G0 X3.0000 Y1133.5000
M3S0
G4 P0.5; Tool On
G1 F300 Z0.0000
G1 F15000 X747.0000 Y1133.5000 Z0.0000
M3S245
G4 P0.5; Tool Off

G0 Z0; move to z-safe height
G0 X747.0000 Y1139.5000
M3S0
G4 P0.5; Tool On
G1 F300 Z0.0000
G1 F15000 X3.0000 Y1139.5000 Z0.0000
M3S245
G4 P0.5; Tool Off

G0 Z0; move to z-safe height
G0 X3.0000 Y1145.5000
M3S0
G4 P0.5; Tool On
G1 F300 Z0.0000
G1 F15000 X747.0000 Y1145.5000 Z0.0000
M3S245
G4 P0.5; Tool Off

G0 Z0; move to z-safe height
G0 X747.0000 Y1151.5000
M3S0
G4 P0.5; Tool On
G1 F300 Z0.0000
G1 F15000 X3.0000 Y1151.5000 Z0.0000
M3S245
G4 P0.5; Tool Off

G0 Z0; move to z-safe height
G0 X3.0000 Y1157.5000
M3S0
G4 P0.5; Tool On
G1 F300 Z0.0000
G1 F15000 X747.0000 Y1157.5000 Z0.0000
M3S245
G4 P0.5; Tool Off

G0 Z0; move to z-safe height
G0 X747.0000 Y1163.5000
M3S0
G4 P0.5; Tool On
G1 F300 Z0.0000
G1 F15000 X3.0000 Y1163.5000 Z0.0000
M3S245
G4 P0.5; Tool Off

G0 Z0; move to z-safe height
G0 X3.0000 Y1169.5000
M3S0
G4 P0.5; Tool On
G1 F300 Z0.0000
G1 F15000 X747.0000 Y1169.5000 Z0.0000
M3S245
G4 P0.5; Tool Off

G0 Z0; move to z-safe height
G0 X747.0000 Y1175.5000
M3S0
G4 P0.5; Tool On
G1 F300 Z0.0000
G1 F15000 X3.0000 Y1175.5000 Z0.0000
M3S245
G4 P0.5; Tool Off

G0 Z0; move to z-safe height
G0 X3.0000 Y1181.5000
M3S0
G4 P0.5; Tool On
G1 F300 Z0.0000
G1 F15000 X747.0000 Y1181.5000 Z0.0000
M3S245
G4 P0.5; Tool Off

G0 Z0; move to z-safe height
G0 X747.0000 Y1187.5000
M3S0
G4 P0.5; Tool On
G1 F300 Z0.0000
G1 F15000 X3.0000 Y1187.5000 Z0.0000
M3S245
G4 P0.5; Tool Off

G0 Z0; move to z-safe height
G0 X3.0000 Y1193.5000
M3S0
G4 P0.5; Tool On
G1 F300 Z0.0000
G1 F15000 X747.0000 Y1193.5000 Z0.0000
M3S245
G4 P0.5; Tool Off

G0 Z0; move to z-safe height
G0 X747.0000 Y1199.5000
M3S0
G4 P0.5; Tool On
G1 F300 Z0.0000
G1 F15000 X3.0000 Y1199.5000 Z0.0000
M3S245
G4 P0.5; Tool Off

G0 Z0; move to z-safe height
G0 X3.0000 Y1205.5000
M3S0
G4 P0.5; Tool On
G1 F300 Z0.0000
G1 F15000 X747.0000 Y1205.5000 Z0.0000
M3S245
G4 P0.5; Tool Off

G0 Z0; move to z-safe height
G0 X747.0000 Y1211.5000
M3S0
G4 P0.5; Tool On
G1 F300 Z0.0000
G1 F15000 X3.0000 Y1211.5000 Z0.0000
M3S245
G4 P0.5; Tool Off

G0 Z0; move to z-safe height
G0 X3.0000 Y1217.5000
M3S0
G4 P0.5; Tool On
G1 F300 Z0.0000
G1 F15000 X747.0000 Y1217.5000 Z0.0000
M3S245
G4 P0.5; Tool Off

G0 Z0; move to z-safe height
G0 X747.0000 Y1223.5000
M3S0
G4 P0.5; Tool On
G1 F300 Z0.0000
G1 F15000 X3.0000 Y1223.5000 Z0.0000
M3S245
G4 P0.5; Tool Off

G0 Z0; move to z-safe height
G0 X3.0000 Y1229.5000
M3S0
G4 P0.5; Tool On
G1 F300 Z0.0000
G1 F15000 X747.0000 Y1229.5000 Z0.0000
M3S245
G4 P0.5; Tool Off

G0 Z0; move to z-safe height
G0 X747.0000 Y1235.5000
M3S0
G4 P0.5; Tool On
G1 F300 Z0.0000
G1 F15000 X3.0000 Y1235.5000 Z0.0000
M3S245
G4 P0.5; Tool Off

G0 Z0; move to z-safe height
G0 X3.0000 Y1241.5000
M3S0
G4 P0.5; Tool On
G1 F300 Z0.0000
G1 F15000 X747.0000 Y1241.5000 Z0.0000
M3S245
G4 P0.5; Tool Off

G0 Z0; move to z-safe height
G0 X747.0000 Y1247.5000
M3S0
G4 P0.5; Tool On
G1 F300 Z0.0000
G1 F15000 X3.0000 Y1247.5000 Z0.0000
M3S245
G4 P0.5; Tool Off

G0 Z0; move to z-safe height
G0 X3.0000 Y1253.5000
M3S0
G4 P0.5; Tool On
G1 F300 Z0.0000
G1 F15000 X747.0000 Y1253.5000 Z0.0000
M3S245
G4 P0.5; Tool Off

G0 Z0; move to z-safe height
G0 X747.0000 Y1259.5000
M3S0
G4 P0.5; Tool On
G1 F300 Z0.0000
G1 F15000 X3.0000 Y1259.5000 Z0.0000
M3S245
G4 P0.5; Tool Off

G0 Z0; move to z-safe height
G0 X3.0000 Y1265.5000
M3S0
G4 P0.5; Tool On
G1 F300 Z0.0000
G1 F15000 X747.0000 Y1265.5000 Z0.0000
M3S245
G4 P0.5; Tool Off

G0 Z0; move to z-safe height
G0 X747.0000 Y1271.5000
M3S0
G4 P0.5; Tool On
G1 F300 Z0.0000
G1 F15000 X3.0000 Y1271.5000 Z0.0000
M3S245
G4 P0.5; Tool Off

G0 Z0; move to z-safe height
G0 X3.0000 Y1277.5000
M3S0
G4 P0.5; Tool On
G1 F300 Z0.0000
G1 F15000 X747.0000 Y1277.5000 Z0.0000
M3S245
G4 P0.5; Tool Off

G0 Z0; move to z-safe height
G0 X747.0000 Y1283.5000
M3S0
G4 P0.5; Tool On
G1 F300 Z0.0000
G1 F15000 X3.0000 Y1283.5000 Z0.0000
M3S245
G4 P0.5; Tool Off

G0 Z0; move to z-safe height
G0 X3.0000 Y1289.5000
M3S0
G4 P0.5; Tool On
G1 F300 Z0.0000
G1 F15000 X747.0000 Y1289.5000 Z0.0000
M3S245
G4 P0.5; Tool Off

G0 Z0; move to z-safe height
G0 X747.0000 Y1295.5000
M3S0
G4 P0.5; Tool On
G1 F300 Z0.0000
G1 F15000 X3.0000 Y1295.5000 Z0.0000
M3S245
G4 P0.5; Tool Off

G0 Z0; move to z-safe height
G0 X3.0000 Y1301.5000
M3S0
G4 P0.5; Tool On
G1 F300 Z0.0000
G1 F15000 X747.0000 Y1301.5000 Z0.0000
M3S245
G4 P0.5; Tool Off

G0 Z0; move to z-safe height
G0 X747.0000 Y1307.5000
M3S0
G4 P0.5; Tool On
G1 F300 Z0.0000
G1 F15000 X3.0000 Y1307.5000 Z0.0000
M3S245
G4 P0.5; Tool Off

G0 Z0; move to z-safe height
G0 X3.0000 Y1313.5000
M3S0
G4 P0.5; Tool On
G1 F300 Z0.0000
G1 F15000 X747.0000 Y1313.5000 Z0.0000
M3S245
G4 P0.5; Tool Off

G0 Z0; move to z-safe height
G0 X747.0000 Y1319.5000
M3S0
G4 P0.5; Tool On
G1 F300 Z0.0000
G1 F15000 X3.0000 Y1319.5000 Z0.0000
M3S245
G4 P0.5; Tool Off

G0 Z0; move to z-safe height
G0 X3.0000 Y1325.5000
M3S0
G4 P0.5; Tool On
G1 F300 Z0.0000
G1 F15000 X747.0000 Y1325.5000 Z0.0000
M3S245
G4 P0.5; Tool Off

G0 Z0; move to z-safe height
G0 X747.0000 Y1331.5000
M3S0
G4 P0.5; Tool On
G1 F300 Z0.0000
G1 F15000 X3.0000 Y1331.5000 Z0.0000
M3S245
G4 P0.5; Tool Off

G0 Z0; move to z-safe height
G0 X3.0000 Y1337.5000
M3S0
G4 P0.5; Tool On
G1 F300 Z0.0000
G1 F15000 X747.0000 Y1337.5000 Z0.0000
M3S245
G4 P0.5; Tool Off

G0 Z0; move to z-safe height
G0 X747.0000 Y1343.5000
M3S0
G4 P0.5; Tool On
G1 F300 Z0.0000
G1 F15000 X3.0000 Y1343.5000 Z0.0000
M3S245
G4 P0.5; Tool Off

G0 Z0; move to z-safe height
G0 X3.0000 Y1349.5000
M3S0
G4 P0.5; Tool On
G1 F300 Z0.0000
G1 F15000 X747.0000 Y1349.5000 Z0.0000
M3S245
G4 P0.5; Tool Off

G0 Z0; move to z-safe height
G0 X747.0000 Y1355.5000
M3S0
G4 P0.5; Tool On
G1 F300 Z0.0000
G1 F15000 X3.0000 Y1355.5000 Z0.0000
M3S245
G4 P0.5; Tool Off

G0 Z0; move to z-safe height
G0 X3.0000 Y1361.5000
M3S0
G4 P0.5; Tool On
G1 F300 Z0.0000
G1 F15000 X747.0000 Y1361.5000 Z0.0000
M3S245
G4 P0.5; Tool Off

G0 Z0; move to z-safe height
G0 X747.0000 Y1367.5000
M3S0
G4 P0.5; Tool On
G1 F300 Z0.0000
G1 F15000 X3.0000 Y1367.5000 Z0.0000
M3S245
G4 P0.5; Tool Off

G0 Z0; move to z-safe height
G0 X3.0000 Y1373.5000
M3S0
G4 P0.5; Tool On
G1 F300 Z0.0000
G1 F15000 X747.0000 Y1373.5000 Z0.0000
M3S245
G4 P0.5; Tool Off

G0 Z0; move to z-safe height
G0 X747.0000 Y1379.5000
M3S0
G4 P0.5; Tool On
G1 F300 Z0.0000
G1 F15000 X3.0000 Y1379.5000 Z0.0000
M3S245
G4 P0.5; Tool Off

G0 Z0; move to z-safe height
G0 X3.0000 Y1385.5000
M3S0
G4 P0.5; Tool On
G1 F300 Z0.0000
G1 F15000 X747.0000 Y1385.5000 Z0.0000
M3S245
G4 P0.5; Tool Off

G0 Z0; move to z-safe height
G0 X747.0000 Y1391.5000
M3S0
G4 P0.5; Tool On
G1 F300 Z0.0000
G1 F15000 X3.0000 Y1391.5000 Z0.0000
M3S245
G4 P0.5; Tool Off

G0 Z0; move to z-safe height
G0 X3.0000 Y1397.5000
M3S0
G4 P0.5; Tool On
G1 F300 Z0.0000
G1 F15000 X747.0000 Y1397.5000 Z0.0000
M3S245
G4 P0.5; Tool Off

G0 Z0; move to z-safe height
G0 X747.0000 Y1403.5000
M3S0
G4 P0.5; Tool On
G1 F300 Z0.0000
G1 F15000 X3.0000 Y1403.5000 Z0.0000
M3S245
G4 P0.5; Tool Off

G0 Z0; move to z-safe height
G0 X3.0000 Y1409.5000
M3S0
G4 P0.5; Tool On
G1 F300 Z0.0000
G1 F15000 X747.0000 Y1409.5000 Z0.0000
M3S245
G4 P0.5; Tool Off

G0 Z0; move to z-safe height
G0 X747.0000 Y1415.5000
M3S0
G4 P0.5; Tool On
G1 F300 Z0.0000
G1 F15000 X3.0000 Y1415.5000 Z0.0000
M3S245
G4 P0.5; Tool Off

G0 Z0; move to z-safe height
G0 X3.0000 Y1421.5000
M3S0
G4 P0.5; Tool On
G1 F300 Z0.0000
G1 F15000 X747.0000 Y1421.5000 Z0.0000
M3S245
G4 P0.5; Tool Off

G0 Z0; move to z-safe height
G0 X747.0000 Y1427.5000
M3S0
G4 P0.5; Tool On
G1 F300 Z0.0000
G1 F15000 X3.0000 Y1427.5000 Z0.0000
M3S245
G4 P0.5; Tool Off

G0 Z0; move to z-safe height
G0 X3.0000 Y1433.5000
M3S0
G4 P0.5; Tool On
G1 F300 Z0.0000
G1 F15000 X747.0000 Y1433.5000 Z0.0000
M3S245
G4 P0.5; Tool Off

G0 Z0; move to z-safe height
G0 X747.0000 Y1439.5000
M3S0
G4 P0.5; Tool On
G1 F300 Z0.0000
G1 F15000 X3.0000 Y1439.5000 Z0.0000
M3S245
G4 P0.5; Tool Off

G0 Z0; move to z-safe height
G0 X3.0000 Y1445.5000
M3S0
G4 P0.5; Tool On
G1 F300 Z0.0000
G1 F15000 X747.0000 Y1445.5000 Z0.0000
M3S245
G4 P0.5; Tool Off

G0 Z0; move to z-safe height
G0 X747.0000 Y1451.5000
M3S0
G4 P0.5; Tool On
G1 F300 Z0.0000
G1 F15000 X3.0000 Y1451.5000 Z0.0000
M3S245
G4 P0.5; Tool Off

G0 Z0; move to z-safe height
G0 X3.0000 Y1457.5000
M3S0
G4 P0.5; Tool On
G1 F300 Z0.0000
G1 F15000 X747.0000 Y1457.5000 Z0.0000
M3S245
G4 P0.5; Tool Off

G0 Z0; move to z-safe height
G0 X747.0000 Y1463.5000
M3S0
G4 P0.5; Tool On
G1 F300 Z0.0000
G1 F15000 X3.0000 Y1463.5000 Z0.0000
M3S245
G4 P0.5; Tool Off

G0 Z0; move to z-safe height
G0 X3.0000 Y1469.5000
M3S0
G4 P0.5; Tool On
G1 F300 Z0.0000
G1 F15000 X747.0000 Y1469.5000 Z0.0000
M3S245
G4 P0.5; Tool Off

G0 Z0; move to z-safe height
G0 X747.0000 Y1475.5000
M3S0
G4 P0.5; Tool On
G1 F300 Z0.0000
G1 F15000 X3.0000 Y1475.5000 Z0.0000
M3S245
G4 P0.5; Tool Off

G0 Z0; move to z-safe height
G0 X3.0000 Y1481.5000
M3S0
G4 P0.5; Tool On
G1 F300 Z0.0000
G1 F15000 X747.0000 Y1481.5000 Z0.0000
M3S245
G4 P0.5; Tool Off

G0 Z0; move to z-safe height
G0 X747.0000 Y1487.5000
M3S0
G4 P0.5; Tool On
G1 F300 Z0.0000
G1 F15000 X3.0000 Y1487.5000 Z0.0000
M3S245
G4 P0.5; Tool Off

G0 Z0; move to z-safe height
G0 X3.0000 Y1493.5000
M3S0
G4 P0.5; Tool On
G1 F300 Z0.0000
G1 F15000 X747.0000 Y1493.5000 Z0.0000
M3S245
G4 P0.5; Tool Off
; retracting back to z-safe
G0 Z0

; Plotter Mode Complete
