; GCODE Generated by cam.openbuilds.com on 2023-11-01 
G21 ; mm-mode
G54; Work Coordinates
G21; mm-mode
G90; Absolute Positioning
; Plotter Mode Active

; Operation 0: Pen Plotter: (lines fill)
; Pen Diameter: 2

G0 Z0; move to z-safe height
G0 F1000 X7.0000 Y18.8600
M3S0
G4 P0.5; Tool On
G1 F300 Z0.0000
G1 F15000 X743.0000 Y18.8600 Z0.0000
M3S245
G4 P0.5; Tool Off

G0 Z0; move to z-safe height
G0 X743.0000 Y32.8600
M3S0
G4 P0.5; Tool On
G1 F300 Z0.0000
G1 F15000 X7.0000 Y32.8600 Z0.0000
M3S245
G4 P0.5; Tool Off

G0 Z0; move to z-safe height
G0 X7.0000 Y46.8600
M3S0
G4 P0.5; Tool On
G1 F300 Z0.0000
G1 F15000 X743.0000 Y46.8600 Z0.0000
M3S245
G4 P0.5; Tool Off

G0 Z0; move to z-safe height
G0 X743.0000 Y60.8600
M3S0
G4 P0.5; Tool On
G1 F300 Z0.0000
G1 F15000 X7.0000 Y60.8600 Z0.0000
M3S245
G4 P0.5; Tool Off

G0 Z0; move to z-safe height
G0 X7.0000 Y74.8600
M3S0
G4 P0.5; Tool On
G1 F300 Z0.0000
G1 F15000 X743.0000 Y74.8600 Z0.0000
M3S245
G4 P0.5; Tool Off

G0 Z0; move to z-safe height
G0 X743.0000 Y88.8600
M3S0
G4 P0.5; Tool On
G1 F300 Z0.0000
G1 F15000 X7.0000 Y88.8600 Z0.0000
M3S245
G4 P0.5; Tool Off

G0 Z0; move to z-safe height
G0 X7.0000 Y102.8600
M3S0
G4 P0.5; Tool On
G1 F300 Z0.0000
G1 F15000 X743.0000 Y102.8600 Z0.0000
M3S245
G4 P0.5; Tool Off

G0 Z0; move to z-safe height
G0 X743.0000 Y116.8600
M3S0
G4 P0.5; Tool On
G1 F300 Z0.0000
G1 F15000 X7.0000 Y116.8600 Z0.0000
M3S245
G4 P0.5; Tool Off

G0 Z0; move to z-safe height
G0 X7.0000 Y130.8600
M3S0
G4 P0.5; Tool On
G1 F300 Z0.0000
G1 F15000 X743.0000 Y130.8600 Z0.0000
M3S245
G4 P0.5; Tool Off

G0 Z0; move to z-safe height
G0 X743.0000 Y144.8600
M3S0
G4 P0.5; Tool On
G1 F300 Z0.0000
G1 F15000 X7.0000 Y144.8600 Z0.0000
M3S245
G4 P0.5; Tool Off

G0 Z0; move to z-safe height
G0 X7.0000 Y158.8600
M3S0
G4 P0.5; Tool On
G1 F300 Z0.0000
G1 F15000 X743.0000 Y158.8600 Z0.0000
M3S245
G4 P0.5; Tool Off

G0 Z0; move to z-safe height
G0 X743.0000 Y172.8600
M3S0
G4 P0.5; Tool On
G1 F300 Z0.0000
G1 F15000 X7.0000 Y172.8600 Z0.0000
M3S245
G4 P0.5; Tool Off

G0 Z0; move to z-safe height
G0 X7.0000 Y186.8600
M3S0
G4 P0.5; Tool On
G1 F300 Z0.0000
G1 F15000 X743.0000 Y186.8600 Z0.0000
M3S245
G4 P0.5; Tool Off

G0 Z0; move to z-safe height
G0 X743.0000 Y200.8600
M3S0
G4 P0.5; Tool On
G1 F300 Z0.0000
G1 F15000 X7.0000 Y200.8600 Z0.0000
M3S245
G4 P0.5; Tool Off

G0 Z0; move to z-safe height
G0 X7.0000 Y214.8600
M3S0
G4 P0.5; Tool On
G1 F300 Z0.0000
G1 F15000 X743.0000 Y214.8600 Z0.0000
M3S245
G4 P0.5; Tool Off

G0 Z0; move to z-safe height
G0 X743.0000 Y228.8600
M3S0
G4 P0.5; Tool On
G1 F300 Z0.0000
G1 F15000 X7.0000 Y228.8600 Z0.0000
M3S245
G4 P0.5; Tool Off

G0 Z0; move to z-safe height
G0 X7.0000 Y242.8600
M3S0
G4 P0.5; Tool On
G1 F300 Z0.0000
G1 F15000 X743.0000 Y242.8600 Z0.0000
M3S245
G4 P0.5; Tool Off

G0 Z0; move to z-safe height
G0 X743.0000 Y256.8600
M3S0
G4 P0.5; Tool On
G1 F300 Z0.0000
G1 F15000 X7.0000 Y256.8600 Z0.0000
M3S245
G4 P0.5; Tool Off

G0 Z0; move to z-safe height
G0 X7.0000 Y270.8600
M3S0
G4 P0.5; Tool On
G1 F300 Z0.0000
G1 F15000 X743.0000 Y270.8600 Z0.0000
M3S245
G4 P0.5; Tool Off

G0 Z0; move to z-safe height
G0 X743.0000 Y284.8600
M3S0
G4 P0.5; Tool On
G1 F300 Z0.0000
G1 F15000 X7.0000 Y284.8600 Z0.0000
M3S245
G4 P0.5; Tool Off

G0 Z0; move to z-safe height
G0 X7.0000 Y298.8600
M3S0
G4 P0.5; Tool On
G1 F300 Z0.0000
G1 F15000 X743.0000 Y298.8600 Z0.0000
M3S245
G4 P0.5; Tool Off

G0 Z0; move to z-safe height
G0 X743.0000 Y312.8600
M3S0
G4 P0.5; Tool On
G1 F300 Z0.0000
G1 F15000 X7.0000 Y312.8600 Z0.0000
M3S245
G4 P0.5; Tool Off

G0 Z0; move to z-safe height
G0 X7.0000 Y326.8600
M3S0
G4 P0.5; Tool On
G1 F300 Z0.0000
G1 F15000 X743.0000 Y326.8600 Z0.0000
M3S245
G4 P0.5; Tool Off

G0 Z0; move to z-safe height
G0 X743.0000 Y340.8600
M3S0
G4 P0.5; Tool On
G1 F300 Z0.0000
G1 F15000 X7.0000 Y340.8600 Z0.0000
M3S245
G4 P0.5; Tool Off

G0 Z0; move to z-safe height
G0 X7.0000 Y354.8600
M3S0
G4 P0.5; Tool On
G1 F300 Z0.0000
G1 F15000 X743.0000 Y354.8600 Z0.0000
M3S245
G4 P0.5; Tool Off

G0 Z0; move to z-safe height
G0 X743.0000 Y368.8600
M3S0
G4 P0.5; Tool On
G1 F300 Z0.0000
G1 F15000 X7.0000 Y368.8600 Z0.0000
M3S245
G4 P0.5; Tool Off

G0 Z0; move to z-safe height
G0 X7.0000 Y382.8600
M3S0
G4 P0.5; Tool On
G1 F300 Z0.0000
G1 F15000 X743.0000 Y382.8600 Z0.0000
M3S245
G4 P0.5; Tool Off

G0 Z0; move to z-safe height
G0 X743.0000 Y396.8600
M3S0
G4 P0.5; Tool On
G1 F300 Z0.0000
G1 F15000 X7.0000 Y396.8600 Z0.0000
M3S245
G4 P0.5; Tool Off

G0 Z0; move to z-safe height
G0 X7.0000 Y410.8600
M3S0
G4 P0.5; Tool On
G1 F300 Z0.0000
G1 F15000 X743.0000 Y410.8600 Z0.0000
M3S245
G4 P0.5; Tool Off

G0 Z0; move to z-safe height
G0 X743.0000 Y424.8600
M3S0
G4 P0.5; Tool On
G1 F300 Z0.0000
G1 F15000 X7.0000 Y424.8600 Z0.0000
M3S245
G4 P0.5; Tool Off

G0 Z0; move to z-safe height
G0 X7.0000 Y438.8600
M3S0
G4 P0.5; Tool On
G1 F300 Z0.0000
G1 F15000 X743.0000 Y438.8600 Z0.0000
M3S245
G4 P0.5; Tool Off

G0 Z0; move to z-safe height
G0 X743.0000 Y452.8600
M3S0
G4 P0.5; Tool On
G1 F300 Z0.0000
G1 F15000 X7.0000 Y452.8600 Z0.0000
M3S245
G4 P0.5; Tool Off

G0 Z0; move to z-safe height
G0 X7.0000 Y466.8600
M3S0
G4 P0.5; Tool On
G1 F300 Z0.0000
G1 F15000 X743.0000 Y466.8600 Z0.0000
M3S245
G4 P0.5; Tool Off

G0 Z0; move to z-safe height
G0 X743.0000 Y480.8600
M3S0
G4 P0.5; Tool On
G1 F300 Z0.0000
G1 F15000 X7.0000 Y480.8600 Z0.0000
M3S245
G4 P0.5; Tool Off

G0 Z0; move to z-safe height
G0 X7.0000 Y494.8600
M3S0
G4 P0.5; Tool On
G1 F300 Z0.0000
G1 F15000 X743.0000 Y494.8600 Z0.0000
M3S245
G4 P0.5; Tool Off

G0 Z0; move to z-safe height
G0 X743.0000 Y508.8600
M3S0
G4 P0.5; Tool On
G1 F300 Z0.0000
G1 F15000 X7.0000 Y508.8600 Z0.0000
M3S245
G4 P0.5; Tool Off

G0 Z0; move to z-safe height
G0 X7.0000 Y522.8600
M3S0
G4 P0.5; Tool On
G1 F300 Z0.0000
G1 F15000 X743.0000 Y522.8600 Z0.0000
M3S245
G4 P0.5; Tool Off

G0 Z0; move to z-safe height
G0 X743.0000 Y536.8600
M3S0
G4 P0.5; Tool On
G1 F300 Z0.0000
G1 F15000 X7.0000 Y536.8600 Z0.0000
M3S245
G4 P0.5; Tool Off

G0 Z0; move to z-safe height
G0 X7.0000 Y550.8600
M3S0
G4 P0.5; Tool On
G1 F300 Z0.0000
G1 F15000 X743.0000 Y550.8600 Z0.0000
M3S245
G4 P0.5; Tool Off

G0 Z0; move to z-safe height
G0 X743.0000 Y564.8600
M3S0
G4 P0.5; Tool On
G1 F300 Z0.0000
G1 F15000 X7.0000 Y564.8600 Z0.0000
M3S245
G4 P0.5; Tool Off

G0 Z0; move to z-safe height
G0 X7.0000 Y578.8600
M3S0
G4 P0.5; Tool On
G1 F300 Z0.0000
G1 F15000 X743.0000 Y578.8600 Z0.0000
M3S245
G4 P0.5; Tool Off

G0 Z0; move to z-safe height
G0 X743.0000 Y592.8600
M3S0
G4 P0.5; Tool On
G1 F300 Z0.0000
G1 F15000 X7.0000 Y592.8600 Z0.0000
M3S245
G4 P0.5; Tool Off

G0 Z0; move to z-safe height
G0 X7.0000 Y606.8600
M3S0
G4 P0.5; Tool On
G1 F300 Z0.0000
G1 F15000 X743.0000 Y606.8600 Z0.0000
M3S245
G4 P0.5; Tool Off

G0 Z0; move to z-safe height
G0 X743.0000 Y620.8600
M3S0
G4 P0.5; Tool On
G1 F300 Z0.0000
G1 F15000 X7.0000 Y620.8600 Z0.0000
M3S245
G4 P0.5; Tool Off

G0 Z0; move to z-safe height
G0 X7.0000 Y634.8600
M3S0
G4 P0.5; Tool On
G1 F300 Z0.0000
G1 F15000 X743.0000 Y634.8600 Z0.0000
M3S245
G4 P0.5; Tool Off

G0 Z0; move to z-safe height
G0 X743.0000 Y648.8600
M3S0
G4 P0.5; Tool On
G1 F300 Z0.0000
G1 F15000 X7.0000 Y648.8600 Z0.0000
M3S245
G4 P0.5; Tool Off

G0 Z0; move to z-safe height
G0 X7.0000 Y662.8600
M3S0
G4 P0.5; Tool On
G1 F300 Z0.0000
G1 F15000 X743.0000 Y662.8600 Z0.0000
M3S245
G4 P0.5; Tool Off

G0 Z0; move to z-safe height
G0 X743.0000 Y676.8600
M3S0
G4 P0.5; Tool On
G1 F300 Z0.0000
G1 F15000 X7.0000 Y676.8600 Z0.0000
M3S245
G4 P0.5; Tool Off

G0 Z0; move to z-safe height
G0 X7.0000 Y690.8600
M3S0
G4 P0.5; Tool On
G1 F300 Z0.0000
G1 F15000 X743.0000 Y690.8600 Z0.0000
M3S245
G4 P0.5; Tool Off

G0 Z0; move to z-safe height
G0 X743.0000 Y704.8600
M3S0
G4 P0.5; Tool On
G1 F300 Z0.0000
G1 F15000 X7.0000 Y704.8600 Z0.0000
M3S245
G4 P0.5; Tool Off

G0 Z0; move to z-safe height
G0 X7.0000 Y718.8600
M3S0
G4 P0.5; Tool On
G1 F300 Z0.0000
G1 F15000 X743.0000 Y718.8600 Z0.0000
M3S245
G4 P0.5; Tool Off

G0 Z0; move to z-safe height
G0 X743.0000 Y732.8600
M3S0
G4 P0.5; Tool On
G1 F300 Z0.0000
G1 F15000 X7.0000 Y732.8600 Z0.0000
M3S245
G4 P0.5; Tool Off

G0 Z0; move to z-safe height
G0 X7.0000 Y746.8600
M3S0
G4 P0.5; Tool On
G1 F300 Z0.0000
G1 F15000 X743.0000 Y746.8600 Z0.0000
M3S245
G4 P0.5; Tool Off

G0 Z0; move to z-safe height
G0 X743.0000 Y760.8600
M3S0
G4 P0.5; Tool On
G1 F300 Z0.0000
G1 F15000 X7.0000 Y760.8600 Z0.0000
M3S245
G4 P0.5; Tool Off

G0 Z0; move to z-safe height
G0 X7.0000 Y774.8600
M3S0
G4 P0.5; Tool On
G1 F300 Z0.0000
G1 F15000 X743.0000 Y774.8600 Z0.0000
M3S245
G4 P0.5; Tool Off

G0 Z0; move to z-safe height
G0 X743.0000 Y788.8600
M3S0
G4 P0.5; Tool On
G1 F300 Z0.0000
G1 F15000 X7.0000 Y788.8600 Z0.0000
M3S245
G4 P0.5; Tool Off

G0 Z0; move to z-safe height
G0 X7.0000 Y802.8600
M3S0
G4 P0.5; Tool On
G1 F300 Z0.0000
G1 F15000 X743.0000 Y802.8600 Z0.0000
M3S245
G4 P0.5; Tool Off

G0 Z0; move to z-safe height
G0 X743.0000 Y816.8600
M3S0
G4 P0.5; Tool On
G1 F300 Z0.0000
G1 F15000 X7.0000 Y816.8600 Z0.0000
M3S245
G4 P0.5; Tool Off

G0 Z0; move to z-safe height
G0 X7.0000 Y830.8600
M3S0
G4 P0.5; Tool On
G1 F300 Z0.0000
G1 F15000 X743.0000 Y830.8600 Z0.0000
M3S245
G4 P0.5; Tool Off

G0 Z0; move to z-safe height
G0 X743.0000 Y844.8600
M3S0
G4 P0.5; Tool On
G1 F300 Z0.0000
G1 F15000 X7.0000 Y844.8600 Z0.0000
M3S245
G4 P0.5; Tool Off

G0 Z0; move to z-safe height
G0 X7.0000 Y858.8600
M3S0
G4 P0.5; Tool On
G1 F300 Z0.0000
G1 F15000 X743.0000 Y858.8600 Z0.0000
M3S245
G4 P0.5; Tool Off

G0 Z0; move to z-safe height
G0 X743.0000 Y872.8600
M3S0
G4 P0.5; Tool On
G1 F300 Z0.0000
G1 F15000 X7.0000 Y872.8600 Z0.0000
M3S245
G4 P0.5; Tool Off

G0 Z0; move to z-safe height
G0 X7.0000 Y886.8600
M3S0
G4 P0.5; Tool On
G1 F300 Z0.0000
G1 F15000 X743.0000 Y886.8600 Z0.0000
M3S245
G4 P0.5; Tool Off

G0 Z0; move to z-safe height
G0 X743.0000 Y900.8600
M3S0
G4 P0.5; Tool On
G1 F300 Z0.0000
G1 F15000 X7.0000 Y900.8600 Z0.0000
M3S245
G4 P0.5; Tool Off

G0 Z0; move to z-safe height
G0 X7.0000 Y914.8600
M3S0
G4 P0.5; Tool On
G1 F300 Z0.0000
G1 F15000 X743.0000 Y914.8600 Z0.0000
M3S245
G4 P0.5; Tool Off

G0 Z0; move to z-safe height
G0 X743.0000 Y928.8600
M3S0
G4 P0.5; Tool On
G1 F300 Z0.0000
G1 F15000 X7.0000 Y928.8600 Z0.0000
M3S245
G4 P0.5; Tool Off

G0 Z0; move to z-safe height
G0 X7.0000 Y942.8600
M3S0
G4 P0.5; Tool On
G1 F300 Z0.0000
G1 F15000 X743.0000 Y942.8600 Z0.0000
M3S245
G4 P0.5; Tool Off

G0 Z0; move to z-safe height
G0 X743.0000 Y956.8600
M3S0
G4 P0.5; Tool On
G1 F300 Z0.0000
G1 F15000 X7.0000 Y956.8600 Z0.0000
M3S245
G4 P0.5; Tool Off

G0 Z0; move to z-safe height
G0 X7.0000 Y970.8600
M3S0
G4 P0.5; Tool On
G1 F300 Z0.0000
G1 F15000 X743.0000 Y970.8600 Z0.0000
M3S245
G4 P0.5; Tool Off

G0 Z0; move to z-safe height
G0 X743.0000 Y984.8600
M3S0
G4 P0.5; Tool On
G1 F300 Z0.0000
G1 F15000 X7.0000 Y984.8600 Z0.0000
M3S245
G4 P0.5; Tool Off

G0 Z0; move to z-safe height
G0 X7.0000 Y998.8600
M3S0
G4 P0.5; Tool On
G1 F300 Z0.0000
G1 F15000 X743.0000 Y998.8600 Z0.0000
M3S245
G4 P0.5; Tool Off

G0 Z0; move to z-safe height
G0 X743.0000 Y1012.8600
M3S0
G4 P0.5; Tool On
G1 F300 Z0.0000
G1 F15000 X7.0000 Y1012.8600 Z0.0000
M3S245
G4 P0.5; Tool Off

G0 Z0; move to z-safe height
G0 X7.0000 Y1026.8600
M3S0
G4 P0.5; Tool On
G1 F300 Z0.0000
G1 F15000 X743.0000 Y1026.8600 Z0.0000
M3S245
G4 P0.5; Tool Off

G0 Z0; move to z-safe height
G0 X743.0000 Y1040.8600
M3S0
G4 P0.5; Tool On
G1 F300 Z0.0000
G1 F15000 X7.0000 Y1040.8600 Z0.0000
M3S245
G4 P0.5; Tool Off

G0 Z0; move to z-safe height
G0 X7.0000 Y1054.8600
M3S0
G4 P0.5; Tool On
G1 F300 Z0.0000
G1 F15000 X743.0000 Y1054.8600 Z0.0000
M3S245
G4 P0.5; Tool Off

G0 Z0; move to z-safe height
G0 X743.0000 Y1068.8600
M3S0
G4 P0.5; Tool On
G1 F300 Z0.0000
G1 F15000 X7.0000 Y1068.8600 Z0.0000
M3S245
G4 P0.5; Tool Off

G0 Z0; move to z-safe height
G0 X7.0000 Y1082.8600
M3S0
G4 P0.5; Tool On
G1 F300 Z0.0000
G1 F15000 X743.0000 Y1082.8600 Z0.0000
M3S245
G4 P0.5; Tool Off

G0 Z0; move to z-safe height
G0 X743.0000 Y1096.8600
M3S0
G4 P0.5; Tool On
G1 F300 Z0.0000
G1 F15000 X7.0000 Y1096.8600 Z0.0000
M3S245
G4 P0.5; Tool Off

G0 Z0; move to z-safe height
G0 X7.0000 Y1110.8600
M3S0
G4 P0.5; Tool On
G1 F300 Z0.0000
G1 F15000 X743.0000 Y1110.8600 Z0.0000
M3S245
G4 P0.5; Tool Off

G0 Z0; move to z-safe height
G0 X743.0000 Y1124.8600
M3S0
G4 P0.5; Tool On
G1 F300 Z0.0000
G1 F15000 X7.0000 Y1124.8600 Z0.0000
M3S245
G4 P0.5; Tool Off

G0 Z0; move to z-safe height
G0 X7.0000 Y1138.8600
M3S0
G4 P0.5; Tool On
G1 F300 Z0.0000
G1 F15000 X743.0000 Y1138.8600 Z0.0000
M3S245
G4 P0.5; Tool Off

G0 Z0; move to z-safe height
G0 X743.0000 Y1152.8600
M3S0
G4 P0.5; Tool On
G1 F300 Z0.0000
G1 F15000 X7.0000 Y1152.8600 Z0.0000
M3S245
G4 P0.5; Tool Off

G0 Z0; move to z-safe height
G0 X7.0000 Y1166.8600
M3S0
G4 P0.5; Tool On
G1 F300 Z0.0000
G1 F15000 X743.0000 Y1166.8600 Z0.0000
M3S245
G4 P0.5; Tool Off

G0 Z0; move to z-safe height
G0 X743.0000 Y1180.8600
M3S0
G4 P0.5; Tool On
G1 F300 Z0.0000
G1 F15000 X7.0000 Y1180.8600 Z0.0000
M3S245
G4 P0.5; Tool Off

G0 Z0; move to z-safe height
G0 X7.0000 Y1194.8600
M3S0
G4 P0.5; Tool On
G1 F300 Z0.0000
G1 F15000 X743.0000 Y1194.8600 Z0.0000
M3S245
G4 P0.5; Tool Off

G0 Z0; move to z-safe height
G0 X743.0000 Y1208.8600
M3S0
G4 P0.5; Tool On
G1 F300 Z0.0000
G1 F15000 X7.0000 Y1208.8600 Z0.0000
M3S245
G4 P0.5; Tool Off

G0 Z0; move to z-safe height
G0 X7.0000 Y1222.8600
M3S0
G4 P0.5; Tool On
G1 F300 Z0.0000
G1 F15000 X743.0000 Y1222.8600 Z0.0000
M3S245
G4 P0.5; Tool Off

G0 Z0; move to z-safe height
G0 X743.0000 Y1236.8600
M3S0
G4 P0.5; Tool On
G1 F300 Z0.0000
G1 F15000 X7.0000 Y1236.8600 Z0.0000
M3S245
G4 P0.5; Tool Off

G0 Z0; move to z-safe height
G0 X7.0000 Y1250.8600
M3S0
G4 P0.5; Tool On
G1 F300 Z0.0000
G1 F15000 X743.0000 Y1250.8600 Z0.0000
M3S245
G4 P0.5; Tool Off

G0 Z0; move to z-safe height
G0 X743.0000 Y1264.8600
M3S0
G4 P0.5; Tool On
G1 F300 Z0.0000
G1 F15000 X7.0000 Y1264.8600 Z0.0000
M3S245
G4 P0.5; Tool Off

G0 Z0; move to z-safe height
G0 X7.0000 Y1278.8600
M3S0
G4 P0.5; Tool On
G1 F300 Z0.0000
G1 F15000 X743.0000 Y1278.8600 Z0.0000
M3S245
G4 P0.5; Tool Off

G0 Z0; move to z-safe height
G0 X743.0000 Y1292.8600
M3S0
G4 P0.5; Tool On
G1 F300 Z0.0000
G1 F15000 X7.0000 Y1292.8600 Z0.0000
M3S245
G4 P0.5; Tool Off

G0 Z0; move to z-safe height
G0 X7.0000 Y1306.8600
M3S0
G4 P0.5; Tool On
G1 F300 Z0.0000
G1 F15000 X743.0000 Y1306.8600 Z0.0000
M3S245
G4 P0.5; Tool Off

G0 Z0; move to z-safe height
G0 X743.0000 Y1320.8600
M3S0
G4 P0.5; Tool On
G1 F300 Z0.0000
G1 F15000 X7.0000 Y1320.8600 Z0.0000
M3S245
G4 P0.5; Tool Off

G0 Z0; move to z-safe height
G0 X7.0000 Y1334.8600
M3S0
G4 P0.5; Tool On
G1 F300 Z0.0000
G1 F15000 X743.0000 Y1334.8600 Z0.0000
M3S245
G4 P0.5; Tool Off

G0 Z0; move to z-safe height
G0 X743.0000 Y1348.8600
M3S0
G4 P0.5; Tool On
G1 F300 Z0.0000
G1 F15000 X7.0000 Y1348.8600 Z0.0000
M3S245
G4 P0.5; Tool Off

G0 Z0; move to z-safe height
G0 X7.0000 Y1362.8600
M3S0
G4 P0.5; Tool On
G1 F300 Z0.0000
G1 F15000 X743.0000 Y1362.8600 Z0.0000
M3S245
G4 P0.5; Tool Off

G0 Z0; move to z-safe height
G0 X743.0000 Y1376.8600
M3S0
G4 P0.5; Tool On
G1 F300 Z0.0000
G1 F15000 X7.0000 Y1376.8600 Z0.0000
M3S245
G4 P0.5; Tool Off

G0 Z0; move to z-safe height
G0 X7.0000 Y1390.8600
M3S0
G4 P0.5; Tool On
G1 F300 Z0.0000
G1 F15000 X743.0000 Y1390.8600 Z0.0000
M3S245
G4 P0.5; Tool Off

G0 Z0; move to z-safe height
G0 X743.0000 Y1404.8600
M3S0
G4 P0.5; Tool On
G1 F300 Z0.0000
G1 F15000 X7.0000 Y1404.8600 Z0.0000
M3S245
G4 P0.5; Tool Off

G0 Z0; move to z-safe height
G0 X7.0000 Y1418.8600
M3S0
G4 P0.5; Tool On
G1 F300 Z0.0000
G1 F15000 X743.0000 Y1418.8600 Z0.0000
M3S245
G4 P0.5; Tool Off

G0 Z0; move to z-safe height
G0 X743.0000 Y1432.8600
M3S0
G4 P0.5; Tool On
G1 F300 Z0.0000
G1 F15000 X7.0000 Y1432.8600 Z0.0000
M3S245
G4 P0.5; Tool Off

G0 Z0; move to z-safe height
G0 X7.0000 Y1446.8600
M3S0
G4 P0.5; Tool On
G1 F300 Z0.0000
G1 F15000 X743.0000 Y1446.8600 Z0.0000
M3S245
G4 P0.5; Tool Off

G0 Z0; move to z-safe height
G0 X743.0000 Y1460.8600
M3S0
G4 P0.5; Tool On
G1 F300 Z0.0000
G1 F15000 X7.0000 Y1460.8600 Z0.0000
M3S245
G4 P0.5; Tool Off

G0 Z0; move to z-safe height
G0 X7.0000 Y1474.8600
M3S0
G4 P0.5; Tool On
G1 F300 Z0.0000
G1 F15000 X743.0000 Y1474.8600 Z0.0000
M3S245
G4 P0.5; Tool Off

G0 Z0; move to z-safe height
G0 X743.0000 Y1488.8600
M3S0
G4 P0.5; Tool On
G1 F300 Z0.0000
G1 F15000 X7.0000 Y1488.8600 Z0.0000
M3S245
G4 P0.5; Tool Off
; retracting back to z-safe
G0 Z0

; Plotter Mode Complete
