; GCODE Generated by cam.openbuilds.com on 2023-11-01 
G21 ; mm-mode
G54; Work Coordinates
G21; mm-mode
G90; Absolute Positioning
; Plotter Mode Active

; Operation 0: Pen Plotter: (lines fill)
; Pen Diameter: 2

G0 Z0; move to z-safe height
G0 F1000 X1.0000 Y2.8200
M3S0
G4 P0.5; Tool On
G1 F300 Z0.0000
G1 F15000 X749.0000 Y2.8200 Z0.0000
M3S245
G4 P0.5; Tool Off

G0 Z0; move to z-safe height
G0 X749.0000 Y4.8200
M3S0
G4 P0.5; Tool On
G1 F300 Z0.0000
G1 F15000 X1.0000 Y4.8200 Z0.0000
M3S245
G4 P0.5; Tool Off

G0 Z0; move to z-safe height
G0 X1.0000 Y6.8200
M3S0
G4 P0.5; Tool On
G1 F300 Z0.0000
G1 F15000 X749.0000 Y6.8200 Z0.0000
M3S245
G4 P0.5; Tool Off

G0 Z0; move to z-safe height
G0 X749.0000 Y8.8200
M3S0
G4 P0.5; Tool On
G1 F300 Z0.0000
G1 F15000 X1.0000 Y8.8200 Z0.0000
M3S245
G4 P0.5; Tool Off

G0 Z0; move to z-safe height
G0 X1.0000 Y10.8200
M3S0
G4 P0.5; Tool On
G1 F300 Z0.0000
G1 F15000 X749.0000 Y10.8200 Z0.0000
M3S245
G4 P0.5; Tool Off

G0 Z0; move to z-safe height
G0 X749.0000 Y12.8200
M3S0
G4 P0.5; Tool On
G1 F300 Z0.0000
G1 F15000 X1.0000 Y12.8200 Z0.0000
M3S245
G4 P0.5; Tool Off

G0 Z0; move to z-safe height
G0 X1.0000 Y14.8200
M3S0
G4 P0.5; Tool On
G1 F300 Z0.0000
G1 F15000 X749.0000 Y14.8200 Z0.0000
M3S245
G4 P0.5; Tool Off

G0 Z0; move to z-safe height
G0 X749.0000 Y16.8200
M3S0
G4 P0.5; Tool On
G1 F300 Z0.0000
G1 F15000 X1.0000 Y16.8200 Z0.0000
M3S245
G4 P0.5; Tool Off

G0 Z0; move to z-safe height
G0 X1.0000 Y18.8200
M3S0
G4 P0.5; Tool On
G1 F300 Z0.0000
G1 F15000 X749.0000 Y18.8200 Z0.0000
M3S245
G4 P0.5; Tool Off

G0 Z0; move to z-safe height
G0 X749.0000 Y20.8200
M3S0
G4 P0.5; Tool On
G1 F300 Z0.0000
G1 F15000 X1.0000 Y20.8200 Z0.0000
M3S245
G4 P0.5; Tool Off

G0 Z0; move to z-safe height
G0 X1.0000 Y22.8200
M3S0
G4 P0.5; Tool On
G1 F300 Z0.0000
G1 F15000 X749.0000 Y22.8200 Z0.0000
M3S245
G4 P0.5; Tool Off

G0 Z0; move to z-safe height
G0 X749.0000 Y24.8200
M3S0
G4 P0.5; Tool On
G1 F300 Z0.0000
G1 F15000 X1.0000 Y24.8200 Z0.0000
M3S245
G4 P0.5; Tool Off

G0 Z0; move to z-safe height
G0 X1.0000 Y26.8200
M3S0
G4 P0.5; Tool On
G1 F300 Z0.0000
G1 F15000 X749.0000 Y26.8200 Z0.0000
M3S245
G4 P0.5; Tool Off

G0 Z0; move to z-safe height
G0 X749.0000 Y28.8200
M3S0
G4 P0.5; Tool On
G1 F300 Z0.0000
G1 F15000 X1.0000 Y28.8200 Z0.0000
M3S245
G4 P0.5; Tool Off

G0 Z0; move to z-safe height
G0 X1.0000 Y30.8200
M3S0
G4 P0.5; Tool On
G1 F300 Z0.0000
G1 F15000 X749.0000 Y30.8200 Z0.0000
M3S245
G4 P0.5; Tool Off

G0 Z0; move to z-safe height
G0 X749.0000 Y32.8200
M3S0
G4 P0.5; Tool On
G1 F300 Z0.0000
G1 F15000 X1.0000 Y32.8200 Z0.0000
M3S245
G4 P0.5; Tool Off

G0 Z0; move to z-safe height
G0 X1.0000 Y34.8200
M3S0
G4 P0.5; Tool On
G1 F300 Z0.0000
G1 F15000 X749.0000 Y34.8200 Z0.0000
M3S245
G4 P0.5; Tool Off

G0 Z0; move to z-safe height
G0 X749.0000 Y36.8200
M3S0
G4 P0.5; Tool On
G1 F300 Z0.0000
G1 F15000 X1.0000 Y36.8200 Z0.0000
M3S245
G4 P0.5; Tool Off

G0 Z0; move to z-safe height
G0 X1.0000 Y38.8200
M3S0
G4 P0.5; Tool On
G1 F300 Z0.0000
G1 F15000 X749.0000 Y38.8200 Z0.0000
M3S245
G4 P0.5; Tool Off

G0 Z0; move to z-safe height
G0 X749.0000 Y40.8200
M3S0
G4 P0.5; Tool On
G1 F300 Z0.0000
G1 F15000 X1.0000 Y40.8200 Z0.0000
M3S245
G4 P0.5; Tool Off

G0 Z0; move to z-safe height
G0 X1.0000 Y42.8200
M3S0
G4 P0.5; Tool On
G1 F300 Z0.0000
G1 F15000 X749.0000 Y42.8200 Z0.0000
M3S245
G4 P0.5; Tool Off

G0 Z0; move to z-safe height
G0 X749.0000 Y44.8200
M3S0
G4 P0.5; Tool On
G1 F300 Z0.0000
G1 F15000 X1.0000 Y44.8200 Z0.0000
M3S245
G4 P0.5; Tool Off

G0 Z0; move to z-safe height
G0 X1.0000 Y46.8200
M3S0
G4 P0.5; Tool On
G1 F300 Z0.0000
G1 F15000 X749.0000 Y46.8200 Z0.0000
M3S245
G4 P0.5; Tool Off

G0 Z0; move to z-safe height
G0 X749.0000 Y48.8200
M3S0
G4 P0.5; Tool On
G1 F300 Z0.0000
G1 F15000 X1.0000 Y48.8200 Z0.0000
M3S245
G4 P0.5; Tool Off

G0 Z0; move to z-safe height
G0 X1.0000 Y50.8200
M3S0
G4 P0.5; Tool On
G1 F300 Z0.0000
G1 F15000 X749.0000 Y50.8200 Z0.0000
M3S245
G4 P0.5; Tool Off

G0 Z0; move to z-safe height
G0 X749.0000 Y52.8200
M3S0
G4 P0.5; Tool On
G1 F300 Z0.0000
G1 F15000 X1.0000 Y52.8200 Z0.0000
M3S245
G4 P0.5; Tool Off

G0 Z0; move to z-safe height
G0 X1.0000 Y54.8200
M3S0
G4 P0.5; Tool On
G1 F300 Z0.0000
G1 F15000 X749.0000 Y54.8200 Z0.0000
M3S245
G4 P0.5; Tool Off

G0 Z0; move to z-safe height
G0 X749.0000 Y56.8200
M3S0
G4 P0.5; Tool On
G1 F300 Z0.0000
G1 F15000 X1.0000 Y56.8200 Z0.0000
M3S245
G4 P0.5; Tool Off

G0 Z0; move to z-safe height
G0 X1.0000 Y58.8200
M3S0
G4 P0.5; Tool On
G1 F300 Z0.0000
G1 F15000 X749.0000 Y58.8200 Z0.0000
M3S245
G4 P0.5; Tool Off

G0 Z0; move to z-safe height
G0 X749.0000 Y60.8200
M3S0
G4 P0.5; Tool On
G1 F300 Z0.0000
G1 F15000 X1.0000 Y60.8200 Z0.0000
M3S245
G4 P0.5; Tool Off

G0 Z0; move to z-safe height
G0 X1.0000 Y62.8200
M3S0
G4 P0.5; Tool On
G1 F300 Z0.0000
G1 F15000 X749.0000 Y62.8200 Z0.0000
M3S245
G4 P0.5; Tool Off

G0 Z0; move to z-safe height
G0 X749.0000 Y64.8200
M3S0
G4 P0.5; Tool On
G1 F300 Z0.0000
G1 F15000 X1.0000 Y64.8200 Z0.0000
M3S245
G4 P0.5; Tool Off

G0 Z0; move to z-safe height
G0 X1.0000 Y66.8200
M3S0
G4 P0.5; Tool On
G1 F300 Z0.0000
G1 F15000 X749.0000 Y66.8200 Z0.0000
M3S245
G4 P0.5; Tool Off

G0 Z0; move to z-safe height
G0 X749.0000 Y68.8200
M3S0
G4 P0.5; Tool On
G1 F300 Z0.0000
G1 F15000 X1.0000 Y68.8200 Z0.0000
M3S245
G4 P0.5; Tool Off

G0 Z0; move to z-safe height
G0 X1.0000 Y70.8200
M3S0
G4 P0.5; Tool On
G1 F300 Z0.0000
G1 F15000 X749.0000 Y70.8200 Z0.0000
M3S245
G4 P0.5; Tool Off

G0 Z0; move to z-safe height
G0 X749.0000 Y72.8200
M3S0
G4 P0.5; Tool On
G1 F300 Z0.0000
G1 F15000 X1.0000 Y72.8200 Z0.0000
M3S245
G4 P0.5; Tool Off

G0 Z0; move to z-safe height
G0 X1.0000 Y74.8200
M3S0
G4 P0.5; Tool On
G1 F300 Z0.0000
G1 F15000 X749.0000 Y74.8200 Z0.0000
M3S245
G4 P0.5; Tool Off

G0 Z0; move to z-safe height
G0 X749.0000 Y76.8200
M3S0
G4 P0.5; Tool On
G1 F300 Z0.0000
G1 F15000 X1.0000 Y76.8200 Z0.0000
M3S245
G4 P0.5; Tool Off

G0 Z0; move to z-safe height
G0 X1.0000 Y78.8200
M3S0
G4 P0.5; Tool On
G1 F300 Z0.0000
G1 F15000 X749.0000 Y78.8200 Z0.0000
M3S245
G4 P0.5; Tool Off

G0 Z0; move to z-safe height
G0 X749.0000 Y80.8200
M3S0
G4 P0.5; Tool On
G1 F300 Z0.0000
G1 F15000 X1.0000 Y80.8200 Z0.0000
M3S245
G4 P0.5; Tool Off

G0 Z0; move to z-safe height
G0 X1.0000 Y82.8200
M3S0
G4 P0.5; Tool On
G1 F300 Z0.0000
G1 F15000 X749.0000 Y82.8200 Z0.0000
M3S245
G4 P0.5; Tool Off

G0 Z0; move to z-safe height
G0 X749.0000 Y84.8200
M3S0
G4 P0.5; Tool On
G1 F300 Z0.0000
G1 F15000 X1.0000 Y84.8200 Z0.0000
M3S245
G4 P0.5; Tool Off

G0 Z0; move to z-safe height
G0 X1.0000 Y86.8200
M3S0
G4 P0.5; Tool On
G1 F300 Z0.0000
G1 F15000 X749.0000 Y86.8200 Z0.0000
M3S245
G4 P0.5; Tool Off

G0 Z0; move to z-safe height
G0 X749.0000 Y88.8200
M3S0
G4 P0.5; Tool On
G1 F300 Z0.0000
G1 F15000 X1.0000 Y88.8200 Z0.0000
M3S245
G4 P0.5; Tool Off

G0 Z0; move to z-safe height
G0 X1.0000 Y90.8200
M3S0
G4 P0.5; Tool On
G1 F300 Z0.0000
G1 F15000 X749.0000 Y90.8200 Z0.0000
M3S245
G4 P0.5; Tool Off

G0 Z0; move to z-safe height
G0 X749.0000 Y92.8200
M3S0
G4 P0.5; Tool On
G1 F300 Z0.0000
G1 F15000 X1.0000 Y92.8200 Z0.0000
M3S245
G4 P0.5; Tool Off

G0 Z0; move to z-safe height
G0 X1.0000 Y94.8200
M3S0
G4 P0.5; Tool On
G1 F300 Z0.0000
G1 F15000 X749.0000 Y94.8200 Z0.0000
M3S245
G4 P0.5; Tool Off

G0 Z0; move to z-safe height
G0 X749.0000 Y96.8200
M3S0
G4 P0.5; Tool On
G1 F300 Z0.0000
G1 F15000 X1.0000 Y96.8200 Z0.0000
M3S245
G4 P0.5; Tool Off

G0 Z0; move to z-safe height
G0 X1.0000 Y98.8200
M3S0
G4 P0.5; Tool On
G1 F300 Z0.0000
G1 F15000 X749.0000 Y98.8200 Z0.0000
M3S245
G4 P0.5; Tool Off

G0 Z0; move to z-safe height
G0 X749.0000 Y100.8200
M3S0
G4 P0.5; Tool On
G1 F300 Z0.0000
G1 F15000 X1.0000 Y100.8200 Z0.0000
M3S245
G4 P0.5; Tool Off

G0 Z0; move to z-safe height
G0 X1.0000 Y102.8200
M3S0
G4 P0.5; Tool On
G1 F300 Z0.0000
G1 F15000 X749.0000 Y102.8200 Z0.0000
M3S245
G4 P0.5; Tool Off

G0 Z0; move to z-safe height
G0 X749.0000 Y104.8200
M3S0
G4 P0.5; Tool On
G1 F300 Z0.0000
G1 F15000 X1.0000 Y104.8200 Z0.0000
M3S245
G4 P0.5; Tool Off

G0 Z0; move to z-safe height
G0 X1.0000 Y106.8200
M3S0
G4 P0.5; Tool On
G1 F300 Z0.0000
G1 F15000 X749.0000 Y106.8200 Z0.0000
M3S245
G4 P0.5; Tool Off

G0 Z0; move to z-safe height
G0 X749.0000 Y108.8200
M3S0
G4 P0.5; Tool On
G1 F300 Z0.0000
G1 F15000 X1.0000 Y108.8200 Z0.0000
M3S245
G4 P0.5; Tool Off

G0 Z0; move to z-safe height
G0 X1.0000 Y110.8200
M3S0
G4 P0.5; Tool On
G1 F300 Z0.0000
G1 F15000 X749.0000 Y110.8200 Z0.0000
M3S245
G4 P0.5; Tool Off

G0 Z0; move to z-safe height
G0 X749.0000 Y112.8200
M3S0
G4 P0.5; Tool On
G1 F300 Z0.0000
G1 F15000 X1.0000 Y112.8200 Z0.0000
M3S245
G4 P0.5; Tool Off

G0 Z0; move to z-safe height
G0 X1.0000 Y114.8200
M3S0
G4 P0.5; Tool On
G1 F300 Z0.0000
G1 F15000 X749.0000 Y114.8200 Z0.0000
M3S245
G4 P0.5; Tool Off

G0 Z0; move to z-safe height
G0 X749.0000 Y116.8200
M3S0
G4 P0.5; Tool On
G1 F300 Z0.0000
G1 F15000 X1.0000 Y116.8200 Z0.0000
M3S245
G4 P0.5; Tool Off

G0 Z0; move to z-safe height
G0 X1.0000 Y118.8200
M3S0
G4 P0.5; Tool On
G1 F300 Z0.0000
G1 F15000 X749.0000 Y118.8200 Z0.0000
M3S245
G4 P0.5; Tool Off

G0 Z0; move to z-safe height
G0 X749.0000 Y120.8200
M3S0
G4 P0.5; Tool On
G1 F300 Z0.0000
G1 F15000 X1.0000 Y120.8200 Z0.0000
M3S245
G4 P0.5; Tool Off

G0 Z0; move to z-safe height
G0 X1.0000 Y122.8200
M3S0
G4 P0.5; Tool On
G1 F300 Z0.0000
G1 F15000 X749.0000 Y122.8200 Z0.0000
M3S245
G4 P0.5; Tool Off

G0 Z0; move to z-safe height
G0 X749.0000 Y124.8200
M3S0
G4 P0.5; Tool On
G1 F300 Z0.0000
G1 F15000 X1.0000 Y124.8200 Z0.0000
M3S245
G4 P0.5; Tool Off

G0 Z0; move to z-safe height
G0 X1.0000 Y126.8200
M3S0
G4 P0.5; Tool On
G1 F300 Z0.0000
G1 F15000 X749.0000 Y126.8200 Z0.0000
M3S245
G4 P0.5; Tool Off

G0 Z0; move to z-safe height
G0 X749.0000 Y128.8200
M3S0
G4 P0.5; Tool On
G1 F300 Z0.0000
G1 F15000 X1.0000 Y128.8200 Z0.0000
M3S245
G4 P0.5; Tool Off

G0 Z0; move to z-safe height
G0 X1.0000 Y130.8200
M3S0
G4 P0.5; Tool On
G1 F300 Z0.0000
G1 F15000 X749.0000 Y130.8200 Z0.0000
M3S245
G4 P0.5; Tool Off

G0 Z0; move to z-safe height
G0 X749.0000 Y132.8200
M3S0
G4 P0.5; Tool On
G1 F300 Z0.0000
G1 F15000 X1.0000 Y132.8200 Z0.0000
M3S245
G4 P0.5; Tool Off

G0 Z0; move to z-safe height
G0 X1.0000 Y134.8200
M3S0
G4 P0.5; Tool On
G1 F300 Z0.0000
G1 F15000 X749.0000 Y134.8200 Z0.0000
M3S245
G4 P0.5; Tool Off

G0 Z0; move to z-safe height
G0 X749.0000 Y136.8200
M3S0
G4 P0.5; Tool On
G1 F300 Z0.0000
G1 F15000 X1.0000 Y136.8200 Z0.0000
M3S245
G4 P0.5; Tool Off

G0 Z0; move to z-safe height
G0 X1.0000 Y138.8200
M3S0
G4 P0.5; Tool On
G1 F300 Z0.0000
G1 F15000 X749.0000 Y138.8200 Z0.0000
M3S245
G4 P0.5; Tool Off

G0 Z0; move to z-safe height
G0 X749.0000 Y140.8200
M3S0
G4 P0.5; Tool On
G1 F300 Z0.0000
G1 F15000 X1.0000 Y140.8200 Z0.0000
M3S245
G4 P0.5; Tool Off

G0 Z0; move to z-safe height
G0 X1.0000 Y142.8200
M3S0
G4 P0.5; Tool On
G1 F300 Z0.0000
G1 F15000 X749.0000 Y142.8200 Z0.0000
M3S245
G4 P0.5; Tool Off

G0 Z0; move to z-safe height
G0 X749.0000 Y144.8200
M3S0
G4 P0.5; Tool On
G1 F300 Z0.0000
G1 F15000 X1.0000 Y144.8200 Z0.0000
M3S245
G4 P0.5; Tool Off

G0 Z0; move to z-safe height
G0 X1.0000 Y146.8200
M3S0
G4 P0.5; Tool On
G1 F300 Z0.0000
G1 F15000 X749.0000 Y146.8200 Z0.0000
M3S245
G4 P0.5; Tool Off

G0 Z0; move to z-safe height
G0 X749.0000 Y148.8200
M3S0
G4 P0.5; Tool On
G1 F300 Z0.0000
G1 F15000 X1.0000 Y148.8200 Z0.0000
M3S245
G4 P0.5; Tool Off

G0 Z0; move to z-safe height
G0 X1.0000 Y150.8200
M3S0
G4 P0.5; Tool On
G1 F300 Z0.0000
G1 F15000 X749.0000 Y150.8200 Z0.0000
M3S245
G4 P0.5; Tool Off

G0 Z0; move to z-safe height
G0 X749.0000 Y152.8200
M3S0
G4 P0.5; Tool On
G1 F300 Z0.0000
G1 F15000 X1.0000 Y152.8200 Z0.0000
M3S245
G4 P0.5; Tool Off

G0 Z0; move to z-safe height
G0 X1.0000 Y154.8200
M3S0
G4 P0.5; Tool On
G1 F300 Z0.0000
G1 F15000 X749.0000 Y154.8200 Z0.0000
M3S245
G4 P0.5; Tool Off

G0 Z0; move to z-safe height
G0 X749.0000 Y156.8200
M3S0
G4 P0.5; Tool On
G1 F300 Z0.0000
G1 F15000 X1.0000 Y156.8200 Z0.0000
M3S245
G4 P0.5; Tool Off

G0 Z0; move to z-safe height
G0 X1.0000 Y158.8200
M3S0
G4 P0.5; Tool On
G1 F300 Z0.0000
G1 F15000 X749.0000 Y158.8200 Z0.0000
M3S245
G4 P0.5; Tool Off

G0 Z0; move to z-safe height
G0 X749.0000 Y160.8200
M3S0
G4 P0.5; Tool On
G1 F300 Z0.0000
G1 F15000 X1.0000 Y160.8200 Z0.0000
M3S245
G4 P0.5; Tool Off

G0 Z0; move to z-safe height
G0 X1.0000 Y162.8200
M3S0
G4 P0.5; Tool On
G1 F300 Z0.0000
G1 F15000 X749.0000 Y162.8200 Z0.0000
M3S245
G4 P0.5; Tool Off

G0 Z0; move to z-safe height
G0 X749.0000 Y164.8200
M3S0
G4 P0.5; Tool On
G1 F300 Z0.0000
G1 F15000 X1.0000 Y164.8200 Z0.0000
M3S245
G4 P0.5; Tool Off

G0 Z0; move to z-safe height
G0 X1.0000 Y166.8200
M3S0
G4 P0.5; Tool On
G1 F300 Z0.0000
G1 F15000 X749.0000 Y166.8200 Z0.0000
M3S245
G4 P0.5; Tool Off

G0 Z0; move to z-safe height
G0 X749.0000 Y168.8200
M3S0
G4 P0.5; Tool On
G1 F300 Z0.0000
G1 F15000 X1.0000 Y168.8200 Z0.0000
M3S245
G4 P0.5; Tool Off

G0 Z0; move to z-safe height
G0 X1.0000 Y170.8200
M3S0
G4 P0.5; Tool On
G1 F300 Z0.0000
G1 F15000 X749.0000 Y170.8200 Z0.0000
M3S245
G4 P0.5; Tool Off

G0 Z0; move to z-safe height
G0 X749.0000 Y172.8200
M3S0
G4 P0.5; Tool On
G1 F300 Z0.0000
G1 F15000 X1.0000 Y172.8200 Z0.0000
M3S245
G4 P0.5; Tool Off

G0 Z0; move to z-safe height
G0 X1.0000 Y174.8200
M3S0
G4 P0.5; Tool On
G1 F300 Z0.0000
G1 F15000 X749.0000 Y174.8200 Z0.0000
M3S245
G4 P0.5; Tool Off

G0 Z0; move to z-safe height
G0 X749.0000 Y176.8200
M3S0
G4 P0.5; Tool On
G1 F300 Z0.0000
G1 F15000 X1.0000 Y176.8200 Z0.0000
M3S245
G4 P0.5; Tool Off

G0 Z0; move to z-safe height
G0 X1.0000 Y178.8200
M3S0
G4 P0.5; Tool On
G1 F300 Z0.0000
G1 F15000 X749.0000 Y178.8200 Z0.0000
M3S245
G4 P0.5; Tool Off

G0 Z0; move to z-safe height
G0 X749.0000 Y180.8200
M3S0
G4 P0.5; Tool On
G1 F300 Z0.0000
G1 F15000 X1.0000 Y180.8200 Z0.0000
M3S245
G4 P0.5; Tool Off

G0 Z0; move to z-safe height
G0 X1.0000 Y182.8200
M3S0
G4 P0.5; Tool On
G1 F300 Z0.0000
G1 F15000 X749.0000 Y182.8200 Z0.0000
M3S245
G4 P0.5; Tool Off

G0 Z0; move to z-safe height
G0 X749.0000 Y184.8200
M3S0
G4 P0.5; Tool On
G1 F300 Z0.0000
G1 F15000 X1.0000 Y184.8200 Z0.0000
M3S245
G4 P0.5; Tool Off

G0 Z0; move to z-safe height
G0 X1.0000 Y186.8200
M3S0
G4 P0.5; Tool On
G1 F300 Z0.0000
G1 F15000 X749.0000 Y186.8200 Z0.0000
M3S245
G4 P0.5; Tool Off

G0 Z0; move to z-safe height
G0 X749.0000 Y188.8200
M3S0
G4 P0.5; Tool On
G1 F300 Z0.0000
G1 F15000 X1.0000 Y188.8200 Z0.0000
M3S245
G4 P0.5; Tool Off

G0 Z0; move to z-safe height
G0 X1.0000 Y190.8200
M3S0
G4 P0.5; Tool On
G1 F300 Z0.0000
G1 F15000 X749.0000 Y190.8200 Z0.0000
M3S245
G4 P0.5; Tool Off

G0 Z0; move to z-safe height
G0 X749.0000 Y192.8200
M3S0
G4 P0.5; Tool On
G1 F300 Z0.0000
G1 F15000 X1.0000 Y192.8200 Z0.0000
M3S245
G4 P0.5; Tool Off

G0 Z0; move to z-safe height
G0 X1.0000 Y194.8200
M3S0
G4 P0.5; Tool On
G1 F300 Z0.0000
G1 F15000 X749.0000 Y194.8200 Z0.0000
M3S245
G4 P0.5; Tool Off

G0 Z0; move to z-safe height
G0 X749.0000 Y196.8200
M3S0
G4 P0.5; Tool On
G1 F300 Z0.0000
G1 F15000 X1.0000 Y196.8200 Z0.0000
M3S245
G4 P0.5; Tool Off

G0 Z0; move to z-safe height
G0 X1.0000 Y198.8200
M3S0
G4 P0.5; Tool On
G1 F300 Z0.0000
G1 F15000 X749.0000 Y198.8200 Z0.0000
M3S245
G4 P0.5; Tool Off

G0 Z0; move to z-safe height
G0 X749.0000 Y200.8200
M3S0
G4 P0.5; Tool On
G1 F300 Z0.0000
G1 F15000 X1.0000 Y200.8200 Z0.0000
M3S245
G4 P0.5; Tool Off

G0 Z0; move to z-safe height
G0 X1.0000 Y202.8200
M3S0
G4 P0.5; Tool On
G1 F300 Z0.0000
G1 F15000 X749.0000 Y202.8200 Z0.0000
M3S245
G4 P0.5; Tool Off

G0 Z0; move to z-safe height
G0 X749.0000 Y204.8200
M3S0
G4 P0.5; Tool On
G1 F300 Z0.0000
G1 F15000 X1.0000 Y204.8200 Z0.0000
M3S245
G4 P0.5; Tool Off

G0 Z0; move to z-safe height
G0 X1.0000 Y206.8200
M3S0
G4 P0.5; Tool On
G1 F300 Z0.0000
G1 F15000 X749.0000 Y206.8200 Z0.0000
M3S245
G4 P0.5; Tool Off

G0 Z0; move to z-safe height
G0 X749.0000 Y208.8200
M3S0
G4 P0.5; Tool On
G1 F300 Z0.0000
G1 F15000 X1.0000 Y208.8200 Z0.0000
M3S245
G4 P0.5; Tool Off

G0 Z0; move to z-safe height
G0 X1.0000 Y210.8200
M3S0
G4 P0.5; Tool On
G1 F300 Z0.0000
G1 F15000 X749.0000 Y210.8200 Z0.0000
M3S245
G4 P0.5; Tool Off

G0 Z0; move to z-safe height
G0 X749.0000 Y212.8200
M3S0
G4 P0.5; Tool On
G1 F300 Z0.0000
G1 F15000 X1.0000 Y212.8200 Z0.0000
M3S245
G4 P0.5; Tool Off

G0 Z0; move to z-safe height
G0 X1.0000 Y214.8200
M3S0
G4 P0.5; Tool On
G1 F300 Z0.0000
G1 F15000 X749.0000 Y214.8200 Z0.0000
M3S245
G4 P0.5; Tool Off

G0 Z0; move to z-safe height
G0 X749.0000 Y216.8200
M3S0
G4 P0.5; Tool On
G1 F300 Z0.0000
G1 F15000 X1.0000 Y216.8200 Z0.0000
M3S245
G4 P0.5; Tool Off

G0 Z0; move to z-safe height
G0 X1.0000 Y218.8200
M3S0
G4 P0.5; Tool On
G1 F300 Z0.0000
G1 F15000 X749.0000 Y218.8200 Z0.0000
M3S245
G4 P0.5; Tool Off

G0 Z0; move to z-safe height
G0 X749.0000 Y220.8200
M3S0
G4 P0.5; Tool On
G1 F300 Z0.0000
G1 F15000 X1.0000 Y220.8200 Z0.0000
M3S245
G4 P0.5; Tool Off

G0 Z0; move to z-safe height
G0 X1.0000 Y222.8200
M3S0
G4 P0.5; Tool On
G1 F300 Z0.0000
G1 F15000 X749.0000 Y222.8200 Z0.0000
M3S245
G4 P0.5; Tool Off

G0 Z0; move to z-safe height
G0 X749.0000 Y224.8200
M3S0
G4 P0.5; Tool On
G1 F300 Z0.0000
G1 F15000 X1.0000 Y224.8200 Z0.0000
M3S245
G4 P0.5; Tool Off

G0 Z0; move to z-safe height
G0 X1.0000 Y226.8200
M3S0
G4 P0.5; Tool On
G1 F300 Z0.0000
G1 F15000 X749.0000 Y226.8200 Z0.0000
M3S245
G4 P0.5; Tool Off

G0 Z0; move to z-safe height
G0 X749.0000 Y228.8200
M3S0
G4 P0.5; Tool On
G1 F300 Z0.0000
G1 F15000 X1.0000 Y228.8200 Z0.0000
M3S245
G4 P0.5; Tool Off

G0 Z0; move to z-safe height
G0 X1.0000 Y230.8200
M3S0
G4 P0.5; Tool On
G1 F300 Z0.0000
G1 F15000 X749.0000 Y230.8200 Z0.0000
M3S245
G4 P0.5; Tool Off

G0 Z0; move to z-safe height
G0 X749.0000 Y232.8200
M3S0
G4 P0.5; Tool On
G1 F300 Z0.0000
G1 F15000 X1.0000 Y232.8200 Z0.0000
M3S245
G4 P0.5; Tool Off

G0 Z0; move to z-safe height
G0 X1.0000 Y234.8200
M3S0
G4 P0.5; Tool On
G1 F300 Z0.0000
G1 F15000 X749.0000 Y234.8200 Z0.0000
M3S245
G4 P0.5; Tool Off

G0 Z0; move to z-safe height
G0 X749.0000 Y236.8200
M3S0
G4 P0.5; Tool On
G1 F300 Z0.0000
G1 F15000 X1.0000 Y236.8200 Z0.0000
M3S245
G4 P0.5; Tool Off

G0 Z0; move to z-safe height
G0 X1.0000 Y238.8200
M3S0
G4 P0.5; Tool On
G1 F300 Z0.0000
G1 F15000 X749.0000 Y238.8200 Z0.0000
M3S245
G4 P0.5; Tool Off

G0 Z0; move to z-safe height
G0 X749.0000 Y240.8200
M3S0
G4 P0.5; Tool On
G1 F300 Z0.0000
G1 F15000 X1.0000 Y240.8200 Z0.0000
M3S245
G4 P0.5; Tool Off

G0 Z0; move to z-safe height
G0 X1.0000 Y242.8200
M3S0
G4 P0.5; Tool On
G1 F300 Z0.0000
G1 F15000 X749.0000 Y242.8200 Z0.0000
M3S245
G4 P0.5; Tool Off

G0 Z0; move to z-safe height
G0 X749.0000 Y244.8200
M3S0
G4 P0.5; Tool On
G1 F300 Z0.0000
G1 F15000 X1.0000 Y244.8200 Z0.0000
M3S245
G4 P0.5; Tool Off

G0 Z0; move to z-safe height
G0 X1.0000 Y246.8200
M3S0
G4 P0.5; Tool On
G1 F300 Z0.0000
G1 F15000 X749.0000 Y246.8200 Z0.0000
M3S245
G4 P0.5; Tool Off

G0 Z0; move to z-safe height
G0 X749.0000 Y248.8200
M3S0
G4 P0.5; Tool On
G1 F300 Z0.0000
G1 F15000 X1.0000 Y248.8200 Z0.0000
M3S245
G4 P0.5; Tool Off

G0 Z0; move to z-safe height
G0 X1.0000 Y250.8200
M3S0
G4 P0.5; Tool On
G1 F300 Z0.0000
G1 F15000 X749.0000 Y250.8200 Z0.0000
M3S245
G4 P0.5; Tool Off

G0 Z0; move to z-safe height
G0 X749.0000 Y252.8200
M3S0
G4 P0.5; Tool On
G1 F300 Z0.0000
G1 F15000 X1.0000 Y252.8200 Z0.0000
M3S245
G4 P0.5; Tool Off

G0 Z0; move to z-safe height
G0 X1.0000 Y254.8200
M3S0
G4 P0.5; Tool On
G1 F300 Z0.0000
G1 F15000 X749.0000 Y254.8200 Z0.0000
M3S245
G4 P0.5; Tool Off

G0 Z0; move to z-safe height
G0 X749.0000 Y256.8200
M3S0
G4 P0.5; Tool On
G1 F300 Z0.0000
G1 F15000 X1.0000 Y256.8200 Z0.0000
M3S245
G4 P0.5; Tool Off

G0 Z0; move to z-safe height
G0 X1.0000 Y258.8200
M3S0
G4 P0.5; Tool On
G1 F300 Z0.0000
G1 F15000 X749.0000 Y258.8200 Z0.0000
M3S245
G4 P0.5; Tool Off

G0 Z0; move to z-safe height
G0 X749.0000 Y260.8200
M3S0
G4 P0.5; Tool On
G1 F300 Z0.0000
G1 F15000 X1.0000 Y260.8200 Z0.0000
M3S245
G4 P0.5; Tool Off

G0 Z0; move to z-safe height
G0 X1.0000 Y262.8200
M3S0
G4 P0.5; Tool On
G1 F300 Z0.0000
G1 F15000 X749.0000 Y262.8200 Z0.0000
M3S245
G4 P0.5; Tool Off

G0 Z0; move to z-safe height
G0 X749.0000 Y264.8200
M3S0
G4 P0.5; Tool On
G1 F300 Z0.0000
G1 F15000 X1.0000 Y264.8200 Z0.0000
M3S245
G4 P0.5; Tool Off

G0 Z0; move to z-safe height
G0 X1.0000 Y266.8200
M3S0
G4 P0.5; Tool On
G1 F300 Z0.0000
G1 F15000 X749.0000 Y266.8200 Z0.0000
M3S245
G4 P0.5; Tool Off

G0 Z0; move to z-safe height
G0 X749.0000 Y268.8200
M3S0
G4 P0.5; Tool On
G1 F300 Z0.0000
G1 F15000 X1.0000 Y268.8200 Z0.0000
M3S245
G4 P0.5; Tool Off

G0 Z0; move to z-safe height
G0 X1.0000 Y270.8200
M3S0
G4 P0.5; Tool On
G1 F300 Z0.0000
G1 F15000 X749.0000 Y270.8200 Z0.0000
M3S245
G4 P0.5; Tool Off

G0 Z0; move to z-safe height
G0 X749.0000 Y272.8200
M3S0
G4 P0.5; Tool On
G1 F300 Z0.0000
G1 F15000 X1.0000 Y272.8200 Z0.0000
M3S245
G4 P0.5; Tool Off

G0 Z0; move to z-safe height
G0 X1.0000 Y274.8200
M3S0
G4 P0.5; Tool On
G1 F300 Z0.0000
G1 F15000 X749.0000 Y274.8200 Z0.0000
M3S245
G4 P0.5; Tool Off

G0 Z0; move to z-safe height
G0 X749.0000 Y276.8200
M3S0
G4 P0.5; Tool On
G1 F300 Z0.0000
G1 F15000 X1.0000 Y276.8200 Z0.0000
M3S245
G4 P0.5; Tool Off

G0 Z0; move to z-safe height
G0 X1.0000 Y278.8200
M3S0
G4 P0.5; Tool On
G1 F300 Z0.0000
G1 F15000 X749.0000 Y278.8200 Z0.0000
M3S245
G4 P0.5; Tool Off

G0 Z0; move to z-safe height
G0 X749.0000 Y280.8200
M3S0
G4 P0.5; Tool On
G1 F300 Z0.0000
G1 F15000 X1.0000 Y280.8200 Z0.0000
M3S245
G4 P0.5; Tool Off

G0 Z0; move to z-safe height
G0 X1.0000 Y282.8200
M3S0
G4 P0.5; Tool On
G1 F300 Z0.0000
G1 F15000 X749.0000 Y282.8200 Z0.0000
M3S245
G4 P0.5; Tool Off

G0 Z0; move to z-safe height
G0 X749.0000 Y284.8200
M3S0
G4 P0.5; Tool On
G1 F300 Z0.0000
G1 F15000 X1.0000 Y284.8200 Z0.0000
M3S245
G4 P0.5; Tool Off

G0 Z0; move to z-safe height
G0 X1.0000 Y286.8200
M3S0
G4 P0.5; Tool On
G1 F300 Z0.0000
G1 F15000 X749.0000 Y286.8200 Z0.0000
M3S245
G4 P0.5; Tool Off

G0 Z0; move to z-safe height
G0 X749.0000 Y288.8200
M3S0
G4 P0.5; Tool On
G1 F300 Z0.0000
G1 F15000 X1.0000 Y288.8200 Z0.0000
M3S245
G4 P0.5; Tool Off

G0 Z0; move to z-safe height
G0 X1.0000 Y290.8200
M3S0
G4 P0.5; Tool On
G1 F300 Z0.0000
G1 F15000 X749.0000 Y290.8200 Z0.0000
M3S245
G4 P0.5; Tool Off

G0 Z0; move to z-safe height
G0 X749.0000 Y292.8200
M3S0
G4 P0.5; Tool On
G1 F300 Z0.0000
G1 F15000 X1.0000 Y292.8200 Z0.0000
M3S245
G4 P0.5; Tool Off

G0 Z0; move to z-safe height
G0 X1.0000 Y294.8200
M3S0
G4 P0.5; Tool On
G1 F300 Z0.0000
G1 F15000 X749.0000 Y294.8200 Z0.0000
M3S245
G4 P0.5; Tool Off

G0 Z0; move to z-safe height
G0 X749.0000 Y296.8200
M3S0
G4 P0.5; Tool On
G1 F300 Z0.0000
G1 F15000 X1.0000 Y296.8200 Z0.0000
M3S245
G4 P0.5; Tool Off

G0 Z0; move to z-safe height
G0 X1.0000 Y298.8200
M3S0
G4 P0.5; Tool On
G1 F300 Z0.0000
G1 F15000 X749.0000 Y298.8200 Z0.0000
M3S245
G4 P0.5; Tool Off

G0 Z0; move to z-safe height
G0 X749.0000 Y300.8200
M3S0
G4 P0.5; Tool On
G1 F300 Z0.0000
G1 F15000 X1.0000 Y300.8200 Z0.0000
M3S245
G4 P0.5; Tool Off

G0 Z0; move to z-safe height
G0 X1.0000 Y302.8200
M3S0
G4 P0.5; Tool On
G1 F300 Z0.0000
G1 F15000 X749.0000 Y302.8200 Z0.0000
M3S245
G4 P0.5; Tool Off

G0 Z0; move to z-safe height
G0 X749.0000 Y304.8200
M3S0
G4 P0.5; Tool On
G1 F300 Z0.0000
G1 F15000 X1.0000 Y304.8200 Z0.0000
M3S245
G4 P0.5; Tool Off

G0 Z0; move to z-safe height
G0 X1.0000 Y306.8200
M3S0
G4 P0.5; Tool On
G1 F300 Z0.0000
G1 F15000 X749.0000 Y306.8200 Z0.0000
M3S245
G4 P0.5; Tool Off

G0 Z0; move to z-safe height
G0 X749.0000 Y308.8200
M3S0
G4 P0.5; Tool On
G1 F300 Z0.0000
G1 F15000 X1.0000 Y308.8200 Z0.0000
M3S245
G4 P0.5; Tool Off

G0 Z0; move to z-safe height
G0 X1.0000 Y310.8200
M3S0
G4 P0.5; Tool On
G1 F300 Z0.0000
G1 F15000 X749.0000 Y310.8200 Z0.0000
M3S245
G4 P0.5; Tool Off

G0 Z0; move to z-safe height
G0 X749.0000 Y312.8200
M3S0
G4 P0.5; Tool On
G1 F300 Z0.0000
G1 F15000 X1.0000 Y312.8200 Z0.0000
M3S245
G4 P0.5; Tool Off

G0 Z0; move to z-safe height
G0 X1.0000 Y314.8200
M3S0
G4 P0.5; Tool On
G1 F300 Z0.0000
G1 F15000 X749.0000 Y314.8200 Z0.0000
M3S245
G4 P0.5; Tool Off

G0 Z0; move to z-safe height
G0 X749.0000 Y316.8200
M3S0
G4 P0.5; Tool On
G1 F300 Z0.0000
G1 F15000 X1.0000 Y316.8200 Z0.0000
M3S245
G4 P0.5; Tool Off

G0 Z0; move to z-safe height
G0 X1.0000 Y318.8200
M3S0
G4 P0.5; Tool On
G1 F300 Z0.0000
G1 F15000 X749.0000 Y318.8200 Z0.0000
M3S245
G4 P0.5; Tool Off

G0 Z0; move to z-safe height
G0 X749.0000 Y320.8200
M3S0
G4 P0.5; Tool On
G1 F300 Z0.0000
G1 F15000 X1.0000 Y320.8200 Z0.0000
M3S245
G4 P0.5; Tool Off

G0 Z0; move to z-safe height
G0 X1.0000 Y322.8200
M3S0
G4 P0.5; Tool On
G1 F300 Z0.0000
G1 F15000 X749.0000 Y322.8200 Z0.0000
M3S245
G4 P0.5; Tool Off

G0 Z0; move to z-safe height
G0 X749.0000 Y324.8200
M3S0
G4 P0.5; Tool On
G1 F300 Z0.0000
G1 F15000 X1.0000 Y324.8200 Z0.0000
M3S245
G4 P0.5; Tool Off

G0 Z0; move to z-safe height
G0 X1.0000 Y326.8200
M3S0
G4 P0.5; Tool On
G1 F300 Z0.0000
G1 F15000 X749.0000 Y326.8200 Z0.0000
M3S245
G4 P0.5; Tool Off

G0 Z0; move to z-safe height
G0 X749.0000 Y328.8200
M3S0
G4 P0.5; Tool On
G1 F300 Z0.0000
G1 F15000 X1.0000 Y328.8200 Z0.0000
M3S245
G4 P0.5; Tool Off

G0 Z0; move to z-safe height
G0 X1.0000 Y330.8200
M3S0
G4 P0.5; Tool On
G1 F300 Z0.0000
G1 F15000 X749.0000 Y330.8200 Z0.0000
M3S245
G4 P0.5; Tool Off

G0 Z0; move to z-safe height
G0 X749.0000 Y332.8200
M3S0
G4 P0.5; Tool On
G1 F300 Z0.0000
G1 F15000 X1.0000 Y332.8200 Z0.0000
M3S245
G4 P0.5; Tool Off

G0 Z0; move to z-safe height
G0 X1.0000 Y334.8200
M3S0
G4 P0.5; Tool On
G1 F300 Z0.0000
G1 F15000 X749.0000 Y334.8200 Z0.0000
M3S245
G4 P0.5; Tool Off

G0 Z0; move to z-safe height
G0 X749.0000 Y336.8200
M3S0
G4 P0.5; Tool On
G1 F300 Z0.0000
G1 F15000 X1.0000 Y336.8200 Z0.0000
M3S245
G4 P0.5; Tool Off

G0 Z0; move to z-safe height
G0 X1.0000 Y338.8200
M3S0
G4 P0.5; Tool On
G1 F300 Z0.0000
G1 F15000 X749.0000 Y338.8200 Z0.0000
M3S245
G4 P0.5; Tool Off

G0 Z0; move to z-safe height
G0 X749.0000 Y340.8200
M3S0
G4 P0.5; Tool On
G1 F300 Z0.0000
G1 F15000 X1.0000 Y340.8200 Z0.0000
M3S245
G4 P0.5; Tool Off

G0 Z0; move to z-safe height
G0 X1.0000 Y342.8200
M3S0
G4 P0.5; Tool On
G1 F300 Z0.0000
G1 F15000 X749.0000 Y342.8200 Z0.0000
M3S245
G4 P0.5; Tool Off

G0 Z0; move to z-safe height
G0 X749.0000 Y344.8200
M3S0
G4 P0.5; Tool On
G1 F300 Z0.0000
G1 F15000 X1.0000 Y344.8200 Z0.0000
M3S245
G4 P0.5; Tool Off

G0 Z0; move to z-safe height
G0 X1.0000 Y346.8200
M3S0
G4 P0.5; Tool On
G1 F300 Z0.0000
G1 F15000 X749.0000 Y346.8200 Z0.0000
M3S245
G4 P0.5; Tool Off

G0 Z0; move to z-safe height
G0 X749.0000 Y348.8200
M3S0
G4 P0.5; Tool On
G1 F300 Z0.0000
G1 F15000 X1.0000 Y348.8200 Z0.0000
M3S245
G4 P0.5; Tool Off

G0 Z0; move to z-safe height
G0 X1.0000 Y350.8200
M3S0
G4 P0.5; Tool On
G1 F300 Z0.0000
G1 F15000 X749.0000 Y350.8200 Z0.0000
M3S245
G4 P0.5; Tool Off

G0 Z0; move to z-safe height
G0 X749.0000 Y352.8200
M3S0
G4 P0.5; Tool On
G1 F300 Z0.0000
G1 F15000 X1.0000 Y352.8200 Z0.0000
M3S245
G4 P0.5; Tool Off

G0 Z0; move to z-safe height
G0 X1.0000 Y354.8200
M3S0
G4 P0.5; Tool On
G1 F300 Z0.0000
G1 F15000 X749.0000 Y354.8200 Z0.0000
M3S245
G4 P0.5; Tool Off

G0 Z0; move to z-safe height
G0 X749.0000 Y356.8200
M3S0
G4 P0.5; Tool On
G1 F300 Z0.0000
G1 F15000 X1.0000 Y356.8200 Z0.0000
M3S245
G4 P0.5; Tool Off

G0 Z0; move to z-safe height
G0 X1.0000 Y358.8200
M3S0
G4 P0.5; Tool On
G1 F300 Z0.0000
G1 F15000 X749.0000 Y358.8200 Z0.0000
M3S245
G4 P0.5; Tool Off

G0 Z0; move to z-safe height
G0 X749.0000 Y360.8200
M3S0
G4 P0.5; Tool On
G1 F300 Z0.0000
G1 F15000 X1.0000 Y360.8200 Z0.0000
M3S245
G4 P0.5; Tool Off

G0 Z0; move to z-safe height
G0 X1.0000 Y362.8200
M3S0
G4 P0.5; Tool On
G1 F300 Z0.0000
G1 F15000 X749.0000 Y362.8200 Z0.0000
M3S245
G4 P0.5; Tool Off

G0 Z0; move to z-safe height
G0 X749.0000 Y364.8200
M3S0
G4 P0.5; Tool On
G1 F300 Z0.0000
G1 F15000 X1.0000 Y364.8200 Z0.0000
M3S245
G4 P0.5; Tool Off

G0 Z0; move to z-safe height
G0 X1.0000 Y366.8200
M3S0
G4 P0.5; Tool On
G1 F300 Z0.0000
G1 F15000 X749.0000 Y366.8200 Z0.0000
M3S245
G4 P0.5; Tool Off

G0 Z0; move to z-safe height
G0 X749.0000 Y368.8200
M3S0
G4 P0.5; Tool On
G1 F300 Z0.0000
G1 F15000 X1.0000 Y368.8200 Z0.0000
M3S245
G4 P0.5; Tool Off

G0 Z0; move to z-safe height
G0 X1.0000 Y370.8200
M3S0
G4 P0.5; Tool On
G1 F300 Z0.0000
G1 F15000 X749.0000 Y370.8200 Z0.0000
M3S245
G4 P0.5; Tool Off

G0 Z0; move to z-safe height
G0 X749.0000 Y372.8200
M3S0
G4 P0.5; Tool On
G1 F300 Z0.0000
G1 F15000 X1.0000 Y372.8200 Z0.0000
M3S245
G4 P0.5; Tool Off

G0 Z0; move to z-safe height
G0 X1.0000 Y374.8200
M3S0
G4 P0.5; Tool On
G1 F300 Z0.0000
G1 F15000 X749.0000 Y374.8200 Z0.0000
M3S245
G4 P0.5; Tool Off

G0 Z0; move to z-safe height
G0 X749.0000 Y376.8200
M3S0
G4 P0.5; Tool On
G1 F300 Z0.0000
G1 F15000 X1.0000 Y376.8200 Z0.0000
M3S245
G4 P0.5; Tool Off

G0 Z0; move to z-safe height
G0 X1.0000 Y378.8200
M3S0
G4 P0.5; Tool On
G1 F300 Z0.0000
G1 F15000 X749.0000 Y378.8200 Z0.0000
M3S245
G4 P0.5; Tool Off

G0 Z0; move to z-safe height
G0 X749.0000 Y380.8200
M3S0
G4 P0.5; Tool On
G1 F300 Z0.0000
G1 F15000 X1.0000 Y380.8200 Z0.0000
M3S245
G4 P0.5; Tool Off

G0 Z0; move to z-safe height
G0 X1.0000 Y382.8200
M3S0
G4 P0.5; Tool On
G1 F300 Z0.0000
G1 F15000 X749.0000 Y382.8200 Z0.0000
M3S245
G4 P0.5; Tool Off

G0 Z0; move to z-safe height
G0 X749.0000 Y384.8200
M3S0
G4 P0.5; Tool On
G1 F300 Z0.0000
G1 F15000 X1.0000 Y384.8200 Z0.0000
M3S245
G4 P0.5; Tool Off

G0 Z0; move to z-safe height
G0 X1.0000 Y386.8200
M3S0
G4 P0.5; Tool On
G1 F300 Z0.0000
G1 F15000 X749.0000 Y386.8200 Z0.0000
M3S245
G4 P0.5; Tool Off

G0 Z0; move to z-safe height
G0 X749.0000 Y388.8200
M3S0
G4 P0.5; Tool On
G1 F300 Z0.0000
G1 F15000 X1.0000 Y388.8200 Z0.0000
M3S245
G4 P0.5; Tool Off

G0 Z0; move to z-safe height
G0 X1.0000 Y390.8200
M3S0
G4 P0.5; Tool On
G1 F300 Z0.0000
G1 F15000 X749.0000 Y390.8200 Z0.0000
M3S245
G4 P0.5; Tool Off

G0 Z0; move to z-safe height
G0 X749.0000 Y392.8200
M3S0
G4 P0.5; Tool On
G1 F300 Z0.0000
G1 F15000 X1.0000 Y392.8200 Z0.0000
M3S245
G4 P0.5; Tool Off

G0 Z0; move to z-safe height
G0 X1.0000 Y394.8200
M3S0
G4 P0.5; Tool On
G1 F300 Z0.0000
G1 F15000 X749.0000 Y394.8200 Z0.0000
M3S245
G4 P0.5; Tool Off

G0 Z0; move to z-safe height
G0 X749.0000 Y396.8200
M3S0
G4 P0.5; Tool On
G1 F300 Z0.0000
G1 F15000 X1.0000 Y396.8200 Z0.0000
M3S245
G4 P0.5; Tool Off

G0 Z0; move to z-safe height
G0 X1.0000 Y398.8200
M3S0
G4 P0.5; Tool On
G1 F300 Z0.0000
G1 F15000 X749.0000 Y398.8200 Z0.0000
M3S245
G4 P0.5; Tool Off

G0 Z0; move to z-safe height
G0 X749.0000 Y400.8200
M3S0
G4 P0.5; Tool On
G1 F300 Z0.0000
G1 F15000 X1.0000 Y400.8200 Z0.0000
M3S245
G4 P0.5; Tool Off

G0 Z0; move to z-safe height
G0 X1.0000 Y402.8200
M3S0
G4 P0.5; Tool On
G1 F300 Z0.0000
G1 F15000 X749.0000 Y402.8200 Z0.0000
M3S245
G4 P0.5; Tool Off

G0 Z0; move to z-safe height
G0 X749.0000 Y404.8200
M3S0
G4 P0.5; Tool On
G1 F300 Z0.0000
G1 F15000 X1.0000 Y404.8200 Z0.0000
M3S245
G4 P0.5; Tool Off

G0 Z0; move to z-safe height
G0 X1.0000 Y406.8200
M3S0
G4 P0.5; Tool On
G1 F300 Z0.0000
G1 F15000 X749.0000 Y406.8200 Z0.0000
M3S245
G4 P0.5; Tool Off

G0 Z0; move to z-safe height
G0 X749.0000 Y408.8200
M3S0
G4 P0.5; Tool On
G1 F300 Z0.0000
G1 F15000 X1.0000 Y408.8200 Z0.0000
M3S245
G4 P0.5; Tool Off

G0 Z0; move to z-safe height
G0 X1.0000 Y410.8200
M3S0
G4 P0.5; Tool On
G1 F300 Z0.0000
G1 F15000 X749.0000 Y410.8200 Z0.0000
M3S245
G4 P0.5; Tool Off

G0 Z0; move to z-safe height
G0 X749.0000 Y412.8200
M3S0
G4 P0.5; Tool On
G1 F300 Z0.0000
G1 F15000 X1.0000 Y412.8200 Z0.0000
M3S245
G4 P0.5; Tool Off

G0 Z0; move to z-safe height
G0 X1.0000 Y414.8200
M3S0
G4 P0.5; Tool On
G1 F300 Z0.0000
G1 F15000 X749.0000 Y414.8200 Z0.0000
M3S245
G4 P0.5; Tool Off

G0 Z0; move to z-safe height
G0 X749.0000 Y416.8200
M3S0
G4 P0.5; Tool On
G1 F300 Z0.0000
G1 F15000 X1.0000 Y416.8200 Z0.0000
M3S245
G4 P0.5; Tool Off

G0 Z0; move to z-safe height
G0 X1.0000 Y418.8200
M3S0
G4 P0.5; Tool On
G1 F300 Z0.0000
G1 F15000 X749.0000 Y418.8200 Z0.0000
M3S245
G4 P0.5; Tool Off

G0 Z0; move to z-safe height
G0 X749.0000 Y420.8200
M3S0
G4 P0.5; Tool On
G1 F300 Z0.0000
G1 F15000 X1.0000 Y420.8200 Z0.0000
M3S245
G4 P0.5; Tool Off

G0 Z0; move to z-safe height
G0 X1.0000 Y422.8200
M3S0
G4 P0.5; Tool On
G1 F300 Z0.0000
G1 F15000 X749.0000 Y422.8200 Z0.0000
M3S245
G4 P0.5; Tool Off

G0 Z0; move to z-safe height
G0 X749.0000 Y424.8200
M3S0
G4 P0.5; Tool On
G1 F300 Z0.0000
G1 F15000 X1.0000 Y424.8200 Z0.0000
M3S245
G4 P0.5; Tool Off

G0 Z0; move to z-safe height
G0 X1.0000 Y426.8200
M3S0
G4 P0.5; Tool On
G1 F300 Z0.0000
G1 F15000 X749.0000 Y426.8200 Z0.0000
M3S245
G4 P0.5; Tool Off

G0 Z0; move to z-safe height
G0 X749.0000 Y428.8200
M3S0
G4 P0.5; Tool On
G1 F300 Z0.0000
G1 F15000 X1.0000 Y428.8200 Z0.0000
M3S245
G4 P0.5; Tool Off

G0 Z0; move to z-safe height
G0 X1.0000 Y430.8200
M3S0
G4 P0.5; Tool On
G1 F300 Z0.0000
G1 F15000 X749.0000 Y430.8200 Z0.0000
M3S245
G4 P0.5; Tool Off

G0 Z0; move to z-safe height
G0 X749.0000 Y432.8200
M3S0
G4 P0.5; Tool On
G1 F300 Z0.0000
G1 F15000 X1.0000 Y432.8200 Z0.0000
M3S245
G4 P0.5; Tool Off

G0 Z0; move to z-safe height
G0 X1.0000 Y434.8200
M3S0
G4 P0.5; Tool On
G1 F300 Z0.0000
G1 F15000 X749.0000 Y434.8200 Z0.0000
M3S245
G4 P0.5; Tool Off

G0 Z0; move to z-safe height
G0 X749.0000 Y436.8200
M3S0
G4 P0.5; Tool On
G1 F300 Z0.0000
G1 F15000 X1.0000 Y436.8200 Z0.0000
M3S245
G4 P0.5; Tool Off

G0 Z0; move to z-safe height
G0 X1.0000 Y438.8200
M3S0
G4 P0.5; Tool On
G1 F300 Z0.0000
G1 F15000 X749.0000 Y438.8200 Z0.0000
M3S245
G4 P0.5; Tool Off

G0 Z0; move to z-safe height
G0 X749.0000 Y440.8200
M3S0
G4 P0.5; Tool On
G1 F300 Z0.0000
G1 F15000 X1.0000 Y440.8200 Z0.0000
M3S245
G4 P0.5; Tool Off

G0 Z0; move to z-safe height
G0 X1.0000 Y442.8200
M3S0
G4 P0.5; Tool On
G1 F300 Z0.0000
G1 F15000 X749.0000 Y442.8200 Z0.0000
M3S245
G4 P0.5; Tool Off

G0 Z0; move to z-safe height
G0 X749.0000 Y444.8200
M3S0
G4 P0.5; Tool On
G1 F300 Z0.0000
G1 F15000 X1.0000 Y444.8200 Z0.0000
M3S245
G4 P0.5; Tool Off

G0 Z0; move to z-safe height
G0 X1.0000 Y446.8200
M3S0
G4 P0.5; Tool On
G1 F300 Z0.0000
G1 F15000 X749.0000 Y446.8200 Z0.0000
M3S245
G4 P0.5; Tool Off

G0 Z0; move to z-safe height
G0 X749.0000 Y448.8200
M3S0
G4 P0.5; Tool On
G1 F300 Z0.0000
G1 F15000 X1.0000 Y448.8200 Z0.0000
M3S245
G4 P0.5; Tool Off

G0 Z0; move to z-safe height
G0 X1.0000 Y450.8200
M3S0
G4 P0.5; Tool On
G1 F300 Z0.0000
G1 F15000 X749.0000 Y450.8200 Z0.0000
M3S245
G4 P0.5; Tool Off

G0 Z0; move to z-safe height
G0 X749.0000 Y452.8200
M3S0
G4 P0.5; Tool On
G1 F300 Z0.0000
G1 F15000 X1.0000 Y452.8200 Z0.0000
M3S245
G4 P0.5; Tool Off

G0 Z0; move to z-safe height
G0 X1.0000 Y454.8200
M3S0
G4 P0.5; Tool On
G1 F300 Z0.0000
G1 F15000 X749.0000 Y454.8200 Z0.0000
M3S245
G4 P0.5; Tool Off

G0 Z0; move to z-safe height
G0 X749.0000 Y456.8200
M3S0
G4 P0.5; Tool On
G1 F300 Z0.0000
G1 F15000 X1.0000 Y456.8200 Z0.0000
M3S245
G4 P0.5; Tool Off

G0 Z0; move to z-safe height
G0 X1.0000 Y458.8200
M3S0
G4 P0.5; Tool On
G1 F300 Z0.0000
G1 F15000 X749.0000 Y458.8200 Z0.0000
M3S245
G4 P0.5; Tool Off

G0 Z0; move to z-safe height
G0 X749.0000 Y460.8200
M3S0
G4 P0.5; Tool On
G1 F300 Z0.0000
G1 F15000 X1.0000 Y460.8200 Z0.0000
M3S245
G4 P0.5; Tool Off

G0 Z0; move to z-safe height
G0 X1.0000 Y462.8200
M3S0
G4 P0.5; Tool On
G1 F300 Z0.0000
G1 F15000 X749.0000 Y462.8200 Z0.0000
M3S245
G4 P0.5; Tool Off

G0 Z0; move to z-safe height
G0 X749.0000 Y464.8200
M3S0
G4 P0.5; Tool On
G1 F300 Z0.0000
G1 F15000 X1.0000 Y464.8200 Z0.0000
M3S245
G4 P0.5; Tool Off

G0 Z0; move to z-safe height
G0 X1.0000 Y466.8200
M3S0
G4 P0.5; Tool On
G1 F300 Z0.0000
G1 F15000 X749.0000 Y466.8200 Z0.0000
M3S245
G4 P0.5; Tool Off

G0 Z0; move to z-safe height
G0 X749.0000 Y468.8200
M3S0
G4 P0.5; Tool On
G1 F300 Z0.0000
G1 F15000 X1.0000 Y468.8200 Z0.0000
M3S245
G4 P0.5; Tool Off

G0 Z0; move to z-safe height
G0 X1.0000 Y470.8200
M3S0
G4 P0.5; Tool On
G1 F300 Z0.0000
G1 F15000 X749.0000 Y470.8200 Z0.0000
M3S245
G4 P0.5; Tool Off

G0 Z0; move to z-safe height
G0 X749.0000 Y472.8200
M3S0
G4 P0.5; Tool On
G1 F300 Z0.0000
G1 F15000 X1.0000 Y472.8200 Z0.0000
M3S245
G4 P0.5; Tool Off

G0 Z0; move to z-safe height
G0 X1.0000 Y474.8200
M3S0
G4 P0.5; Tool On
G1 F300 Z0.0000
G1 F15000 X749.0000 Y474.8200 Z0.0000
M3S245
G4 P0.5; Tool Off

G0 Z0; move to z-safe height
G0 X749.0000 Y476.8200
M3S0
G4 P0.5; Tool On
G1 F300 Z0.0000
G1 F15000 X1.0000 Y476.8200 Z0.0000
M3S245
G4 P0.5; Tool Off

G0 Z0; move to z-safe height
G0 X1.0000 Y478.8200
M3S0
G4 P0.5; Tool On
G1 F300 Z0.0000
G1 F15000 X749.0000 Y478.8200 Z0.0000
M3S245
G4 P0.5; Tool Off

G0 Z0; move to z-safe height
G0 X749.0000 Y480.8200
M3S0
G4 P0.5; Tool On
G1 F300 Z0.0000
G1 F15000 X1.0000 Y480.8200 Z0.0000
M3S245
G4 P0.5; Tool Off

G0 Z0; move to z-safe height
G0 X1.0000 Y482.8200
M3S0
G4 P0.5; Tool On
G1 F300 Z0.0000
G1 F15000 X749.0000 Y482.8200 Z0.0000
M3S245
G4 P0.5; Tool Off

G0 Z0; move to z-safe height
G0 X749.0000 Y484.8200
M3S0
G4 P0.5; Tool On
G1 F300 Z0.0000
G1 F15000 X1.0000 Y484.8200 Z0.0000
M3S245
G4 P0.5; Tool Off

G0 Z0; move to z-safe height
G0 X1.0000 Y486.8200
M3S0
G4 P0.5; Tool On
G1 F300 Z0.0000
G1 F15000 X749.0000 Y486.8200 Z0.0000
M3S245
G4 P0.5; Tool Off

G0 Z0; move to z-safe height
G0 X749.0000 Y488.8200
M3S0
G4 P0.5; Tool On
G1 F300 Z0.0000
G1 F15000 X1.0000 Y488.8200 Z0.0000
M3S245
G4 P0.5; Tool Off

G0 Z0; move to z-safe height
G0 X1.0000 Y490.8200
M3S0
G4 P0.5; Tool On
G1 F300 Z0.0000
G1 F15000 X749.0000 Y490.8200 Z0.0000
M3S245
G4 P0.5; Tool Off

G0 Z0; move to z-safe height
G0 X749.0000 Y492.8200
M3S0
G4 P0.5; Tool On
G1 F300 Z0.0000
G1 F15000 X1.0000 Y492.8200 Z0.0000
M3S245
G4 P0.5; Tool Off

G0 Z0; move to z-safe height
G0 X1.0000 Y494.8200
M3S0
G4 P0.5; Tool On
G1 F300 Z0.0000
G1 F15000 X749.0000 Y494.8200 Z0.0000
M3S245
G4 P0.5; Tool Off

G0 Z0; move to z-safe height
G0 X749.0000 Y496.8200
M3S0
G4 P0.5; Tool On
G1 F300 Z0.0000
G1 F15000 X1.0000 Y496.8200 Z0.0000
M3S245
G4 P0.5; Tool Off

G0 Z0; move to z-safe height
G0 X1.0000 Y498.8200
M3S0
G4 P0.5; Tool On
G1 F300 Z0.0000
G1 F15000 X749.0000 Y498.8200 Z0.0000
M3S245
G4 P0.5; Tool Off

G0 Z0; move to z-safe height
G0 X749.0000 Y500.8200
M3S0
G4 P0.5; Tool On
G1 F300 Z0.0000
G1 F15000 X1.0000 Y500.8200 Z0.0000
M3S245
G4 P0.5; Tool Off

G0 Z0; move to z-safe height
G0 X1.0000 Y502.8200
M3S0
G4 P0.5; Tool On
G1 F300 Z0.0000
G1 F15000 X749.0000 Y502.8200 Z0.0000
M3S245
G4 P0.5; Tool Off

G0 Z0; move to z-safe height
G0 X749.0000 Y504.8200
M3S0
G4 P0.5; Tool On
G1 F300 Z0.0000
G1 F15000 X1.0000 Y504.8200 Z0.0000
M3S245
G4 P0.5; Tool Off

G0 Z0; move to z-safe height
G0 X1.0000 Y506.8200
M3S0
G4 P0.5; Tool On
G1 F300 Z0.0000
G1 F15000 X749.0000 Y506.8200 Z0.0000
M3S245
G4 P0.5; Tool Off

G0 Z0; move to z-safe height
G0 X749.0000 Y508.8200
M3S0
G4 P0.5; Tool On
G1 F300 Z0.0000
G1 F15000 X1.0000 Y508.8200 Z0.0000
M3S245
G4 P0.5; Tool Off

G0 Z0; move to z-safe height
G0 X1.0000 Y510.8200
M3S0
G4 P0.5; Tool On
G1 F300 Z0.0000
G1 F15000 X749.0000 Y510.8200 Z0.0000
M3S245
G4 P0.5; Tool Off

G0 Z0; move to z-safe height
G0 X749.0000 Y512.8200
M3S0
G4 P0.5; Tool On
G1 F300 Z0.0000
G1 F15000 X1.0000 Y512.8200 Z0.0000
M3S245
G4 P0.5; Tool Off

G0 Z0; move to z-safe height
G0 X1.0000 Y514.8200
M3S0
G4 P0.5; Tool On
G1 F300 Z0.0000
G1 F15000 X749.0000 Y514.8200 Z0.0000
M3S245
G4 P0.5; Tool Off

G0 Z0; move to z-safe height
G0 X749.0000 Y516.8200
M3S0
G4 P0.5; Tool On
G1 F300 Z0.0000
G1 F15000 X1.0000 Y516.8200 Z0.0000
M3S245
G4 P0.5; Tool Off

G0 Z0; move to z-safe height
G0 X1.0000 Y518.8200
M3S0
G4 P0.5; Tool On
G1 F300 Z0.0000
G1 F15000 X749.0000 Y518.8200 Z0.0000
M3S245
G4 P0.5; Tool Off

G0 Z0; move to z-safe height
G0 X749.0000 Y520.8200
M3S0
G4 P0.5; Tool On
G1 F300 Z0.0000
G1 F15000 X1.0000 Y520.8200 Z0.0000
M3S245
G4 P0.5; Tool Off

G0 Z0; move to z-safe height
G0 X1.0000 Y522.8200
M3S0
G4 P0.5; Tool On
G1 F300 Z0.0000
G1 F15000 X749.0000 Y522.8200 Z0.0000
M3S245
G4 P0.5; Tool Off

G0 Z0; move to z-safe height
G0 X749.0000 Y524.8200
M3S0
G4 P0.5; Tool On
G1 F300 Z0.0000
G1 F15000 X1.0000 Y524.8200 Z0.0000
M3S245
G4 P0.5; Tool Off

G0 Z0; move to z-safe height
G0 X1.0000 Y526.8200
M3S0
G4 P0.5; Tool On
G1 F300 Z0.0000
G1 F15000 X749.0000 Y526.8200 Z0.0000
M3S245
G4 P0.5; Tool Off

G0 Z0; move to z-safe height
G0 X749.0000 Y528.8200
M3S0
G4 P0.5; Tool On
G1 F300 Z0.0000
G1 F15000 X1.0000 Y528.8200 Z0.0000
M3S245
G4 P0.5; Tool Off

G0 Z0; move to z-safe height
G0 X1.0000 Y530.8200
M3S0
G4 P0.5; Tool On
G1 F300 Z0.0000
G1 F15000 X749.0000 Y530.8200 Z0.0000
M3S245
G4 P0.5; Tool Off

G0 Z0; move to z-safe height
G0 X749.0000 Y532.8200
M3S0
G4 P0.5; Tool On
G1 F300 Z0.0000
G1 F15000 X1.0000 Y532.8200 Z0.0000
M3S245
G4 P0.5; Tool Off

G0 Z0; move to z-safe height
G0 X1.0000 Y534.8200
M3S0
G4 P0.5; Tool On
G1 F300 Z0.0000
G1 F15000 X749.0000 Y534.8200 Z0.0000
M3S245
G4 P0.5; Tool Off

G0 Z0; move to z-safe height
G0 X749.0000 Y536.8200
M3S0
G4 P0.5; Tool On
G1 F300 Z0.0000
G1 F15000 X1.0000 Y536.8200 Z0.0000
M3S245
G4 P0.5; Tool Off

G0 Z0; move to z-safe height
G0 X1.0000 Y538.8200
M3S0
G4 P0.5; Tool On
G1 F300 Z0.0000
G1 F15000 X749.0000 Y538.8200 Z0.0000
M3S245
G4 P0.5; Tool Off

G0 Z0; move to z-safe height
G0 X749.0000 Y540.8200
M3S0
G4 P0.5; Tool On
G1 F300 Z0.0000
G1 F15000 X1.0000 Y540.8200 Z0.0000
M3S245
G4 P0.5; Tool Off

G0 Z0; move to z-safe height
G0 X1.0000 Y542.8200
M3S0
G4 P0.5; Tool On
G1 F300 Z0.0000
G1 F15000 X749.0000 Y542.8200 Z0.0000
M3S245
G4 P0.5; Tool Off

G0 Z0; move to z-safe height
G0 X749.0000 Y544.8200
M3S0
G4 P0.5; Tool On
G1 F300 Z0.0000
G1 F15000 X1.0000 Y544.8200 Z0.0000
M3S245
G4 P0.5; Tool Off

G0 Z0; move to z-safe height
G0 X1.0000 Y546.8200
M3S0
G4 P0.5; Tool On
G1 F300 Z0.0000
G1 F15000 X749.0000 Y546.8200 Z0.0000
M3S245
G4 P0.5; Tool Off

G0 Z0; move to z-safe height
G0 X749.0000 Y548.8200
M3S0
G4 P0.5; Tool On
G1 F300 Z0.0000
G1 F15000 X1.0000 Y548.8200 Z0.0000
M3S245
G4 P0.5; Tool Off

G0 Z0; move to z-safe height
G0 X1.0000 Y550.8200
M3S0
G4 P0.5; Tool On
G1 F300 Z0.0000
G1 F15000 X749.0000 Y550.8200 Z0.0000
M3S245
G4 P0.5; Tool Off

G0 Z0; move to z-safe height
G0 X749.0000 Y552.8200
M3S0
G4 P0.5; Tool On
G1 F300 Z0.0000
G1 F15000 X1.0000 Y552.8200 Z0.0000
M3S245
G4 P0.5; Tool Off

G0 Z0; move to z-safe height
G0 X1.0000 Y554.8200
M3S0
G4 P0.5; Tool On
G1 F300 Z0.0000
G1 F15000 X749.0000 Y554.8200 Z0.0000
M3S245
G4 P0.5; Tool Off

G0 Z0; move to z-safe height
G0 X749.0000 Y556.8200
M3S0
G4 P0.5; Tool On
G1 F300 Z0.0000
G1 F15000 X1.0000 Y556.8200 Z0.0000
M3S245
G4 P0.5; Tool Off

G0 Z0; move to z-safe height
G0 X1.0000 Y558.8200
M3S0
G4 P0.5; Tool On
G1 F300 Z0.0000
G1 F15000 X749.0000 Y558.8200 Z0.0000
M3S245
G4 P0.5; Tool Off

G0 Z0; move to z-safe height
G0 X749.0000 Y560.8200
M3S0
G4 P0.5; Tool On
G1 F300 Z0.0000
G1 F15000 X1.0000 Y560.8200 Z0.0000
M3S245
G4 P0.5; Tool Off

G0 Z0; move to z-safe height
G0 X1.0000 Y562.8200
M3S0
G4 P0.5; Tool On
G1 F300 Z0.0000
G1 F15000 X749.0000 Y562.8200 Z0.0000
M3S245
G4 P0.5; Tool Off

G0 Z0; move to z-safe height
G0 X749.0000 Y564.8200
M3S0
G4 P0.5; Tool On
G1 F300 Z0.0000
G1 F15000 X1.0000 Y564.8200 Z0.0000
M3S245
G4 P0.5; Tool Off

G0 Z0; move to z-safe height
G0 X1.0000 Y566.8200
M3S0
G4 P0.5; Tool On
G1 F300 Z0.0000
G1 F15000 X749.0000 Y566.8200 Z0.0000
M3S245
G4 P0.5; Tool Off

G0 Z0; move to z-safe height
G0 X749.0000 Y568.8200
M3S0
G4 P0.5; Tool On
G1 F300 Z0.0000
G1 F15000 X1.0000 Y568.8200 Z0.0000
M3S245
G4 P0.5; Tool Off

G0 Z0; move to z-safe height
G0 X1.0000 Y570.8200
M3S0
G4 P0.5; Tool On
G1 F300 Z0.0000
G1 F15000 X749.0000 Y570.8200 Z0.0000
M3S245
G4 P0.5; Tool Off

G0 Z0; move to z-safe height
G0 X749.0000 Y572.8200
M3S0
G4 P0.5; Tool On
G1 F300 Z0.0000
G1 F15000 X1.0000 Y572.8200 Z0.0000
M3S245
G4 P0.5; Tool Off

G0 Z0; move to z-safe height
G0 X1.0000 Y574.8200
M3S0
G4 P0.5; Tool On
G1 F300 Z0.0000
G1 F15000 X749.0000 Y574.8200 Z0.0000
M3S245
G4 P0.5; Tool Off

G0 Z0; move to z-safe height
G0 X749.0000 Y576.8200
M3S0
G4 P0.5; Tool On
G1 F300 Z0.0000
G1 F15000 X1.0000 Y576.8200 Z0.0000
M3S245
G4 P0.5; Tool Off

G0 Z0; move to z-safe height
G0 X1.0000 Y578.8200
M3S0
G4 P0.5; Tool On
G1 F300 Z0.0000
G1 F15000 X749.0000 Y578.8200 Z0.0000
M3S245
G4 P0.5; Tool Off

G0 Z0; move to z-safe height
G0 X749.0000 Y580.8200
M3S0
G4 P0.5; Tool On
G1 F300 Z0.0000
G1 F15000 X1.0000 Y580.8200 Z0.0000
M3S245
G4 P0.5; Tool Off

G0 Z0; move to z-safe height
G0 X1.0000 Y582.8200
M3S0
G4 P0.5; Tool On
G1 F300 Z0.0000
G1 F15000 X749.0000 Y582.8200 Z0.0000
M3S245
G4 P0.5; Tool Off

G0 Z0; move to z-safe height
G0 X749.0000 Y584.8200
M3S0
G4 P0.5; Tool On
G1 F300 Z0.0000
G1 F15000 X1.0000 Y584.8200 Z0.0000
M3S245
G4 P0.5; Tool Off

G0 Z0; move to z-safe height
G0 X1.0000 Y586.8200
M3S0
G4 P0.5; Tool On
G1 F300 Z0.0000
G1 F15000 X749.0000 Y586.8200 Z0.0000
M3S245
G4 P0.5; Tool Off

G0 Z0; move to z-safe height
G0 X749.0000 Y588.8200
M3S0
G4 P0.5; Tool On
G1 F300 Z0.0000
G1 F15000 X1.0000 Y588.8200 Z0.0000
M3S245
G4 P0.5; Tool Off

G0 Z0; move to z-safe height
G0 X1.0000 Y590.8200
M3S0
G4 P0.5; Tool On
G1 F300 Z0.0000
G1 F15000 X749.0000 Y590.8200 Z0.0000
M3S245
G4 P0.5; Tool Off

G0 Z0; move to z-safe height
G0 X749.0000 Y592.8200
M3S0
G4 P0.5; Tool On
G1 F300 Z0.0000
G1 F15000 X1.0000 Y592.8200 Z0.0000
M3S245
G4 P0.5; Tool Off

G0 Z0; move to z-safe height
G0 X1.0000 Y594.8200
M3S0
G4 P0.5; Tool On
G1 F300 Z0.0000
G1 F15000 X749.0000 Y594.8200 Z0.0000
M3S245
G4 P0.5; Tool Off

G0 Z0; move to z-safe height
G0 X749.0000 Y596.8200
M3S0
G4 P0.5; Tool On
G1 F300 Z0.0000
G1 F15000 X1.0000 Y596.8200 Z0.0000
M3S245
G4 P0.5; Tool Off

G0 Z0; move to z-safe height
G0 X1.0000 Y598.8200
M3S0
G4 P0.5; Tool On
G1 F300 Z0.0000
G1 F15000 X749.0000 Y598.8200 Z0.0000
M3S245
G4 P0.5; Tool Off

G0 Z0; move to z-safe height
G0 X749.0000 Y600.8200
M3S0
G4 P0.5; Tool On
G1 F300 Z0.0000
G1 F15000 X1.0000 Y600.8200 Z0.0000
M3S245
G4 P0.5; Tool Off

G0 Z0; move to z-safe height
G0 X1.0000 Y602.8200
M3S0
G4 P0.5; Tool On
G1 F300 Z0.0000
G1 F15000 X749.0000 Y602.8200 Z0.0000
M3S245
G4 P0.5; Tool Off

G0 Z0; move to z-safe height
G0 X749.0000 Y604.8200
M3S0
G4 P0.5; Tool On
G1 F300 Z0.0000
G1 F15000 X1.0000 Y604.8200 Z0.0000
M3S245
G4 P0.5; Tool Off

G0 Z0; move to z-safe height
G0 X1.0000 Y606.8200
M3S0
G4 P0.5; Tool On
G1 F300 Z0.0000
G1 F15000 X749.0000 Y606.8200 Z0.0000
M3S245
G4 P0.5; Tool Off

G0 Z0; move to z-safe height
G0 X749.0000 Y608.8200
M3S0
G4 P0.5; Tool On
G1 F300 Z0.0000
G1 F15000 X1.0000 Y608.8200 Z0.0000
M3S245
G4 P0.5; Tool Off

G0 Z0; move to z-safe height
G0 X1.0000 Y610.8200
M3S0
G4 P0.5; Tool On
G1 F300 Z0.0000
G1 F15000 X749.0000 Y610.8200 Z0.0000
M3S245
G4 P0.5; Tool Off

G0 Z0; move to z-safe height
G0 X749.0000 Y612.8200
M3S0
G4 P0.5; Tool On
G1 F300 Z0.0000
G1 F15000 X1.0000 Y612.8200 Z0.0000
M3S245
G4 P0.5; Tool Off

G0 Z0; move to z-safe height
G0 X1.0000 Y614.8200
M3S0
G4 P0.5; Tool On
G1 F300 Z0.0000
G1 F15000 X749.0000 Y614.8200 Z0.0000
M3S245
G4 P0.5; Tool Off

G0 Z0; move to z-safe height
G0 X749.0000 Y616.8200
M3S0
G4 P0.5; Tool On
G1 F300 Z0.0000
G1 F15000 X1.0000 Y616.8200 Z0.0000
M3S245
G4 P0.5; Tool Off

G0 Z0; move to z-safe height
G0 X1.0000 Y618.8200
M3S0
G4 P0.5; Tool On
G1 F300 Z0.0000
G1 F15000 X749.0000 Y618.8200 Z0.0000
M3S245
G4 P0.5; Tool Off

G0 Z0; move to z-safe height
G0 X749.0000 Y620.8200
M3S0
G4 P0.5; Tool On
G1 F300 Z0.0000
G1 F15000 X1.0000 Y620.8200 Z0.0000
M3S245
G4 P0.5; Tool Off

G0 Z0; move to z-safe height
G0 X1.0000 Y622.8200
M3S0
G4 P0.5; Tool On
G1 F300 Z0.0000
G1 F15000 X749.0000 Y622.8200 Z0.0000
M3S245
G4 P0.5; Tool Off

G0 Z0; move to z-safe height
G0 X749.0000 Y624.8200
M3S0
G4 P0.5; Tool On
G1 F300 Z0.0000
G1 F15000 X1.0000 Y624.8200 Z0.0000
M3S245
G4 P0.5; Tool Off

G0 Z0; move to z-safe height
G0 X1.0000 Y626.8200
M3S0
G4 P0.5; Tool On
G1 F300 Z0.0000
G1 F15000 X749.0000 Y626.8200 Z0.0000
M3S245
G4 P0.5; Tool Off

G0 Z0; move to z-safe height
G0 X749.0000 Y628.8200
M3S0
G4 P0.5; Tool On
G1 F300 Z0.0000
G1 F15000 X1.0000 Y628.8200 Z0.0000
M3S245
G4 P0.5; Tool Off

G0 Z0; move to z-safe height
G0 X1.0000 Y630.8200
M3S0
G4 P0.5; Tool On
G1 F300 Z0.0000
G1 F15000 X749.0000 Y630.8200 Z0.0000
M3S245
G4 P0.5; Tool Off

G0 Z0; move to z-safe height
G0 X749.0000 Y632.8200
M3S0
G4 P0.5; Tool On
G1 F300 Z0.0000
G1 F15000 X1.0000 Y632.8200 Z0.0000
M3S245
G4 P0.5; Tool Off

G0 Z0; move to z-safe height
G0 X1.0000 Y634.8200
M3S0
G4 P0.5; Tool On
G1 F300 Z0.0000
G1 F15000 X749.0000 Y634.8200 Z0.0000
M3S245
G4 P0.5; Tool Off

G0 Z0; move to z-safe height
G0 X749.0000 Y636.8200
M3S0
G4 P0.5; Tool On
G1 F300 Z0.0000
G1 F15000 X1.0000 Y636.8200 Z0.0000
M3S245
G4 P0.5; Tool Off

G0 Z0; move to z-safe height
G0 X1.0000 Y638.8200
M3S0
G4 P0.5; Tool On
G1 F300 Z0.0000
G1 F15000 X749.0000 Y638.8200 Z0.0000
M3S245
G4 P0.5; Tool Off

G0 Z0; move to z-safe height
G0 X749.0000 Y640.8200
M3S0
G4 P0.5; Tool On
G1 F300 Z0.0000
G1 F15000 X1.0000 Y640.8200 Z0.0000
M3S245
G4 P0.5; Tool Off

G0 Z0; move to z-safe height
G0 X1.0000 Y642.8200
M3S0
G4 P0.5; Tool On
G1 F300 Z0.0000
G1 F15000 X749.0000 Y642.8200 Z0.0000
M3S245
G4 P0.5; Tool Off

G0 Z0; move to z-safe height
G0 X749.0000 Y644.8200
M3S0
G4 P0.5; Tool On
G1 F300 Z0.0000
G1 F15000 X1.0000 Y644.8200 Z0.0000
M3S245
G4 P0.5; Tool Off

G0 Z0; move to z-safe height
G0 X1.0000 Y646.8200
M3S0
G4 P0.5; Tool On
G1 F300 Z0.0000
G1 F15000 X749.0000 Y646.8200 Z0.0000
M3S245
G4 P0.5; Tool Off

G0 Z0; move to z-safe height
G0 X749.0000 Y648.8200
M3S0
G4 P0.5; Tool On
G1 F300 Z0.0000
G1 F15000 X1.0000 Y648.8200 Z0.0000
M3S245
G4 P0.5; Tool Off

G0 Z0; move to z-safe height
G0 X1.0000 Y650.8200
M3S0
G4 P0.5; Tool On
G1 F300 Z0.0000
G1 F15000 X749.0000 Y650.8200 Z0.0000
M3S245
G4 P0.5; Tool Off

G0 Z0; move to z-safe height
G0 X749.0000 Y652.8200
M3S0
G4 P0.5; Tool On
G1 F300 Z0.0000
G1 F15000 X1.0000 Y652.8200 Z0.0000
M3S245
G4 P0.5; Tool Off

G0 Z0; move to z-safe height
G0 X1.0000 Y654.8200
M3S0
G4 P0.5; Tool On
G1 F300 Z0.0000
G1 F15000 X749.0000 Y654.8200 Z0.0000
M3S245
G4 P0.5; Tool Off

G0 Z0; move to z-safe height
G0 X749.0000 Y656.8200
M3S0
G4 P0.5; Tool On
G1 F300 Z0.0000
G1 F15000 X1.0000 Y656.8200 Z0.0000
M3S245
G4 P0.5; Tool Off

G0 Z0; move to z-safe height
G0 X1.0000 Y658.8200
M3S0
G4 P0.5; Tool On
G1 F300 Z0.0000
G1 F15000 X749.0000 Y658.8200 Z0.0000
M3S245
G4 P0.5; Tool Off

G0 Z0; move to z-safe height
G0 X749.0000 Y660.8200
M3S0
G4 P0.5; Tool On
G1 F300 Z0.0000
G1 F15000 X1.0000 Y660.8200 Z0.0000
M3S245
G4 P0.5; Tool Off

G0 Z0; move to z-safe height
G0 X1.0000 Y662.8200
M3S0
G4 P0.5; Tool On
G1 F300 Z0.0000
G1 F15000 X749.0000 Y662.8200 Z0.0000
M3S245
G4 P0.5; Tool Off

G0 Z0; move to z-safe height
G0 X749.0000 Y664.8200
M3S0
G4 P0.5; Tool On
G1 F300 Z0.0000
G1 F15000 X1.0000 Y664.8200 Z0.0000
M3S245
G4 P0.5; Tool Off

G0 Z0; move to z-safe height
G0 X1.0000 Y666.8200
M3S0
G4 P0.5; Tool On
G1 F300 Z0.0000
G1 F15000 X749.0000 Y666.8200 Z0.0000
M3S245
G4 P0.5; Tool Off

G0 Z0; move to z-safe height
G0 X749.0000 Y668.8200
M3S0
G4 P0.5; Tool On
G1 F300 Z0.0000
G1 F15000 X1.0000 Y668.8200 Z0.0000
M3S245
G4 P0.5; Tool Off

G0 Z0; move to z-safe height
G0 X1.0000 Y670.8200
M3S0
G4 P0.5; Tool On
G1 F300 Z0.0000
G1 F15000 X749.0000 Y670.8200 Z0.0000
M3S245
G4 P0.5; Tool Off

G0 Z0; move to z-safe height
G0 X749.0000 Y672.8200
M3S0
G4 P0.5; Tool On
G1 F300 Z0.0000
G1 F15000 X1.0000 Y672.8200 Z0.0000
M3S245
G4 P0.5; Tool Off

G0 Z0; move to z-safe height
G0 X1.0000 Y674.8200
M3S0
G4 P0.5; Tool On
G1 F300 Z0.0000
G1 F15000 X749.0000 Y674.8200 Z0.0000
M3S245
G4 P0.5; Tool Off

G0 Z0; move to z-safe height
G0 X749.0000 Y676.8200
M3S0
G4 P0.5; Tool On
G1 F300 Z0.0000
G1 F15000 X1.0000 Y676.8200 Z0.0000
M3S245
G4 P0.5; Tool Off

G0 Z0; move to z-safe height
G0 X1.0000 Y678.8200
M3S0
G4 P0.5; Tool On
G1 F300 Z0.0000
G1 F15000 X749.0000 Y678.8200 Z0.0000
M3S245
G4 P0.5; Tool Off

G0 Z0; move to z-safe height
G0 X749.0000 Y680.8200
M3S0
G4 P0.5; Tool On
G1 F300 Z0.0000
G1 F15000 X1.0000 Y680.8200 Z0.0000
M3S245
G4 P0.5; Tool Off

G0 Z0; move to z-safe height
G0 X1.0000 Y682.8200
M3S0
G4 P0.5; Tool On
G1 F300 Z0.0000
G1 F15000 X749.0000 Y682.8200 Z0.0000
M3S245
G4 P0.5; Tool Off

G0 Z0; move to z-safe height
G0 X749.0000 Y684.8200
M3S0
G4 P0.5; Tool On
G1 F300 Z0.0000
G1 F15000 X1.0000 Y684.8200 Z0.0000
M3S245
G4 P0.5; Tool Off

G0 Z0; move to z-safe height
G0 X1.0000 Y686.8200
M3S0
G4 P0.5; Tool On
G1 F300 Z0.0000
G1 F15000 X749.0000 Y686.8200 Z0.0000
M3S245
G4 P0.5; Tool Off

G0 Z0; move to z-safe height
G0 X749.0000 Y688.8200
M3S0
G4 P0.5; Tool On
G1 F300 Z0.0000
G1 F15000 X1.0000 Y688.8200 Z0.0000
M3S245
G4 P0.5; Tool Off

G0 Z0; move to z-safe height
G0 X1.0000 Y690.8200
M3S0
G4 P0.5; Tool On
G1 F300 Z0.0000
G1 F15000 X749.0000 Y690.8200 Z0.0000
M3S245
G4 P0.5; Tool Off

G0 Z0; move to z-safe height
G0 X749.0000 Y692.8200
M3S0
G4 P0.5; Tool On
G1 F300 Z0.0000
G1 F15000 X1.0000 Y692.8200 Z0.0000
M3S245
G4 P0.5; Tool Off

G0 Z0; move to z-safe height
G0 X1.0000 Y694.8200
M3S0
G4 P0.5; Tool On
G1 F300 Z0.0000
G1 F15000 X749.0000 Y694.8200 Z0.0000
M3S245
G4 P0.5; Tool Off

G0 Z0; move to z-safe height
G0 X749.0000 Y696.8200
M3S0
G4 P0.5; Tool On
G1 F300 Z0.0000
G1 F15000 X1.0000 Y696.8200 Z0.0000
M3S245
G4 P0.5; Tool Off

G0 Z0; move to z-safe height
G0 X1.0000 Y698.8200
M3S0
G4 P0.5; Tool On
G1 F300 Z0.0000
G1 F15000 X749.0000 Y698.8200 Z0.0000
M3S245
G4 P0.5; Tool Off

G0 Z0; move to z-safe height
G0 X749.0000 Y700.8200
M3S0
G4 P0.5; Tool On
G1 F300 Z0.0000
G1 F15000 X1.0000 Y700.8200 Z0.0000
M3S245
G4 P0.5; Tool Off

G0 Z0; move to z-safe height
G0 X1.0000 Y702.8200
M3S0
G4 P0.5; Tool On
G1 F300 Z0.0000
G1 F15000 X749.0000 Y702.8200 Z0.0000
M3S245
G4 P0.5; Tool Off

G0 Z0; move to z-safe height
G0 X749.0000 Y704.8200
M3S0
G4 P0.5; Tool On
G1 F300 Z0.0000
G1 F15000 X1.0000 Y704.8200 Z0.0000
M3S245
G4 P0.5; Tool Off

G0 Z0; move to z-safe height
G0 X1.0000 Y706.8200
M3S0
G4 P0.5; Tool On
G1 F300 Z0.0000
G1 F15000 X749.0000 Y706.8200 Z0.0000
M3S245
G4 P0.5; Tool Off

G0 Z0; move to z-safe height
G0 X749.0000 Y708.8200
M3S0
G4 P0.5; Tool On
G1 F300 Z0.0000
G1 F15000 X1.0000 Y708.8200 Z0.0000
M3S245
G4 P0.5; Tool Off

G0 Z0; move to z-safe height
G0 X1.0000 Y710.8200
M3S0
G4 P0.5; Tool On
G1 F300 Z0.0000
G1 F15000 X749.0000 Y710.8200 Z0.0000
M3S245
G4 P0.5; Tool Off

G0 Z0; move to z-safe height
G0 X749.0000 Y712.8200
M3S0
G4 P0.5; Tool On
G1 F300 Z0.0000
G1 F15000 X1.0000 Y712.8200 Z0.0000
M3S245
G4 P0.5; Tool Off

G0 Z0; move to z-safe height
G0 X1.0000 Y714.8200
M3S0
G4 P0.5; Tool On
G1 F300 Z0.0000
G1 F15000 X749.0000 Y714.8200 Z0.0000
M3S245
G4 P0.5; Tool Off

G0 Z0; move to z-safe height
G0 X749.0000 Y716.8200
M3S0
G4 P0.5; Tool On
G1 F300 Z0.0000
G1 F15000 X1.0000 Y716.8200 Z0.0000
M3S245
G4 P0.5; Tool Off

G0 Z0; move to z-safe height
G0 X1.0000 Y718.8200
M3S0
G4 P0.5; Tool On
G1 F300 Z0.0000
G1 F15000 X749.0000 Y718.8200 Z0.0000
M3S245
G4 P0.5; Tool Off

G0 Z0; move to z-safe height
G0 X749.0000 Y720.8200
M3S0
G4 P0.5; Tool On
G1 F300 Z0.0000
G1 F15000 X1.0000 Y720.8200 Z0.0000
M3S245
G4 P0.5; Tool Off

G0 Z0; move to z-safe height
G0 X1.0000 Y722.8200
M3S0
G4 P0.5; Tool On
G1 F300 Z0.0000
G1 F15000 X749.0000 Y722.8200 Z0.0000
M3S245
G4 P0.5; Tool Off

G0 Z0; move to z-safe height
G0 X749.0000 Y724.8200
M3S0
G4 P0.5; Tool On
G1 F300 Z0.0000
G1 F15000 X1.0000 Y724.8200 Z0.0000
M3S245
G4 P0.5; Tool Off

G0 Z0; move to z-safe height
G0 X1.0000 Y726.8200
M3S0
G4 P0.5; Tool On
G1 F300 Z0.0000
G1 F15000 X749.0000 Y726.8200 Z0.0000
M3S245
G4 P0.5; Tool Off

G0 Z0; move to z-safe height
G0 X749.0000 Y728.8200
M3S0
G4 P0.5; Tool On
G1 F300 Z0.0000
G1 F15000 X1.0000 Y728.8200 Z0.0000
M3S245
G4 P0.5; Tool Off

G0 Z0; move to z-safe height
G0 X1.0000 Y730.8200
M3S0
G4 P0.5; Tool On
G1 F300 Z0.0000
G1 F15000 X749.0000 Y730.8200 Z0.0000
M3S245
G4 P0.5; Tool Off

G0 Z0; move to z-safe height
G0 X749.0000 Y732.8200
M3S0
G4 P0.5; Tool On
G1 F300 Z0.0000
G1 F15000 X1.0000 Y732.8200 Z0.0000
M3S245
G4 P0.5; Tool Off

G0 Z0; move to z-safe height
G0 X1.0000 Y734.8200
M3S0
G4 P0.5; Tool On
G1 F300 Z0.0000
G1 F15000 X749.0000 Y734.8200 Z0.0000
M3S245
G4 P0.5; Tool Off

G0 Z0; move to z-safe height
G0 X749.0000 Y736.8200
M3S0
G4 P0.5; Tool On
G1 F300 Z0.0000
G1 F15000 X1.0000 Y736.8200 Z0.0000
M3S245
G4 P0.5; Tool Off

G0 Z0; move to z-safe height
G0 X1.0000 Y738.8200
M3S0
G4 P0.5; Tool On
G1 F300 Z0.0000
G1 F15000 X749.0000 Y738.8200 Z0.0000
M3S245
G4 P0.5; Tool Off

G0 Z0; move to z-safe height
G0 X749.0000 Y740.8200
M3S0
G4 P0.5; Tool On
G1 F300 Z0.0000
G1 F15000 X1.0000 Y740.8200 Z0.0000
M3S245
G4 P0.5; Tool Off

G0 Z0; move to z-safe height
G0 X1.0000 Y742.8200
M3S0
G4 P0.5; Tool On
G1 F300 Z0.0000
G1 F15000 X749.0000 Y742.8200 Z0.0000
M3S245
G4 P0.5; Tool Off

G0 Z0; move to z-safe height
G0 X749.0000 Y744.8200
M3S0
G4 P0.5; Tool On
G1 F300 Z0.0000
G1 F15000 X1.0000 Y744.8200 Z0.0000
M3S245
G4 P0.5; Tool Off

G0 Z0; move to z-safe height
G0 X1.0000 Y746.8200
M3S0
G4 P0.5; Tool On
G1 F300 Z0.0000
G1 F15000 X749.0000 Y746.8200 Z0.0000
M3S245
G4 P0.5; Tool Off

G0 Z0; move to z-safe height
G0 X749.0000 Y748.8200
M3S0
G4 P0.5; Tool On
G1 F300 Z0.0000
G1 F15000 X1.0000 Y748.8200 Z0.0000
M3S245
G4 P0.5; Tool Off

G0 Z0; move to z-safe height
G0 X1.0000 Y750.8200
M3S0
G4 P0.5; Tool On
G1 F300 Z0.0000
G1 F15000 X749.0000 Y750.8200 Z0.0000
M3S245
G4 P0.5; Tool Off

G0 Z0; move to z-safe height
G0 X749.0000 Y752.8200
M3S0
G4 P0.5; Tool On
G1 F300 Z0.0000
G1 F15000 X1.0000 Y752.8200 Z0.0000
M3S245
G4 P0.5; Tool Off

G0 Z0; move to z-safe height
G0 X1.0000 Y754.8200
M3S0
G4 P0.5; Tool On
G1 F300 Z0.0000
G1 F15000 X749.0000 Y754.8200 Z0.0000
M3S245
G4 P0.5; Tool Off

G0 Z0; move to z-safe height
G0 X749.0000 Y756.8200
M3S0
G4 P0.5; Tool On
G1 F300 Z0.0000
G1 F15000 X1.0000 Y756.8200 Z0.0000
M3S245
G4 P0.5; Tool Off

G0 Z0; move to z-safe height
G0 X1.0000 Y758.8200
M3S0
G4 P0.5; Tool On
G1 F300 Z0.0000
G1 F15000 X749.0000 Y758.8200 Z0.0000
M3S245
G4 P0.5; Tool Off

G0 Z0; move to z-safe height
G0 X749.0000 Y760.8200
M3S0
G4 P0.5; Tool On
G1 F300 Z0.0000
G1 F15000 X1.0000 Y760.8200 Z0.0000
M3S245
G4 P0.5; Tool Off

G0 Z0; move to z-safe height
G0 X1.0000 Y762.8200
M3S0
G4 P0.5; Tool On
G1 F300 Z0.0000
G1 F15000 X749.0000 Y762.8200 Z0.0000
M3S245
G4 P0.5; Tool Off

G0 Z0; move to z-safe height
G0 X749.0000 Y764.8200
M3S0
G4 P0.5; Tool On
G1 F300 Z0.0000
G1 F15000 X1.0000 Y764.8200 Z0.0000
M3S245
G4 P0.5; Tool Off

G0 Z0; move to z-safe height
G0 X1.0000 Y766.8200
M3S0
G4 P0.5; Tool On
G1 F300 Z0.0000
G1 F15000 X749.0000 Y766.8200 Z0.0000
M3S245
G4 P0.5; Tool Off

G0 Z0; move to z-safe height
G0 X749.0000 Y768.8200
M3S0
G4 P0.5; Tool On
G1 F300 Z0.0000
G1 F15000 X1.0000 Y768.8200 Z0.0000
M3S245
G4 P0.5; Tool Off

G0 Z0; move to z-safe height
G0 X1.0000 Y770.8200
M3S0
G4 P0.5; Tool On
G1 F300 Z0.0000
G1 F15000 X749.0000 Y770.8200 Z0.0000
M3S245
G4 P0.5; Tool Off

G0 Z0; move to z-safe height
G0 X749.0000 Y772.8200
M3S0
G4 P0.5; Tool On
G1 F300 Z0.0000
G1 F15000 X1.0000 Y772.8200 Z0.0000
M3S245
G4 P0.5; Tool Off

G0 Z0; move to z-safe height
G0 X1.0000 Y774.8200
M3S0
G4 P0.5; Tool On
G1 F300 Z0.0000
G1 F15000 X749.0000 Y774.8200 Z0.0000
M3S245
G4 P0.5; Tool Off

G0 Z0; move to z-safe height
G0 X749.0000 Y776.8200
M3S0
G4 P0.5; Tool On
G1 F300 Z0.0000
G1 F15000 X1.0000 Y776.8200 Z0.0000
M3S245
G4 P0.5; Tool Off

G0 Z0; move to z-safe height
G0 X1.0000 Y778.8200
M3S0
G4 P0.5; Tool On
G1 F300 Z0.0000
G1 F15000 X749.0000 Y778.8200 Z0.0000
M3S245
G4 P0.5; Tool Off

G0 Z0; move to z-safe height
G0 X749.0000 Y780.8200
M3S0
G4 P0.5; Tool On
G1 F300 Z0.0000
G1 F15000 X1.0000 Y780.8200 Z0.0000
M3S245
G4 P0.5; Tool Off

G0 Z0; move to z-safe height
G0 X1.0000 Y782.8200
M3S0
G4 P0.5; Tool On
G1 F300 Z0.0000
G1 F15000 X749.0000 Y782.8200 Z0.0000
M3S245
G4 P0.5; Tool Off

G0 Z0; move to z-safe height
G0 X749.0000 Y784.8200
M3S0
G4 P0.5; Tool On
G1 F300 Z0.0000
G1 F15000 X1.0000 Y784.8200 Z0.0000
M3S245
G4 P0.5; Tool Off

G0 Z0; move to z-safe height
G0 X1.0000 Y786.8200
M3S0
G4 P0.5; Tool On
G1 F300 Z0.0000
G1 F15000 X749.0000 Y786.8200 Z0.0000
M3S245
G4 P0.5; Tool Off

G0 Z0; move to z-safe height
G0 X749.0000 Y788.8200
M3S0
G4 P0.5; Tool On
G1 F300 Z0.0000
G1 F15000 X1.0000 Y788.8200 Z0.0000
M3S245
G4 P0.5; Tool Off

G0 Z0; move to z-safe height
G0 X1.0000 Y790.8200
M3S0
G4 P0.5; Tool On
G1 F300 Z0.0000
G1 F15000 X749.0000 Y790.8200 Z0.0000
M3S245
G4 P0.5; Tool Off

G0 Z0; move to z-safe height
G0 X749.0000 Y792.8200
M3S0
G4 P0.5; Tool On
G1 F300 Z0.0000
G1 F15000 X1.0000 Y792.8200 Z0.0000
M3S245
G4 P0.5; Tool Off

G0 Z0; move to z-safe height
G0 X1.0000 Y794.8200
M3S0
G4 P0.5; Tool On
G1 F300 Z0.0000
G1 F15000 X749.0000 Y794.8200 Z0.0000
M3S245
G4 P0.5; Tool Off

G0 Z0; move to z-safe height
G0 X749.0000 Y796.8200
M3S0
G4 P0.5; Tool On
G1 F300 Z0.0000
G1 F15000 X1.0000 Y796.8200 Z0.0000
M3S245
G4 P0.5; Tool Off

G0 Z0; move to z-safe height
G0 X1.0000 Y798.8200
M3S0
G4 P0.5; Tool On
G1 F300 Z0.0000
G1 F15000 X749.0000 Y798.8200 Z0.0000
M3S245
G4 P0.5; Tool Off

G0 Z0; move to z-safe height
G0 X749.0000 Y800.8200
M3S0
G4 P0.5; Tool On
G1 F300 Z0.0000
G1 F15000 X1.0000 Y800.8200 Z0.0000
M3S245
G4 P0.5; Tool Off

G0 Z0; move to z-safe height
G0 X1.0000 Y802.8200
M3S0
G4 P0.5; Tool On
G1 F300 Z0.0000
G1 F15000 X749.0000 Y802.8200 Z0.0000
M3S245
G4 P0.5; Tool Off

G0 Z0; move to z-safe height
G0 X749.0000 Y804.8200
M3S0
G4 P0.5; Tool On
G1 F300 Z0.0000
G1 F15000 X1.0000 Y804.8200 Z0.0000
M3S245
G4 P0.5; Tool Off

G0 Z0; move to z-safe height
G0 X1.0000 Y806.8200
M3S0
G4 P0.5; Tool On
G1 F300 Z0.0000
G1 F15000 X749.0000 Y806.8200 Z0.0000
M3S245
G4 P0.5; Tool Off

G0 Z0; move to z-safe height
G0 X749.0000 Y808.8200
M3S0
G4 P0.5; Tool On
G1 F300 Z0.0000
G1 F15000 X1.0000 Y808.8200 Z0.0000
M3S245
G4 P0.5; Tool Off

G0 Z0; move to z-safe height
G0 X1.0000 Y810.8200
M3S0
G4 P0.5; Tool On
G1 F300 Z0.0000
G1 F15000 X749.0000 Y810.8200 Z0.0000
M3S245
G4 P0.5; Tool Off

G0 Z0; move to z-safe height
G0 X749.0000 Y812.8200
M3S0
G4 P0.5; Tool On
G1 F300 Z0.0000
G1 F15000 X1.0000 Y812.8200 Z0.0000
M3S245
G4 P0.5; Tool Off

G0 Z0; move to z-safe height
G0 X1.0000 Y814.8200
M3S0
G4 P0.5; Tool On
G1 F300 Z0.0000
G1 F15000 X749.0000 Y814.8200 Z0.0000
M3S245
G4 P0.5; Tool Off

G0 Z0; move to z-safe height
G0 X749.0000 Y816.8200
M3S0
G4 P0.5; Tool On
G1 F300 Z0.0000
G1 F15000 X1.0000 Y816.8200 Z0.0000
M3S245
G4 P0.5; Tool Off

G0 Z0; move to z-safe height
G0 X1.0000 Y818.8200
M3S0
G4 P0.5; Tool On
G1 F300 Z0.0000
G1 F15000 X749.0000 Y818.8200 Z0.0000
M3S245
G4 P0.5; Tool Off

G0 Z0; move to z-safe height
G0 X749.0000 Y820.8200
M3S0
G4 P0.5; Tool On
G1 F300 Z0.0000
G1 F15000 X1.0000 Y820.8200 Z0.0000
M3S245
G4 P0.5; Tool Off

G0 Z0; move to z-safe height
G0 X1.0000 Y822.8200
M3S0
G4 P0.5; Tool On
G1 F300 Z0.0000
G1 F15000 X749.0000 Y822.8200 Z0.0000
M3S245
G4 P0.5; Tool Off

G0 Z0; move to z-safe height
G0 X749.0000 Y824.8200
M3S0
G4 P0.5; Tool On
G1 F300 Z0.0000
G1 F15000 X1.0000 Y824.8200 Z0.0000
M3S245
G4 P0.5; Tool Off

G0 Z0; move to z-safe height
G0 X1.0000 Y826.8200
M3S0
G4 P0.5; Tool On
G1 F300 Z0.0000
G1 F15000 X749.0000 Y826.8200 Z0.0000
M3S245
G4 P0.5; Tool Off

G0 Z0; move to z-safe height
G0 X749.0000 Y828.8200
M3S0
G4 P0.5; Tool On
G1 F300 Z0.0000
G1 F15000 X1.0000 Y828.8200 Z0.0000
M3S245
G4 P0.5; Tool Off

G0 Z0; move to z-safe height
G0 X1.0000 Y830.8200
M3S0
G4 P0.5; Tool On
G1 F300 Z0.0000
G1 F15000 X749.0000 Y830.8200 Z0.0000
M3S245
G4 P0.5; Tool Off

G0 Z0; move to z-safe height
G0 X749.0000 Y832.8200
M3S0
G4 P0.5; Tool On
G1 F300 Z0.0000
G1 F15000 X1.0000 Y832.8200 Z0.0000
M3S245
G4 P0.5; Tool Off

G0 Z0; move to z-safe height
G0 X1.0000 Y834.8200
M3S0
G4 P0.5; Tool On
G1 F300 Z0.0000
G1 F15000 X749.0000 Y834.8200 Z0.0000
M3S245
G4 P0.5; Tool Off

G0 Z0; move to z-safe height
G0 X749.0000 Y836.8200
M3S0
G4 P0.5; Tool On
G1 F300 Z0.0000
G1 F15000 X1.0000 Y836.8200 Z0.0000
M3S245
G4 P0.5; Tool Off

G0 Z0; move to z-safe height
G0 X1.0000 Y838.8200
M3S0
G4 P0.5; Tool On
G1 F300 Z0.0000
G1 F15000 X749.0000 Y838.8200 Z0.0000
M3S245
G4 P0.5; Tool Off

G0 Z0; move to z-safe height
G0 X749.0000 Y840.8200
M3S0
G4 P0.5; Tool On
G1 F300 Z0.0000
G1 F15000 X1.0000 Y840.8200 Z0.0000
M3S245
G4 P0.5; Tool Off

G0 Z0; move to z-safe height
G0 X1.0000 Y842.8200
M3S0
G4 P0.5; Tool On
G1 F300 Z0.0000
G1 F15000 X749.0000 Y842.8200 Z0.0000
M3S245
G4 P0.5; Tool Off

G0 Z0; move to z-safe height
G0 X749.0000 Y844.8200
M3S0
G4 P0.5; Tool On
G1 F300 Z0.0000
G1 F15000 X1.0000 Y844.8200 Z0.0000
M3S245
G4 P0.5; Tool Off

G0 Z0; move to z-safe height
G0 X1.0000 Y846.8200
M3S0
G4 P0.5; Tool On
G1 F300 Z0.0000
G1 F15000 X749.0000 Y846.8200 Z0.0000
M3S245
G4 P0.5; Tool Off

G0 Z0; move to z-safe height
G0 X749.0000 Y848.8200
M3S0
G4 P0.5; Tool On
G1 F300 Z0.0000
G1 F15000 X1.0000 Y848.8200 Z0.0000
M3S245
G4 P0.5; Tool Off

G0 Z0; move to z-safe height
G0 X1.0000 Y850.8200
M3S0
G4 P0.5; Tool On
G1 F300 Z0.0000
G1 F15000 X749.0000 Y850.8200 Z0.0000
M3S245
G4 P0.5; Tool Off

G0 Z0; move to z-safe height
G0 X749.0000 Y852.8200
M3S0
G4 P0.5; Tool On
G1 F300 Z0.0000
G1 F15000 X1.0000 Y852.8200 Z0.0000
M3S245
G4 P0.5; Tool Off

G0 Z0; move to z-safe height
G0 X1.0000 Y854.8200
M3S0
G4 P0.5; Tool On
G1 F300 Z0.0000
G1 F15000 X749.0000 Y854.8200 Z0.0000
M3S245
G4 P0.5; Tool Off

G0 Z0; move to z-safe height
G0 X749.0000 Y856.8200
M3S0
G4 P0.5; Tool On
G1 F300 Z0.0000
G1 F15000 X1.0000 Y856.8200 Z0.0000
M3S245
G4 P0.5; Tool Off

G0 Z0; move to z-safe height
G0 X1.0000 Y858.8200
M3S0
G4 P0.5; Tool On
G1 F300 Z0.0000
G1 F15000 X749.0000 Y858.8200 Z0.0000
M3S245
G4 P0.5; Tool Off

G0 Z0; move to z-safe height
G0 X749.0000 Y860.8200
M3S0
G4 P0.5; Tool On
G1 F300 Z0.0000
G1 F15000 X1.0000 Y860.8200 Z0.0000
M3S245
G4 P0.5; Tool Off

G0 Z0; move to z-safe height
G0 X1.0000 Y862.8200
M3S0
G4 P0.5; Tool On
G1 F300 Z0.0000
G1 F15000 X749.0000 Y862.8200 Z0.0000
M3S245
G4 P0.5; Tool Off

G0 Z0; move to z-safe height
G0 X749.0000 Y864.8200
M3S0
G4 P0.5; Tool On
G1 F300 Z0.0000
G1 F15000 X1.0000 Y864.8200 Z0.0000
M3S245
G4 P0.5; Tool Off

G0 Z0; move to z-safe height
G0 X1.0000 Y866.8200
M3S0
G4 P0.5; Tool On
G1 F300 Z0.0000
G1 F15000 X749.0000 Y866.8200 Z0.0000
M3S245
G4 P0.5; Tool Off

G0 Z0; move to z-safe height
G0 X749.0000 Y868.8200
M3S0
G4 P0.5; Tool On
G1 F300 Z0.0000
G1 F15000 X1.0000 Y868.8200 Z0.0000
M3S245
G4 P0.5; Tool Off

G0 Z0; move to z-safe height
G0 X1.0000 Y870.8200
M3S0
G4 P0.5; Tool On
G1 F300 Z0.0000
G1 F15000 X749.0000 Y870.8200 Z0.0000
M3S245
G4 P0.5; Tool Off

G0 Z0; move to z-safe height
G0 X749.0000 Y872.8200
M3S0
G4 P0.5; Tool On
G1 F300 Z0.0000
G1 F15000 X1.0000 Y872.8200 Z0.0000
M3S245
G4 P0.5; Tool Off

G0 Z0; move to z-safe height
G0 X1.0000 Y874.8200
M3S0
G4 P0.5; Tool On
G1 F300 Z0.0000
G1 F15000 X749.0000 Y874.8200 Z0.0000
M3S245
G4 P0.5; Tool Off

G0 Z0; move to z-safe height
G0 X749.0000 Y876.8200
M3S0
G4 P0.5; Tool On
G1 F300 Z0.0000
G1 F15000 X1.0000 Y876.8200 Z0.0000
M3S245
G4 P0.5; Tool Off

G0 Z0; move to z-safe height
G0 X1.0000 Y878.8200
M3S0
G4 P0.5; Tool On
G1 F300 Z0.0000
G1 F15000 X749.0000 Y878.8200 Z0.0000
M3S245
G4 P0.5; Tool Off

G0 Z0; move to z-safe height
G0 X749.0000 Y880.8200
M3S0
G4 P0.5; Tool On
G1 F300 Z0.0000
G1 F15000 X1.0000 Y880.8200 Z0.0000
M3S245
G4 P0.5; Tool Off

G0 Z0; move to z-safe height
G0 X1.0000 Y882.8200
M3S0
G4 P0.5; Tool On
G1 F300 Z0.0000
G1 F15000 X749.0000 Y882.8200 Z0.0000
M3S245
G4 P0.5; Tool Off

G0 Z0; move to z-safe height
G0 X749.0000 Y884.8200
M3S0
G4 P0.5; Tool On
G1 F300 Z0.0000
G1 F15000 X1.0000 Y884.8200 Z0.0000
M3S245
G4 P0.5; Tool Off

G0 Z0; move to z-safe height
G0 X1.0000 Y886.8200
M3S0
G4 P0.5; Tool On
G1 F300 Z0.0000
G1 F15000 X749.0000 Y886.8200 Z0.0000
M3S245
G4 P0.5; Tool Off

G0 Z0; move to z-safe height
G0 X749.0000 Y888.8200
M3S0
G4 P0.5; Tool On
G1 F300 Z0.0000
G1 F15000 X1.0000 Y888.8200 Z0.0000
M3S245
G4 P0.5; Tool Off

G0 Z0; move to z-safe height
G0 X1.0000 Y890.8200
M3S0
G4 P0.5; Tool On
G1 F300 Z0.0000
G1 F15000 X749.0000 Y890.8200 Z0.0000
M3S245
G4 P0.5; Tool Off

G0 Z0; move to z-safe height
G0 X749.0000 Y892.8200
M3S0
G4 P0.5; Tool On
G1 F300 Z0.0000
G1 F15000 X1.0000 Y892.8200 Z0.0000
M3S245
G4 P0.5; Tool Off

G0 Z0; move to z-safe height
G0 X1.0000 Y894.8200
M3S0
G4 P0.5; Tool On
G1 F300 Z0.0000
G1 F15000 X749.0000 Y894.8200 Z0.0000
M3S245
G4 P0.5; Tool Off

G0 Z0; move to z-safe height
G0 X749.0000 Y896.8200
M3S0
G4 P0.5; Tool On
G1 F300 Z0.0000
G1 F15000 X1.0000 Y896.8200 Z0.0000
M3S245
G4 P0.5; Tool Off

G0 Z0; move to z-safe height
G0 X1.0000 Y898.8200
M3S0
G4 P0.5; Tool On
G1 F300 Z0.0000
G1 F15000 X749.0000 Y898.8200 Z0.0000
M3S245
G4 P0.5; Tool Off

G0 Z0; move to z-safe height
G0 X749.0000 Y900.8200
M3S0
G4 P0.5; Tool On
G1 F300 Z0.0000
G1 F15000 X1.0000 Y900.8200 Z0.0000
M3S245
G4 P0.5; Tool Off

G0 Z0; move to z-safe height
G0 X1.0000 Y902.8200
M3S0
G4 P0.5; Tool On
G1 F300 Z0.0000
G1 F15000 X749.0000 Y902.8200 Z0.0000
M3S245
G4 P0.5; Tool Off

G0 Z0; move to z-safe height
G0 X749.0000 Y904.8200
M3S0
G4 P0.5; Tool On
G1 F300 Z0.0000
G1 F15000 X1.0000 Y904.8200 Z0.0000
M3S245
G4 P0.5; Tool Off

G0 Z0; move to z-safe height
G0 X1.0000 Y906.8200
M3S0
G4 P0.5; Tool On
G1 F300 Z0.0000
G1 F15000 X749.0000 Y906.8200 Z0.0000
M3S245
G4 P0.5; Tool Off

G0 Z0; move to z-safe height
G0 X749.0000 Y908.8200
M3S0
G4 P0.5; Tool On
G1 F300 Z0.0000
G1 F15000 X1.0000 Y908.8200 Z0.0000
M3S245
G4 P0.5; Tool Off

G0 Z0; move to z-safe height
G0 X1.0000 Y910.8200
M3S0
G4 P0.5; Tool On
G1 F300 Z0.0000
G1 F15000 X749.0000 Y910.8200 Z0.0000
M3S245
G4 P0.5; Tool Off

G0 Z0; move to z-safe height
G0 X749.0000 Y912.8200
M3S0
G4 P0.5; Tool On
G1 F300 Z0.0000
G1 F15000 X1.0000 Y912.8200 Z0.0000
M3S245
G4 P0.5; Tool Off

G0 Z0; move to z-safe height
G0 X1.0000 Y914.8200
M3S0
G4 P0.5; Tool On
G1 F300 Z0.0000
G1 F15000 X749.0000 Y914.8200 Z0.0000
M3S245
G4 P0.5; Tool Off

G0 Z0; move to z-safe height
G0 X749.0000 Y916.8200
M3S0
G4 P0.5; Tool On
G1 F300 Z0.0000
G1 F15000 X1.0000 Y916.8200 Z0.0000
M3S245
G4 P0.5; Tool Off

G0 Z0; move to z-safe height
G0 X1.0000 Y918.8200
M3S0
G4 P0.5; Tool On
G1 F300 Z0.0000
G1 F15000 X749.0000 Y918.8200 Z0.0000
M3S245
G4 P0.5; Tool Off

G0 Z0; move to z-safe height
G0 X749.0000 Y920.8200
M3S0
G4 P0.5; Tool On
G1 F300 Z0.0000
G1 F15000 X1.0000 Y920.8200 Z0.0000
M3S245
G4 P0.5; Tool Off

G0 Z0; move to z-safe height
G0 X1.0000 Y922.8200
M3S0
G4 P0.5; Tool On
G1 F300 Z0.0000
G1 F15000 X749.0000 Y922.8200 Z0.0000
M3S245
G4 P0.5; Tool Off

G0 Z0; move to z-safe height
G0 X749.0000 Y924.8200
M3S0
G4 P0.5; Tool On
G1 F300 Z0.0000
G1 F15000 X1.0000 Y924.8200 Z0.0000
M3S245
G4 P0.5; Tool Off

G0 Z0; move to z-safe height
G0 X1.0000 Y926.8200
M3S0
G4 P0.5; Tool On
G1 F300 Z0.0000
G1 F15000 X749.0000 Y926.8200 Z0.0000
M3S245
G4 P0.5; Tool Off

G0 Z0; move to z-safe height
G0 X749.0000 Y928.8200
M3S0
G4 P0.5; Tool On
G1 F300 Z0.0000
G1 F15000 X1.0000 Y928.8200 Z0.0000
M3S245
G4 P0.5; Tool Off

G0 Z0; move to z-safe height
G0 X1.0000 Y930.8200
M3S0
G4 P0.5; Tool On
G1 F300 Z0.0000
G1 F15000 X749.0000 Y930.8200 Z0.0000
M3S245
G4 P0.5; Tool Off

G0 Z0; move to z-safe height
G0 X749.0000 Y932.8200
M3S0
G4 P0.5; Tool On
G1 F300 Z0.0000
G1 F15000 X1.0000 Y932.8200 Z0.0000
M3S245
G4 P0.5; Tool Off

G0 Z0; move to z-safe height
G0 X1.0000 Y934.8200
M3S0
G4 P0.5; Tool On
G1 F300 Z0.0000
G1 F15000 X749.0000 Y934.8200 Z0.0000
M3S245
G4 P0.5; Tool Off

G0 Z0; move to z-safe height
G0 X749.0000 Y936.8200
M3S0
G4 P0.5; Tool On
G1 F300 Z0.0000
G1 F15000 X1.0000 Y936.8200 Z0.0000
M3S245
G4 P0.5; Tool Off

G0 Z0; move to z-safe height
G0 X1.0000 Y938.8200
M3S0
G4 P0.5; Tool On
G1 F300 Z0.0000
G1 F15000 X749.0000 Y938.8200 Z0.0000
M3S245
G4 P0.5; Tool Off

G0 Z0; move to z-safe height
G0 X749.0000 Y940.8200
M3S0
G4 P0.5; Tool On
G1 F300 Z0.0000
G1 F15000 X1.0000 Y940.8200 Z0.0000
M3S245
G4 P0.5; Tool Off

G0 Z0; move to z-safe height
G0 X1.0000 Y942.8200
M3S0
G4 P0.5; Tool On
G1 F300 Z0.0000
G1 F15000 X749.0000 Y942.8200 Z0.0000
M3S245
G4 P0.5; Tool Off

G0 Z0; move to z-safe height
G0 X749.0000 Y944.8200
M3S0
G4 P0.5; Tool On
G1 F300 Z0.0000
G1 F15000 X1.0000 Y944.8200 Z0.0000
M3S245
G4 P0.5; Tool Off

G0 Z0; move to z-safe height
G0 X1.0000 Y946.8200
M3S0
G4 P0.5; Tool On
G1 F300 Z0.0000
G1 F15000 X749.0000 Y946.8200 Z0.0000
M3S245
G4 P0.5; Tool Off

G0 Z0; move to z-safe height
G0 X749.0000 Y948.8200
M3S0
G4 P0.5; Tool On
G1 F300 Z0.0000
G1 F15000 X1.0000 Y948.8200 Z0.0000
M3S245
G4 P0.5; Tool Off

G0 Z0; move to z-safe height
G0 X1.0000 Y950.8200
M3S0
G4 P0.5; Tool On
G1 F300 Z0.0000
G1 F15000 X749.0000 Y950.8200 Z0.0000
M3S245
G4 P0.5; Tool Off

G0 Z0; move to z-safe height
G0 X749.0000 Y952.8200
M3S0
G4 P0.5; Tool On
G1 F300 Z0.0000
G1 F15000 X1.0000 Y952.8200 Z0.0000
M3S245
G4 P0.5; Tool Off

G0 Z0; move to z-safe height
G0 X1.0000 Y954.8200
M3S0
G4 P0.5; Tool On
G1 F300 Z0.0000
G1 F15000 X749.0000 Y954.8200 Z0.0000
M3S245
G4 P0.5; Tool Off

G0 Z0; move to z-safe height
G0 X749.0000 Y956.8200
M3S0
G4 P0.5; Tool On
G1 F300 Z0.0000
G1 F15000 X1.0000 Y956.8200 Z0.0000
M3S245
G4 P0.5; Tool Off

G0 Z0; move to z-safe height
G0 X1.0000 Y958.8200
M3S0
G4 P0.5; Tool On
G1 F300 Z0.0000
G1 F15000 X749.0000 Y958.8200 Z0.0000
M3S245
G4 P0.5; Tool Off

G0 Z0; move to z-safe height
G0 X749.0000 Y960.8200
M3S0
G4 P0.5; Tool On
G1 F300 Z0.0000
G1 F15000 X1.0000 Y960.8200 Z0.0000
M3S245
G4 P0.5; Tool Off

G0 Z0; move to z-safe height
G0 X1.0000 Y962.8200
M3S0
G4 P0.5; Tool On
G1 F300 Z0.0000
G1 F15000 X749.0000 Y962.8200 Z0.0000
M3S245
G4 P0.5; Tool Off

G0 Z0; move to z-safe height
G0 X749.0000 Y964.8200
M3S0
G4 P0.5; Tool On
G1 F300 Z0.0000
G1 F15000 X1.0000 Y964.8200 Z0.0000
M3S245
G4 P0.5; Tool Off

G0 Z0; move to z-safe height
G0 X1.0000 Y966.8200
M3S0
G4 P0.5; Tool On
G1 F300 Z0.0000
G1 F15000 X749.0000 Y966.8200 Z0.0000
M3S245
G4 P0.5; Tool Off

G0 Z0; move to z-safe height
G0 X749.0000 Y968.8200
M3S0
G4 P0.5; Tool On
G1 F300 Z0.0000
G1 F15000 X1.0000 Y968.8200 Z0.0000
M3S245
G4 P0.5; Tool Off

G0 Z0; move to z-safe height
G0 X1.0000 Y970.8200
M3S0
G4 P0.5; Tool On
G1 F300 Z0.0000
G1 F15000 X749.0000 Y970.8200 Z0.0000
M3S245
G4 P0.5; Tool Off

G0 Z0; move to z-safe height
G0 X749.0000 Y972.8200
M3S0
G4 P0.5; Tool On
G1 F300 Z0.0000
G1 F15000 X1.0000 Y972.8200 Z0.0000
M3S245
G4 P0.5; Tool Off

G0 Z0; move to z-safe height
G0 X1.0000 Y974.8200
M3S0
G4 P0.5; Tool On
G1 F300 Z0.0000
G1 F15000 X749.0000 Y974.8200 Z0.0000
M3S245
G4 P0.5; Tool Off

G0 Z0; move to z-safe height
G0 X749.0000 Y976.8200
M3S0
G4 P0.5; Tool On
G1 F300 Z0.0000
G1 F15000 X1.0000 Y976.8200 Z0.0000
M3S245
G4 P0.5; Tool Off

G0 Z0; move to z-safe height
G0 X1.0000 Y978.8200
M3S0
G4 P0.5; Tool On
G1 F300 Z0.0000
G1 F15000 X749.0000 Y978.8200 Z0.0000
M3S245
G4 P0.5; Tool Off

G0 Z0; move to z-safe height
G0 X749.0000 Y980.8200
M3S0
G4 P0.5; Tool On
G1 F300 Z0.0000
G1 F15000 X1.0000 Y980.8200 Z0.0000
M3S245
G4 P0.5; Tool Off

G0 Z0; move to z-safe height
G0 X1.0000 Y982.8200
M3S0
G4 P0.5; Tool On
G1 F300 Z0.0000
G1 F15000 X749.0000 Y982.8200 Z0.0000
M3S245
G4 P0.5; Tool Off

G0 Z0; move to z-safe height
G0 X749.0000 Y984.8200
M3S0
G4 P0.5; Tool On
G1 F300 Z0.0000
G1 F15000 X1.0000 Y984.8200 Z0.0000
M3S245
G4 P0.5; Tool Off

G0 Z0; move to z-safe height
G0 X1.0000 Y986.8200
M3S0
G4 P0.5; Tool On
G1 F300 Z0.0000
G1 F15000 X749.0000 Y986.8200 Z0.0000
M3S245
G4 P0.5; Tool Off

G0 Z0; move to z-safe height
G0 X749.0000 Y988.8200
M3S0
G4 P0.5; Tool On
G1 F300 Z0.0000
G1 F15000 X1.0000 Y988.8200 Z0.0000
M3S245
G4 P0.5; Tool Off

G0 Z0; move to z-safe height
G0 X1.0000 Y990.8200
M3S0
G4 P0.5; Tool On
G1 F300 Z0.0000
G1 F15000 X749.0000 Y990.8200 Z0.0000
M3S245
G4 P0.5; Tool Off

G0 Z0; move to z-safe height
G0 X749.0000 Y992.8200
M3S0
G4 P0.5; Tool On
G1 F300 Z0.0000
G1 F15000 X1.0000 Y992.8200 Z0.0000
M3S245
G4 P0.5; Tool Off

G0 Z0; move to z-safe height
G0 X1.0000 Y994.8200
M3S0
G4 P0.5; Tool On
G1 F300 Z0.0000
G1 F15000 X749.0000 Y994.8200 Z0.0000
M3S245
G4 P0.5; Tool Off

G0 Z0; move to z-safe height
G0 X749.0000 Y996.8200
M3S0
G4 P0.5; Tool On
G1 F300 Z0.0000
G1 F15000 X1.0000 Y996.8200 Z0.0000
M3S245
G4 P0.5; Tool Off

G0 Z0; move to z-safe height
G0 X1.0000 Y998.8200
M3S0
G4 P0.5; Tool On
G1 F300 Z0.0000
G1 F15000 X749.0000 Y998.8200 Z0.0000
M3S245
G4 P0.5; Tool Off

G0 Z0; move to z-safe height
G0 X749.0000 Y1000.8200
M3S0
G4 P0.5; Tool On
G1 F300 Z0.0000
G1 F15000 X1.0000 Y1000.8200 Z0.0000
M3S245
G4 P0.5; Tool Off

G0 Z0; move to z-safe height
G0 X1.0000 Y1002.8200
M3S0
G4 P0.5; Tool On
G1 F300 Z0.0000
G1 F15000 X749.0000 Y1002.8200 Z0.0000
M3S245
G4 P0.5; Tool Off

G0 Z0; move to z-safe height
G0 X749.0000 Y1004.8200
M3S0
G4 P0.5; Tool On
G1 F300 Z0.0000
G1 F15000 X1.0000 Y1004.8200 Z0.0000
M3S245
G4 P0.5; Tool Off

G0 Z0; move to z-safe height
G0 X1.0000 Y1006.8200
M3S0
G4 P0.5; Tool On
G1 F300 Z0.0000
G1 F15000 X749.0000 Y1006.8200 Z0.0000
M3S245
G4 P0.5; Tool Off

G0 Z0; move to z-safe height
G0 X749.0000 Y1008.8200
M3S0
G4 P0.5; Tool On
G1 F300 Z0.0000
G1 F15000 X1.0000 Y1008.8200 Z0.0000
M3S245
G4 P0.5; Tool Off

G0 Z0; move to z-safe height
G0 X1.0000 Y1010.8200
M3S0
G4 P0.5; Tool On
G1 F300 Z0.0000
G1 F15000 X749.0000 Y1010.8200 Z0.0000
M3S245
G4 P0.5; Tool Off

G0 Z0; move to z-safe height
G0 X749.0000 Y1012.8200
M3S0
G4 P0.5; Tool On
G1 F300 Z0.0000
G1 F15000 X1.0000 Y1012.8200 Z0.0000
M3S245
G4 P0.5; Tool Off

G0 Z0; move to z-safe height
G0 X1.0000 Y1014.8200
M3S0
G4 P0.5; Tool On
G1 F300 Z0.0000
G1 F15000 X749.0000 Y1014.8200 Z0.0000
M3S245
G4 P0.5; Tool Off

G0 Z0; move to z-safe height
G0 X749.0000 Y1016.8200
M3S0
G4 P0.5; Tool On
G1 F300 Z0.0000
G1 F15000 X1.0000 Y1016.8200 Z0.0000
M3S245
G4 P0.5; Tool Off

G0 Z0; move to z-safe height
G0 X1.0000 Y1018.8200
M3S0
G4 P0.5; Tool On
G1 F300 Z0.0000
G1 F15000 X749.0000 Y1018.8200 Z0.0000
M3S245
G4 P0.5; Tool Off

G0 Z0; move to z-safe height
G0 X749.0000 Y1020.8200
M3S0
G4 P0.5; Tool On
G1 F300 Z0.0000
G1 F15000 X1.0000 Y1020.8200 Z0.0000
M3S245
G4 P0.5; Tool Off

G0 Z0; move to z-safe height
G0 X1.0000 Y1022.8200
M3S0
G4 P0.5; Tool On
G1 F300 Z0.0000
G1 F15000 X749.0000 Y1022.8200 Z0.0000
M3S245
G4 P0.5; Tool Off

G0 Z0; move to z-safe height
G0 X749.0000 Y1024.8200
M3S0
G4 P0.5; Tool On
G1 F300 Z0.0000
G1 F15000 X1.0000 Y1024.8200 Z0.0000
M3S245
G4 P0.5; Tool Off

G0 Z0; move to z-safe height
G0 X1.0000 Y1026.8200
M3S0
G4 P0.5; Tool On
G1 F300 Z0.0000
G1 F15000 X749.0000 Y1026.8200 Z0.0000
M3S245
G4 P0.5; Tool Off

G0 Z0; move to z-safe height
G0 X749.0000 Y1028.8200
M3S0
G4 P0.5; Tool On
G1 F300 Z0.0000
G1 F15000 X1.0000 Y1028.8200 Z0.0000
M3S245
G4 P0.5; Tool Off

G0 Z0; move to z-safe height
G0 X1.0000 Y1030.8200
M3S0
G4 P0.5; Tool On
G1 F300 Z0.0000
G1 F15000 X749.0000 Y1030.8200 Z0.0000
M3S245
G4 P0.5; Tool Off

G0 Z0; move to z-safe height
G0 X749.0000 Y1032.8200
M3S0
G4 P0.5; Tool On
G1 F300 Z0.0000
G1 F15000 X1.0000 Y1032.8200 Z0.0000
M3S245
G4 P0.5; Tool Off

G0 Z0; move to z-safe height
G0 X1.0000 Y1034.8200
M3S0
G4 P0.5; Tool On
G1 F300 Z0.0000
G1 F15000 X749.0000 Y1034.8200 Z0.0000
M3S245
G4 P0.5; Tool Off

G0 Z0; move to z-safe height
G0 X749.0000 Y1036.8200
M3S0
G4 P0.5; Tool On
G1 F300 Z0.0000
G1 F15000 X1.0000 Y1036.8200 Z0.0000
M3S245
G4 P0.5; Tool Off

G0 Z0; move to z-safe height
G0 X1.0000 Y1038.8200
M3S0
G4 P0.5; Tool On
G1 F300 Z0.0000
G1 F15000 X749.0000 Y1038.8200 Z0.0000
M3S245
G4 P0.5; Tool Off

G0 Z0; move to z-safe height
G0 X749.0000 Y1040.8200
M3S0
G4 P0.5; Tool On
G1 F300 Z0.0000
G1 F15000 X1.0000 Y1040.8200 Z0.0000
M3S245
G4 P0.5; Tool Off

G0 Z0; move to z-safe height
G0 X1.0000 Y1042.8200
M3S0
G4 P0.5; Tool On
G1 F300 Z0.0000
G1 F15000 X749.0000 Y1042.8200 Z0.0000
M3S245
G4 P0.5; Tool Off

G0 Z0; move to z-safe height
G0 X749.0000 Y1044.8200
M3S0
G4 P0.5; Tool On
G1 F300 Z0.0000
G1 F15000 X1.0000 Y1044.8200 Z0.0000
M3S245
G4 P0.5; Tool Off

G0 Z0; move to z-safe height
G0 X1.0000 Y1046.8200
M3S0
G4 P0.5; Tool On
G1 F300 Z0.0000
G1 F15000 X749.0000 Y1046.8200 Z0.0000
M3S245
G4 P0.5; Tool Off

G0 Z0; move to z-safe height
G0 X749.0000 Y1048.8200
M3S0
G4 P0.5; Tool On
G1 F300 Z0.0000
G1 F15000 X1.0000 Y1048.8200 Z0.0000
M3S245
G4 P0.5; Tool Off

G0 Z0; move to z-safe height
G0 X1.0000 Y1050.8200
M3S0
G4 P0.5; Tool On
G1 F300 Z0.0000
G1 F15000 X749.0000 Y1050.8200 Z0.0000
M3S245
G4 P0.5; Tool Off

G0 Z0; move to z-safe height
G0 X749.0000 Y1052.8200
M3S0
G4 P0.5; Tool On
G1 F300 Z0.0000
G1 F15000 X1.0000 Y1052.8200 Z0.0000
M3S245
G4 P0.5; Tool Off

G0 Z0; move to z-safe height
G0 X1.0000 Y1054.8200
M3S0
G4 P0.5; Tool On
G1 F300 Z0.0000
G1 F15000 X749.0000 Y1054.8200 Z0.0000
M3S245
G4 P0.5; Tool Off

G0 Z0; move to z-safe height
G0 X749.0000 Y1056.8200
M3S0
G4 P0.5; Tool On
G1 F300 Z0.0000
G1 F15000 X1.0000 Y1056.8200 Z0.0000
M3S245
G4 P0.5; Tool Off

G0 Z0; move to z-safe height
G0 X1.0000 Y1058.8200
M3S0
G4 P0.5; Tool On
G1 F300 Z0.0000
G1 F15000 X749.0000 Y1058.8200 Z0.0000
M3S245
G4 P0.5; Tool Off

G0 Z0; move to z-safe height
G0 X749.0000 Y1060.8200
M3S0
G4 P0.5; Tool On
G1 F300 Z0.0000
G1 F15000 X1.0000 Y1060.8200 Z0.0000
M3S245
G4 P0.5; Tool Off

G0 Z0; move to z-safe height
G0 X1.0000 Y1062.8200
M3S0
G4 P0.5; Tool On
G1 F300 Z0.0000
G1 F15000 X749.0000 Y1062.8200 Z0.0000
M3S245
G4 P0.5; Tool Off

G0 Z0; move to z-safe height
G0 X749.0000 Y1064.8200
M3S0
G4 P0.5; Tool On
G1 F300 Z0.0000
G1 F15000 X1.0000 Y1064.8200 Z0.0000
M3S245
G4 P0.5; Tool Off

G0 Z0; move to z-safe height
G0 X1.0000 Y1066.8200
M3S0
G4 P0.5; Tool On
G1 F300 Z0.0000
G1 F15000 X749.0000 Y1066.8200 Z0.0000
M3S245
G4 P0.5; Tool Off

G0 Z0; move to z-safe height
G0 X749.0000 Y1068.8200
M3S0
G4 P0.5; Tool On
G1 F300 Z0.0000
G1 F15000 X1.0000 Y1068.8200 Z0.0000
M3S245
G4 P0.5; Tool Off

G0 Z0; move to z-safe height
G0 X1.0000 Y1070.8200
M3S0
G4 P0.5; Tool On
G1 F300 Z0.0000
G1 F15000 X749.0000 Y1070.8200 Z0.0000
M3S245
G4 P0.5; Tool Off

G0 Z0; move to z-safe height
G0 X749.0000 Y1072.8200
M3S0
G4 P0.5; Tool On
G1 F300 Z0.0000
G1 F15000 X1.0000 Y1072.8200 Z0.0000
M3S245
G4 P0.5; Tool Off

G0 Z0; move to z-safe height
G0 X1.0000 Y1074.8200
M3S0
G4 P0.5; Tool On
G1 F300 Z0.0000
G1 F15000 X749.0000 Y1074.8200 Z0.0000
M3S245
G4 P0.5; Tool Off

G0 Z0; move to z-safe height
G0 X749.0000 Y1076.8200
M3S0
G4 P0.5; Tool On
G1 F300 Z0.0000
G1 F15000 X1.0000 Y1076.8200 Z0.0000
M3S245
G4 P0.5; Tool Off

G0 Z0; move to z-safe height
G0 X1.0000 Y1078.8200
M3S0
G4 P0.5; Tool On
G1 F300 Z0.0000
G1 F15000 X749.0000 Y1078.8200 Z0.0000
M3S245
G4 P0.5; Tool Off

G0 Z0; move to z-safe height
G0 X749.0000 Y1080.8200
M3S0
G4 P0.5; Tool On
G1 F300 Z0.0000
G1 F15000 X1.0000 Y1080.8200 Z0.0000
M3S245
G4 P0.5; Tool Off

G0 Z0; move to z-safe height
G0 X1.0000 Y1082.8200
M3S0
G4 P0.5; Tool On
G1 F300 Z0.0000
G1 F15000 X749.0000 Y1082.8200 Z0.0000
M3S245
G4 P0.5; Tool Off

G0 Z0; move to z-safe height
G0 X749.0000 Y1084.8200
M3S0
G4 P0.5; Tool On
G1 F300 Z0.0000
G1 F15000 X1.0000 Y1084.8200 Z0.0000
M3S245
G4 P0.5; Tool Off

G0 Z0; move to z-safe height
G0 X1.0000 Y1086.8200
M3S0
G4 P0.5; Tool On
G1 F300 Z0.0000
G1 F15000 X749.0000 Y1086.8200 Z0.0000
M3S245
G4 P0.5; Tool Off

G0 Z0; move to z-safe height
G0 X749.0000 Y1088.8200
M3S0
G4 P0.5; Tool On
G1 F300 Z0.0000
G1 F15000 X1.0000 Y1088.8200 Z0.0000
M3S245
G4 P0.5; Tool Off

G0 Z0; move to z-safe height
G0 X1.0000 Y1090.8200
M3S0
G4 P0.5; Tool On
G1 F300 Z0.0000
G1 F15000 X749.0000 Y1090.8200 Z0.0000
M3S245
G4 P0.5; Tool Off

G0 Z0; move to z-safe height
G0 X749.0000 Y1092.8200
M3S0
G4 P0.5; Tool On
G1 F300 Z0.0000
G1 F15000 X1.0000 Y1092.8200 Z0.0000
M3S245
G4 P0.5; Tool Off

G0 Z0; move to z-safe height
G0 X1.0000 Y1094.8200
M3S0
G4 P0.5; Tool On
G1 F300 Z0.0000
G1 F15000 X749.0000 Y1094.8200 Z0.0000
M3S245
G4 P0.5; Tool Off

G0 Z0; move to z-safe height
G0 X749.0000 Y1096.8200
M3S0
G4 P0.5; Tool On
G1 F300 Z0.0000
G1 F15000 X1.0000 Y1096.8200 Z0.0000
M3S245
G4 P0.5; Tool Off

G0 Z0; move to z-safe height
G0 X1.0000 Y1098.8200
M3S0
G4 P0.5; Tool On
G1 F300 Z0.0000
G1 F15000 X749.0000 Y1098.8200 Z0.0000
M3S245
G4 P0.5; Tool Off

G0 Z0; move to z-safe height
G0 X749.0000 Y1100.8200
M3S0
G4 P0.5; Tool On
G1 F300 Z0.0000
G1 F15000 X1.0000 Y1100.8200 Z0.0000
M3S245
G4 P0.5; Tool Off

G0 Z0; move to z-safe height
G0 X1.0000 Y1102.8200
M3S0
G4 P0.5; Tool On
G1 F300 Z0.0000
G1 F15000 X749.0000 Y1102.8200 Z0.0000
M3S245
G4 P0.5; Tool Off

G0 Z0; move to z-safe height
G0 X749.0000 Y1104.8200
M3S0
G4 P0.5; Tool On
G1 F300 Z0.0000
G1 F15000 X1.0000 Y1104.8200 Z0.0000
M3S245
G4 P0.5; Tool Off

G0 Z0; move to z-safe height
G0 X1.0000 Y1106.8200
M3S0
G4 P0.5; Tool On
G1 F300 Z0.0000
G1 F15000 X749.0000 Y1106.8200 Z0.0000
M3S245
G4 P0.5; Tool Off

G0 Z0; move to z-safe height
G0 X749.0000 Y1108.8200
M3S0
G4 P0.5; Tool On
G1 F300 Z0.0000
G1 F15000 X1.0000 Y1108.8200 Z0.0000
M3S245
G4 P0.5; Tool Off

G0 Z0; move to z-safe height
G0 X1.0000 Y1110.8200
M3S0
G4 P0.5; Tool On
G1 F300 Z0.0000
G1 F15000 X749.0000 Y1110.8200 Z0.0000
M3S245
G4 P0.5; Tool Off

G0 Z0; move to z-safe height
G0 X749.0000 Y1112.8200
M3S0
G4 P0.5; Tool On
G1 F300 Z0.0000
G1 F15000 X1.0000 Y1112.8200 Z0.0000
M3S245
G4 P0.5; Tool Off

G0 Z0; move to z-safe height
G0 X1.0000 Y1114.8200
M3S0
G4 P0.5; Tool On
G1 F300 Z0.0000
G1 F15000 X749.0000 Y1114.8200 Z0.0000
M3S245
G4 P0.5; Tool Off

G0 Z0; move to z-safe height
G0 X749.0000 Y1116.8200
M3S0
G4 P0.5; Tool On
G1 F300 Z0.0000
G1 F15000 X1.0000 Y1116.8200 Z0.0000
M3S245
G4 P0.5; Tool Off

G0 Z0; move to z-safe height
G0 X1.0000 Y1118.8200
M3S0
G4 P0.5; Tool On
G1 F300 Z0.0000
G1 F15000 X749.0000 Y1118.8200 Z0.0000
M3S245
G4 P0.5; Tool Off

G0 Z0; move to z-safe height
G0 X749.0000 Y1120.8200
M3S0
G4 P0.5; Tool On
G1 F300 Z0.0000
G1 F15000 X1.0000 Y1120.8200 Z0.0000
M3S245
G4 P0.5; Tool Off

G0 Z0; move to z-safe height
G0 X1.0000 Y1122.8200
M3S0
G4 P0.5; Tool On
G1 F300 Z0.0000
G1 F15000 X749.0000 Y1122.8200 Z0.0000
M3S245
G4 P0.5; Tool Off

G0 Z0; move to z-safe height
G0 X749.0000 Y1124.8200
M3S0
G4 P0.5; Tool On
G1 F300 Z0.0000
G1 F15000 X1.0000 Y1124.8200 Z0.0000
M3S245
G4 P0.5; Tool Off

G0 Z0; move to z-safe height
G0 X1.0000 Y1126.8200
M3S0
G4 P0.5; Tool On
G1 F300 Z0.0000
G1 F15000 X749.0000 Y1126.8200 Z0.0000
M3S245
G4 P0.5; Tool Off

G0 Z0; move to z-safe height
G0 X749.0000 Y1128.8200
M3S0
G4 P0.5; Tool On
G1 F300 Z0.0000
G1 F15000 X1.0000 Y1128.8200 Z0.0000
M3S245
G4 P0.5; Tool Off

G0 Z0; move to z-safe height
G0 X1.0000 Y1130.8200
M3S0
G4 P0.5; Tool On
G1 F300 Z0.0000
G1 F15000 X749.0000 Y1130.8200 Z0.0000
M3S245
G4 P0.5; Tool Off

G0 Z0; move to z-safe height
G0 X749.0000 Y1132.8200
M3S0
G4 P0.5; Tool On
G1 F300 Z0.0000
G1 F15000 X1.0000 Y1132.8200 Z0.0000
M3S245
G4 P0.5; Tool Off

G0 Z0; move to z-safe height
G0 X1.0000 Y1134.8200
M3S0
G4 P0.5; Tool On
G1 F300 Z0.0000
G1 F15000 X749.0000 Y1134.8200 Z0.0000
M3S245
G4 P0.5; Tool Off

G0 Z0; move to z-safe height
G0 X749.0000 Y1136.8200
M3S0
G4 P0.5; Tool On
G1 F300 Z0.0000
G1 F15000 X1.0000 Y1136.8200 Z0.0000
M3S245
G4 P0.5; Tool Off

G0 Z0; move to z-safe height
G0 X1.0000 Y1138.8200
M3S0
G4 P0.5; Tool On
G1 F300 Z0.0000
G1 F15000 X749.0000 Y1138.8200 Z0.0000
M3S245
G4 P0.5; Tool Off

G0 Z0; move to z-safe height
G0 X749.0000 Y1140.8200
M3S0
G4 P0.5; Tool On
G1 F300 Z0.0000
G1 F15000 X1.0000 Y1140.8200 Z0.0000
M3S245
G4 P0.5; Tool Off

G0 Z0; move to z-safe height
G0 X1.0000 Y1142.8200
M3S0
G4 P0.5; Tool On
G1 F300 Z0.0000
G1 F15000 X749.0000 Y1142.8200 Z0.0000
M3S245
G4 P0.5; Tool Off

G0 Z0; move to z-safe height
G0 X749.0000 Y1144.8200
M3S0
G4 P0.5; Tool On
G1 F300 Z0.0000
G1 F15000 X1.0000 Y1144.8200 Z0.0000
M3S245
G4 P0.5; Tool Off

G0 Z0; move to z-safe height
G0 X1.0000 Y1146.8200
M3S0
G4 P0.5; Tool On
G1 F300 Z0.0000
G1 F15000 X749.0000 Y1146.8200 Z0.0000
M3S245
G4 P0.5; Tool Off

G0 Z0; move to z-safe height
G0 X749.0000 Y1148.8200
M3S0
G4 P0.5; Tool On
G1 F300 Z0.0000
G1 F15000 X1.0000 Y1148.8200 Z0.0000
M3S245
G4 P0.5; Tool Off

G0 Z0; move to z-safe height
G0 X1.0000 Y1150.8200
M3S0
G4 P0.5; Tool On
G1 F300 Z0.0000
G1 F15000 X749.0000 Y1150.8200 Z0.0000
M3S245
G4 P0.5; Tool Off

G0 Z0; move to z-safe height
G0 X749.0000 Y1152.8200
M3S0
G4 P0.5; Tool On
G1 F300 Z0.0000
G1 F15000 X1.0000 Y1152.8200 Z0.0000
M3S245
G4 P0.5; Tool Off

G0 Z0; move to z-safe height
G0 X1.0000 Y1154.8200
M3S0
G4 P0.5; Tool On
G1 F300 Z0.0000
G1 F15000 X749.0000 Y1154.8200 Z0.0000
M3S245
G4 P0.5; Tool Off

G0 Z0; move to z-safe height
G0 X749.0000 Y1156.8200
M3S0
G4 P0.5; Tool On
G1 F300 Z0.0000
G1 F15000 X1.0000 Y1156.8200 Z0.0000
M3S245
G4 P0.5; Tool Off

G0 Z0; move to z-safe height
G0 X1.0000 Y1158.8200
M3S0
G4 P0.5; Tool On
G1 F300 Z0.0000
G1 F15000 X749.0000 Y1158.8200 Z0.0000
M3S245
G4 P0.5; Tool Off

G0 Z0; move to z-safe height
G0 X749.0000 Y1160.8200
M3S0
G4 P0.5; Tool On
G1 F300 Z0.0000
G1 F15000 X1.0000 Y1160.8200 Z0.0000
M3S245
G4 P0.5; Tool Off

G0 Z0; move to z-safe height
G0 X1.0000 Y1162.8200
M3S0
G4 P0.5; Tool On
G1 F300 Z0.0000
G1 F15000 X749.0000 Y1162.8200 Z0.0000
M3S245
G4 P0.5; Tool Off

G0 Z0; move to z-safe height
G0 X749.0000 Y1164.8200
M3S0
G4 P0.5; Tool On
G1 F300 Z0.0000
G1 F15000 X1.0000 Y1164.8200 Z0.0000
M3S245
G4 P0.5; Tool Off

G0 Z0; move to z-safe height
G0 X1.0000 Y1166.8200
M3S0
G4 P0.5; Tool On
G1 F300 Z0.0000
G1 F15000 X749.0000 Y1166.8200 Z0.0000
M3S245
G4 P0.5; Tool Off

G0 Z0; move to z-safe height
G0 X749.0000 Y1168.8200
M3S0
G4 P0.5; Tool On
G1 F300 Z0.0000
G1 F15000 X1.0000 Y1168.8200 Z0.0000
M3S245
G4 P0.5; Tool Off

G0 Z0; move to z-safe height
G0 X1.0000 Y1170.8200
M3S0
G4 P0.5; Tool On
G1 F300 Z0.0000
G1 F15000 X749.0000 Y1170.8200 Z0.0000
M3S245
G4 P0.5; Tool Off

G0 Z0; move to z-safe height
G0 X749.0000 Y1172.8200
M3S0
G4 P0.5; Tool On
G1 F300 Z0.0000
G1 F15000 X1.0000 Y1172.8200 Z0.0000
M3S245
G4 P0.5; Tool Off

G0 Z0; move to z-safe height
G0 X1.0000 Y1174.8200
M3S0
G4 P0.5; Tool On
G1 F300 Z0.0000
G1 F15000 X749.0000 Y1174.8200 Z0.0000
M3S245
G4 P0.5; Tool Off

G0 Z0; move to z-safe height
G0 X749.0000 Y1176.8200
M3S0
G4 P0.5; Tool On
G1 F300 Z0.0000
G1 F15000 X1.0000 Y1176.8200 Z0.0000
M3S245
G4 P0.5; Tool Off

G0 Z0; move to z-safe height
G0 X1.0000 Y1178.8200
M3S0
G4 P0.5; Tool On
G1 F300 Z0.0000
G1 F15000 X749.0000 Y1178.8200 Z0.0000
M3S245
G4 P0.5; Tool Off

G0 Z0; move to z-safe height
G0 X749.0000 Y1180.8200
M3S0
G4 P0.5; Tool On
G1 F300 Z0.0000
G1 F15000 X1.0000 Y1180.8200 Z0.0000
M3S245
G4 P0.5; Tool Off

G0 Z0; move to z-safe height
G0 X1.0000 Y1182.8200
M3S0
G4 P0.5; Tool On
G1 F300 Z0.0000
G1 F15000 X749.0000 Y1182.8200 Z0.0000
M3S245
G4 P0.5; Tool Off

G0 Z0; move to z-safe height
G0 X749.0000 Y1184.8200
M3S0
G4 P0.5; Tool On
G1 F300 Z0.0000
G1 F15000 X1.0000 Y1184.8200 Z0.0000
M3S245
G4 P0.5; Tool Off

G0 Z0; move to z-safe height
G0 X1.0000 Y1186.8200
M3S0
G4 P0.5; Tool On
G1 F300 Z0.0000
G1 F15000 X749.0000 Y1186.8200 Z0.0000
M3S245
G4 P0.5; Tool Off

G0 Z0; move to z-safe height
G0 X749.0000 Y1188.8200
M3S0
G4 P0.5; Tool On
G1 F300 Z0.0000
G1 F15000 X1.0000 Y1188.8200 Z0.0000
M3S245
G4 P0.5; Tool Off

G0 Z0; move to z-safe height
G0 X1.0000 Y1190.8200
M3S0
G4 P0.5; Tool On
G1 F300 Z0.0000
G1 F15000 X749.0000 Y1190.8200 Z0.0000
M3S245
G4 P0.5; Tool Off

G0 Z0; move to z-safe height
G0 X749.0000 Y1192.8200
M3S0
G4 P0.5; Tool On
G1 F300 Z0.0000
G1 F15000 X1.0000 Y1192.8200 Z0.0000
M3S245
G4 P0.5; Tool Off

G0 Z0; move to z-safe height
G0 X1.0000 Y1194.8200
M3S0
G4 P0.5; Tool On
G1 F300 Z0.0000
G1 F15000 X749.0000 Y1194.8200 Z0.0000
M3S245
G4 P0.5; Tool Off

G0 Z0; move to z-safe height
G0 X749.0000 Y1196.8200
M3S0
G4 P0.5; Tool On
G1 F300 Z0.0000
G1 F15000 X1.0000 Y1196.8200 Z0.0000
M3S245
G4 P0.5; Tool Off

G0 Z0; move to z-safe height
G0 X1.0000 Y1198.8200
M3S0
G4 P0.5; Tool On
G1 F300 Z0.0000
G1 F15000 X749.0000 Y1198.8200 Z0.0000
M3S245
G4 P0.5; Tool Off

G0 Z0; move to z-safe height
G0 X749.0000 Y1200.8200
M3S0
G4 P0.5; Tool On
G1 F300 Z0.0000
G1 F15000 X1.0000 Y1200.8200 Z0.0000
M3S245
G4 P0.5; Tool Off

G0 Z0; move to z-safe height
G0 X1.0000 Y1202.8200
M3S0
G4 P0.5; Tool On
G1 F300 Z0.0000
G1 F15000 X749.0000 Y1202.8200 Z0.0000
M3S245
G4 P0.5; Tool Off

G0 Z0; move to z-safe height
G0 X749.0000 Y1204.8200
M3S0
G4 P0.5; Tool On
G1 F300 Z0.0000
G1 F15000 X1.0000 Y1204.8200 Z0.0000
M3S245
G4 P0.5; Tool Off

G0 Z0; move to z-safe height
G0 X1.0000 Y1206.8200
M3S0
G4 P0.5; Tool On
G1 F300 Z0.0000
G1 F15000 X749.0000 Y1206.8200 Z0.0000
M3S245
G4 P0.5; Tool Off

G0 Z0; move to z-safe height
G0 X749.0000 Y1208.8200
M3S0
G4 P0.5; Tool On
G1 F300 Z0.0000
G1 F15000 X1.0000 Y1208.8200 Z0.0000
M3S245
G4 P0.5; Tool Off

G0 Z0; move to z-safe height
G0 X1.0000 Y1210.8200
M3S0
G4 P0.5; Tool On
G1 F300 Z0.0000
G1 F15000 X749.0000 Y1210.8200 Z0.0000
M3S245
G4 P0.5; Tool Off

G0 Z0; move to z-safe height
G0 X749.0000 Y1212.8200
M3S0
G4 P0.5; Tool On
G1 F300 Z0.0000
G1 F15000 X1.0000 Y1212.8200 Z0.0000
M3S245
G4 P0.5; Tool Off

G0 Z0; move to z-safe height
G0 X1.0000 Y1214.8200
M3S0
G4 P0.5; Tool On
G1 F300 Z0.0000
G1 F15000 X749.0000 Y1214.8200 Z0.0000
M3S245
G4 P0.5; Tool Off

G0 Z0; move to z-safe height
G0 X749.0000 Y1216.8200
M3S0
G4 P0.5; Tool On
G1 F300 Z0.0000
G1 F15000 X1.0000 Y1216.8200 Z0.0000
M3S245
G4 P0.5; Tool Off

G0 Z0; move to z-safe height
G0 X1.0000 Y1218.8200
M3S0
G4 P0.5; Tool On
G1 F300 Z0.0000
G1 F15000 X749.0000 Y1218.8200 Z0.0000
M3S245
G4 P0.5; Tool Off

G0 Z0; move to z-safe height
G0 X749.0000 Y1220.8200
M3S0
G4 P0.5; Tool On
G1 F300 Z0.0000
G1 F15000 X1.0000 Y1220.8200 Z0.0000
M3S245
G4 P0.5; Tool Off

G0 Z0; move to z-safe height
G0 X1.0000 Y1222.8200
M3S0
G4 P0.5; Tool On
G1 F300 Z0.0000
G1 F15000 X749.0000 Y1222.8200 Z0.0000
M3S245
G4 P0.5; Tool Off

G0 Z0; move to z-safe height
G0 X749.0000 Y1224.8200
M3S0
G4 P0.5; Tool On
G1 F300 Z0.0000
G1 F15000 X1.0000 Y1224.8200 Z0.0000
M3S245
G4 P0.5; Tool Off

G0 Z0; move to z-safe height
G0 X1.0000 Y1226.8200
M3S0
G4 P0.5; Tool On
G1 F300 Z0.0000
G1 F15000 X749.0000 Y1226.8200 Z0.0000
M3S245
G4 P0.5; Tool Off

G0 Z0; move to z-safe height
G0 X749.0000 Y1228.8200
M3S0
G4 P0.5; Tool On
G1 F300 Z0.0000
G1 F15000 X1.0000 Y1228.8200 Z0.0000
M3S245
G4 P0.5; Tool Off

G0 Z0; move to z-safe height
G0 X1.0000 Y1230.8200
M3S0
G4 P0.5; Tool On
G1 F300 Z0.0000
G1 F15000 X749.0000 Y1230.8200 Z0.0000
M3S245
G4 P0.5; Tool Off

G0 Z0; move to z-safe height
G0 X749.0000 Y1232.8200
M3S0
G4 P0.5; Tool On
G1 F300 Z0.0000
G1 F15000 X1.0000 Y1232.8200 Z0.0000
M3S245
G4 P0.5; Tool Off

G0 Z0; move to z-safe height
G0 X1.0000 Y1234.8200
M3S0
G4 P0.5; Tool On
G1 F300 Z0.0000
G1 F15000 X749.0000 Y1234.8200 Z0.0000
M3S245
G4 P0.5; Tool Off

G0 Z0; move to z-safe height
G0 X749.0000 Y1236.8200
M3S0
G4 P0.5; Tool On
G1 F300 Z0.0000
G1 F15000 X1.0000 Y1236.8200 Z0.0000
M3S245
G4 P0.5; Tool Off

G0 Z0; move to z-safe height
G0 X1.0000 Y1238.8200
M3S0
G4 P0.5; Tool On
G1 F300 Z0.0000
G1 F15000 X749.0000 Y1238.8200 Z0.0000
M3S245
G4 P0.5; Tool Off

G0 Z0; move to z-safe height
G0 X749.0000 Y1240.8200
M3S0
G4 P0.5; Tool On
G1 F300 Z0.0000
G1 F15000 X1.0000 Y1240.8200 Z0.0000
M3S245
G4 P0.5; Tool Off

G0 Z0; move to z-safe height
G0 X1.0000 Y1242.8200
M3S0
G4 P0.5; Tool On
G1 F300 Z0.0000
G1 F15000 X749.0000 Y1242.8200 Z0.0000
M3S245
G4 P0.5; Tool Off

G0 Z0; move to z-safe height
G0 X749.0000 Y1244.8200
M3S0
G4 P0.5; Tool On
G1 F300 Z0.0000
G1 F15000 X1.0000 Y1244.8200 Z0.0000
M3S245
G4 P0.5; Tool Off

G0 Z0; move to z-safe height
G0 X1.0000 Y1246.8200
M3S0
G4 P0.5; Tool On
G1 F300 Z0.0000
G1 F15000 X749.0000 Y1246.8200 Z0.0000
M3S245
G4 P0.5; Tool Off

G0 Z0; move to z-safe height
G0 X749.0000 Y1248.8200
M3S0
G4 P0.5; Tool On
G1 F300 Z0.0000
G1 F15000 X1.0000 Y1248.8200 Z0.0000
M3S245
G4 P0.5; Tool Off

G0 Z0; move to z-safe height
G0 X1.0000 Y1250.8200
M3S0
G4 P0.5; Tool On
G1 F300 Z0.0000
G1 F15000 X749.0000 Y1250.8200 Z0.0000
M3S245
G4 P0.5; Tool Off

G0 Z0; move to z-safe height
G0 X749.0000 Y1252.8200
M3S0
G4 P0.5; Tool On
G1 F300 Z0.0000
G1 F15000 X1.0000 Y1252.8200 Z0.0000
M3S245
G4 P0.5; Tool Off

G0 Z0; move to z-safe height
G0 X1.0000 Y1254.8200
M3S0
G4 P0.5; Tool On
G1 F300 Z0.0000
G1 F15000 X749.0000 Y1254.8200 Z0.0000
M3S245
G4 P0.5; Tool Off

G0 Z0; move to z-safe height
G0 X749.0000 Y1256.8200
M3S0
G4 P0.5; Tool On
G1 F300 Z0.0000
G1 F15000 X1.0000 Y1256.8200 Z0.0000
M3S245
G4 P0.5; Tool Off

G0 Z0; move to z-safe height
G0 X1.0000 Y1258.8200
M3S0
G4 P0.5; Tool On
G1 F300 Z0.0000
G1 F15000 X749.0000 Y1258.8200 Z0.0000
M3S245
G4 P0.5; Tool Off

G0 Z0; move to z-safe height
G0 X749.0000 Y1260.8200
M3S0
G4 P0.5; Tool On
G1 F300 Z0.0000
G1 F15000 X1.0000 Y1260.8200 Z0.0000
M3S245
G4 P0.5; Tool Off

G0 Z0; move to z-safe height
G0 X1.0000 Y1262.8200
M3S0
G4 P0.5; Tool On
G1 F300 Z0.0000
G1 F15000 X749.0000 Y1262.8200 Z0.0000
M3S245
G4 P0.5; Tool Off

G0 Z0; move to z-safe height
G0 X749.0000 Y1264.8200
M3S0
G4 P0.5; Tool On
G1 F300 Z0.0000
G1 F15000 X1.0000 Y1264.8200 Z0.0000
M3S245
G4 P0.5; Tool Off

G0 Z0; move to z-safe height
G0 X1.0000 Y1266.8200
M3S0
G4 P0.5; Tool On
G1 F300 Z0.0000
G1 F15000 X749.0000 Y1266.8200 Z0.0000
M3S245
G4 P0.5; Tool Off

G0 Z0; move to z-safe height
G0 X749.0000 Y1268.8200
M3S0
G4 P0.5; Tool On
G1 F300 Z0.0000
G1 F15000 X1.0000 Y1268.8200 Z0.0000
M3S245
G4 P0.5; Tool Off

G0 Z0; move to z-safe height
G0 X1.0000 Y1270.8200
M3S0
G4 P0.5; Tool On
G1 F300 Z0.0000
G1 F15000 X749.0000 Y1270.8200 Z0.0000
M3S245
G4 P0.5; Tool Off

G0 Z0; move to z-safe height
G0 X749.0000 Y1272.8200
M3S0
G4 P0.5; Tool On
G1 F300 Z0.0000
G1 F15000 X1.0000 Y1272.8200 Z0.0000
M3S245
G4 P0.5; Tool Off

G0 Z0; move to z-safe height
G0 X1.0000 Y1274.8200
M3S0
G4 P0.5; Tool On
G1 F300 Z0.0000
G1 F15000 X749.0000 Y1274.8200 Z0.0000
M3S245
G4 P0.5; Tool Off

G0 Z0; move to z-safe height
G0 X749.0000 Y1276.8200
M3S0
G4 P0.5; Tool On
G1 F300 Z0.0000
G1 F15000 X1.0000 Y1276.8200 Z0.0000
M3S245
G4 P0.5; Tool Off

G0 Z0; move to z-safe height
G0 X1.0000 Y1278.8200
M3S0
G4 P0.5; Tool On
G1 F300 Z0.0000
G1 F15000 X749.0000 Y1278.8200 Z0.0000
M3S245
G4 P0.5; Tool Off

G0 Z0; move to z-safe height
G0 X749.0000 Y1280.8200
M3S0
G4 P0.5; Tool On
G1 F300 Z0.0000
G1 F15000 X1.0000 Y1280.8200 Z0.0000
M3S245
G4 P0.5; Tool Off

G0 Z0; move to z-safe height
G0 X1.0000 Y1282.8200
M3S0
G4 P0.5; Tool On
G1 F300 Z0.0000
G1 F15000 X749.0000 Y1282.8200 Z0.0000
M3S245
G4 P0.5; Tool Off

G0 Z0; move to z-safe height
G0 X749.0000 Y1284.8200
M3S0
G4 P0.5; Tool On
G1 F300 Z0.0000
G1 F15000 X1.0000 Y1284.8200 Z0.0000
M3S245
G4 P0.5; Tool Off

G0 Z0; move to z-safe height
G0 X1.0000 Y1286.8200
M3S0
G4 P0.5; Tool On
G1 F300 Z0.0000
G1 F15000 X749.0000 Y1286.8200 Z0.0000
M3S245
G4 P0.5; Tool Off

G0 Z0; move to z-safe height
G0 X749.0000 Y1288.8200
M3S0
G4 P0.5; Tool On
G1 F300 Z0.0000
G1 F15000 X1.0000 Y1288.8200 Z0.0000
M3S245
G4 P0.5; Tool Off

G0 Z0; move to z-safe height
G0 X1.0000 Y1290.8200
M3S0
G4 P0.5; Tool On
G1 F300 Z0.0000
G1 F15000 X749.0000 Y1290.8200 Z0.0000
M3S245
G4 P0.5; Tool Off

G0 Z0; move to z-safe height
G0 X749.0000 Y1292.8200
M3S0
G4 P0.5; Tool On
G1 F300 Z0.0000
G1 F15000 X1.0000 Y1292.8200 Z0.0000
M3S245
G4 P0.5; Tool Off

G0 Z0; move to z-safe height
G0 X1.0000 Y1294.8200
M3S0
G4 P0.5; Tool On
G1 F300 Z0.0000
G1 F15000 X749.0000 Y1294.8200 Z0.0000
M3S245
G4 P0.5; Tool Off

G0 Z0; move to z-safe height
G0 X749.0000 Y1296.8200
M3S0
G4 P0.5; Tool On
G1 F300 Z0.0000
G1 F15000 X1.0000 Y1296.8200 Z0.0000
M3S245
G4 P0.5; Tool Off

G0 Z0; move to z-safe height
G0 X1.0000 Y1298.8200
M3S0
G4 P0.5; Tool On
G1 F300 Z0.0000
G1 F15000 X749.0000 Y1298.8200 Z0.0000
M3S245
G4 P0.5; Tool Off

G0 Z0; move to z-safe height
G0 X749.0000 Y1300.8200
M3S0
G4 P0.5; Tool On
G1 F300 Z0.0000
G1 F15000 X1.0000 Y1300.8200 Z0.0000
M3S245
G4 P0.5; Tool Off

G0 Z0; move to z-safe height
G0 X1.0000 Y1302.8200
M3S0
G4 P0.5; Tool On
G1 F300 Z0.0000
G1 F15000 X749.0000 Y1302.8200 Z0.0000
M3S245
G4 P0.5; Tool Off

G0 Z0; move to z-safe height
G0 X749.0000 Y1304.8200
M3S0
G4 P0.5; Tool On
G1 F300 Z0.0000
G1 F15000 X1.0000 Y1304.8200 Z0.0000
M3S245
G4 P0.5; Tool Off

G0 Z0; move to z-safe height
G0 X1.0000 Y1306.8200
M3S0
G4 P0.5; Tool On
G1 F300 Z0.0000
G1 F15000 X749.0000 Y1306.8200 Z0.0000
M3S245
G4 P0.5; Tool Off

G0 Z0; move to z-safe height
G0 X749.0000 Y1308.8200
M3S0
G4 P0.5; Tool On
G1 F300 Z0.0000
G1 F15000 X1.0000 Y1308.8200 Z0.0000
M3S245
G4 P0.5; Tool Off

G0 Z0; move to z-safe height
G0 X1.0000 Y1310.8200
M3S0
G4 P0.5; Tool On
G1 F300 Z0.0000
G1 F15000 X749.0000 Y1310.8200 Z0.0000
M3S245
G4 P0.5; Tool Off

