; GCODE Generated by cam.openbuilds.com on 2023-04-26 
G21 ; mm-mode
G54; Work Coordinates
G21; mm-mode
G90; Absolute Positioning
; Plotter Mode Active

; Operation 0: Pen Plotter: (lines fill)
; Pen Diameter: 2

G0 Z0; move to z-safe height
G0 F1000 X898.5000 Y3.4800
M3S0
G4 P0.5; Tool On
G1 F300 Z0.0000
G1 F15000 X1.5000 Y3.4800 Z0.0000
M3S245
G4 P0.5; Tool Off

G0 Z0; move to z-safe height
G0 X1.5000 Y6.4800
M3S0
G4 P0.5; Tool On
G1 F300 Z0.0000
G1 F15000 X898.5000 Y6.4800 Z0.0000
M3S245
G4 P0.5; Tool Off

G0 Z0; move to z-safe height
G0 X898.5000 Y9.4800
M3S0
G4 P0.5; Tool On
G1 F300 Z0.0000
G1 F15000 X1.5000 Y9.4800 Z0.0000
M3S245
G4 P0.5; Tool Off

G0 Z0; move to z-safe height
G0 X1.5000 Y12.4800
M3S0
G4 P0.5; Tool On
G1 F300 Z0.0000
G1 F15000 X898.5000 Y12.4800 Z0.0000
M3S245
G4 P0.5; Tool Off

G0 Z0; move to z-safe height
G0 X898.5000 Y15.4800
M3S0
G4 P0.5; Tool On
G1 F300 Z0.0000
G1 F15000 X1.5000 Y15.4800 Z0.0000
M3S245
G4 P0.5; Tool Off

G0 Z0; move to z-safe height
G0 X1.5000 Y18.4800
M3S0
G4 P0.5; Tool On
G1 F300 Z0.0000
G1 F15000 X898.5000 Y18.4800 Z0.0000
M3S245
G4 P0.5; Tool Off

G0 Z0; move to z-safe height
G0 X898.5000 Y21.4800
M3S0
G4 P0.5; Tool On
G1 F300 Z0.0000
G1 F15000 X1.5000 Y21.4800 Z0.0000
M3S245
G4 P0.5; Tool Off

G0 Z0; move to z-safe height
G0 X1.5000 Y24.4800
M3S0
G4 P0.5; Tool On
G1 F300 Z0.0000
G1 F15000 X898.5000 Y24.4800 Z0.0000
M3S245
G4 P0.5; Tool Off

G0 Z0; move to z-safe height
G0 X898.5000 Y27.4800
M3S0
G4 P0.5; Tool On
G1 F300 Z0.0000
G1 F15000 X1.5000 Y27.4800 Z0.0000
M3S245
G4 P0.5; Tool Off

G0 Z0; move to z-safe height
G0 X1.5000 Y30.4800
M3S0
G4 P0.5; Tool On
G1 F300 Z0.0000
G1 F15000 X898.5000 Y30.4800 Z0.0000
M3S245
G4 P0.5; Tool Off

G0 Z0; move to z-safe height
G0 X898.5000 Y33.4800
M3S0
G4 P0.5; Tool On
G1 F300 Z0.0000
G1 F15000 X1.5000 Y33.4800 Z0.0000
M3S245
G4 P0.5; Tool Off

G0 Z0; move to z-safe height
G0 X1.5000 Y36.4800
M3S0
G4 P0.5; Tool On
G1 F300 Z0.0000
G1 F15000 X898.5000 Y36.4800 Z0.0000
M3S245
G4 P0.5; Tool Off

G0 Z0; move to z-safe height
G0 X898.5000 Y39.4800
M3S0
G4 P0.5; Tool On
G1 F300 Z0.0000
G1 F15000 X1.5000 Y39.4800 Z0.0000
M3S245
G4 P0.5; Tool Off

G0 Z0; move to z-safe height
G0 X1.5000 Y42.4800
M3S0
G4 P0.5; Tool On
G1 F300 Z0.0000
G1 F15000 X898.5000 Y42.4800 Z0.0000
M3S245
G4 P0.5; Tool Off

G0 Z0; move to z-safe height
G0 X898.5000 Y45.4800
M3S0
G4 P0.5; Tool On
G1 F300 Z0.0000
G1 F15000 X1.5000 Y45.4800 Z0.0000
M3S245
G4 P0.5; Tool Off

G0 Z0; move to z-safe height
G0 X1.5000 Y48.4800
M3S0
G4 P0.5; Tool On
G1 F300 Z0.0000
G1 F15000 X898.5000 Y48.4800 Z0.0000
M3S245
G4 P0.5; Tool Off

G0 Z0; move to z-safe height
G0 X898.5000 Y51.4800
M3S0
G4 P0.5; Tool On
G1 F300 Z0.0000
G1 F15000 X1.5000 Y51.4800 Z0.0000
M3S245
G4 P0.5; Tool Off

G0 Z0; move to z-safe height
G0 X1.5000 Y54.4800
M3S0
G4 P0.5; Tool On
G1 F300 Z0.0000
G1 F15000 X898.5000 Y54.4800 Z0.0000
M3S245
G4 P0.5; Tool Off

G0 Z0; move to z-safe height
G0 X898.5000 Y57.4800
M3S0
G4 P0.5; Tool On
G1 F300 Z0.0000
G1 F15000 X1.5000 Y57.4800 Z0.0000
M3S245
G4 P0.5; Tool Off

G0 Z0; move to z-safe height
G0 X1.5000 Y60.4800
M3S0
G4 P0.5; Tool On
G1 F300 Z0.0000
G1 F15000 X898.5000 Y60.4800 Z0.0000
M3S245
G4 P0.5; Tool Off

G0 Z0; move to z-safe height
G0 X898.5000 Y63.4800
M3S0
G4 P0.5; Tool On
G1 F300 Z0.0000
G1 F15000 X1.5000 Y63.4800 Z0.0000
M3S245
G4 P0.5; Tool Off

G0 Z0; move to z-safe height
G0 X1.5000 Y66.4800
M3S0
G4 P0.5; Tool On
G1 F300 Z0.0000
G1 F15000 X898.5000 Y66.4800 Z0.0000
M3S245
G4 P0.5; Tool Off

G0 Z0; move to z-safe height
G0 X898.5000 Y69.4800
M3S0
G4 P0.5; Tool On
G1 F300 Z0.0000
G1 F15000 X1.5000 Y69.4800 Z0.0000
M3S245
G4 P0.5; Tool Off

G0 Z0; move to z-safe height
G0 X1.5000 Y72.4800
M3S0
G4 P0.5; Tool On
G1 F300 Z0.0000
G1 F15000 X898.5000 Y72.4800 Z0.0000
M3S245
G4 P0.5; Tool Off

G0 Z0; move to z-safe height
G0 X898.5000 Y75.4800
M3S0
G4 P0.5; Tool On
G1 F300 Z0.0000
G1 F15000 X1.5000 Y75.4800 Z0.0000
M3S245
G4 P0.5; Tool Off

G0 Z0; move to z-safe height
G0 X1.5000 Y78.4800
M3S0
G4 P0.5; Tool On
G1 F300 Z0.0000
G1 F15000 X898.5000 Y78.4800 Z0.0000
M3S245
G4 P0.5; Tool Off

G0 Z0; move to z-safe height
G0 X898.5000 Y81.4800
M3S0
G4 P0.5; Tool On
G1 F300 Z0.0000
G1 F15000 X1.5000 Y81.4800 Z0.0000
M3S245
G4 P0.5; Tool Off

G0 Z0; move to z-safe height
G0 X1.5000 Y84.4800
M3S0
G4 P0.5; Tool On
G1 F300 Z0.0000
G1 F15000 X898.5000 Y84.4800 Z0.0000
M3S245
G4 P0.5; Tool Off

G0 Z0; move to z-safe height
G0 X898.5000 Y87.4800
M3S0
G4 P0.5; Tool On
G1 F300 Z0.0000
G1 F15000 X1.5000 Y87.4800 Z0.0000
M3S245
G4 P0.5; Tool Off

G0 Z0; move to z-safe height
G0 X1.5000 Y90.4800
M3S0
G4 P0.5; Tool On
G1 F300 Z0.0000
G1 F15000 X898.5000 Y90.4800 Z0.0000
M3S245
G4 P0.5; Tool Off

G0 Z0; move to z-safe height
G0 X898.5000 Y93.4800
M3S0
G4 P0.5; Tool On
G1 F300 Z0.0000
G1 F15000 X1.5000 Y93.4800 Z0.0000
M3S245
G4 P0.5; Tool Off

G0 Z0; move to z-safe height
G0 X1.5000 Y96.4800
M3S0
G4 P0.5; Tool On
G1 F300 Z0.0000
G1 F15000 X898.5000 Y96.4800 Z0.0000
M3S245
G4 P0.5; Tool Off

G0 Z0; move to z-safe height
G0 X898.5000 Y99.4800
M3S0
G4 P0.5; Tool On
G1 F300 Z0.0000
G1 F15000 X1.5000 Y99.4800 Z0.0000
M3S245
G4 P0.5; Tool Off

G0 Z0; move to z-safe height
G0 X1.5000 Y102.4800
M3S0
G4 P0.5; Tool On
G1 F300 Z0.0000
G1 F15000 X898.5000 Y102.4800 Z0.0000
M3S245
G4 P0.5; Tool Off

G0 Z0; move to z-safe height
G0 X898.5000 Y105.4800
M3S0
G4 P0.5; Tool On
G1 F300 Z0.0000
G1 F15000 X1.5000 Y105.4800 Z0.0000
M3S245
G4 P0.5; Tool Off

G0 Z0; move to z-safe height
G0 X1.5000 Y108.4800
M3S0
G4 P0.5; Tool On
G1 F300 Z0.0000
G1 F15000 X898.5000 Y108.4800 Z0.0000
M3S245
G4 P0.5; Tool Off

G0 Z0; move to z-safe height
G0 X898.5000 Y111.4800
M3S0
G4 P0.5; Tool On
G1 F300 Z0.0000
G1 F15000 X1.5000 Y111.4800 Z0.0000
M3S245
G4 P0.5; Tool Off

G0 Z0; move to z-safe height
G0 X1.5000 Y114.4800
M3S0
G4 P0.5; Tool On
G1 F300 Z0.0000
G1 F15000 X898.5000 Y114.4800 Z0.0000
M3S245
G4 P0.5; Tool Off

G0 Z0; move to z-safe height
G0 X898.5000 Y117.4800
M3S0
G4 P0.5; Tool On
G1 F300 Z0.0000
G1 F15000 X1.5000 Y117.4800 Z0.0000
M3S245
G4 P0.5; Tool Off

G0 Z0; move to z-safe height
G0 X1.5000 Y120.4800
M3S0
G4 P0.5; Tool On
G1 F300 Z0.0000
G1 F15000 X898.5000 Y120.4800 Z0.0000
M3S245
G4 P0.5; Tool Off

G0 Z0; move to z-safe height
G0 X898.5000 Y123.4800
M3S0
G4 P0.5; Tool On
G1 F300 Z0.0000
G1 F15000 X1.5000 Y123.4800 Z0.0000
M3S245
G4 P0.5; Tool Off

G0 Z0; move to z-safe height
G0 X1.5000 Y126.4800
M3S0
G4 P0.5; Tool On
G1 F300 Z0.0000
G1 F15000 X898.5000 Y126.4800 Z0.0000
M3S245
G4 P0.5; Tool Off

G0 Z0; move to z-safe height
G0 X898.5000 Y129.4800
M3S0
G4 P0.5; Tool On
G1 F300 Z0.0000
G1 F15000 X1.5000 Y129.4800 Z0.0000
M3S245
G4 P0.5; Tool Off

G0 Z0; move to z-safe height
G0 X1.5000 Y132.4800
M3S0
G4 P0.5; Tool On
G1 F300 Z0.0000
G1 F15000 X898.5000 Y132.4800 Z0.0000
M3S245
G4 P0.5; Tool Off

G0 Z0; move to z-safe height
G0 X898.5000 Y135.4800
M3S0
G4 P0.5; Tool On
G1 F300 Z0.0000
G1 F15000 X1.5000 Y135.4800 Z0.0000
M3S245
G4 P0.5; Tool Off

G0 Z0; move to z-safe height
G0 X1.5000 Y138.4800
M3S0
G4 P0.5; Tool On
G1 F300 Z0.0000
G1 F15000 X898.5000 Y138.4800 Z0.0000
M3S245
G4 P0.5; Tool Off

G0 Z0; move to z-safe height
G0 X898.5000 Y141.4800
M3S0
G4 P0.5; Tool On
G1 F300 Z0.0000
G1 F15000 X1.5000 Y141.4800 Z0.0000
M3S245
G4 P0.5; Tool Off

G0 Z0; move to z-safe height
G0 X1.5000 Y144.4800
M3S0
G4 P0.5; Tool On
G1 F300 Z0.0000
G1 F15000 X898.5000 Y144.4800 Z0.0000
M3S245
G4 P0.5; Tool Off

G0 Z0; move to z-safe height
G0 X898.5000 Y147.4800
M3S0
G4 P0.5; Tool On
G1 F300 Z0.0000
G1 F15000 X1.5000 Y147.4800 Z0.0000
M3S245
G4 P0.5; Tool Off

G0 Z0; move to z-safe height
G0 X1.5000 Y150.4800
M3S0
G4 P0.5; Tool On
G1 F300 Z0.0000
G1 F15000 X898.5000 Y150.4800 Z0.0000
M3S245
G4 P0.5; Tool Off

G0 Z0; move to z-safe height
G0 X898.5000 Y153.4800
M3S0
G4 P0.5; Tool On
G1 F300 Z0.0000
G1 F15000 X1.5000 Y153.4800 Z0.0000
M3S245
G4 P0.5; Tool Off

G0 Z0; move to z-safe height
G0 X1.5000 Y156.4800
M3S0
G4 P0.5; Tool On
G1 F300 Z0.0000
G1 F15000 X898.5000 Y156.4800 Z0.0000
M3S245
G4 P0.5; Tool Off

G0 Z0; move to z-safe height
G0 X898.5000 Y159.4800
M3S0
G4 P0.5; Tool On
G1 F300 Z0.0000
G1 F15000 X1.5000 Y159.4800 Z0.0000
M3S245
G4 P0.5; Tool Off

G0 Z0; move to z-safe height
G0 X1.5000 Y162.4800
M3S0
G4 P0.5; Tool On
G1 F300 Z0.0000
G1 F15000 X898.5000 Y162.4800 Z0.0000
M3S245
G4 P0.5; Tool Off

G0 Z0; move to z-safe height
G0 X898.5000 Y165.4800
M3S0
G4 P0.5; Tool On
G1 F300 Z0.0000
G1 F15000 X1.5000 Y165.4800 Z0.0000
M3S245
G4 P0.5; Tool Off

G0 Z0; move to z-safe height
G0 X1.5000 Y168.4800
M3S0
G4 P0.5; Tool On
G1 F300 Z0.0000
G1 F15000 X898.5000 Y168.4800 Z0.0000
M3S245
G4 P0.5; Tool Off

G0 Z0; move to z-safe height
G0 X898.5000 Y171.4800
M3S0
G4 P0.5; Tool On
G1 F300 Z0.0000
G1 F15000 X1.5000 Y171.4800 Z0.0000
M3S245
G4 P0.5; Tool Off

G0 Z0; move to z-safe height
G0 X1.5000 Y174.4800
M3S0
G4 P0.5; Tool On
G1 F300 Z0.0000
G1 F15000 X898.5000 Y174.4800 Z0.0000
M3S245
G4 P0.5; Tool Off

G0 Z0; move to z-safe height
G0 X898.5000 Y177.4800
M3S0
G4 P0.5; Tool On
G1 F300 Z0.0000
G1 F15000 X1.5000 Y177.4800 Z0.0000
M3S245
G4 P0.5; Tool Off

G0 Z0; move to z-safe height
G0 X1.5000 Y180.4800
M3S0
G4 P0.5; Tool On
G1 F300 Z0.0000
G1 F15000 X898.5000 Y180.4800 Z0.0000
M3S245
G4 P0.5; Tool Off

G0 Z0; move to z-safe height
G0 X898.5000 Y183.4800
M3S0
G4 P0.5; Tool On
G1 F300 Z0.0000
G1 F15000 X1.5000 Y183.4800 Z0.0000
M3S245
G4 P0.5; Tool Off

G0 Z0; move to z-safe height
G0 X1.5000 Y186.4800
M3S0
G4 P0.5; Tool On
G1 F300 Z0.0000
G1 F15000 X898.5000 Y186.4800 Z0.0000
M3S245
G4 P0.5; Tool Off

G0 Z0; move to z-safe height
G0 X898.5000 Y189.4800
M3S0
G4 P0.5; Tool On
G1 F300 Z0.0000
G1 F15000 X1.5000 Y189.4800 Z0.0000
M3S245
G4 P0.5; Tool Off

G0 Z0; move to z-safe height
G0 X1.5000 Y192.4800
M3S0
G4 P0.5; Tool On
G1 F300 Z0.0000
G1 F15000 X898.5000 Y192.4800 Z0.0000
M3S245
G4 P0.5; Tool Off

G0 Z0; move to z-safe height
G0 X898.5000 Y195.4800
M3S0
G4 P0.5; Tool On
G1 F300 Z0.0000
G1 F15000 X1.5000 Y195.4800 Z0.0000
M3S245
G4 P0.5; Tool Off

G0 Z0; move to z-safe height
G0 X1.5000 Y198.4800
M3S0
G4 P0.5; Tool On
G1 F300 Z0.0000
G1 F15000 X898.5000 Y198.4800 Z0.0000
M3S245
G4 P0.5; Tool Off

G0 Z0; move to z-safe height
G0 X898.5000 Y201.4800
M3S0
G4 P0.5; Tool On
G1 F300 Z0.0000
G1 F15000 X1.5000 Y201.4800 Z0.0000
M3S245
G4 P0.5; Tool Off

G0 Z0; move to z-safe height
G0 X1.5000 Y204.4800
M3S0
G4 P0.5; Tool On
G1 F300 Z0.0000
G1 F15000 X898.5000 Y204.4800 Z0.0000
M3S245
G4 P0.5; Tool Off

G0 Z0; move to z-safe height
G0 X898.5000 Y207.4800
M3S0
G4 P0.5; Tool On
G1 F300 Z0.0000
G1 F15000 X1.5000 Y207.4800 Z0.0000
M3S245
G4 P0.5; Tool Off

G0 Z0; move to z-safe height
G0 X1.5000 Y210.4800
M3S0
G4 P0.5; Tool On
G1 F300 Z0.0000
G1 F15000 X898.5000 Y210.4800 Z0.0000
M3S245
G4 P0.5; Tool Off

G0 Z0; move to z-safe height
G0 X898.5000 Y213.4800
M3S0
G4 P0.5; Tool On
G1 F300 Z0.0000
G1 F15000 X1.5000 Y213.4800 Z0.0000
M3S245
G4 P0.5; Tool Off

G0 Z0; move to z-safe height
G0 X1.5000 Y216.4800
M3S0
G4 P0.5; Tool On
G1 F300 Z0.0000
G1 F15000 X898.5000 Y216.4800 Z0.0000
M3S245
G4 P0.5; Tool Off

G0 Z0; move to z-safe height
G0 X898.5000 Y219.4800
M3S0
G4 P0.5; Tool On
G1 F300 Z0.0000
G1 F15000 X1.5000 Y219.4800 Z0.0000
M3S245
G4 P0.5; Tool Off

G0 Z0; move to z-safe height
G0 X1.5000 Y222.4800
M3S0
G4 P0.5; Tool On
G1 F300 Z0.0000
G1 F15000 X898.5000 Y222.4800 Z0.0000
M3S245
G4 P0.5; Tool Off

G0 Z0; move to z-safe height
G0 X898.5000 Y225.4800
M3S0
G4 P0.5; Tool On
G1 F300 Z0.0000
G1 F15000 X1.5000 Y225.4800 Z0.0000
M3S245
G4 P0.5; Tool Off

G0 Z0; move to z-safe height
G0 X1.5000 Y228.4800
M3S0
G4 P0.5; Tool On
G1 F300 Z0.0000
G1 F15000 X898.5000 Y228.4800 Z0.0000
M3S245
G4 P0.5; Tool Off

G0 Z0; move to z-safe height
G0 X898.5000 Y231.4800
M3S0
G4 P0.5; Tool On
G1 F300 Z0.0000
G1 F15000 X1.5000 Y231.4800 Z0.0000
M3S245
G4 P0.5; Tool Off

G0 Z0; move to z-safe height
G0 X1.5000 Y234.4800
M3S0
G4 P0.5; Tool On
G1 F300 Z0.0000
G1 F15000 X898.5000 Y234.4800 Z0.0000
M3S245
G4 P0.5; Tool Off

G0 Z0; move to z-safe height
G0 X898.5000 Y237.4800
M3S0
G4 P0.5; Tool On
G1 F300 Z0.0000
G1 F15000 X1.5000 Y237.4800 Z0.0000
M3S245
G4 P0.5; Tool Off

G0 Z0; move to z-safe height
G0 X1.5000 Y240.4800
M3S0
G4 P0.5; Tool On
G1 F300 Z0.0000
G1 F15000 X898.5000 Y240.4800 Z0.0000
M3S245
G4 P0.5; Tool Off

G0 Z0; move to z-safe height
G0 X898.5000 Y243.4800
M3S0
G4 P0.5; Tool On
G1 F300 Z0.0000
G1 F15000 X1.5000 Y243.4800 Z0.0000
M3S245
G4 P0.5; Tool Off

G0 Z0; move to z-safe height
G0 X1.5000 Y246.4800
M3S0
G4 P0.5; Tool On
G1 F300 Z0.0000
G1 F15000 X898.5000 Y246.4800 Z0.0000
M3S245
G4 P0.5; Tool Off

G0 Z0; move to z-safe height
G0 X898.5000 Y249.4800
M3S0
G4 P0.5; Tool On
G1 F300 Z0.0000
G1 F15000 X1.5000 Y249.4800 Z0.0000
M3S245
G4 P0.5; Tool Off

G0 Z0; move to z-safe height
G0 X1.5000 Y252.4800
M3S0
G4 P0.5; Tool On
G1 F300 Z0.0000
G1 F15000 X898.5000 Y252.4800 Z0.0000
M3S245
G4 P0.5; Tool Off

G0 Z0; move to z-safe height
G0 X898.5000 Y255.4800
M3S0
G4 P0.5; Tool On
G1 F300 Z0.0000
G1 F15000 X1.5000 Y255.4800 Z0.0000
M3S245
G4 P0.5; Tool Off

G0 Z0; move to z-safe height
G0 X1.5000 Y258.4800
M3S0
G4 P0.5; Tool On
G1 F300 Z0.0000
G1 F15000 X898.5000 Y258.4800 Z0.0000
M3S245
G4 P0.5; Tool Off

G0 Z0; move to z-safe height
G0 X898.5000 Y261.4800
M3S0
G4 P0.5; Tool On
G1 F300 Z0.0000
G1 F15000 X1.5000 Y261.4800 Z0.0000
M3S245
G4 P0.5; Tool Off

G0 Z0; move to z-safe height
G0 X1.5000 Y264.4800
M3S0
G4 P0.5; Tool On
G1 F300 Z0.0000
G1 F15000 X898.5000 Y264.4800 Z0.0000
M3S245
G4 P0.5; Tool Off

G0 Z0; move to z-safe height
G0 X898.5000 Y267.4800
M3S0
G4 P0.5; Tool On
G1 F300 Z0.0000
G1 F15000 X1.5000 Y267.4800 Z0.0000
M3S245
G4 P0.5; Tool Off

G0 Z0; move to z-safe height
G0 X1.5000 Y270.4800
M3S0
G4 P0.5; Tool On
G1 F300 Z0.0000
G1 F15000 X898.5000 Y270.4800 Z0.0000
M3S245
G4 P0.5; Tool Off

G0 Z0; move to z-safe height
G0 X898.5000 Y273.4800
M3S0
G4 P0.5; Tool On
G1 F300 Z0.0000
G1 F15000 X1.5000 Y273.4800 Z0.0000
M3S245
G4 P0.5; Tool Off

G0 Z0; move to z-safe height
G0 X1.5000 Y276.4800
M3S0
G4 P0.5; Tool On
G1 F300 Z0.0000
G1 F15000 X898.5000 Y276.4800 Z0.0000
M3S245
G4 P0.5; Tool Off

G0 Z0; move to z-safe height
G0 X898.5000 Y279.4800
M3S0
G4 P0.5; Tool On
G1 F300 Z0.0000
G1 F15000 X1.5000 Y279.4800 Z0.0000
M3S245
G4 P0.5; Tool Off

G0 Z0; move to z-safe height
G0 X1.5000 Y282.4800
M3S0
G4 P0.5; Tool On
G1 F300 Z0.0000
G1 F15000 X898.5000 Y282.4800 Z0.0000
M3S245
G4 P0.5; Tool Off

G0 Z0; move to z-safe height
G0 X898.5000 Y285.4800
M3S0
G4 P0.5; Tool On
G1 F300 Z0.0000
G1 F15000 X1.5000 Y285.4800 Z0.0000
M3S245
G4 P0.5; Tool Off

G0 Z0; move to z-safe height
G0 X1.5000 Y288.4800
M3S0
G4 P0.5; Tool On
G1 F300 Z0.0000
G1 F15000 X898.5000 Y288.4800 Z0.0000
M3S245
G4 P0.5; Tool Off

G0 Z0; move to z-safe height
G0 X898.5000 Y291.4800
M3S0
G4 P0.5; Tool On
G1 F300 Z0.0000
G1 F15000 X1.5000 Y291.4800 Z0.0000
M3S245
G4 P0.5; Tool Off

G0 Z0; move to z-safe height
G0 X1.5000 Y294.4800
M3S0
G4 P0.5; Tool On
G1 F300 Z0.0000
G1 F15000 X898.5000 Y294.4800 Z0.0000
M3S245
G4 P0.5; Tool Off

G0 Z0; move to z-safe height
G0 X898.5000 Y297.4800
M3S0
G4 P0.5; Tool On
G1 F300 Z0.0000
G1 F15000 X1.5000 Y297.4800 Z0.0000
M3S245
G4 P0.5; Tool Off

G0 Z0; move to z-safe height
G0 X1.5000 Y300.4800
M3S0
G4 P0.5; Tool On
G1 F300 Z0.0000
G1 F15000 X898.5000 Y300.4800 Z0.0000
M3S245
G4 P0.5; Tool Off

G0 Z0; move to z-safe height
G0 X898.5000 Y303.4800
M3S0
G4 P0.5; Tool On
G1 F300 Z0.0000
G1 F15000 X1.5000 Y303.4800 Z0.0000
M3S245
G4 P0.5; Tool Off

G0 Z0; move to z-safe height
G0 X1.5000 Y306.4800
M3S0
G4 P0.5; Tool On
G1 F300 Z0.0000
G1 F15000 X898.5000 Y306.4800 Z0.0000
M3S245
G4 P0.5; Tool Off

G0 Z0; move to z-safe height
G0 X898.5000 Y309.4800
M3S0
G4 P0.5; Tool On
G1 F300 Z0.0000
G1 F15000 X1.5000 Y309.4800 Z0.0000
M3S245
G4 P0.5; Tool Off

G0 Z0; move to z-safe height
G0 X1.5000 Y312.4800
M3S0
G4 P0.5; Tool On
G1 F300 Z0.0000
G1 F15000 X898.5000 Y312.4800 Z0.0000
M3S245
G4 P0.5; Tool Off

G0 Z0; move to z-safe height
G0 X898.5000 Y315.4800
M3S0
G4 P0.5; Tool On
G1 F300 Z0.0000
G1 F15000 X1.5000 Y315.4800 Z0.0000
M3S245
G4 P0.5; Tool Off

G0 Z0; move to z-safe height
G0 X1.5000 Y318.4800
M3S0
G4 P0.5; Tool On
G1 F300 Z0.0000
G1 F15000 X898.5000 Y318.4800 Z0.0000
M3S245
G4 P0.5; Tool Off

G0 Z0; move to z-safe height
G0 X898.5000 Y321.4800
M3S0
G4 P0.5; Tool On
G1 F300 Z0.0000
G1 F15000 X1.5000 Y321.4800 Z0.0000
M3S245
G4 P0.5; Tool Off

G0 Z0; move to z-safe height
G0 X1.5000 Y324.4800
M3S0
G4 P0.5; Tool On
G1 F300 Z0.0000
G1 F15000 X898.5000 Y324.4800 Z0.0000
M3S245
G4 P0.5; Tool Off

G0 Z0; move to z-safe height
G0 X898.5000 Y327.4800
M3S0
G4 P0.5; Tool On
G1 F300 Z0.0000
G1 F15000 X1.5000 Y327.4800 Z0.0000
M3S245
G4 P0.5; Tool Off

G0 Z0; move to z-safe height
G0 X1.5000 Y330.4800
M3S0
G4 P0.5; Tool On
G1 F300 Z0.0000
G1 F15000 X898.5000 Y330.4800 Z0.0000
M3S245
G4 P0.5; Tool Off

G0 Z0; move to z-safe height
G0 X898.5000 Y333.4800
M3S0
G4 P0.5; Tool On
G1 F300 Z0.0000
G1 F15000 X1.5000 Y333.4800 Z0.0000
M3S245
G4 P0.5; Tool Off

G0 Z0; move to z-safe height
G0 X1.5000 Y336.4800
M3S0
G4 P0.5; Tool On
G1 F300 Z0.0000
G1 F15000 X898.5000 Y336.4800 Z0.0000
M3S245
G4 P0.5; Tool Off

G0 Z0; move to z-safe height
G0 X898.5000 Y339.4800
M3S0
G4 P0.5; Tool On
G1 F300 Z0.0000
G1 F15000 X1.5000 Y339.4800 Z0.0000
M3S245
G4 P0.5; Tool Off

G0 Z0; move to z-safe height
G0 X1.5000 Y342.4800
M3S0
G4 P0.5; Tool On
G1 F300 Z0.0000
G1 F15000 X898.5000 Y342.4800 Z0.0000
M3S245
G4 P0.5; Tool Off

G0 Z0; move to z-safe height
G0 X898.5000 Y345.4800
M3S0
G4 P0.5; Tool On
G1 F300 Z0.0000
G1 F15000 X1.5000 Y345.4800 Z0.0000
M3S245
G4 P0.5; Tool Off

G0 Z0; move to z-safe height
G0 X1.5000 Y348.4800
M3S0
G4 P0.5; Tool On
G1 F300 Z0.0000
G1 F15000 X898.5000 Y348.4800 Z0.0000
M3S245
G4 P0.5; Tool Off

G0 Z0; move to z-safe height
G0 X898.5000 Y351.4800
M3S0
G4 P0.5; Tool On
G1 F300 Z0.0000
G1 F15000 X1.5000 Y351.4800 Z0.0000
M3S245
G4 P0.5; Tool Off

G0 Z0; move to z-safe height
G0 X1.5000 Y354.4800
M3S0
G4 P0.5; Tool On
G1 F300 Z0.0000
G1 F15000 X898.5000 Y354.4800 Z0.0000
M3S245
G4 P0.5; Tool Off

G0 Z0; move to z-safe height
G0 X898.5000 Y357.4800
M3S0
G4 P0.5; Tool On
G1 F300 Z0.0000
G1 F15000 X1.5000 Y357.4800 Z0.0000
M3S245
G4 P0.5; Tool Off

G0 Z0; move to z-safe height
G0 X1.5000 Y360.4800
M3S0
G4 P0.5; Tool On
G1 F300 Z0.0000
G1 F15000 X898.5000 Y360.4800 Z0.0000
M3S245
G4 P0.5; Tool Off

G0 Z0; move to z-safe height
G0 X898.5000 Y363.4800
M3S0
G4 P0.5; Tool On
G1 F300 Z0.0000
G1 F15000 X1.5000 Y363.4800 Z0.0000
M3S245
G4 P0.5; Tool Off

G0 Z0; move to z-safe height
G0 X1.5000 Y366.4800
M3S0
G4 P0.5; Tool On
G1 F300 Z0.0000
G1 F15000 X898.5000 Y366.4800 Z0.0000
M3S245
G4 P0.5; Tool Off

G0 Z0; move to z-safe height
G0 X898.5000 Y369.4800
M3S0
G4 P0.5; Tool On
G1 F300 Z0.0000
G1 F15000 X1.5000 Y369.4800 Z0.0000
M3S245
G4 P0.5; Tool Off

G0 Z0; move to z-safe height
G0 X1.5000 Y372.4800
M3S0
G4 P0.5; Tool On
G1 F300 Z0.0000
G1 F15000 X898.5000 Y372.4800 Z0.0000
M3S245
G4 P0.5; Tool Off

G0 Z0; move to z-safe height
G0 X898.5000 Y375.4800
M3S0
G4 P0.5; Tool On
G1 F300 Z0.0000
G1 F15000 X1.5000 Y375.4800 Z0.0000
M3S245
G4 P0.5; Tool Off

G0 Z0; move to z-safe height
G0 X1.5000 Y378.4800
M3S0
G4 P0.5; Tool On
G1 F300 Z0.0000
G1 F15000 X898.5000 Y378.4800 Z0.0000
M3S245
G4 P0.5; Tool Off

G0 Z0; move to z-safe height
G0 X898.5000 Y381.4800
M3S0
G4 P0.5; Tool On
G1 F300 Z0.0000
G1 F15000 X1.5000 Y381.4800 Z0.0000
M3S245
G4 P0.5; Tool Off

G0 Z0; move to z-safe height
G0 X1.5000 Y384.4800
M3S0
G4 P0.5; Tool On
G1 F300 Z0.0000
G1 F15000 X898.5000 Y384.4800 Z0.0000
M3S245
G4 P0.5; Tool Off

G0 Z0; move to z-safe height
G0 X898.5000 Y387.4800
M3S0
G4 P0.5; Tool On
G1 F300 Z0.0000
G1 F15000 X1.5000 Y387.4800 Z0.0000
M3S245
G4 P0.5; Tool Off

G0 Z0; move to z-safe height
G0 X1.5000 Y390.4800
M3S0
G4 P0.5; Tool On
G1 F300 Z0.0000
G1 F15000 X898.5000 Y390.4800 Z0.0000
M3S245
G4 P0.5; Tool Off

G0 Z0; move to z-safe height
G0 X898.5000 Y393.4800
M3S0
G4 P0.5; Tool On
G1 F300 Z0.0000
G1 F15000 X1.5000 Y393.4800 Z0.0000
M3S245
G4 P0.5; Tool Off

G0 Z0; move to z-safe height
G0 X1.5000 Y396.4800
M3S0
G4 P0.5; Tool On
G1 F300 Z0.0000
G1 F15000 X898.5000 Y396.4800 Z0.0000
M3S245
G4 P0.5; Tool Off

G0 Z0; move to z-safe height
G0 X898.5000 Y399.4800
M3S0
G4 P0.5; Tool On
G1 F300 Z0.0000
G1 F15000 X1.5000 Y399.4800 Z0.0000
M3S245
G4 P0.5; Tool Off

G0 Z0; move to z-safe height
G0 X1.5000 Y402.4800
M3S0
G4 P0.5; Tool On
G1 F300 Z0.0000
G1 F15000 X898.5000 Y402.4800 Z0.0000
M3S245
G4 P0.5; Tool Off

G0 Z0; move to z-safe height
G0 X898.5000 Y405.4800
M3S0
G4 P0.5; Tool On
G1 F300 Z0.0000
G1 F15000 X1.5000 Y405.4800 Z0.0000
M3S245
G4 P0.5; Tool Off

G0 Z0; move to z-safe height
G0 X1.5000 Y408.4800
M3S0
G4 P0.5; Tool On
G1 F300 Z0.0000
G1 F15000 X898.5000 Y408.4800 Z0.0000
M3S245
G4 P0.5; Tool Off

G0 Z0; move to z-safe height
G0 X898.5000 Y411.4800
M3S0
G4 P0.5; Tool On
G1 F300 Z0.0000
G1 F15000 X1.5000 Y411.4800 Z0.0000
M3S245
G4 P0.5; Tool Off

G0 Z0; move to z-safe height
G0 X1.5000 Y414.4800
M3S0
G4 P0.5; Tool On
G1 F300 Z0.0000
G1 F15000 X898.5000 Y414.4800 Z0.0000
M3S245
G4 P0.5; Tool Off

G0 Z0; move to z-safe height
G0 X898.5000 Y417.4800
M3S0
G4 P0.5; Tool On
G1 F300 Z0.0000
G1 F15000 X1.5000 Y417.4800 Z0.0000
M3S245
G4 P0.5; Tool Off

G0 Z0; move to z-safe height
G0 X1.5000 Y420.4800
M3S0
G4 P0.5; Tool On
G1 F300 Z0.0000
G1 F15000 X898.5000 Y420.4800 Z0.0000
M3S245
G4 P0.5; Tool Off

G0 Z0; move to z-safe height
G0 X898.5000 Y423.4800
M3S0
G4 P0.5; Tool On
G1 F300 Z0.0000
G1 F15000 X1.5000 Y423.4800 Z0.0000
M3S245
G4 P0.5; Tool Off

G0 Z0; move to z-safe height
G0 X1.5000 Y426.4800
M3S0
G4 P0.5; Tool On
G1 F300 Z0.0000
G1 F15000 X898.5000 Y426.4800 Z0.0000
M3S245
G4 P0.5; Tool Off

G0 Z0; move to z-safe height
G0 X898.5000 Y429.4800
M3S0
G4 P0.5; Tool On
G1 F300 Z0.0000
G1 F15000 X1.5000 Y429.4800 Z0.0000
M3S245
G4 P0.5; Tool Off

G0 Z0; move to z-safe height
G0 X1.5000 Y432.4800
M3S0
G4 P0.5; Tool On
G1 F300 Z0.0000
G1 F15000 X898.5000 Y432.4800 Z0.0000
M3S245
G4 P0.5; Tool Off

G0 Z0; move to z-safe height
G0 X898.5000 Y435.4800
M3S0
G4 P0.5; Tool On
G1 F300 Z0.0000
G1 F15000 X1.5000 Y435.4800 Z0.0000
M3S245
G4 P0.5; Tool Off

G0 Z0; move to z-safe height
G0 X1.5000 Y438.4800
M3S0
G4 P0.5; Tool On
G1 F300 Z0.0000
G1 F15000 X898.5000 Y438.4800 Z0.0000
M3S245
G4 P0.5; Tool Off

G0 Z0; move to z-safe height
G0 X898.5000 Y441.4800
M3S0
G4 P0.5; Tool On
G1 F300 Z0.0000
G1 F15000 X1.5000 Y441.4800 Z0.0000
M3S245
G4 P0.5; Tool Off

G0 Z0; move to z-safe height
G0 X1.5000 Y444.4800
M3S0
G4 P0.5; Tool On
G1 F300 Z0.0000
G1 F15000 X898.5000 Y444.4800 Z0.0000
M3S245
G4 P0.5; Tool Off

G0 Z0; move to z-safe height
G0 X898.5000 Y447.4800
M3S0
G4 P0.5; Tool On
G1 F300 Z0.0000
G1 F15000 X1.5000 Y447.4800 Z0.0000
M3S245
G4 P0.5; Tool Off

G0 Z0; move to z-safe height
G0 X1.5000 Y450.4800
M3S0
G4 P0.5; Tool On
G1 F300 Z0.0000
G1 F15000 X898.5000 Y450.4800 Z0.0000
M3S245
G4 P0.5; Tool Off

G0 Z0; move to z-safe height
G0 X898.5000 Y453.4800
M3S0
G4 P0.5; Tool On
G1 F300 Z0.0000
G1 F15000 X1.5000 Y453.4800 Z0.0000
M3S245
G4 P0.5; Tool Off

G0 Z0; move to z-safe height
G0 X1.5000 Y456.4800
M3S0
G4 P0.5; Tool On
G1 F300 Z0.0000
G1 F15000 X898.5000 Y456.4800 Z0.0000
M3S245
G4 P0.5; Tool Off

G0 Z0; move to z-safe height
G0 X898.5000 Y459.4800
M3S0
G4 P0.5; Tool On
G1 F300 Z0.0000
G1 F15000 X1.5000 Y459.4800 Z0.0000
M3S245
G4 P0.5; Tool Off

G0 Z0; move to z-safe height
G0 X1.5000 Y462.4800
M3S0
G4 P0.5; Tool On
G1 F300 Z0.0000
G1 F15000 X898.5000 Y462.4800 Z0.0000
M3S245
G4 P0.5; Tool Off

G0 Z0; move to z-safe height
G0 X898.5000 Y465.4800
M3S0
G4 P0.5; Tool On
G1 F300 Z0.0000
G1 F15000 X1.5000 Y465.4800 Z0.0000
M3S245
G4 P0.5; Tool Off

G0 Z0; move to z-safe height
G0 X1.5000 Y468.4800
M3S0
G4 P0.5; Tool On
G1 F300 Z0.0000
G1 F15000 X898.5000 Y468.4800 Z0.0000
M3S245
G4 P0.5; Tool Off

G0 Z0; move to z-safe height
G0 X898.5000 Y471.4800
M3S0
G4 P0.5; Tool On
G1 F300 Z0.0000
G1 F15000 X1.5000 Y471.4800 Z0.0000
M3S245
G4 P0.5; Tool Off

G0 Z0; move to z-safe height
G0 X1.5000 Y474.4800
M3S0
G4 P0.5; Tool On
G1 F300 Z0.0000
G1 F15000 X898.5000 Y474.4800 Z0.0000
M3S245
G4 P0.5; Tool Off

G0 Z0; move to z-safe height
G0 X898.5000 Y477.4800
M3S0
G4 P0.5; Tool On
G1 F300 Z0.0000
G1 F15000 X1.5000 Y477.4800 Z0.0000
M3S245
G4 P0.5; Tool Off

G0 Z0; move to z-safe height
G0 X1.5000 Y480.4800
M3S0
G4 P0.5; Tool On
G1 F300 Z0.0000
G1 F15000 X898.5000 Y480.4800 Z0.0000
M3S245
G4 P0.5; Tool Off

G0 Z0; move to z-safe height
G0 X898.5000 Y483.4800
M3S0
G4 P0.5; Tool On
G1 F300 Z0.0000
G1 F15000 X1.5000 Y483.4800 Z0.0000
M3S245
G4 P0.5; Tool Off

G0 Z0; move to z-safe height
G0 X1.5000 Y486.4800
M3S0
G4 P0.5; Tool On
G1 F300 Z0.0000
G1 F15000 X898.5000 Y486.4800 Z0.0000
M3S245
G4 P0.5; Tool Off

G0 Z0; move to z-safe height
G0 X898.5000 Y489.4800
M3S0
G4 P0.5; Tool On
G1 F300 Z0.0000
G1 F15000 X1.5000 Y489.4800 Z0.0000
M3S245
G4 P0.5; Tool Off

G0 Z0; move to z-safe height
G0 X1.5000 Y492.4800
M3S0
G4 P0.5; Tool On
G1 F300 Z0.0000
G1 F15000 X898.5000 Y492.4800 Z0.0000
M3S245
G4 P0.5; Tool Off

G0 Z0; move to z-safe height
G0 X898.5000 Y495.4800
M3S0
G4 P0.5; Tool On
G1 F300 Z0.0000
G1 F15000 X1.5000 Y495.4800 Z0.0000
M3S245
G4 P0.5; Tool Off

G0 Z0; move to z-safe height
G0 X1.5000 Y498.4800
M3S0
G4 P0.5; Tool On
G1 F300 Z0.0000
G1 F15000 X898.5000 Y498.4800 Z0.0000
M3S245
G4 P0.5; Tool Off

G0 Z0; move to z-safe height
G0 X898.5000 Y501.4800
M3S0
G4 P0.5; Tool On
G1 F300 Z0.0000
G1 F15000 X1.5000 Y501.4800 Z0.0000
M3S245
G4 P0.5; Tool Off

G0 Z0; move to z-safe height
G0 X1.5000 Y504.4800
M3S0
G4 P0.5; Tool On
G1 F300 Z0.0000
G1 F15000 X898.5000 Y504.4800 Z0.0000
M3S245
G4 P0.5; Tool Off

G0 Z0; move to z-safe height
G0 X898.5000 Y507.4800
M3S0
G4 P0.5; Tool On
G1 F300 Z0.0000
G1 F15000 X1.5000 Y507.4800 Z0.0000
M3S245
G4 P0.5; Tool Off

G0 Z0; move to z-safe height
G0 X1.5000 Y510.4800
M3S0
G4 P0.5; Tool On
G1 F300 Z0.0000
G1 F15000 X898.5000 Y510.4800 Z0.0000
M3S245
G4 P0.5; Tool Off

G0 Z0; move to z-safe height
G0 X898.5000 Y513.4800
M3S0
G4 P0.5; Tool On
G1 F300 Z0.0000
G1 F15000 X1.5000 Y513.4800 Z0.0000
M3S245
G4 P0.5; Tool Off

G0 Z0; move to z-safe height
G0 X1.5000 Y516.4800
M3S0
G4 P0.5; Tool On
G1 F300 Z0.0000
G1 F15000 X898.5000 Y516.4800 Z0.0000
M3S245
G4 P0.5; Tool Off

G0 Z0; move to z-safe height
G0 X898.5000 Y519.4800
M3S0
G4 P0.5; Tool On
G1 F300 Z0.0000
G1 F15000 X1.5000 Y519.4800 Z0.0000
M3S245
G4 P0.5; Tool Off

G0 Z0; move to z-safe height
G0 X1.5000 Y522.4800
M3S0
G4 P0.5; Tool On
G1 F300 Z0.0000
G1 F15000 X898.5000 Y522.4800 Z0.0000
M3S245
G4 P0.5; Tool Off

G0 Z0; move to z-safe height
G0 X898.5000 Y525.4800
M3S0
G4 P0.5; Tool On
G1 F300 Z0.0000
G1 F15000 X1.5000 Y525.4800 Z0.0000
M3S245
G4 P0.5; Tool Off

G0 Z0; move to z-safe height
G0 X1.5000 Y528.4800
M3S0
G4 P0.5; Tool On
G1 F300 Z0.0000
G1 F15000 X898.5000 Y528.4800 Z0.0000
M3S245
G4 P0.5; Tool Off

G0 Z0; move to z-safe height
G0 X898.5000 Y531.4800
M3S0
G4 P0.5; Tool On
G1 F300 Z0.0000
G1 F15000 X1.5000 Y531.4800 Z0.0000
M3S245
G4 P0.5; Tool Off

G0 Z0; move to z-safe height
G0 X1.5000 Y534.4800
M3S0
G4 P0.5; Tool On
G1 F300 Z0.0000
G1 F15000 X898.5000 Y534.4800 Z0.0000
M3S245
G4 P0.5; Tool Off

G0 Z0; move to z-safe height
G0 X898.5000 Y537.4800
M3S0
G4 P0.5; Tool On
G1 F300 Z0.0000
G1 F15000 X1.5000 Y537.4800 Z0.0000
M3S245
G4 P0.5; Tool Off

G0 Z0; move to z-safe height
G0 X1.5000 Y540.4800
M3S0
G4 P0.5; Tool On
G1 F300 Z0.0000
G1 F15000 X898.5000 Y540.4800 Z0.0000
M3S245
G4 P0.5; Tool Off

G0 Z0; move to z-safe height
G0 X898.5000 Y543.4800
M3S0
G4 P0.5; Tool On
G1 F300 Z0.0000
G1 F15000 X1.5000 Y543.4800 Z0.0000
M3S245
G4 P0.5; Tool Off

G0 Z0; move to z-safe height
G0 X1.5000 Y546.4800
M3S0
G4 P0.5; Tool On
G1 F300 Z0.0000
G1 F15000 X898.5000 Y546.4800 Z0.0000
M3S245
G4 P0.5; Tool Off

G0 Z0; move to z-safe height
G0 X898.5000 Y549.4800
M3S0
G4 P0.5; Tool On
G1 F300 Z0.0000
G1 F15000 X1.5000 Y549.4800 Z0.0000
M3S245
G4 P0.5; Tool Off

G0 Z0; move to z-safe height
G0 X1.5000 Y552.4800
M3S0
G4 P0.5; Tool On
G1 F300 Z0.0000
G1 F15000 X898.5000 Y552.4800 Z0.0000
M3S245
G4 P0.5; Tool Off

G0 Z0; move to z-safe height
G0 X898.5000 Y555.4800
M3S0
G4 P0.5; Tool On
G1 F300 Z0.0000
G1 F15000 X1.5000 Y555.4800 Z0.0000
M3S245
G4 P0.5; Tool Off

G0 Z0; move to z-safe height
G0 X1.5000 Y558.4800
M3S0
G4 P0.5; Tool On
G1 F300 Z0.0000
G1 F15000 X898.5000 Y558.4800 Z0.0000
M3S245
G4 P0.5; Tool Off

G0 Z0; move to z-safe height
G0 X898.5000 Y561.4800
M3S0
G4 P0.5; Tool On
G1 F300 Z0.0000
G1 F15000 X1.5000 Y561.4800 Z0.0000
M3S245
G4 P0.5; Tool Off

G0 Z0; move to z-safe height
G0 X1.5000 Y564.4800
M3S0
G4 P0.5; Tool On
G1 F300 Z0.0000
G1 F15000 X898.5000 Y564.4800 Z0.0000
M3S245
G4 P0.5; Tool Off

G0 Z0; move to z-safe height
G0 X898.5000 Y567.4800
M3S0
G4 P0.5; Tool On
G1 F300 Z0.0000
G1 F15000 X1.5000 Y567.4800 Z0.0000
M3S245
G4 P0.5; Tool Off

G0 Z0; move to z-safe height
G0 X1.5000 Y570.4800
M3S0
G4 P0.5; Tool On
G1 F300 Z0.0000
G1 F15000 X898.5000 Y570.4800 Z0.0000
M3S245
G4 P0.5; Tool Off

G0 Z0; move to z-safe height
G0 X898.5000 Y573.4800
M3S0
G4 P0.5; Tool On
G1 F300 Z0.0000
G1 F15000 X1.5000 Y573.4800 Z0.0000
M3S245
G4 P0.5; Tool Off

G0 Z0; move to z-safe height
G0 X1.5000 Y576.4800
M3S0
G4 P0.5; Tool On
G1 F300 Z0.0000
G1 F15000 X898.5000 Y576.4800 Z0.0000
M3S245
G4 P0.5; Tool Off

G0 Z0; move to z-safe height
G0 X898.5000 Y579.4800
M3S0
G4 P0.5; Tool On
G1 F300 Z0.0000
G1 F15000 X1.5000 Y579.4800 Z0.0000
M3S245
G4 P0.5; Tool Off

G0 Z0; move to z-safe height
G0 X1.5000 Y582.4800
M3S0
G4 P0.5; Tool On
G1 F300 Z0.0000
G1 F15000 X898.5000 Y582.4800 Z0.0000
M3S245
G4 P0.5; Tool Off

G0 Z0; move to z-safe height
G0 X898.5000 Y585.4800
M3S0
G4 P0.5; Tool On
G1 F300 Z0.0000
G1 F15000 X1.5000 Y585.4800 Z0.0000
M3S245
G4 P0.5; Tool Off

G0 Z0; move to z-safe height
G0 X1.5000 Y588.4800
M3S0
G4 P0.5; Tool On
G1 F300 Z0.0000
G1 F15000 X898.5000 Y588.4800 Z0.0000
M3S245
G4 P0.5; Tool Off

G0 Z0; move to z-safe height
G0 X898.5000 Y591.4800
M3S0
G4 P0.5; Tool On
G1 F300 Z0.0000
G1 F15000 X1.5000 Y591.4800 Z0.0000
M3S245
G4 P0.5; Tool Off

G0 Z0; move to z-safe height
G0 X1.5000 Y594.4800
M3S0
G4 P0.5; Tool On
G1 F300 Z0.0000
G1 F15000 X898.5000 Y594.4800 Z0.0000
M3S245
G4 P0.5; Tool Off

G0 Z0; move to z-safe height
G0 X898.5000 Y597.4800
M3S0
G4 P0.5; Tool On
G1 F300 Z0.0000
G1 F15000 X1.5000 Y597.4800 Z0.0000
M3S245
G4 P0.5; Tool Off

G0 Z0; move to z-safe height
G0 X1.5000 Y600.4800
M3S0
G4 P0.5; Tool On
G1 F300 Z0.0000
G1 F15000 X898.5000 Y600.4800 Z0.0000
M3S245
G4 P0.5; Tool Off

G0 Z0; move to z-safe height
G0 X898.5000 Y603.4800
M3S0
G4 P0.5; Tool On
G1 F300 Z0.0000
G1 F15000 X1.5000 Y603.4800 Z0.0000
M3S245
G4 P0.5; Tool Off

G0 Z0; move to z-safe height
G0 X1.5000 Y606.4800
M3S0
G4 P0.5; Tool On
G1 F300 Z0.0000
G1 F15000 X898.5000 Y606.4800 Z0.0000
M3S245
G4 P0.5; Tool Off

G0 Z0; move to z-safe height
G0 X898.5000 Y609.4800
M3S0
G4 P0.5; Tool On
G1 F300 Z0.0000
G1 F15000 X1.5000 Y609.4800 Z0.0000
M3S245
G4 P0.5; Tool Off

G0 Z0; move to z-safe height
G0 X1.5000 Y612.4800
M3S0
G4 P0.5; Tool On
G1 F300 Z0.0000
G1 F15000 X898.5000 Y612.4800 Z0.0000
M3S245
G4 P0.5; Tool Off

G0 Z0; move to z-safe height
G0 X898.5000 Y615.4800
M3S0
G4 P0.5; Tool On
G1 F300 Z0.0000
G1 F15000 X1.5000 Y615.4800 Z0.0000
M3S245
G4 P0.5; Tool Off

G0 Z0; move to z-safe height
G0 X1.5000 Y618.4800
M3S0
G4 P0.5; Tool On
G1 F300 Z0.0000
G1 F15000 X898.5000 Y618.4800 Z0.0000
M3S245
G4 P0.5; Tool Off

G0 Z0; move to z-safe height
G0 X898.5000 Y621.4800
M3S0
G4 P0.5; Tool On
G1 F300 Z0.0000
G1 F15000 X1.5000 Y621.4800 Z0.0000
M3S245
G4 P0.5; Tool Off

G0 Z0; move to z-safe height
G0 X1.5000 Y624.4800
M3S0
G4 P0.5; Tool On
G1 F300 Z0.0000
G1 F15000 X898.5000 Y624.4800 Z0.0000
M3S245
G4 P0.5; Tool Off

G0 Z0; move to z-safe height
G0 X898.5000 Y627.4800
M3S0
G4 P0.5; Tool On
G1 F300 Z0.0000
G1 F15000 X1.5000 Y627.4800 Z0.0000
M3S245
G4 P0.5; Tool Off

G0 Z0; move to z-safe height
G0 X1.5000 Y630.4800
M3S0
G4 P0.5; Tool On
G1 F300 Z0.0000
G1 F15000 X898.5000 Y630.4800 Z0.0000
M3S245
G4 P0.5; Tool Off

G0 Z0; move to z-safe height
G0 X898.5000 Y633.4800
M3S0
G4 P0.5; Tool On
G1 F300 Z0.0000
G1 F15000 X1.5000 Y633.4800 Z0.0000
M3S245
G4 P0.5; Tool Off

G0 Z0; move to z-safe height
G0 X1.5000 Y636.4800
M3S0
G4 P0.5; Tool On
G1 F300 Z0.0000
G1 F15000 X898.5000 Y636.4800 Z0.0000
M3S245
G4 P0.5; Tool Off

G0 Z0; move to z-safe height
G0 X898.5000 Y639.4800
M3S0
G4 P0.5; Tool On
G1 F300 Z0.0000
G1 F15000 X1.5000 Y639.4800 Z0.0000
M3S245
G4 P0.5; Tool Off

G0 Z0; move to z-safe height
G0 X1.5000 Y642.4800
M3S0
G4 P0.5; Tool On
G1 F300 Z0.0000
G1 F15000 X898.5000 Y642.4800 Z0.0000
M3S245
G4 P0.5; Tool Off

G0 Z0; move to z-safe height
G0 X898.5000 Y645.4800
M3S0
G4 P0.5; Tool On
G1 F300 Z0.0000
G1 F15000 X1.5000 Y645.4800 Z0.0000
M3S245
G4 P0.5; Tool Off

G0 Z0; move to z-safe height
G0 X1.5000 Y648.4800
M3S0
G4 P0.5; Tool On
G1 F300 Z0.0000
G1 F15000 X898.5000 Y648.4800 Z0.0000
M3S245
G4 P0.5; Tool Off

G0 Z0; move to z-safe height
G0 X898.5000 Y651.4800
M3S0
G4 P0.5; Tool On
G1 F300 Z0.0000
G1 F15000 X1.5000 Y651.4800 Z0.0000
M3S245
G4 P0.5; Tool Off

G0 Z0; move to z-safe height
G0 X1.5000 Y654.4800
M3S0
G4 P0.5; Tool On
G1 F300 Z0.0000
G1 F15000 X898.5000 Y654.4800 Z0.0000
M3S245
G4 P0.5; Tool Off

G0 Z0; move to z-safe height
G0 X898.5000 Y657.4800
M3S0
G4 P0.5; Tool On
G1 F300 Z0.0000
G1 F15000 X1.5000 Y657.4800 Z0.0000
M3S245
G4 P0.5; Tool Off

G0 Z0; move to z-safe height
G0 X1.5000 Y660.4800
M3S0
G4 P0.5; Tool On
G1 F300 Z0.0000
G1 F15000 X898.5000 Y660.4800 Z0.0000
M3S245
G4 P0.5; Tool Off

G0 Z0; move to z-safe height
G0 X898.5000 Y663.4800
M3S0
G4 P0.5; Tool On
G1 F300 Z0.0000
G1 F15000 X1.5000 Y663.4800 Z0.0000
M3S245
G4 P0.5; Tool Off

G0 Z0; move to z-safe height
G0 X1.5000 Y666.4800
M3S0
G4 P0.5; Tool On
G1 F300 Z0.0000
G1 F15000 X898.5000 Y666.4800 Z0.0000
M3S245
G4 P0.5; Tool Off

G0 Z0; move to z-safe height
G0 X898.5000 Y669.4800
M3S0
G4 P0.5; Tool On
G1 F300 Z0.0000
G1 F15000 X1.5000 Y669.4800 Z0.0000
M3S245
G4 P0.5; Tool Off

G0 Z0; move to z-safe height
G0 X1.5000 Y672.4800
M3S0
G4 P0.5; Tool On
G1 F300 Z0.0000
G1 F15000 X898.5000 Y672.4800 Z0.0000
M3S245
G4 P0.5; Tool Off

G0 Z0; move to z-safe height
G0 X898.5000 Y675.4800
M3S0
G4 P0.5; Tool On
G1 F300 Z0.0000
G1 F15000 X1.5000 Y675.4800 Z0.0000
M3S245
G4 P0.5; Tool Off

G0 Z0; move to z-safe height
G0 X1.5000 Y678.4800
M3S0
G4 P0.5; Tool On
G1 F300 Z0.0000
G1 F15000 X898.5000 Y678.4800 Z0.0000
M3S245
G4 P0.5; Tool Off

G0 Z0; move to z-safe height
G0 X898.5000 Y681.4800
M3S0
G4 P0.5; Tool On
G1 F300 Z0.0000
G1 F15000 X1.5000 Y681.4800 Z0.0000
M3S245
G4 P0.5; Tool Off

G0 Z0; move to z-safe height
G0 X1.5000 Y684.4800
M3S0
G4 P0.5; Tool On
G1 F300 Z0.0000
G1 F15000 X898.5000 Y684.4800 Z0.0000
M3S245
G4 P0.5; Tool Off

G0 Z0; move to z-safe height
G0 X898.5000 Y687.4800
M3S0
G4 P0.5; Tool On
G1 F300 Z0.0000
G1 F15000 X1.5000 Y687.4800 Z0.0000
M3S245
G4 P0.5; Tool Off

G0 Z0; move to z-safe height
G0 X1.5000 Y690.4800
M3S0
G4 P0.5; Tool On
G1 F300 Z0.0000
G1 F15000 X898.5000 Y690.4800 Z0.0000
M3S245
G4 P0.5; Tool Off

G0 Z0; move to z-safe height
G0 X898.5000 Y693.4800
M3S0
G4 P0.5; Tool On
G1 F300 Z0.0000
G1 F15000 X1.5000 Y693.4800 Z0.0000
M3S245
G4 P0.5; Tool Off

G0 Z0; move to z-safe height
G0 X1.5000 Y696.4800
M3S0
G4 P0.5; Tool On
G1 F300 Z0.0000
G1 F15000 X898.5000 Y696.4800 Z0.0000
M3S245
G4 P0.5; Tool Off

G0 Z0; move to z-safe height
G0 X898.5000 Y699.4800
M3S0
G4 P0.5; Tool On
G1 F300 Z0.0000
G1 F15000 X1.5000 Y699.4800 Z0.0000
M3S245
G4 P0.5; Tool Off

G0 Z0; move to z-safe height
G0 X1.5000 Y702.4800
M3S0
G4 P0.5; Tool On
G1 F300 Z0.0000
G1 F15000 X898.5000 Y702.4800 Z0.0000
M3S245
G4 P0.5; Tool Off

G0 Z0; move to z-safe height
G0 X898.5000 Y705.4800
M3S0
G4 P0.5; Tool On
G1 F300 Z0.0000
G1 F15000 X1.5000 Y705.4800 Z0.0000
M3S245
G4 P0.5; Tool Off

G0 Z0; move to z-safe height
G0 X1.5000 Y708.4800
M3S0
G4 P0.5; Tool On
G1 F300 Z0.0000
G1 F15000 X898.5000 Y708.4800 Z0.0000
M3S245
G4 P0.5; Tool Off

G0 Z0; move to z-safe height
G0 X898.5000 Y711.4800
M3S0
G4 P0.5; Tool On
G1 F300 Z0.0000
G1 F15000 X1.5000 Y711.4800 Z0.0000
M3S245
G4 P0.5; Tool Off

G0 Z0; move to z-safe height
G0 X1.5000 Y714.4800
M3S0
G4 P0.5; Tool On
G1 F300 Z0.0000
G1 F15000 X898.5000 Y714.4800 Z0.0000
M3S245
G4 P0.5; Tool Off

G0 Z0; move to z-safe height
G0 X898.5000 Y717.4800
M3S0
G4 P0.5; Tool On
G1 F300 Z0.0000
G1 F15000 X1.5000 Y717.4800 Z0.0000
M3S245
G4 P0.5; Tool Off

G0 Z0; move to z-safe height
G0 X1.5000 Y720.4800
M3S0
G4 P0.5; Tool On
G1 F300 Z0.0000
G1 F15000 X898.5000 Y720.4800 Z0.0000
M3S245
G4 P0.5; Tool Off

G0 Z0; move to z-safe height
G0 X898.5000 Y723.4800
M3S0
G4 P0.5; Tool On
G1 F300 Z0.0000
G1 F15000 X1.5000 Y723.4800 Z0.0000
M3S245
G4 P0.5; Tool Off

G0 Z0; move to z-safe height
G0 X1.5000 Y726.4800
M3S0
G4 P0.5; Tool On
G1 F300 Z0.0000
G1 F15000 X898.5000 Y726.4800 Z0.0000
M3S245
G4 P0.5; Tool Off

G0 Z0; move to z-safe height
G0 X898.5000 Y729.4800
M3S0
G4 P0.5; Tool On
G1 F300 Z0.0000
G1 F15000 X1.5000 Y729.4800 Z0.0000
M3S245
G4 P0.5; Tool Off

G0 Z0; move to z-safe height
G0 X1.5000 Y732.4800
M3S0
G4 P0.5; Tool On
G1 F300 Z0.0000
G1 F15000 X898.5000 Y732.4800 Z0.0000
M3S245
G4 P0.5; Tool Off

G0 Z0; move to z-safe height
G0 X898.5000 Y735.4800
M3S0
G4 P0.5; Tool On
G1 F300 Z0.0000
G1 F15000 X1.5000 Y735.4800 Z0.0000
M3S245
G4 P0.5; Tool Off

G0 Z0; move to z-safe height
G0 X1.5000 Y738.4800
M3S0
G4 P0.5; Tool On
G1 F300 Z0.0000
G1 F15000 X898.5000 Y738.4800 Z0.0000
M3S245
G4 P0.5; Tool Off

G0 Z0; move to z-safe height
G0 X898.5000 Y741.4800
M3S0
G4 P0.5; Tool On
G1 F300 Z0.0000
G1 F15000 X1.5000 Y741.4800 Z0.0000
M3S245
G4 P0.5; Tool Off

G0 Z0; move to z-safe height
G0 X1.5000 Y744.4800
M3S0
G4 P0.5; Tool On
G1 F300 Z0.0000
G1 F15000 X898.5000 Y744.4800 Z0.0000
M3S245
G4 P0.5; Tool Off

G0 Z0; move to z-safe height
G0 X898.5000 Y747.4800
M3S0
G4 P0.5; Tool On
G1 F300 Z0.0000
G1 F15000 X1.5000 Y747.4800 Z0.0000
M3S245
G4 P0.5; Tool Off

G0 Z0; move to z-safe height
G0 X1.5000 Y750.4800
M3S0
G4 P0.5; Tool On
G1 F300 Z0.0000
G1 F15000 X898.5000 Y750.4800 Z0.0000
M3S245
G4 P0.5; Tool Off

G0 Z0; move to z-safe height
G0 X898.5000 Y753.4800
M3S0
G4 P0.5; Tool On
G1 F300 Z0.0000
G1 F15000 X1.5000 Y753.4800 Z0.0000
M3S245
G4 P0.5; Tool Off

G0 Z0; move to z-safe height
G0 X1.5000 Y756.4800
M3S0
G4 P0.5; Tool On
G1 F300 Z0.0000
G1 F15000 X898.5000 Y756.4800 Z0.0000
M3S245
G4 P0.5; Tool Off

G0 Z0; move to z-safe height
G0 X898.5000 Y759.4800
M3S0
G4 P0.5; Tool On
G1 F300 Z0.0000
G1 F15000 X1.5000 Y759.4800 Z0.0000
M3S245
G4 P0.5; Tool Off

G0 Z0; move to z-safe height
G0 X1.5000 Y762.4800
M3S0
G4 P0.5; Tool On
G1 F300 Z0.0000
G1 F15000 X898.5000 Y762.4800 Z0.0000
M3S245
G4 P0.5; Tool Off

G0 Z0; move to z-safe height
G0 X898.5000 Y765.4800
M3S0
G4 P0.5; Tool On
G1 F300 Z0.0000
G1 F15000 X1.5000 Y765.4800 Z0.0000
M3S245
G4 P0.5; Tool Off

G0 Z0; move to z-safe height
G0 X1.5000 Y768.4800
M3S0
G4 P0.5; Tool On
G1 F300 Z0.0000
G1 F15000 X898.5000 Y768.4800 Z0.0000
M3S245
G4 P0.5; Tool Off

G0 Z0; move to z-safe height
G0 X898.5000 Y771.4800
M3S0
G4 P0.5; Tool On
G1 F300 Z0.0000
G1 F15000 X1.5000 Y771.4800 Z0.0000
M3S245
G4 P0.5; Tool Off

G0 Z0; move to z-safe height
G0 X1.5000 Y774.4800
M3S0
G4 P0.5; Tool On
G1 F300 Z0.0000
G1 F15000 X898.5000 Y774.4800 Z0.0000
M3S245
G4 P0.5; Tool Off

G0 Z0; move to z-safe height
G0 X898.5000 Y777.4800
M3S0
G4 P0.5; Tool On
G1 F300 Z0.0000
G1 F15000 X1.5000 Y777.4800 Z0.0000
M3S245
G4 P0.5; Tool Off

G0 Z0; move to z-safe height
G0 X1.5000 Y780.4800
M3S0
G4 P0.5; Tool On
G1 F300 Z0.0000
G1 F15000 X898.5000 Y780.4800 Z0.0000
M3S245
G4 P0.5; Tool Off

G0 Z0; move to z-safe height
G0 X898.5000 Y783.4800
M3S0
G4 P0.5; Tool On
G1 F300 Z0.0000
G1 F15000 X1.5000 Y783.4800 Z0.0000
M3S245
G4 P0.5; Tool Off

G0 Z0; move to z-safe height
G0 X1.5000 Y786.4800
M3S0
G4 P0.5; Tool On
G1 F300 Z0.0000
G1 F15000 X898.5000 Y786.4800 Z0.0000
M3S245
G4 P0.5; Tool Off

G0 Z0; move to z-safe height
G0 X898.5000 Y789.4800
M3S0
G4 P0.5; Tool On
G1 F300 Z0.0000
G1 F15000 X1.5000 Y789.4800 Z0.0000
M3S245
G4 P0.5; Tool Off

G0 Z0; move to z-safe height
G0 X1.5000 Y792.4800
M3S0
G4 P0.5; Tool On
G1 F300 Z0.0000
G1 F15000 X898.5000 Y792.4800 Z0.0000
M3S245
G4 P0.5; Tool Off

G0 Z0; move to z-safe height
G0 X898.5000 Y795.4800
M3S0
G4 P0.5; Tool On
G1 F300 Z0.0000
G1 F15000 X1.5000 Y795.4800 Z0.0000
M3S245
G4 P0.5; Tool Off

G0 Z0; move to z-safe height
G0 X1.5000 Y798.4800
M3S0
G4 P0.5; Tool On
G1 F300 Z0.0000
G1 F15000 X898.5000 Y798.4800 Z0.0000
M3S245
G4 P0.5; Tool Off

G0 Z0; move to z-safe height
G0 X898.5000 Y801.4800
M3S0
G4 P0.5; Tool On
G1 F300 Z0.0000
G1 F15000 X1.5000 Y801.4800 Z0.0000
M3S245
G4 P0.5; Tool Off

G0 Z0; move to z-safe height
G0 X1.5000 Y804.4800
M3S0
G4 P0.5; Tool On
G1 F300 Z0.0000
G1 F15000 X898.5000 Y804.4800 Z0.0000
M3S245
G4 P0.5; Tool Off

G0 Z0; move to z-safe height
G0 X898.5000 Y807.4800
M3S0
G4 P0.5; Tool On
G1 F300 Z0.0000
G1 F15000 X1.5000 Y807.4800 Z0.0000
M3S245
G4 P0.5; Tool Off

G0 Z0; move to z-safe height
G0 X1.5000 Y810.4800
M3S0
G4 P0.5; Tool On
G1 F300 Z0.0000
G1 F15000 X898.5000 Y810.4800 Z0.0000
M3S245
G4 P0.5; Tool Off

G0 Z0; move to z-safe height
G0 X898.5000 Y813.4800
M3S0
G4 P0.5; Tool On
G1 F300 Z0.0000
G1 F15000 X1.5000 Y813.4800 Z0.0000
M3S245
G4 P0.5; Tool Off

G0 Z0; move to z-safe height
G0 X1.5000 Y816.4800
M3S0
G4 P0.5; Tool On
G1 F300 Z0.0000
G1 F15000 X898.5000 Y816.4800 Z0.0000
M3S245
G4 P0.5; Tool Off

G0 Z0; move to z-safe height
G0 X898.5000 Y819.4800
M3S0
G4 P0.5; Tool On
G1 F300 Z0.0000
G1 F15000 X1.5000 Y819.4800 Z0.0000
M3S245
G4 P0.5; Tool Off

G0 Z0; move to z-safe height
G0 X1.5000 Y822.4800
M3S0
G4 P0.5; Tool On
G1 F300 Z0.0000
G1 F15000 X898.5000 Y822.4800 Z0.0000
M3S245
G4 P0.5; Tool Off

G0 Z0; move to z-safe height
G0 X898.5000 Y825.4800
M3S0
G4 P0.5; Tool On
G1 F300 Z0.0000
G1 F15000 X1.5000 Y825.4800 Z0.0000
M3S245
G4 P0.5; Tool Off

G0 Z0; move to z-safe height
G0 X1.5000 Y828.4800
M3S0
G4 P0.5; Tool On
G1 F300 Z0.0000
G1 F15000 X898.5000 Y828.4800 Z0.0000
M3S245
G4 P0.5; Tool Off

G0 Z0; move to z-safe height
G0 X898.5000 Y831.4800
M3S0
G4 P0.5; Tool On
G1 F300 Z0.0000
G1 F15000 X1.5000 Y831.4800 Z0.0000
M3S245
G4 P0.5; Tool Off

G0 Z0; move to z-safe height
G0 X1.5000 Y834.4800
M3S0
G4 P0.5; Tool On
G1 F300 Z0.0000
G1 F15000 X898.5000 Y834.4800 Z0.0000
M3S245
G4 P0.5; Tool Off

G0 Z0; move to z-safe height
G0 X898.5000 Y837.4800
M3S0
G4 P0.5; Tool On
G1 F300 Z0.0000
G1 F15000 X1.5000 Y837.4800 Z0.0000
M3S245
G4 P0.5; Tool Off

G0 Z0; move to z-safe height
G0 X1.5000 Y840.4800
M3S0
G4 P0.5; Tool On
G1 F300 Z0.0000
G1 F15000 X898.5000 Y840.4800 Z0.0000
M3S245
G4 P0.5; Tool Off

G0 Z0; move to z-safe height
G0 X898.5000 Y843.4800
M3S0
G4 P0.5; Tool On
G1 F300 Z0.0000
G1 F15000 X1.5000 Y843.4800 Z0.0000
M3S245
G4 P0.5; Tool Off

G0 Z0; move to z-safe height
G0 X1.5000 Y846.4800
M3S0
G4 P0.5; Tool On
G1 F300 Z0.0000
G1 F15000 X898.5000 Y846.4800 Z0.0000
M3S245
G4 P0.5; Tool Off

G0 Z0; move to z-safe height
G0 X898.5000 Y849.4800
M3S0
G4 P0.5; Tool On
G1 F300 Z0.0000
G1 F15000 X1.5000 Y849.4800 Z0.0000
M3S245
G4 P0.5; Tool Off

G0 Z0; move to z-safe height
G0 X1.5000 Y852.4800
M3S0
G4 P0.5; Tool On
G1 F300 Z0.0000
G1 F15000 X898.5000 Y852.4800 Z0.0000
M3S245
G4 P0.5; Tool Off

G0 Z0; move to z-safe height
G0 X898.5000 Y855.4800
M3S0
G4 P0.5; Tool On
G1 F300 Z0.0000
G1 F15000 X1.5000 Y855.4800 Z0.0000
M3S245
G4 P0.5; Tool Off

G0 Z0; move to z-safe height
G0 X1.5000 Y858.4800
M3S0
G4 P0.5; Tool On
G1 F300 Z0.0000
G1 F15000 X898.5000 Y858.4800 Z0.0000
M3S245
G4 P0.5; Tool Off

G0 Z0; move to z-safe height
G0 X898.5000 Y861.4800
M3S0
G4 P0.5; Tool On
G1 F300 Z0.0000
G1 F15000 X1.5000 Y861.4800 Z0.0000
M3S245
G4 P0.5; Tool Off

G0 Z0; move to z-safe height
G0 X1.5000 Y864.4800
M3S0
G4 P0.5; Tool On
G1 F300 Z0.0000
G1 F15000 X898.5000 Y864.4800 Z0.0000
M3S245
G4 P0.5; Tool Off

G0 Z0; move to z-safe height
G0 X898.5000 Y867.4800
M3S0
G4 P0.5; Tool On
G1 F300 Z0.0000
G1 F15000 X1.5000 Y867.4800 Z0.0000
M3S245
G4 P0.5; Tool Off

G0 Z0; move to z-safe height
G0 X1.5000 Y870.4800
M3S0
G4 P0.5; Tool On
G1 F300 Z0.0000
G1 F15000 X898.5000 Y870.4800 Z0.0000
M3S245
G4 P0.5; Tool Off

G0 Z0; move to z-safe height
G0 X898.5000 Y873.4800
M3S0
G4 P0.5; Tool On
G1 F300 Z0.0000
G1 F15000 X1.5000 Y873.4800 Z0.0000
M3S245
G4 P0.5; Tool Off

G0 Z0; move to z-safe height
G0 X1.5000 Y876.4800
M3S0
G4 P0.5; Tool On
G1 F300 Z0.0000
G1 F15000 X898.5000 Y876.4800 Z0.0000
M3S245
G4 P0.5; Tool Off

G0 Z0; move to z-safe height
G0 X898.5000 Y879.4800
M3S0
G4 P0.5; Tool On
G1 F300 Z0.0000
G1 F15000 X1.5000 Y879.4800 Z0.0000
M3S245
G4 P0.5; Tool Off

G0 Z0; move to z-safe height
G0 X1.5000 Y882.4800
M3S0
G4 P0.5; Tool On
G1 F300 Z0.0000
G1 F15000 X898.5000 Y882.4800 Z0.0000
M3S245
G4 P0.5; Tool Off

G0 Z0; move to z-safe height
G0 X898.5000 Y885.4800
M3S0
G4 P0.5; Tool On
G1 F300 Z0.0000
G1 F15000 X1.5000 Y885.4800 Z0.0000
M3S245
G4 P0.5; Tool Off

G0 Z0; move to z-safe height
G0 X1.5000 Y888.4800
M3S0
G4 P0.5; Tool On
G1 F300 Z0.0000
G1 F15000 X898.5000 Y888.4800 Z0.0000
M3S245
G4 P0.5; Tool Off

G0 Z0; move to z-safe height
G0 X898.5000 Y891.4800
M3S0
G4 P0.5; Tool On
G1 F300 Z0.0000
G1 F15000 X1.5000 Y891.4800 Z0.0000
M3S245
G4 P0.5; Tool Off

G0 Z0; move to z-safe height
G0 X1.5000 Y894.4800
M3S0
G4 P0.5; Tool On
G1 F300 Z0.0000
G1 F15000 X898.5000 Y894.4800 Z0.0000
M3S245
G4 P0.5; Tool Off

G0 Z0; move to z-safe height
G0 X898.5000 Y897.4800
M3S0
G4 P0.5; Tool On
G1 F300 Z0.0000
G1 F15000 X1.5000 Y897.4800 Z0.0000
M3S245
G4 P0.5; Tool Off

G0 Z0; move to z-safe height
G0 X1.5000 Y900.4800
M3S0
G4 P0.5; Tool On
G1 F300 Z0.0000
G1 F15000 X898.5000 Y900.4800 Z0.0000
M3S245
G4 P0.5; Tool Off

G0 Z0; move to z-safe height
G0 X898.5000 Y903.4800
M3S0
G4 P0.5; Tool On
G1 F300 Z0.0000
G1 F15000 X1.5000 Y903.4800 Z0.0000
M3S245
G4 P0.5; Tool Off

G0 Z0; move to z-safe height
G0 X1.5000 Y906.4800
M3S0
G4 P0.5; Tool On
G1 F300 Z0.0000
G1 F15000 X898.5000 Y906.4800 Z0.0000
M3S245
G4 P0.5; Tool Off

G0 Z0; move to z-safe height
G0 X898.5000 Y909.4800
M3S0
G4 P0.5; Tool On
G1 F300 Z0.0000
G1 F15000 X1.5000 Y909.4800 Z0.0000
M3S245
G4 P0.5; Tool Off

G0 Z0; move to z-safe height
G0 X1.5000 Y912.4800
M3S0
G4 P0.5; Tool On
G1 F300 Z0.0000
G1 F15000 X898.5000 Y912.4800 Z0.0000
M3S245
G4 P0.5; Tool Off

G0 Z0; move to z-safe height
G0 X898.5000 Y915.4800
M3S0
G4 P0.5; Tool On
G1 F300 Z0.0000
G1 F15000 X1.5000 Y915.4800 Z0.0000
M3S245
G4 P0.5; Tool Off

G0 Z0; move to z-safe height
G0 X1.5000 Y918.4800
M3S0
G4 P0.5; Tool On
G1 F300 Z0.0000
G1 F15000 X898.5000 Y918.4800 Z0.0000
M3S245
G4 P0.5; Tool Off

G0 Z0; move to z-safe height
G0 X898.5000 Y921.4800
M3S0
G4 P0.5; Tool On
G1 F300 Z0.0000
G1 F15000 X1.5000 Y921.4800 Z0.0000
M3S245
G4 P0.5; Tool Off

G0 Z0; move to z-safe height
G0 X1.5000 Y924.4800
M3S0
G4 P0.5; Tool On
G1 F300 Z0.0000
G1 F15000 X898.5000 Y924.4800 Z0.0000
M3S245
G4 P0.5; Tool Off

G0 Z0; move to z-safe height
G0 X898.5000 Y927.4800
M3S0
G4 P0.5; Tool On
G1 F300 Z0.0000
G1 F15000 X1.5000 Y927.4800 Z0.0000
M3S245
G4 P0.5; Tool Off

G0 Z0; move to z-safe height
G0 X1.5000 Y930.4800
M3S0
G4 P0.5; Tool On
G1 F300 Z0.0000
G1 F15000 X898.5000 Y930.4800 Z0.0000
M3S245
G4 P0.5; Tool Off

G0 Z0; move to z-safe height
G0 X898.5000 Y933.4800
M3S0
G4 P0.5; Tool On
G1 F300 Z0.0000
G1 F15000 X1.5000 Y933.4800 Z0.0000
M3S245
G4 P0.5; Tool Off

G0 Z0; move to z-safe height
G0 X1.5000 Y936.4800
M3S0
G4 P0.5; Tool On
G1 F300 Z0.0000
G1 F15000 X898.5000 Y936.4800 Z0.0000
M3S245
G4 P0.5; Tool Off

G0 Z0; move to z-safe height
G0 X898.5000 Y939.4800
M3S0
G4 P0.5; Tool On
G1 F300 Z0.0000
G1 F15000 X1.5000 Y939.4800 Z0.0000
M3S245
G4 P0.5; Tool Off

G0 Z0; move to z-safe height
G0 X1.5000 Y942.4800
M3S0
G4 P0.5; Tool On
G1 F300 Z0.0000
G1 F15000 X898.5000 Y942.4800 Z0.0000
M3S245
G4 P0.5; Tool Off

G0 Z0; move to z-safe height
G0 X898.5000 Y945.4800
M3S0
G4 P0.5; Tool On
G1 F300 Z0.0000
G1 F15000 X1.5000 Y945.4800 Z0.0000
M3S245
G4 P0.5; Tool Off

G0 Z0; move to z-safe height
G0 X1.5000 Y948.4800
M3S0
G4 P0.5; Tool On
G1 F300 Z0.0000
G1 F15000 X898.5000 Y948.4800 Z0.0000
M3S245
G4 P0.5; Tool Off

G0 Z0; move to z-safe height
G0 X898.5000 Y951.4800
M3S0
G4 P0.5; Tool On
G1 F300 Z0.0000
G1 F15000 X1.5000 Y951.4800 Z0.0000
M3S245
G4 P0.5; Tool Off

G0 Z0; move to z-safe height
G0 X1.5000 Y954.4800
M3S0
G4 P0.5; Tool On
G1 F300 Z0.0000
G1 F15000 X898.5000 Y954.4800 Z0.0000
M3S245
G4 P0.5; Tool Off

G0 Z0; move to z-safe height
G0 X898.5000 Y957.4800
M3S0
G4 P0.5; Tool On
G1 F300 Z0.0000
G1 F15000 X1.5000 Y957.4800 Z0.0000
M3S245
G4 P0.5; Tool Off

G0 Z0; move to z-safe height
G0 X1.5000 Y960.4800
M3S0
G4 P0.5; Tool On
G1 F300 Z0.0000
G1 F15000 X898.5000 Y960.4800 Z0.0000
M3S245
G4 P0.5; Tool Off

G0 Z0; move to z-safe height
G0 X898.5000 Y963.4800
M3S0
G4 P0.5; Tool On
G1 F300 Z0.0000
G1 F15000 X1.5000 Y963.4800 Z0.0000
M3S245
G4 P0.5; Tool Off

G0 Z0; move to z-safe height
G0 X1.5000 Y966.4800
M3S0
G4 P0.5; Tool On
G1 F300 Z0.0000
G1 F15000 X898.5000 Y966.4800 Z0.0000
M3S245
G4 P0.5; Tool Off

G0 Z0; move to z-safe height
G0 X898.5000 Y969.4800
M3S0
G4 P0.5; Tool On
G1 F300 Z0.0000
G1 F15000 X1.5000 Y969.4800 Z0.0000
M3S245
G4 P0.5; Tool Off

G0 Z0; move to z-safe height
G0 X1.5000 Y972.4800
M3S0
G4 P0.5; Tool On
G1 F300 Z0.0000
G1 F15000 X898.5000 Y972.4800 Z0.0000
M3S245
G4 P0.5; Tool Off

G0 Z0; move to z-safe height
G0 X898.5000 Y975.4800
M3S0
G4 P0.5; Tool On
G1 F300 Z0.0000
G1 F15000 X1.5000 Y975.4800 Z0.0000
M3S245
G4 P0.5; Tool Off

G0 Z0; move to z-safe height
G0 X1.5000 Y978.4800
M3S0
G4 P0.5; Tool On
G1 F300 Z0.0000
G1 F15000 X898.5000 Y978.4800 Z0.0000
M3S245
G4 P0.5; Tool Off

G0 Z0; move to z-safe height
G0 X898.5000 Y981.4800
M3S0
G4 P0.5; Tool On
G1 F300 Z0.0000
G1 F15000 X1.5000 Y981.4800 Z0.0000
M3S245
G4 P0.5; Tool Off

G0 Z0; move to z-safe height
G0 X1.5000 Y984.4800
M3S0
G4 P0.5; Tool On
G1 F300 Z0.0000
G1 F15000 X898.5000 Y984.4800 Z0.0000
M3S245
G4 P0.5; Tool Off

G0 Z0; move to z-safe height
G0 X898.5000 Y987.4800
M3S0
G4 P0.5; Tool On
G1 F300 Z0.0000
G1 F15000 X1.5000 Y987.4800 Z0.0000
M3S245
G4 P0.5; Tool Off

G0 Z0; move to z-safe height
G0 X1.5000 Y990.4800
M3S0
G4 P0.5; Tool On
G1 F300 Z0.0000
G1 F15000 X898.5000 Y990.4800 Z0.0000
M3S245
G4 P0.5; Tool Off

G0 Z0; move to z-safe height
G0 X898.5000 Y993.4800
M3S0
G4 P0.5; Tool On
G1 F300 Z0.0000
G1 F15000 X1.5000 Y993.4800 Z0.0000
M3S245
G4 P0.5; Tool Off

G0 Z0; move to z-safe height
G0 X1.5000 Y996.4800
M3S0
G4 P0.5; Tool On
G1 F300 Z0.0000
G1 F15000 X898.5000 Y996.4800 Z0.0000
M3S245
G4 P0.5; Tool Off

G0 Z0; move to z-safe height
G0 X898.5000 Y999.4800
M3S0
G4 P0.5; Tool On
G1 F300 Z0.0000
G1 F15000 X1.5000 Y999.4800 Z0.0000
M3S245
G4 P0.5; Tool Off

G0 Z0; move to z-safe height
G0 X1.5000 Y1002.4800
M3S0
G4 P0.5; Tool On
G1 F300 Z0.0000
G1 F15000 X898.5000 Y1002.4800 Z0.0000
M3S245
G4 P0.5; Tool Off

G0 Z0; move to z-safe height
G0 X898.5000 Y1005.4800
M3S0
G4 P0.5; Tool On
G1 F300 Z0.0000
G1 F15000 X1.5000 Y1005.4800 Z0.0000
M3S245
G4 P0.5; Tool Off

G0 Z0; move to z-safe height
G0 X1.5000 Y1008.4800
M3S0
G4 P0.5; Tool On
G1 F300 Z0.0000
G1 F15000 X898.5000 Y1008.4800 Z0.0000
M3S245
G4 P0.5; Tool Off

G0 Z0; move to z-safe height
G0 X898.5000 Y1011.4800
M3S0
G4 P0.5; Tool On
G1 F300 Z0.0000
G1 F15000 X1.5000 Y1011.4800 Z0.0000
M3S245
G4 P0.5; Tool Off

G0 Z0; move to z-safe height
G0 X1.5000 Y1014.4800
M3S0
G4 P0.5; Tool On
G1 F300 Z0.0000
G1 F15000 X898.5000 Y1014.4800 Z0.0000
M3S245
G4 P0.5; Tool Off

G0 Z0; move to z-safe height
G0 X898.5000 Y1017.4800
M3S0
G4 P0.5; Tool On
G1 F300 Z0.0000
G1 F15000 X1.5000 Y1017.4800 Z0.0000
M3S245
G4 P0.5; Tool Off

G0 Z0; move to z-safe height
G0 X1.5000 Y1020.4800
M3S0
G4 P0.5; Tool On
G1 F300 Z0.0000
G1 F15000 X898.5000 Y1020.4800 Z0.0000
M3S245
G4 P0.5; Tool Off

G0 Z0; move to z-safe height
G0 X898.5000 Y1023.4800
M3S0
G4 P0.5; Tool On
G1 F300 Z0.0000
G1 F15000 X1.5000 Y1023.4800 Z0.0000
M3S245
G4 P0.5; Tool Off

G0 Z0; move to z-safe height
G0 X1.5000 Y1026.4800
M3S0
G4 P0.5; Tool On
G1 F300 Z0.0000
G1 F15000 X898.5000 Y1026.4800 Z0.0000
M3S245
G4 P0.5; Tool Off

G0 Z0; move to z-safe height
G0 X898.5000 Y1029.4800
M3S0
G4 P0.5; Tool On
G1 F300 Z0.0000
G1 F15000 X1.5000 Y1029.4800 Z0.0000
M3S245
G4 P0.5; Tool Off

G0 Z0; move to z-safe height
G0 X1.5000 Y1032.4800
M3S0
G4 P0.5; Tool On
G1 F300 Z0.0000
G1 F15000 X898.5000 Y1032.4800 Z0.0000
M3S245
G4 P0.5; Tool Off

G0 Z0; move to z-safe height
G0 X898.5000 Y1035.4800
M3S0
G4 P0.5; Tool On
G1 F300 Z0.0000
G1 F15000 X1.5000 Y1035.4800 Z0.0000
M3S245
G4 P0.5; Tool Off

G0 Z0; move to z-safe height
G0 X1.5000 Y1038.4800
M3S0
G4 P0.5; Tool On
G1 F300 Z0.0000
G1 F15000 X898.5000 Y1038.4800 Z0.0000
M3S245
G4 P0.5; Tool Off

G0 Z0; move to z-safe height
G0 X898.5000 Y1041.4800
M3S0
G4 P0.5; Tool On
G1 F300 Z0.0000
G1 F15000 X1.5000 Y1041.4800 Z0.0000
M3S245
G4 P0.5; Tool Off

G0 Z0; move to z-safe height
G0 X1.5000 Y1044.4800
M3S0
G4 P0.5; Tool On
G1 F300 Z0.0000
G1 F15000 X898.5000 Y1044.4800 Z0.0000
M3S245
G4 P0.5; Tool Off

G0 Z0; move to z-safe height
G0 X898.5000 Y1047.4800
M3S0
G4 P0.5; Tool On
G1 F300 Z0.0000
G1 F15000 X1.5000 Y1047.4800 Z0.0000
M3S245
G4 P0.5; Tool Off

G0 Z0; move to z-safe height
G0 X1.5000 Y1050.4800
M3S0
G4 P0.5; Tool On
G1 F300 Z0.0000
G1 F15000 X898.5000 Y1050.4800 Z0.0000
M3S245
G4 P0.5; Tool Off

G0 Z0; move to z-safe height
G0 X898.5000 Y1053.4800
M3S0
G4 P0.5; Tool On
G1 F300 Z0.0000
G1 F15000 X1.5000 Y1053.4800 Z0.0000
M3S245
G4 P0.5; Tool Off

G0 Z0; move to z-safe height
G0 X1.5000 Y1056.4800
M3S0
G4 P0.5; Tool On
G1 F300 Z0.0000
G1 F15000 X898.5000 Y1056.4800 Z0.0000
M3S245
G4 P0.5; Tool Off

G0 Z0; move to z-safe height
G0 X898.5000 Y1059.4800
M3S0
G4 P0.5; Tool On
G1 F300 Z0.0000
G1 F15000 X1.5000 Y1059.4800 Z0.0000
M3S245
G4 P0.5; Tool Off

G0 Z0; move to z-safe height
G0 X1.5000 Y1062.4800
M3S0
G4 P0.5; Tool On
G1 F300 Z0.0000
G1 F15000 X898.5000 Y1062.4800 Z0.0000
M3S245
G4 P0.5; Tool Off

G0 Z0; move to z-safe height
G0 X898.5000 Y1065.4800
M3S0
G4 P0.5; Tool On
G1 F300 Z0.0000
G1 F15000 X1.5000 Y1065.4800 Z0.0000
M3S245
G4 P0.5; Tool Off

G0 Z0; move to z-safe height
G0 X1.5000 Y1068.4800
M3S0
G4 P0.5; Tool On
G1 F300 Z0.0000
G1 F15000 X898.5000 Y1068.4800 Z0.0000
M3S245
G4 P0.5; Tool Off

G0 Z0; move to z-safe height
G0 X898.5000 Y1071.4800
M3S0
G4 P0.5; Tool On
G1 F300 Z0.0000
G1 F15000 X1.5000 Y1071.4800 Z0.0000
M3S245
G4 P0.5; Tool Off

G0 Z0; move to z-safe height
G0 X1.5000 Y1074.4800
M3S0
G4 P0.5; Tool On
G1 F300 Z0.0000
G1 F15000 X898.5000 Y1074.4800 Z0.0000
M3S245
G4 P0.5; Tool Off

G0 Z0; move to z-safe height
G0 X898.5000 Y1077.4800
M3S0
G4 P0.5; Tool On
G1 F300 Z0.0000
G1 F15000 X1.5000 Y1077.4800 Z0.0000
M3S245
G4 P0.5; Tool Off

G0 Z0; move to z-safe height
G0 X1.5000 Y1080.4800
M3S0
G4 P0.5; Tool On
G1 F300 Z0.0000
G1 F15000 X898.5000 Y1080.4800 Z0.0000
M3S245
G4 P0.5; Tool Off

G0 Z0; move to z-safe height
G0 X898.5000 Y1083.4800
M3S0
G4 P0.5; Tool On
G1 F300 Z0.0000
G1 F15000 X1.5000 Y1083.4800 Z0.0000
M3S245
G4 P0.5; Tool Off

G0 Z0; move to z-safe height
G0 X1.5000 Y1086.4800
M3S0
G4 P0.5; Tool On
G1 F300 Z0.0000
G1 F15000 X898.5000 Y1086.4800 Z0.0000
M3S245
G4 P0.5; Tool Off

G0 Z0; move to z-safe height
G0 X898.5000 Y1089.4800
M3S0
G4 P0.5; Tool On
G1 F300 Z0.0000
G1 F15000 X1.5000 Y1089.4800 Z0.0000
M3S245
G4 P0.5; Tool Off

G0 Z0; move to z-safe height
G0 X1.5000 Y1092.4800
M3S0
G4 P0.5; Tool On
G1 F300 Z0.0000
G1 F15000 X898.5000 Y1092.4800 Z0.0000
M3S245
G4 P0.5; Tool Off

G0 Z0; move to z-safe height
G0 X898.5000 Y1095.4800
M3S0
G4 P0.5; Tool On
G1 F300 Z0.0000
G1 F15000 X1.5000 Y1095.4800 Z0.0000
M3S245
G4 P0.5; Tool Off

G0 Z0; move to z-safe height
G0 X1.5000 Y1098.4800
M3S0
G4 P0.5; Tool On
G1 F300 Z0.0000
G1 F15000 X898.5000 Y1098.4800 Z0.0000
M3S245
G4 P0.5; Tool Off
; retracting back to z-safe
G0 Z0

; Plotter Mode Complete
