; GCODE Generated by cam.openbuilds.com on 2023-10-15 
G21 ; mm-mode
G54; Work Coordinates
G21; mm-mode
G90; Absolute Positioning
; Plotter Mode Active

; Operation 0: Pen Plotter: (lines fill)
; Pen Diameter: 2

G0 Z0; move to z-safe height
G0 F1000 X7.0000 Y15.6800
M3S0
G4 P0.5; Tool On
G1 F300 Z0.0000
G1 F15000 X493.0000 Y15.6800 Z0.0000
M3S245
G4 P0.5; Tool Off

G0 Z0; move to z-safe height
G0 X493.0000 Y29.6800
M3S0
G4 P0.5; Tool On
G1 F300 Z0.0000
G1 F15000 X7.0000 Y29.6800 Z0.0000
M3S245
G4 P0.5; Tool Off

G0 Z0; move to z-safe height
G0 X7.0000 Y43.6800
M3S0
G4 P0.5; Tool On
G1 F300 Z0.0000
G1 F15000 X493.0000 Y43.6800 Z0.0000
M3S245
G4 P0.5; Tool Off

G0 Z0; move to z-safe height
G0 X493.0000 Y57.6800
M3S0
G4 P0.5; Tool On
G1 F300 Z0.0000
G1 F15000 X7.0000 Y57.6800 Z0.0000
M3S245
G4 P0.5; Tool Off

G0 Z0; move to z-safe height
G0 X7.0000 Y71.6800
M3S0
G4 P0.5; Tool On
G1 F300 Z0.0000
G1 F15000 X493.0000 Y71.6800 Z0.0000
M3S245
G4 P0.5; Tool Off

G0 Z0; move to z-safe height
G0 X493.0000 Y85.6800
M3S0
G4 P0.5; Tool On
G1 F300 Z0.0000
G1 F15000 X7.0000 Y85.6800 Z0.0000
M3S245
G4 P0.5; Tool Off

G0 Z0; move to z-safe height
G0 X7.0000 Y99.6800
M3S0
G4 P0.5; Tool On
G1 F300 Z0.0000
G1 F15000 X493.0000 Y99.6800 Z0.0000
M3S245
G4 P0.5; Tool Off

G0 Z0; move to z-safe height
G0 X493.0000 Y113.6800
M3S0
G4 P0.5; Tool On
G1 F300 Z0.0000
G1 F15000 X7.0000 Y113.6800 Z0.0000
M3S245
G4 P0.5; Tool Off

G0 Z0; move to z-safe height
G0 X7.0000 Y127.6800
M3S0
G4 P0.5; Tool On
G1 F300 Z0.0000
G1 F15000 X493.0000 Y127.6800 Z0.0000
M3S245
G4 P0.5; Tool Off

G0 Z0; move to z-safe height
G0 X493.0000 Y141.6800
M3S0
G4 P0.5; Tool On
G1 F300 Z0.0000
G1 F15000 X7.0000 Y141.6800 Z0.0000
M3S245
G4 P0.5; Tool Off

G0 Z0; move to z-safe height
G0 X7.0000 Y155.6800
M3S0
G4 P0.5; Tool On
G1 F300 Z0.0000
G1 F15000 X493.0000 Y155.6800 Z0.0000
M3S245
G4 P0.5; Tool Off

G0 Z0; move to z-safe height
G0 X493.0000 Y169.6800
M3S0
G4 P0.5; Tool On
G1 F300 Z0.0000
G1 F15000 X7.0000 Y169.6800 Z0.0000
M3S245
G4 P0.5; Tool Off

G0 Z0; move to z-safe height
G0 X7.0000 Y183.6800
M3S0
G4 P0.5; Tool On
G1 F300 Z0.0000
G1 F15000 X493.0000 Y183.6800 Z0.0000
M3S245
G4 P0.5; Tool Off

G0 Z0; move to z-safe height
G0 X493.0000 Y197.6800
M3S0
G4 P0.5; Tool On
G1 F300 Z0.0000
G1 F15000 X7.0000 Y197.6800 Z0.0000
M3S245
G4 P0.5; Tool Off

G0 Z0; move to z-safe height
G0 X7.0000 Y211.6800
M3S0
G4 P0.5; Tool On
G1 F300 Z0.0000
G1 F15000 X493.0000 Y211.6800 Z0.0000
M3S245
G4 P0.5; Tool Off

G0 Z0; move to z-safe height
G0 X493.0000 Y225.6800
M3S0
G4 P0.5; Tool On
G1 F300 Z0.0000
G1 F15000 X7.0000 Y225.6800 Z0.0000
M3S245
G4 P0.5; Tool Off

G0 Z0; move to z-safe height
G0 X7.0000 Y239.6800
M3S0
G4 P0.5; Tool On
G1 F300 Z0.0000
G1 F15000 X493.0000 Y239.6800 Z0.0000
M3S245
G4 P0.5; Tool Off

G0 Z0; move to z-safe height
G0 X493.0000 Y253.6800
M3S0
G4 P0.5; Tool On
G1 F300 Z0.0000
G1 F15000 X7.0000 Y253.6800 Z0.0000
M3S245
G4 P0.5; Tool Off

G0 Z0; move to z-safe height
G0 X7.0000 Y267.6800
M3S0
G4 P0.5; Tool On
G1 F300 Z0.0000
G1 F15000 X493.0000 Y267.6800 Z0.0000
M3S245
G4 P0.5; Tool Off

G0 Z0; move to z-safe height
G0 X493.0000 Y281.6800
M3S0
G4 P0.5; Tool On
G1 F300 Z0.0000
G1 F15000 X7.0000 Y281.6800 Z0.0000
M3S245
G4 P0.5; Tool Off

G0 Z0; move to z-safe height
G0 X7.0000 Y295.6800
M3S0
G4 P0.5; Tool On
G1 F300 Z0.0000
G1 F15000 X493.0000 Y295.6800 Z0.0000
M3S245
G4 P0.5; Tool Off

G0 Z0; move to z-safe height
G0 X493.0000 Y309.6800
M3S0
G4 P0.5; Tool On
G1 F300 Z0.0000
G1 F15000 X7.0000 Y309.6800 Z0.0000
M3S245
G4 P0.5; Tool Off

G0 Z0; move to z-safe height
G0 X7.0000 Y323.6800
M3S0
G4 P0.5; Tool On
G1 F300 Z0.0000
G1 F15000 X493.0000 Y323.6800 Z0.0000
M3S245
G4 P0.5; Tool Off

G0 Z0; move to z-safe height
G0 X493.0000 Y337.6800
M3S0
G4 P0.5; Tool On
G1 F300 Z0.0000
G1 F15000 X7.0000 Y337.6800 Z0.0000
M3S245
G4 P0.5; Tool Off

G0 Z0; move to z-safe height
G0 X7.0000 Y351.6800
M3S0
G4 P0.5; Tool On
G1 F300 Z0.0000
G1 F15000 X493.0000 Y351.6800 Z0.0000
M3S245
G4 P0.5; Tool Off

G0 Z0; move to z-safe height
G0 X493.0000 Y365.6800
M3S0
G4 P0.5; Tool On
G1 F300 Z0.0000
G1 F15000 X7.0000 Y365.6800 Z0.0000
M3S245
G4 P0.5; Tool Off

G0 Z0; move to z-safe height
G0 X7.0000 Y379.6800
M3S0
G4 P0.5; Tool On
G1 F300 Z0.0000
G1 F15000 X493.0000 Y379.6800 Z0.0000
M3S245
G4 P0.5; Tool Off
; retracting back to z-safe
G0 Z0

; Plotter Mode Complete
