; GCODE Generated by cam.openbuilds.com on 2023-10-15 
G21 ; mm-mode
G54; Work Coordinates
G21; mm-mode
G90; Absolute Positioning
; Plotter Mode Active

; Operation 0: Pen Plotter: (lines fill)
; Pen Diameter: 2

G0 Z0; move to z-safe height
G0 F1000 X499.0000 Y1.2500
M3S0
G4 P0.5; Tool On
G1 F300 Z0.0000
G1 F15000 X1.0000 Y1.2500 Z0.0000
M3S245
G4 P0.5; Tool Off

G0 Z0; move to z-safe height
G0 X1.0000 Y3.2500
M3S0
G4 P0.5; Tool On
G1 F300 Z0.0000
G1 F15000 X499.0000 Y3.2500 Z0.0000
M3S245
G4 P0.5; Tool Off

G0 Z0; move to z-safe height
G0 X499.0000 Y5.2500
M3S0
G4 P0.5; Tool On
G1 F300 Z0.0000
G1 F15000 X1.0000 Y5.2500 Z0.0000
M3S245
G4 P0.5; Tool Off

G0 Z0; move to z-safe height
G0 X1.0000 Y7.2500
M3S0
G4 P0.5; Tool On
G1 F300 Z0.0000
G1 F15000 X499.0000 Y7.2500 Z0.0000
M3S245
G4 P0.5; Tool Off

G0 Z0; move to z-safe height
G0 X499.0000 Y9.2500
M3S0
G4 P0.5; Tool On
G1 F300 Z0.0000
G1 F15000 X1.0000 Y9.2500 Z0.0000
M3S245
G4 P0.5; Tool Off

G0 Z0; move to z-safe height
G0 X1.0000 Y11.2500
M3S0
G4 P0.5; Tool On
G1 F300 Z0.0000
G1 F15000 X499.0000 Y11.2500 Z0.0000
M3S245
G4 P0.5; Tool Off

G0 Z0; move to z-safe height
G0 X499.0000 Y13.2500
M3S0
G4 P0.5; Tool On
G1 F300 Z0.0000
G1 F15000 X1.0000 Y13.2500 Z0.0000
M3S245
G4 P0.5; Tool Off

G0 Z0; move to z-safe height
G0 X1.0000 Y15.2500
M3S0
G4 P0.5; Tool On
G1 F300 Z0.0000
G1 F15000 X499.0000 Y15.2500 Z0.0000
M3S245
G4 P0.5; Tool Off

G0 Z0; move to z-safe height
G0 X499.0000 Y17.2500
M3S0
G4 P0.5; Tool On
G1 F300 Z0.0000
G1 F15000 X1.0000 Y17.2500 Z0.0000
M3S245
G4 P0.5; Tool Off

G0 Z0; move to z-safe height
G0 X1.0000 Y19.2500
M3S0
G4 P0.5; Tool On
G1 F300 Z0.0000
G1 F15000 X499.0000 Y19.2500 Z0.0000
M3S245
G4 P0.5; Tool Off

G0 Z0; move to z-safe height
G0 X499.0000 Y21.2500
M3S0
G4 P0.5; Tool On
G1 F300 Z0.0000
G1 F15000 X1.0000 Y21.2500 Z0.0000
M3S245
G4 P0.5; Tool Off

G0 Z0; move to z-safe height
G0 X1.0000 Y23.2500
M3S0
G4 P0.5; Tool On
G1 F300 Z0.0000
G1 F15000 X499.0000 Y23.2500 Z0.0000
M3S245
G4 P0.5; Tool Off

G0 Z0; move to z-safe height
G0 X499.0000 Y25.2500
M3S0
G4 P0.5; Tool On
G1 F300 Z0.0000
G1 F15000 X1.0000 Y25.2500 Z0.0000
M3S245
G4 P0.5; Tool Off

G0 Z0; move to z-safe height
G0 X1.0000 Y27.2500
M3S0
G4 P0.5; Tool On
G1 F300 Z0.0000
G1 F15000 X499.0000 Y27.2500 Z0.0000
M3S245
G4 P0.5; Tool Off

G0 Z0; move to z-safe height
G0 X499.0000 Y29.2500
M3S0
G4 P0.5; Tool On
G1 F300 Z0.0000
G1 F15000 X1.0000 Y29.2500 Z0.0000
M3S245
G4 P0.5; Tool Off

G0 Z0; move to z-safe height
G0 X1.0000 Y31.2500
M3S0
G4 P0.5; Tool On
G1 F300 Z0.0000
G1 F15000 X499.0000 Y31.2500 Z0.0000
M3S245
G4 P0.5; Tool Off

G0 Z0; move to z-safe height
G0 X499.0000 Y33.2500
M3S0
G4 P0.5; Tool On
G1 F300 Z0.0000
G1 F15000 X1.0000 Y33.2500 Z0.0000
M3S245
G4 P0.5; Tool Off

G0 Z0; move to z-safe height
G0 X1.0000 Y35.2500
M3S0
G4 P0.5; Tool On
G1 F300 Z0.0000
G1 F15000 X499.0000 Y35.2500 Z0.0000
M3S245
G4 P0.5; Tool Off

G0 Z0; move to z-safe height
G0 X499.0000 Y37.2500
M3S0
G4 P0.5; Tool On
G1 F300 Z0.0000
G1 F15000 X1.0000 Y37.2500 Z0.0000
M3S245
G4 P0.5; Tool Off

G0 Z0; move to z-safe height
G0 X1.0000 Y39.2500
M3S0
G4 P0.5; Tool On
G1 F300 Z0.0000
G1 F15000 X499.0000 Y39.2500 Z0.0000
M3S245
G4 P0.5; Tool Off

G0 Z0; move to z-safe height
G0 X499.0000 Y41.2500
M3S0
G4 P0.5; Tool On
G1 F300 Z0.0000
G1 F15000 X1.0000 Y41.2500 Z0.0000
M3S245
G4 P0.5; Tool Off

G0 Z0; move to z-safe height
G0 X1.0000 Y43.2500
M3S0
G4 P0.5; Tool On
G1 F300 Z0.0000
G1 F15000 X499.0000 Y43.2500 Z0.0000
M3S245
G4 P0.5; Tool Off

G0 Z0; move to z-safe height
G0 X499.0000 Y45.2500
M3S0
G4 P0.5; Tool On
G1 F300 Z0.0000
G1 F15000 X1.0000 Y45.2500 Z0.0000
M3S245
G4 P0.5; Tool Off

G0 Z0; move to z-safe height
G0 X1.0000 Y47.2500
M3S0
G4 P0.5; Tool On
G1 F300 Z0.0000
G1 F15000 X499.0000 Y47.2500 Z0.0000
M3S245
G4 P0.5; Tool Off

G0 Z0; move to z-safe height
G0 X499.0000 Y49.2500
M3S0
G4 P0.5; Tool On
G1 F300 Z0.0000
G1 F15000 X1.0000 Y49.2500 Z0.0000
M3S245
G4 P0.5; Tool Off

G0 Z0; move to z-safe height
G0 X1.0000 Y51.2500
M3S0
G4 P0.5; Tool On
G1 F300 Z0.0000
G1 F15000 X499.0000 Y51.2500 Z0.0000
M3S245
G4 P0.5; Tool Off

G0 Z0; move to z-safe height
G0 X499.0000 Y53.2500
M3S0
G4 P0.5; Tool On
G1 F300 Z0.0000
G1 F15000 X1.0000 Y53.2500 Z0.0000
M3S245
G4 P0.5; Tool Off

G0 Z0; move to z-safe height
G0 X1.0000 Y55.2500
M3S0
G4 P0.5; Tool On
G1 F300 Z0.0000
G1 F15000 X499.0000 Y55.2500 Z0.0000
M3S245
G4 P0.5; Tool Off

G0 Z0; move to z-safe height
G0 X499.0000 Y57.2500
M3S0
G4 P0.5; Tool On
G1 F300 Z0.0000
G1 F15000 X1.0000 Y57.2500 Z0.0000
M3S245
G4 P0.5; Tool Off

G0 Z0; move to z-safe height
G0 X1.0000 Y59.2500
M3S0
G4 P0.5; Tool On
G1 F300 Z0.0000
G1 F15000 X499.0000 Y59.2500 Z0.0000
M3S245
G4 P0.5; Tool Off

G0 Z0; move to z-safe height
G0 X499.0000 Y61.2500
M3S0
G4 P0.5; Tool On
G1 F300 Z0.0000
G1 F15000 X1.0000 Y61.2500 Z0.0000
M3S245
G4 P0.5; Tool Off

G0 Z0; move to z-safe height
G0 X1.0000 Y63.2500
M3S0
G4 P0.5; Tool On
G1 F300 Z0.0000
G1 F15000 X499.0000 Y63.2500 Z0.0000
M3S245
G4 P0.5; Tool Off

G0 Z0; move to z-safe height
G0 X499.0000 Y65.2500
M3S0
G4 P0.5; Tool On
G1 F300 Z0.0000
G1 F15000 X1.0000 Y65.2500 Z0.0000
M3S245
G4 P0.5; Tool Off

G0 Z0; move to z-safe height
G0 X1.0000 Y67.2500
M3S0
G4 P0.5; Tool On
G1 F300 Z0.0000
G1 F15000 X499.0000 Y67.2500 Z0.0000
M3S245
G4 P0.5; Tool Off

G0 Z0; move to z-safe height
G0 X499.0000 Y69.2500
M3S0
G4 P0.5; Tool On
G1 F300 Z0.0000
G1 F15000 X1.0000 Y69.2500 Z0.0000
M3S245
G4 P0.5; Tool Off

G0 Z0; move to z-safe height
G0 X1.0000 Y71.2500
M3S0
G4 P0.5; Tool On
G1 F300 Z0.0000
G1 F15000 X499.0000 Y71.2500 Z0.0000
M3S245
G4 P0.5; Tool Off

G0 Z0; move to z-safe height
G0 X499.0000 Y73.2500
M3S0
G4 P0.5; Tool On
G1 F300 Z0.0000
G1 F15000 X1.0000 Y73.2500 Z0.0000
M3S245
G4 P0.5; Tool Off

G0 Z0; move to z-safe height
G0 X1.0000 Y75.2500
M3S0
G4 P0.5; Tool On
G1 F300 Z0.0000
G1 F15000 X499.0000 Y75.2500 Z0.0000
M3S245
G4 P0.5; Tool Off

G0 Z0; move to z-safe height
G0 X499.0000 Y77.2500
M3S0
G4 P0.5; Tool On
G1 F300 Z0.0000
G1 F15000 X1.0000 Y77.2500 Z0.0000
M3S245
G4 P0.5; Tool Off

G0 Z0; move to z-safe height
G0 X1.0000 Y79.2500
M3S0
G4 P0.5; Tool On
G1 F300 Z0.0000
G1 F15000 X499.0000 Y79.2500 Z0.0000
M3S245
G4 P0.5; Tool Off

G0 Z0; move to z-safe height
G0 X499.0000 Y81.2500
M3S0
G4 P0.5; Tool On
G1 F300 Z0.0000
G1 F15000 X1.0000 Y81.2500 Z0.0000
M3S245
G4 P0.5; Tool Off

G0 Z0; move to z-safe height
G0 X1.0000 Y83.2500
M3S0
G4 P0.5; Tool On
G1 F300 Z0.0000
G1 F15000 X499.0000 Y83.2500 Z0.0000
M3S245
G4 P0.5; Tool Off

G0 Z0; move to z-safe height
G0 X499.0000 Y85.2500
M3S0
G4 P0.5; Tool On
G1 F300 Z0.0000
G1 F15000 X1.0000 Y85.2500 Z0.0000
M3S245
G4 P0.5; Tool Off

G0 Z0; move to z-safe height
G0 X1.0000 Y87.2500
M3S0
G4 P0.5; Tool On
G1 F300 Z0.0000
G1 F15000 X499.0000 Y87.2500 Z0.0000
M3S245
G4 P0.5; Tool Off

G0 Z0; move to z-safe height
G0 X499.0000 Y89.2500
M3S0
G4 P0.5; Tool On
G1 F300 Z0.0000
G1 F15000 X1.0000 Y89.2500 Z0.0000
M3S245
G4 P0.5; Tool Off

G0 Z0; move to z-safe height
G0 X1.0000 Y91.2500
M3S0
G4 P0.5; Tool On
G1 F300 Z0.0000
G1 F15000 X499.0000 Y91.2500 Z0.0000
M3S245
G4 P0.5; Tool Off

G0 Z0; move to z-safe height
G0 X499.0000 Y93.2500
M3S0
G4 P0.5; Tool On
G1 F300 Z0.0000
G1 F15000 X1.0000 Y93.2500 Z0.0000
M3S245
G4 P0.5; Tool Off

G0 Z0; move to z-safe height
G0 X1.0000 Y95.2500
M3S0
G4 P0.5; Tool On
G1 F300 Z0.0000
G1 F15000 X499.0000 Y95.2500 Z0.0000
M3S245
G4 P0.5; Tool Off

G0 Z0; move to z-safe height
G0 X499.0000 Y97.2500
M3S0
G4 P0.5; Tool On
G1 F300 Z0.0000
G1 F15000 X1.0000 Y97.2500 Z0.0000
M3S245
G4 P0.5; Tool Off

G0 Z0; move to z-safe height
G0 X1.0000 Y99.2500
M3S0
G4 P0.5; Tool On
G1 F300 Z0.0000
G1 F15000 X499.0000 Y99.2500 Z0.0000
M3S245
G4 P0.5; Tool Off

G0 Z0; move to z-safe height
G0 X499.0000 Y101.2500
M3S0
G4 P0.5; Tool On
G1 F300 Z0.0000
G1 F15000 X1.0000 Y101.2500 Z0.0000
M3S245
G4 P0.5; Tool Off

G0 Z0; move to z-safe height
G0 X1.0000 Y103.2500
M3S0
G4 P0.5; Tool On
G1 F300 Z0.0000
G1 F15000 X499.0000 Y103.2500 Z0.0000
M3S245
G4 P0.5; Tool Off

G0 Z0; move to z-safe height
G0 X499.0000 Y105.2500
M3S0
G4 P0.5; Tool On
G1 F300 Z0.0000
G1 F15000 X1.0000 Y105.2500 Z0.0000
M3S245
G4 P0.5; Tool Off

G0 Z0; move to z-safe height
G0 X1.0000 Y107.2500
M3S0
G4 P0.5; Tool On
G1 F300 Z0.0000
G1 F15000 X499.0000 Y107.2500 Z0.0000
M3S245
G4 P0.5; Tool Off

G0 Z0; move to z-safe height
G0 X499.0000 Y109.2500
M3S0
G4 P0.5; Tool On
G1 F300 Z0.0000
G1 F15000 X1.0000 Y109.2500 Z0.0000
M3S245
G4 P0.5; Tool Off

G0 Z0; move to z-safe height
G0 X1.0000 Y111.2500
M3S0
G4 P0.5; Tool On
G1 F300 Z0.0000
G1 F15000 X499.0000 Y111.2500 Z0.0000
M3S245
G4 P0.5; Tool Off

G0 Z0; move to z-safe height
G0 X499.0000 Y113.2500
M3S0
G4 P0.5; Tool On
G1 F300 Z0.0000
G1 F15000 X1.0000 Y113.2500 Z0.0000
M3S245
G4 P0.5; Tool Off

G0 Z0; move to z-safe height
G0 X1.0000 Y115.2500
M3S0
G4 P0.5; Tool On
G1 F300 Z0.0000
G1 F15000 X499.0000 Y115.2500 Z0.0000
M3S245
G4 P0.5; Tool Off

G0 Z0; move to z-safe height
G0 X499.0000 Y117.2500
M3S0
G4 P0.5; Tool On
G1 F300 Z0.0000
G1 F15000 X1.0000 Y117.2500 Z0.0000
M3S245
G4 P0.5; Tool Off

G0 Z0; move to z-safe height
G0 X1.0000 Y119.2500
M3S0
G4 P0.5; Tool On
G1 F300 Z0.0000
G1 F15000 X499.0000 Y119.2500 Z0.0000
M3S245
G4 P0.5; Tool Off

G0 Z0; move to z-safe height
G0 X499.0000 Y121.2500
M3S0
G4 P0.5; Tool On
G1 F300 Z0.0000
G1 F15000 X1.0000 Y121.2500 Z0.0000
M3S245
G4 P0.5; Tool Off

G0 Z0; move to z-safe height
G0 X1.0000 Y123.2500
M3S0
G4 P0.5; Tool On
G1 F300 Z0.0000
G1 F15000 X499.0000 Y123.2500 Z0.0000
M3S245
G4 P0.5; Tool Off

G0 Z0; move to z-safe height
G0 X499.0000 Y125.2500
M3S0
G4 P0.5; Tool On
G1 F300 Z0.0000
G1 F15000 X1.0000 Y125.2500 Z0.0000
M3S245
G4 P0.5; Tool Off

G0 Z0; move to z-safe height
G0 X1.0000 Y127.2500
M3S0
G4 P0.5; Tool On
G1 F300 Z0.0000
G1 F15000 X499.0000 Y127.2500 Z0.0000
M3S245
G4 P0.5; Tool Off

G0 Z0; move to z-safe height
G0 X499.0000 Y129.2500
M3S0
G4 P0.5; Tool On
G1 F300 Z0.0000
G1 F15000 X1.0000 Y129.2500 Z0.0000
M3S245
G4 P0.5; Tool Off

G0 Z0; move to z-safe height
G0 X1.0000 Y131.2500
M3S0
G4 P0.5; Tool On
G1 F300 Z0.0000
G1 F15000 X499.0000 Y131.2500 Z0.0000
M3S245
G4 P0.5; Tool Off

G0 Z0; move to z-safe height
G0 X499.0000 Y133.2500
M3S0
G4 P0.5; Tool On
G1 F300 Z0.0000
G1 F15000 X1.0000 Y133.2500 Z0.0000
M3S245
G4 P0.5; Tool Off

G0 Z0; move to z-safe height
G0 X1.0000 Y135.2500
M3S0
G4 P0.5; Tool On
G1 F300 Z0.0000
G1 F15000 X499.0000 Y135.2500 Z0.0000
M3S245
G4 P0.5; Tool Off

G0 Z0; move to z-safe height
G0 X499.0000 Y137.2500
M3S0
G4 P0.5; Tool On
G1 F300 Z0.0000
G1 F15000 X1.0000 Y137.2500 Z0.0000
M3S245
G4 P0.5; Tool Off

G0 Z0; move to z-safe height
G0 X1.0000 Y139.2500
M3S0
G4 P0.5; Tool On
G1 F300 Z0.0000
G1 F15000 X499.0000 Y139.2500 Z0.0000
M3S245
G4 P0.5; Tool Off

G0 Z0; move to z-safe height
G0 X499.0000 Y141.2500
M3S0
G4 P0.5; Tool On
G1 F300 Z0.0000
G1 F15000 X1.0000 Y141.2500 Z0.0000
M3S245
G4 P0.5; Tool Off

G0 Z0; move to z-safe height
G0 X1.0000 Y143.2500
M3S0
G4 P0.5; Tool On
G1 F300 Z0.0000
G1 F15000 X499.0000 Y143.2500 Z0.0000
M3S245
G4 P0.5; Tool Off

G0 Z0; move to z-safe height
G0 X499.0000 Y145.2500
M3S0
G4 P0.5; Tool On
G1 F300 Z0.0000
G1 F15000 X1.0000 Y145.2500 Z0.0000
M3S245
G4 P0.5; Tool Off

G0 Z0; move to z-safe height
G0 X1.0000 Y147.2500
M3S0
G4 P0.5; Tool On
G1 F300 Z0.0000
G1 F15000 X499.0000 Y147.2500 Z0.0000
M3S245
G4 P0.5; Tool Off

G0 Z0; move to z-safe height
G0 X499.0000 Y149.2500
M3S0
G4 P0.5; Tool On
G1 F300 Z0.0000
G1 F15000 X1.0000 Y149.2500 Z0.0000
M3S245
G4 P0.5; Tool Off

G0 Z0; move to z-safe height
G0 X1.0000 Y151.2500
M3S0
G4 P0.5; Tool On
G1 F300 Z0.0000
G1 F15000 X499.0000 Y151.2500 Z0.0000
M3S245
G4 P0.5; Tool Off

G0 Z0; move to z-safe height
G0 X499.0000 Y153.2500
M3S0
G4 P0.5; Tool On
G1 F300 Z0.0000
G1 F15000 X1.0000 Y153.2500 Z0.0000
M3S245
G4 P0.5; Tool Off

G0 Z0; move to z-safe height
G0 X1.0000 Y155.2500
M3S0
G4 P0.5; Tool On
G1 F300 Z0.0000
G1 F15000 X499.0000 Y155.2500 Z0.0000
M3S245
G4 P0.5; Tool Off

G0 Z0; move to z-safe height
G0 X499.0000 Y157.2500
M3S0
G4 P0.5; Tool On
G1 F300 Z0.0000
G1 F15000 X1.0000 Y157.2500 Z0.0000
M3S245
G4 P0.5; Tool Off

G0 Z0; move to z-safe height
G0 X1.0000 Y159.2500
M3S0
G4 P0.5; Tool On
G1 F300 Z0.0000
G1 F15000 X499.0000 Y159.2500 Z0.0000
M3S245
G4 P0.5; Tool Off

G0 Z0; move to z-safe height
G0 X499.0000 Y161.2500
M3S0
G4 P0.5; Tool On
G1 F300 Z0.0000
G1 F15000 X1.0000 Y161.2500 Z0.0000
M3S245
G4 P0.5; Tool Off

G0 Z0; move to z-safe height
G0 X1.0000 Y163.2500
M3S0
G4 P0.5; Tool On
G1 F300 Z0.0000
G1 F15000 X499.0000 Y163.2500 Z0.0000
M3S245
G4 P0.5; Tool Off

G0 Z0; move to z-safe height
G0 X499.0000 Y165.2500
M3S0
G4 P0.5; Tool On
G1 F300 Z0.0000
G1 F15000 X1.0000 Y165.2500 Z0.0000
M3S245
G4 P0.5; Tool Off

G0 Z0; move to z-safe height
G0 X1.0000 Y167.2500
M3S0
G4 P0.5; Tool On
G1 F300 Z0.0000
G1 F15000 X499.0000 Y167.2500 Z0.0000
M3S245
G4 P0.5; Tool Off

G0 Z0; move to z-safe height
G0 X499.0000 Y169.2500
M3S0
G4 P0.5; Tool On
G1 F300 Z0.0000
G1 F15000 X1.0000 Y169.2500 Z0.0000
M3S245
G4 P0.5; Tool Off

G0 Z0; move to z-safe height
G0 X1.0000 Y171.2500
M3S0
G4 P0.5; Tool On
G1 F300 Z0.0000
G1 F15000 X499.0000 Y171.2500 Z0.0000
M3S245
G4 P0.5; Tool Off

G0 Z0; move to z-safe height
G0 X499.0000 Y173.2500
M3S0
G4 P0.5; Tool On
G1 F300 Z0.0000
G1 F15000 X1.0000 Y173.2500 Z0.0000
M3S245
G4 P0.5; Tool Off

G0 Z0; move to z-safe height
G0 X1.0000 Y175.2500
M3S0
G4 P0.5; Tool On
G1 F300 Z0.0000
G1 F15000 X499.0000 Y175.2500 Z0.0000
M3S245
G4 P0.5; Tool Off

G0 Z0; move to z-safe height
G0 X499.0000 Y177.2500
M3S0
G4 P0.5; Tool On
G1 F300 Z0.0000
G1 F15000 X1.0000 Y177.2500 Z0.0000
M3S245
G4 P0.5; Tool Off

G0 Z0; move to z-safe height
G0 X1.0000 Y179.2500
M3S0
G4 P0.5; Tool On
G1 F300 Z0.0000
G1 F15000 X499.0000 Y179.2500 Z0.0000
M3S245
G4 P0.5; Tool Off

G0 Z0; move to z-safe height
G0 X499.0000 Y181.2500
M3S0
G4 P0.5; Tool On
G1 F300 Z0.0000
G1 F15000 X1.0000 Y181.2500 Z0.0000
M3S245
G4 P0.5; Tool Off

G0 Z0; move to z-safe height
G0 X1.0000 Y183.2500
M3S0
G4 P0.5; Tool On
G1 F300 Z0.0000
G1 F15000 X499.0000 Y183.2500 Z0.0000
M3S245
G4 P0.5; Tool Off

G0 Z0; move to z-safe height
G0 X499.0000 Y185.2500
M3S0
G4 P0.5; Tool On
G1 F300 Z0.0000
G1 F15000 X1.0000 Y185.2500 Z0.0000
M3S245
G4 P0.5; Tool Off

G0 Z0; move to z-safe height
G0 X1.0000 Y187.2500
M3S0
G4 P0.5; Tool On
G1 F300 Z0.0000
G1 F15000 X499.0000 Y187.2500 Z0.0000
M3S245
G4 P0.5; Tool Off

G0 Z0; move to z-safe height
G0 X499.0000 Y189.2500
M3S0
G4 P0.5; Tool On
G1 F300 Z0.0000
G1 F15000 X1.0000 Y189.2500 Z0.0000
M3S245
G4 P0.5; Tool Off

G0 Z0; move to z-safe height
G0 X1.0000 Y191.2500
M3S0
G4 P0.5; Tool On
G1 F300 Z0.0000
G1 F15000 X499.0000 Y191.2500 Z0.0000
M3S245
G4 P0.5; Tool Off

G0 Z0; move to z-safe height
G0 X499.0000 Y193.2500
M3S0
G4 P0.5; Tool On
G1 F300 Z0.0000
G1 F15000 X1.0000 Y193.2500 Z0.0000
M3S245
G4 P0.5; Tool Off

G0 Z0; move to z-safe height
G0 X1.0000 Y195.2500
M3S0
G4 P0.5; Tool On
G1 F300 Z0.0000
G1 F15000 X499.0000 Y195.2500 Z0.0000
M3S245
G4 P0.5; Tool Off

G0 Z0; move to z-safe height
G0 X499.0000 Y197.2500
M3S0
G4 P0.5; Tool On
G1 F300 Z0.0000
G1 F15000 X1.0000 Y197.2500 Z0.0000
M3S245
G4 P0.5; Tool Off

G0 Z0; move to z-safe height
G0 X1.0000 Y199.2500
M3S0
G4 P0.5; Tool On
G1 F300 Z0.0000
G1 F15000 X499.0000 Y199.2500 Z0.0000
M3S245
G4 P0.5; Tool Off

G0 Z0; move to z-safe height
G0 X499.0000 Y201.2500
M3S0
G4 P0.5; Tool On
G1 F300 Z0.0000
G1 F15000 X1.0000 Y201.2500 Z0.0000
M3S245
G4 P0.5; Tool Off

G0 Z0; move to z-safe height
G0 X1.0000 Y203.2500
M3S0
G4 P0.5; Tool On
G1 F300 Z0.0000
G1 F15000 X499.0000 Y203.2500 Z0.0000
M3S245
G4 P0.5; Tool Off

G0 Z0; move to z-safe height
G0 X499.0000 Y205.2500
M3S0
G4 P0.5; Tool On
G1 F300 Z0.0000
G1 F15000 X1.0000 Y205.2500 Z0.0000
M3S245
G4 P0.5; Tool Off

G0 Z0; move to z-safe height
G0 X1.0000 Y207.2500
M3S0
G4 P0.5; Tool On
G1 F300 Z0.0000
G1 F15000 X499.0000 Y207.2500 Z0.0000
M3S245
G4 P0.5; Tool Off

G0 Z0; move to z-safe height
G0 X499.0000 Y209.2500
M3S0
G4 P0.5; Tool On
G1 F300 Z0.0000
G1 F15000 X1.0000 Y209.2500 Z0.0000
M3S245
G4 P0.5; Tool Off

G0 Z0; move to z-safe height
G0 X1.0000 Y211.2500
M3S0
G4 P0.5; Tool On
G1 F300 Z0.0000
G1 F15000 X499.0000 Y211.2500 Z0.0000
M3S245
G4 P0.5; Tool Off

G0 Z0; move to z-safe height
G0 X499.0000 Y213.2500
M3S0
G4 P0.5; Tool On
G1 F300 Z0.0000
G1 F15000 X1.0000 Y213.2500 Z0.0000
M3S245
G4 P0.5; Tool Off

G0 Z0; move to z-safe height
G0 X1.0000 Y215.2500
M3S0
G4 P0.5; Tool On
G1 F300 Z0.0000
G1 F15000 X499.0000 Y215.2500 Z0.0000
M3S245
G4 P0.5; Tool Off

G0 Z0; move to z-safe height
G0 X499.0000 Y217.2500
M3S0
G4 P0.5; Tool On
G1 F300 Z0.0000
G1 F15000 X1.0000 Y217.2500 Z0.0000
M3S245
G4 P0.5; Tool Off

G0 Z0; move to z-safe height
G0 X1.0000 Y219.2500
M3S0
G4 P0.5; Tool On
G1 F300 Z0.0000
G1 F15000 X499.0000 Y219.2500 Z0.0000
M3S245
G4 P0.5; Tool Off

G0 Z0; move to z-safe height
G0 X499.0000 Y221.2500
M3S0
G4 P0.5; Tool On
G1 F300 Z0.0000
G1 F15000 X1.0000 Y221.2500 Z0.0000
M3S245
G4 P0.5; Tool Off

G0 Z0; move to z-safe height
G0 X1.0000 Y223.2500
M3S0
G4 P0.5; Tool On
G1 F300 Z0.0000
G1 F15000 X499.0000 Y223.2500 Z0.0000
M3S245
G4 P0.5; Tool Off

G0 Z0; move to z-safe height
G0 X499.0000 Y225.2500
M3S0
G4 P0.5; Tool On
G1 F300 Z0.0000
G1 F15000 X1.0000 Y225.2500 Z0.0000
M3S245
G4 P0.5; Tool Off

G0 Z0; move to z-safe height
G0 X1.0000 Y227.2500
M3S0
G4 P0.5; Tool On
G1 F300 Z0.0000
G1 F15000 X499.0000 Y227.2500 Z0.0000
M3S245
G4 P0.5; Tool Off

G0 Z0; move to z-safe height
G0 X499.0000 Y229.2500
M3S0
G4 P0.5; Tool On
G1 F300 Z0.0000
G1 F15000 X1.0000 Y229.2500 Z0.0000
M3S245
G4 P0.5; Tool Off

G0 Z0; move to z-safe height
G0 X1.0000 Y231.2500
M3S0
G4 P0.5; Tool On
G1 F300 Z0.0000
G1 F15000 X499.0000 Y231.2500 Z0.0000
M3S245
G4 P0.5; Tool Off

G0 Z0; move to z-safe height
G0 X499.0000 Y233.2500
M3S0
G4 P0.5; Tool On
G1 F300 Z0.0000
G1 F15000 X1.0000 Y233.2500 Z0.0000
M3S245
G4 P0.5; Tool Off

G0 Z0; move to z-safe height
G0 X1.0000 Y235.2500
M3S0
G4 P0.5; Tool On
G1 F300 Z0.0000
G1 F15000 X499.0000 Y235.2500 Z0.0000
M3S245
G4 P0.5; Tool Off

G0 Z0; move to z-safe height
G0 X499.0000 Y237.2500
M3S0
G4 P0.5; Tool On
G1 F300 Z0.0000
G1 F15000 X1.0000 Y237.2500 Z0.0000
M3S245
G4 P0.5; Tool Off

G0 Z0; move to z-safe height
G0 X1.0000 Y239.2500
M3S0
G4 P0.5; Tool On
G1 F300 Z0.0000
G1 F15000 X499.0000 Y239.2500 Z0.0000
M3S245
G4 P0.5; Tool Off

G0 Z0; move to z-safe height
G0 X499.0000 Y241.2500
M3S0
G4 P0.5; Tool On
G1 F300 Z0.0000
G1 F15000 X1.0000 Y241.2500 Z0.0000
M3S245
G4 P0.5; Tool Off

G0 Z0; move to z-safe height
G0 X1.0000 Y243.2500
M3S0
G4 P0.5; Tool On
G1 F300 Z0.0000
G1 F15000 X499.0000 Y243.2500 Z0.0000
M3S245
G4 P0.5; Tool Off

G0 Z0; move to z-safe height
G0 X499.0000 Y245.2500
M3S0
G4 P0.5; Tool On
G1 F300 Z0.0000
G1 F15000 X1.0000 Y245.2500 Z0.0000
M3S245
G4 P0.5; Tool Off

G0 Z0; move to z-safe height
G0 X1.0000 Y247.2500
M3S0
G4 P0.5; Tool On
G1 F300 Z0.0000
G1 F15000 X499.0000 Y247.2500 Z0.0000
M3S245
G4 P0.5; Tool Off

G0 Z0; move to z-safe height
G0 X499.0000 Y249.2500
M3S0
G4 P0.5; Tool On
G1 F300 Z0.0000
G1 F15000 X1.0000 Y249.2500 Z0.0000
M3S245
G4 P0.5; Tool Off

G0 Z0; move to z-safe height
G0 X1.0000 Y251.2500
M3S0
G4 P0.5; Tool On
G1 F300 Z0.0000
G1 F15000 X499.0000 Y251.2500 Z0.0000
M3S245
G4 P0.5; Tool Off

G0 Z0; move to z-safe height
G0 X499.0000 Y253.2500
M3S0
G4 P0.5; Tool On
G1 F300 Z0.0000
G1 F15000 X1.0000 Y253.2500 Z0.0000
M3S245
G4 P0.5; Tool Off

G0 Z0; move to z-safe height
G0 X1.0000 Y255.2500
M3S0
G4 P0.5; Tool On
G1 F300 Z0.0000
G1 F15000 X499.0000 Y255.2500 Z0.0000
M3S245
G4 P0.5; Tool Off

G0 Z0; move to z-safe height
G0 X499.0000 Y257.2500
M3S0
G4 P0.5; Tool On
G1 F300 Z0.0000
G1 F15000 X1.0000 Y257.2500 Z0.0000
M3S245
G4 P0.5; Tool Off

G0 Z0; move to z-safe height
G0 X1.0000 Y259.2500
M3S0
G4 P0.5; Tool On
G1 F300 Z0.0000
G1 F15000 X499.0000 Y259.2500 Z0.0000
M3S245
G4 P0.5; Tool Off

G0 Z0; move to z-safe height
G0 X499.0000 Y261.2500
M3S0
G4 P0.5; Tool On
G1 F300 Z0.0000
G1 F15000 X1.0000 Y261.2500 Z0.0000
M3S245
G4 P0.5; Tool Off

G0 Z0; move to z-safe height
G0 X1.0000 Y263.2500
M3S0
G4 P0.5; Tool On
G1 F300 Z0.0000
G1 F15000 X499.0000 Y263.2500 Z0.0000
M3S245
G4 P0.5; Tool Off

G0 Z0; move to z-safe height
G0 X499.0000 Y265.2500
M3S0
G4 P0.5; Tool On
G1 F300 Z0.0000
G1 F15000 X1.0000 Y265.2500 Z0.0000
M3S245
G4 P0.5; Tool Off

G0 Z0; move to z-safe height
G0 X1.0000 Y267.2500
M3S0
G4 P0.5; Tool On
G1 F300 Z0.0000
G1 F15000 X499.0000 Y267.2500 Z0.0000
M3S245
G4 P0.5; Tool Off

G0 Z0; move to z-safe height
G0 X499.0000 Y269.2500
M3S0
G4 P0.5; Tool On
G1 F300 Z0.0000
G1 F15000 X1.0000 Y269.2500 Z0.0000
M3S245
G4 P0.5; Tool Off

G0 Z0; move to z-safe height
G0 X1.0000 Y271.2500
M3S0
G4 P0.5; Tool On
G1 F300 Z0.0000
G1 F15000 X499.0000 Y271.2500 Z0.0000
M3S245
G4 P0.5; Tool Off

G0 Z0; move to z-safe height
G0 X499.0000 Y273.2500
M3S0
G4 P0.5; Tool On
G1 F300 Z0.0000
G1 F15000 X1.0000 Y273.2500 Z0.0000
M3S245
G4 P0.5; Tool Off

G0 Z0; move to z-safe height
G0 X1.0000 Y275.2500
M3S0
G4 P0.5; Tool On
G1 F300 Z0.0000
G1 F15000 X499.0000 Y275.2500 Z0.0000
M3S245
G4 P0.5; Tool Off

G0 Z0; move to z-safe height
G0 X499.0000 Y277.2500
M3S0
G4 P0.5; Tool On
G1 F300 Z0.0000
G1 F15000 X1.0000 Y277.2500 Z0.0000
M3S245
G4 P0.5; Tool Off

G0 Z0; move to z-safe height
G0 X1.0000 Y279.2500
M3S0
G4 P0.5; Tool On
G1 F300 Z0.0000
G1 F15000 X499.0000 Y279.2500 Z0.0000
M3S245
G4 P0.5; Tool Off

G0 Z0; move to z-safe height
G0 X499.0000 Y281.2500
M3S0
G4 P0.5; Tool On
G1 F300 Z0.0000
G1 F15000 X1.0000 Y281.2500 Z0.0000
M3S245
G4 P0.5; Tool Off

G0 Z0; move to z-safe height
G0 X1.0000 Y283.2500
M3S0
G4 P0.5; Tool On
G1 F300 Z0.0000
G1 F15000 X499.0000 Y283.2500 Z0.0000
M3S245
G4 P0.5; Tool Off

G0 Z0; move to z-safe height
G0 X499.0000 Y285.2500
M3S0
G4 P0.5; Tool On
G1 F300 Z0.0000
G1 F15000 X1.0000 Y285.2500 Z0.0000
M3S245
G4 P0.5; Tool Off

G0 Z0; move to z-safe height
G0 X1.0000 Y287.2500
M3S0
G4 P0.5; Tool On
G1 F300 Z0.0000
G1 F15000 X499.0000 Y287.2500 Z0.0000
M3S245
G4 P0.5; Tool Off

G0 Z0; move to z-safe height
G0 X499.0000 Y289.2500
M3S0
G4 P0.5; Tool On
G1 F300 Z0.0000
G1 F15000 X1.0000 Y289.2500 Z0.0000
M3S245
G4 P0.5; Tool Off

G0 Z0; move to z-safe height
G0 X1.0000 Y291.2500
M3S0
G4 P0.5; Tool On
G1 F300 Z0.0000
G1 F15000 X499.0000 Y291.2500 Z0.0000
M3S245
G4 P0.5; Tool Off

G0 Z0; move to z-safe height
G0 X499.0000 Y293.2500
M3S0
G4 P0.5; Tool On
G1 F300 Z0.0000
G1 F15000 X1.0000 Y293.2500 Z0.0000
M3S245
G4 P0.5; Tool Off

G0 Z0; move to z-safe height
G0 X1.0000 Y295.2500
M3S0
G4 P0.5; Tool On
G1 F300 Z0.0000
G1 F15000 X499.0000 Y295.2500 Z0.0000
M3S245
G4 P0.5; Tool Off

G0 Z0; move to z-safe height
G0 X499.0000 Y297.2500
M3S0
G4 P0.5; Tool On
G1 F300 Z0.0000
G1 F15000 X1.0000 Y297.2500 Z0.0000
M3S245
G4 P0.5; Tool Off

G0 Z0; move to z-safe height
G0 X1.0000 Y299.2500
M3S0
G4 P0.5; Tool On
G1 F300 Z0.0000
G1 F15000 X499.0000 Y299.2500 Z0.0000
M3S245
G4 P0.5; Tool Off

G0 Z0; move to z-safe height
G0 X499.0000 Y301.2500
M3S0
G4 P0.5; Tool On
G1 F300 Z0.0000
G1 F15000 X1.0000 Y301.2500 Z0.0000
M3S245
G4 P0.5; Tool Off

G0 Z0; move to z-safe height
G0 X1.0000 Y303.2500
M3S0
G4 P0.5; Tool On
G1 F300 Z0.0000
G1 F15000 X499.0000 Y303.2500 Z0.0000
M3S245
G4 P0.5; Tool Off

G0 Z0; move to z-safe height
G0 X499.0000 Y305.2500
M3S0
G4 P0.5; Tool On
G1 F300 Z0.0000
G1 F15000 X1.0000 Y305.2500 Z0.0000
M3S245
G4 P0.5; Tool Off

G0 Z0; move to z-safe height
G0 X1.0000 Y307.2500
M3S0
G4 P0.5; Tool On
G1 F300 Z0.0000
G1 F15000 X499.0000 Y307.2500 Z0.0000
M3S245
G4 P0.5; Tool Off

G0 Z0; move to z-safe height
G0 X499.0000 Y309.2500
M3S0
G4 P0.5; Tool On
G1 F300 Z0.0000
G1 F15000 X1.0000 Y309.2500 Z0.0000
M3S245
G4 P0.5; Tool Off

G0 Z0; move to z-safe height
G0 X1.0000 Y311.2500
M3S0
G4 P0.5; Tool On
G1 F300 Z0.0000
G1 F15000 X499.0000 Y311.2500 Z0.0000
M3S245
G4 P0.5; Tool Off

G0 Z0; move to z-safe height
G0 X499.0000 Y313.2500
M3S0
G4 P0.5; Tool On
G1 F300 Z0.0000
G1 F15000 X1.0000 Y313.2500 Z0.0000
M3S245
G4 P0.5; Tool Off

G0 Z0; move to z-safe height
G0 X1.0000 Y315.2500
M3S0
G4 P0.5; Tool On
G1 F300 Z0.0000
G1 F15000 X499.0000 Y315.2500 Z0.0000
M3S245
G4 P0.5; Tool Off

G0 Z0; move to z-safe height
G0 X499.0000 Y317.2500
M3S0
G4 P0.5; Tool On
G1 F300 Z0.0000
G1 F15000 X1.0000 Y317.2500 Z0.0000
M3S245
G4 P0.5; Tool Off

G0 Z0; move to z-safe height
G0 X1.0000 Y319.2500
M3S0
G4 P0.5; Tool On
G1 F300 Z0.0000
G1 F15000 X499.0000 Y319.2500 Z0.0000
M3S245
G4 P0.5; Tool Off

G0 Z0; move to z-safe height
G0 X499.0000 Y321.2500
M3S0
G4 P0.5; Tool On
G1 F300 Z0.0000
G1 F15000 X1.0000 Y321.2500 Z0.0000
M3S245
G4 P0.5; Tool Off

G0 Z0; move to z-safe height
G0 X1.0000 Y323.2500
M3S0
G4 P0.5; Tool On
G1 F300 Z0.0000
G1 F15000 X499.0000 Y323.2500 Z0.0000
M3S245
G4 P0.5; Tool Off

G0 Z0; move to z-safe height
G0 X499.0000 Y325.2500
M3S0
G4 P0.5; Tool On
G1 F300 Z0.0000
G1 F15000 X1.0000 Y325.2500 Z0.0000
M3S245
G4 P0.5; Tool Off

G0 Z0; move to z-safe height
G0 X1.0000 Y327.2500
M3S0
G4 P0.5; Tool On
G1 F300 Z0.0000
G1 F15000 X499.0000 Y327.2500 Z0.0000
M3S245
G4 P0.5; Tool Off

G0 Z0; move to z-safe height
G0 X499.0000 Y329.2500
M3S0
G4 P0.5; Tool On
G1 F300 Z0.0000
G1 F15000 X1.0000 Y329.2500 Z0.0000
M3S245
G4 P0.5; Tool Off

G0 Z0; move to z-safe height
G0 X1.0000 Y331.2500
M3S0
G4 P0.5; Tool On
G1 F300 Z0.0000
G1 F15000 X499.0000 Y331.2500 Z0.0000
M3S245
G4 P0.5; Tool Off

G0 Z0; move to z-safe height
G0 X499.0000 Y333.2500
M3S0
G4 P0.5; Tool On
G1 F300 Z0.0000
G1 F15000 X1.0000 Y333.2500 Z0.0000
M3S245
G4 P0.5; Tool Off

G0 Z0; move to z-safe height
G0 X1.0000 Y335.2500
M3S0
G4 P0.5; Tool On
G1 F300 Z0.0000
G1 F15000 X499.0000 Y335.2500 Z0.0000
M3S245
G4 P0.5; Tool Off

G0 Z0; move to z-safe height
G0 X499.0000 Y337.2500
M3S0
G4 P0.5; Tool On
G1 F300 Z0.0000
G1 F15000 X1.0000 Y337.2500 Z0.0000
M3S245
G4 P0.5; Tool Off

G0 Z0; move to z-safe height
G0 X1.0000 Y339.2500
M3S0
G4 P0.5; Tool On
G1 F300 Z0.0000
G1 F15000 X499.0000 Y339.2500 Z0.0000
M3S245
G4 P0.5; Tool Off

G0 Z0; move to z-safe height
G0 X499.0000 Y341.2500
M3S0
G4 P0.5; Tool On
G1 F300 Z0.0000
G1 F15000 X1.0000 Y341.2500 Z0.0000
M3S245
G4 P0.5; Tool Off

G0 Z0; move to z-safe height
G0 X1.0000 Y343.2500
M3S0
G4 P0.5; Tool On
G1 F300 Z0.0000
G1 F15000 X499.0000 Y343.2500 Z0.0000
M3S245
G4 P0.5; Tool Off

G0 Z0; move to z-safe height
G0 X499.0000 Y345.2500
M3S0
G4 P0.5; Tool On
G1 F300 Z0.0000
G1 F15000 X1.0000 Y345.2500 Z0.0000
M3S245
G4 P0.5; Tool Off

G0 Z0; move to z-safe height
G0 X1.0000 Y347.2500
M3S0
G4 P0.5; Tool On
G1 F300 Z0.0000
G1 F15000 X499.0000 Y347.2500 Z0.0000
M3S245
G4 P0.5; Tool Off

G0 Z0; move to z-safe height
G0 X499.0000 Y349.2500
M3S0
G4 P0.5; Tool On
G1 F300 Z0.0000
G1 F15000 X1.0000 Y349.2500 Z0.0000
M3S245
G4 P0.5; Tool Off

G0 Z0; move to z-safe height
G0 X1.0000 Y351.2500
M3S0
G4 P0.5; Tool On
G1 F300 Z0.0000
G1 F15000 X499.0000 Y351.2500 Z0.0000
M3S245
G4 P0.5; Tool Off

G0 Z0; move to z-safe height
G0 X499.0000 Y353.2500
M3S0
G4 P0.5; Tool On
G1 F300 Z0.0000
G1 F15000 X1.0000 Y353.2500 Z0.0000
M3S245
G4 P0.5; Tool Off

G0 Z0; move to z-safe height
G0 X1.0000 Y355.2500
M3S0
G4 P0.5; Tool On
G1 F300 Z0.0000
G1 F15000 X499.0000 Y355.2500 Z0.0000
M3S245
G4 P0.5; Tool Off

G0 Z0; move to z-safe height
G0 X499.0000 Y357.2500
M3S0
G4 P0.5; Tool On
G1 F300 Z0.0000
G1 F15000 X1.0000 Y357.2500 Z0.0000
M3S245
G4 P0.5; Tool Off

G0 Z0; move to z-safe height
G0 X1.0000 Y359.2500
M3S0
G4 P0.5; Tool On
G1 F300 Z0.0000
G1 F15000 X499.0000 Y359.2500 Z0.0000
M3S245
G4 P0.5; Tool Off

G0 Z0; move to z-safe height
G0 X499.0000 Y361.2500
M3S0
G4 P0.5; Tool On
G1 F300 Z0.0000
G1 F15000 X1.0000 Y361.2500 Z0.0000
M3S245
G4 P0.5; Tool Off

G0 Z0; move to z-safe height
G0 X1.0000 Y363.2500
M3S0
G4 P0.5; Tool On
G1 F300 Z0.0000
G1 F15000 X499.0000 Y363.2500 Z0.0000
M3S245
G4 P0.5; Tool Off

G0 Z0; move to z-safe height
G0 X499.0000 Y365.2500
M3S0
G4 P0.5; Tool On
G1 F300 Z0.0000
G1 F15000 X1.0000 Y365.2500 Z0.0000
M3S245
G4 P0.5; Tool Off

G0 Z0; move to z-safe height
G0 X1.0000 Y367.2500
M3S0
G4 P0.5; Tool On
G1 F300 Z0.0000
G1 F15000 X499.0000 Y367.2500 Z0.0000
M3S245
G4 P0.5; Tool Off

G0 Z0; move to z-safe height
G0 X499.0000 Y369.2500
M3S0
G4 P0.5; Tool On
G1 F300 Z0.0000
G1 F15000 X1.0000 Y369.2500 Z0.0000
M3S245
G4 P0.5; Tool Off

G0 Z0; move to z-safe height
G0 X1.0000 Y371.2500
M3S0
G4 P0.5; Tool On
G1 F300 Z0.0000
G1 F15000 X499.0000 Y371.2500 Z0.0000
M3S245
G4 P0.5; Tool Off

G0 Z0; move to z-safe height
G0 X499.0000 Y373.2500
M3S0
G4 P0.5; Tool On
G1 F300 Z0.0000
G1 F15000 X1.0000 Y373.2500 Z0.0000
M3S245
G4 P0.5; Tool Off

G0 Z0; move to z-safe height
G0 X1.0000 Y375.2500
M3S0
G4 P0.5; Tool On
G1 F300 Z0.0000
G1 F15000 X499.0000 Y375.2500 Z0.0000
M3S245
G4 P0.5; Tool Off

G0 Z0; move to z-safe height
G0 X499.0000 Y377.2500
M3S0
G4 P0.5; Tool On
G1 F300 Z0.0000
G1 F15000 X1.0000 Y377.2500 Z0.0000
M3S245
G4 P0.5; Tool Off

G0 Z0; move to z-safe height
G0 X1.0000 Y379.2500
M3S0
G4 P0.5; Tool On
G1 F300 Z0.0000
G1 F15000 X499.0000 Y379.2500 Z0.0000
M3S245
G4 P0.5; Tool Off

G0 Z0; move to z-safe height
G0 X499.0000 Y381.2500
M3S0
G4 P0.5; Tool On
G1 F300 Z0.0000
G1 F15000 X1.0000 Y381.2500 Z0.0000
M3S245
G4 P0.5; Tool Off

G0 Z0; move to z-safe height
G0 X1.0000 Y383.2500
M3S0
G4 P0.5; Tool On
G1 F300 Z0.0000
G1 F15000 X499.0000 Y383.2500 Z0.0000
M3S245
G4 P0.5; Tool Off

G0 Z0; move to z-safe height
G0 X499.0000 Y385.2500
M3S0
G4 P0.5; Tool On
G1 F300 Z0.0000
G1 F15000 X1.0000 Y385.2500 Z0.0000
M3S245
G4 P0.5; Tool Off

G0 Z0; move to z-safe height
G0 X1.0000 Y387.2500
M3S0
G4 P0.5; Tool On
G1 F300 Z0.0000
G1 F15000 X499.0000 Y387.2500 Z0.0000
M3S245
G4 P0.5; Tool Off

G0 Z0; move to z-safe height
G0 X499.0000 Y389.2500
M3S0
G4 P0.5; Tool On
G1 F300 Z0.0000
G1 F15000 X1.0000 Y389.2500 Z0.0000
M3S245
G4 P0.5; Tool Off

G0 Z0; move to z-safe height
G0 X1.0000 Y391.2500
M3S0
G4 P0.5; Tool On
G1 F300 Z0.0000
G1 F15000 X499.0000 Y391.2500 Z0.0000
M3S245
G4 P0.5; Tool Off

G0 Z0; move to z-safe height
G0 X499.0000 Y393.2500
M3S0
G4 P0.5; Tool On
G1 F300 Z0.0000
G1 F15000 X1.0000 Y393.2500 Z0.0000
M3S245
G4 P0.5; Tool Off

G0 Z0; move to z-safe height
G0 X1.0000 Y395.2500
M3S0
G4 P0.5; Tool On
G1 F300 Z0.0000
G1 F15000 X499.0000 Y395.2500 Z0.0000
M3S245
G4 P0.5; Tool Off

G0 Z0; move to z-safe height
G0 X499.0000 Y397.2500
M3S0
G4 P0.5; Tool On
G1 F300 Z0.0000
G1 F15000 X1.0000 Y397.2500 Z0.0000
M3S245
G4 P0.5; Tool Off
; retracting back to z-safe
G0 Z0

; Plotter Mode Complete
