; GCODE Generated by cam.openbuilds.com on 2023-10-15 
G21 ; mm-mode
G54; Work Coordinates
G21; mm-mode
G90; Absolute Positioning
; Plotter Mode Active

; Operation 0: Pen Plotter: (lines fill)
; Pen Diameter: 2

G0 Z0; move to z-safe height
G0 F1000 X498.0000 Y2.6500
M3S0
G4 P0.5; Tool On
G1 F300 Z0.0000
G1 F15000 X2.0000 Y2.6500 Z0.0000
M3S245
G4 P0.5; Tool Off

G0 Z0; move to z-safe height
G0 X2.0000 Y6.6500
M3S0
G4 P0.5; Tool On
G1 F300 Z0.0000
G1 F15000 X498.0000 Y6.6500 Z0.0000
M3S245
G4 P0.5; Tool Off

G0 Z0; move to z-safe height
G0 X498.0000 Y10.6500
M3S0
G4 P0.5; Tool On
G1 F300 Z0.0000
G1 F15000 X2.0000 Y10.6500 Z0.0000
M3S245
G4 P0.5; Tool Off

G0 Z0; move to z-safe height
G0 X2.0000 Y14.6500
M3S0
G4 P0.5; Tool On
G1 F300 Z0.0000
G1 F15000 X498.0000 Y14.6500 Z0.0000
M3S245
G4 P0.5; Tool Off

G0 Z0; move to z-safe height
G0 X498.0000 Y18.6500
M3S0
G4 P0.5; Tool On
G1 F300 Z0.0000
G1 F15000 X2.0000 Y18.6500 Z0.0000
M3S245
G4 P0.5; Tool Off

G0 Z0; move to z-safe height
G0 X2.0000 Y22.6500
M3S0
G4 P0.5; Tool On
G1 F300 Z0.0000
G1 F15000 X498.0000 Y22.6500 Z0.0000
M3S245
G4 P0.5; Tool Off

G0 Z0; move to z-safe height
G0 X498.0000 Y26.6500
M3S0
G4 P0.5; Tool On
G1 F300 Z0.0000
G1 F15000 X2.0000 Y26.6500 Z0.0000
M3S245
G4 P0.5; Tool Off

G0 Z0; move to z-safe height
G0 X2.0000 Y30.6500
M3S0
G4 P0.5; Tool On
G1 F300 Z0.0000
G1 F15000 X498.0000 Y30.6500 Z0.0000
M3S245
G4 P0.5; Tool Off

G0 Z0; move to z-safe height
G0 X498.0000 Y34.6500
M3S0
G4 P0.5; Tool On
G1 F300 Z0.0000
G1 F15000 X2.0000 Y34.6500 Z0.0000
M3S245
G4 P0.5; Tool Off

G0 Z0; move to z-safe height
G0 X2.0000 Y38.6500
M3S0
G4 P0.5; Tool On
G1 F300 Z0.0000
G1 F15000 X498.0000 Y38.6500 Z0.0000
M3S245
G4 P0.5; Tool Off

G0 Z0; move to z-safe height
G0 X498.0000 Y42.6500
M3S0
G4 P0.5; Tool On
G1 F300 Z0.0000
G1 F15000 X2.0000 Y42.6500 Z0.0000
M3S245
G4 P0.5; Tool Off

G0 Z0; move to z-safe height
G0 X2.0000 Y46.6500
M3S0
G4 P0.5; Tool On
G1 F300 Z0.0000
G1 F15000 X498.0000 Y46.6500 Z0.0000
M3S245
G4 P0.5; Tool Off

G0 Z0; move to z-safe height
G0 X498.0000 Y50.6500
M3S0
G4 P0.5; Tool On
G1 F300 Z0.0000
G1 F15000 X2.0000 Y50.6500 Z0.0000
M3S245
G4 P0.5; Tool Off

G0 Z0; move to z-safe height
G0 X2.0000 Y54.6500
M3S0
G4 P0.5; Tool On
G1 F300 Z0.0000
G1 F15000 X498.0000 Y54.6500 Z0.0000
M3S245
G4 P0.5; Tool Off

G0 Z0; move to z-safe height
G0 X498.0000 Y58.6500
M3S0
G4 P0.5; Tool On
G1 F300 Z0.0000
G1 F15000 X2.0000 Y58.6500 Z0.0000
M3S245
G4 P0.5; Tool Off

G0 Z0; move to z-safe height
G0 X2.0000 Y62.6500
M3S0
G4 P0.5; Tool On
G1 F300 Z0.0000
G1 F15000 X498.0000 Y62.6500 Z0.0000
M3S245
G4 P0.5; Tool Off

G0 Z0; move to z-safe height
G0 X498.0000 Y66.6500
M3S0
G4 P0.5; Tool On
G1 F300 Z0.0000
G1 F15000 X2.0000 Y66.6500 Z0.0000
M3S245
G4 P0.5; Tool Off

G0 Z0; move to z-safe height
G0 X2.0000 Y70.6500
M3S0
G4 P0.5; Tool On
G1 F300 Z0.0000
G1 F15000 X498.0000 Y70.6500 Z0.0000
M3S245
G4 P0.5; Tool Off

G0 Z0; move to z-safe height
G0 X498.0000 Y74.6500
M3S0
G4 P0.5; Tool On
G1 F300 Z0.0000
G1 F15000 X2.0000 Y74.6500 Z0.0000
M3S245
G4 P0.5; Tool Off

G0 Z0; move to z-safe height
G0 X2.0000 Y78.6500
M3S0
G4 P0.5; Tool On
G1 F300 Z0.0000
G1 F15000 X498.0000 Y78.6500 Z0.0000
M3S245
G4 P0.5; Tool Off

G0 Z0; move to z-safe height
G0 X498.0000 Y82.6500
M3S0
G4 P0.5; Tool On
G1 F300 Z0.0000
G1 F15000 X2.0000 Y82.6500 Z0.0000
M3S245
G4 P0.5; Tool Off

G0 Z0; move to z-safe height
G0 X2.0000 Y86.6500
M3S0
G4 P0.5; Tool On
G1 F300 Z0.0000
G1 F15000 X498.0000 Y86.6500 Z0.0000
M3S245
G4 P0.5; Tool Off

G0 Z0; move to z-safe height
G0 X498.0000 Y90.6500
M3S0
G4 P0.5; Tool On
G1 F300 Z0.0000
G1 F15000 X2.0000 Y90.6500 Z0.0000
M3S245
G4 P0.5; Tool Off

G0 Z0; move to z-safe height
G0 X2.0000 Y94.6500
M3S0
G4 P0.5; Tool On
G1 F300 Z0.0000
G1 F15000 X498.0000 Y94.6500 Z0.0000
M3S245
G4 P0.5; Tool Off

G0 Z0; move to z-safe height
G0 X498.0000 Y98.6500
M3S0
G4 P0.5; Tool On
G1 F300 Z0.0000
G1 F15000 X2.0000 Y98.6500 Z0.0000
M3S245
G4 P0.5; Tool Off

G0 Z0; move to z-safe height
G0 X2.0000 Y102.6500
M3S0
G4 P0.5; Tool On
G1 F300 Z0.0000
G1 F15000 X498.0000 Y102.6500 Z0.0000
M3S245
G4 P0.5; Tool Off

G0 Z0; move to z-safe height
G0 X498.0000 Y106.6500
M3S0
G4 P0.5; Tool On
G1 F300 Z0.0000
G1 F15000 X2.0000 Y106.6500 Z0.0000
M3S245
G4 P0.5; Tool Off

G0 Z0; move to z-safe height
G0 X2.0000 Y110.6500
M3S0
G4 P0.5; Tool On
G1 F300 Z0.0000
G1 F15000 X498.0000 Y110.6500 Z0.0000
M3S245
G4 P0.5; Tool Off

G0 Z0; move to z-safe height
G0 X498.0000 Y114.6500
M3S0
G4 P0.5; Tool On
G1 F300 Z0.0000
G1 F15000 X2.0000 Y114.6500 Z0.0000
M3S245
G4 P0.5; Tool Off

G0 Z0; move to z-safe height
G0 X2.0000 Y118.6500
M3S0
G4 P0.5; Tool On
G1 F300 Z0.0000
G1 F15000 X498.0000 Y118.6500 Z0.0000
M3S245
G4 P0.5; Tool Off

G0 Z0; move to z-safe height
G0 X498.0000 Y122.6500
M3S0
G4 P0.5; Tool On
G1 F300 Z0.0000
G1 F15000 X2.0000 Y122.6500 Z0.0000
M3S245
G4 P0.5; Tool Off

G0 Z0; move to z-safe height
G0 X2.0000 Y126.6500
M3S0
G4 P0.5; Tool On
G1 F300 Z0.0000
G1 F15000 X498.0000 Y126.6500 Z0.0000
M3S245
G4 P0.5; Tool Off

G0 Z0; move to z-safe height
G0 X498.0000 Y130.6500
M3S0
G4 P0.5; Tool On
G1 F300 Z0.0000
G1 F15000 X2.0000 Y130.6500 Z0.0000
M3S245
G4 P0.5; Tool Off

G0 Z0; move to z-safe height
G0 X2.0000 Y134.6500
M3S0
G4 P0.5; Tool On
G1 F300 Z0.0000
G1 F15000 X498.0000 Y134.6500 Z0.0000
M3S245
G4 P0.5; Tool Off

G0 Z0; move to z-safe height
G0 X498.0000 Y138.6500
M3S0
G4 P0.5; Tool On
G1 F300 Z0.0000
G1 F15000 X2.0000 Y138.6500 Z0.0000
M3S245
G4 P0.5; Tool Off

G0 Z0; move to z-safe height
G0 X2.0000 Y142.6500
M3S0
G4 P0.5; Tool On
G1 F300 Z0.0000
G1 F15000 X498.0000 Y142.6500 Z0.0000
M3S245
G4 P0.5; Tool Off

G0 Z0; move to z-safe height
G0 X498.0000 Y146.6500
M3S0
G4 P0.5; Tool On
G1 F300 Z0.0000
G1 F15000 X2.0000 Y146.6500 Z0.0000
M3S245
G4 P0.5; Tool Off

G0 Z0; move to z-safe height
G0 X2.0000 Y150.6500
M3S0
G4 P0.5; Tool On
G1 F300 Z0.0000
G1 F15000 X498.0000 Y150.6500 Z0.0000
M3S245
G4 P0.5; Tool Off

G0 Z0; move to z-safe height
G0 X498.0000 Y154.6500
M3S0
G4 P0.5; Tool On
G1 F300 Z0.0000
G1 F15000 X2.0000 Y154.6500 Z0.0000
M3S245
G4 P0.5; Tool Off

G0 Z0; move to z-safe height
G0 X2.0000 Y158.6500
M3S0
G4 P0.5; Tool On
G1 F300 Z0.0000
G1 F15000 X498.0000 Y158.6500 Z0.0000
M3S245
G4 P0.5; Tool Off

G0 Z0; move to z-safe height
G0 X498.0000 Y162.6500
M3S0
G4 P0.5; Tool On
G1 F300 Z0.0000
G1 F15000 X2.0000 Y162.6500 Z0.0000
M3S245
G4 P0.5; Tool Off

G0 Z0; move to z-safe height
G0 X2.0000 Y166.6500
M3S0
G4 P0.5; Tool On
G1 F300 Z0.0000
G1 F15000 X498.0000 Y166.6500 Z0.0000
M3S245
G4 P0.5; Tool Off

G0 Z0; move to z-safe height
G0 X498.0000 Y170.6500
M3S0
G4 P0.5; Tool On
G1 F300 Z0.0000
G1 F15000 X2.0000 Y170.6500 Z0.0000
M3S245
G4 P0.5; Tool Off

G0 Z0; move to z-safe height
G0 X2.0000 Y174.6500
M3S0
G4 P0.5; Tool On
G1 F300 Z0.0000
G1 F15000 X498.0000 Y174.6500 Z0.0000
M3S245
G4 P0.5; Tool Off

G0 Z0; move to z-safe height
G0 X498.0000 Y178.6500
M3S0
G4 P0.5; Tool On
G1 F300 Z0.0000
G1 F15000 X2.0000 Y178.6500 Z0.0000
M3S245
G4 P0.5; Tool Off

G0 Z0; move to z-safe height
G0 X2.0000 Y182.6500
M3S0
G4 P0.5; Tool On
G1 F300 Z0.0000
G1 F15000 X498.0000 Y182.6500 Z0.0000
M3S245
G4 P0.5; Tool Off

G0 Z0; move to z-safe height
G0 X498.0000 Y186.6500
M3S0
G4 P0.5; Tool On
G1 F300 Z0.0000
G1 F15000 X2.0000 Y186.6500 Z0.0000
M3S245
G4 P0.5; Tool Off

G0 Z0; move to z-safe height
G0 X2.0000 Y190.6500
M3S0
G4 P0.5; Tool On
G1 F300 Z0.0000
G1 F15000 X498.0000 Y190.6500 Z0.0000
M3S245
G4 P0.5; Tool Off

G0 Z0; move to z-safe height
G0 X498.0000 Y194.6500
M3S0
G4 P0.5; Tool On
G1 F300 Z0.0000
G1 F15000 X2.0000 Y194.6500 Z0.0000
M3S245
G4 P0.5; Tool Off

G0 Z0; move to z-safe height
G0 X2.0000 Y198.6500
M3S0
G4 P0.5; Tool On
G1 F300 Z0.0000
G1 F15000 X498.0000 Y198.6500 Z0.0000
M3S245
G4 P0.5; Tool Off

G0 Z0; move to z-safe height
G0 X498.0000 Y202.6500
M3S0
G4 P0.5; Tool On
G1 F300 Z0.0000
G1 F15000 X2.0000 Y202.6500 Z0.0000
M3S245
G4 P0.5; Tool Off

G0 Z0; move to z-safe height
G0 X2.0000 Y206.6500
M3S0
G4 P0.5; Tool On
G1 F300 Z0.0000
G1 F15000 X498.0000 Y206.6500 Z0.0000
M3S245
G4 P0.5; Tool Off

G0 Z0; move to z-safe height
G0 X498.0000 Y210.6500
M3S0
G4 P0.5; Tool On
G1 F300 Z0.0000
G1 F15000 X2.0000 Y210.6500 Z0.0000
M3S245
G4 P0.5; Tool Off

G0 Z0; move to z-safe height
G0 X2.0000 Y214.6500
M3S0
G4 P0.5; Tool On
G1 F300 Z0.0000
G1 F15000 X498.0000 Y214.6500 Z0.0000
M3S245
G4 P0.5; Tool Off

G0 Z0; move to z-safe height
G0 X498.0000 Y218.6500
M3S0
G4 P0.5; Tool On
G1 F300 Z0.0000
G1 F15000 X2.0000 Y218.6500 Z0.0000
M3S245
G4 P0.5; Tool Off

G0 Z0; move to z-safe height
G0 X2.0000 Y222.6500
M3S0
G4 P0.5; Tool On
G1 F300 Z0.0000
G1 F15000 X498.0000 Y222.6500 Z0.0000
M3S245
G4 P0.5; Tool Off

G0 Z0; move to z-safe height
G0 X498.0000 Y226.6500
M3S0
G4 P0.5; Tool On
G1 F300 Z0.0000
G1 F15000 X2.0000 Y226.6500 Z0.0000
M3S245
G4 P0.5; Tool Off

G0 Z0; move to z-safe height
G0 X2.0000 Y230.6500
M3S0
G4 P0.5; Tool On
G1 F300 Z0.0000
G1 F15000 X498.0000 Y230.6500 Z0.0000
M3S245
G4 P0.5; Tool Off

G0 Z0; move to z-safe height
G0 X498.0000 Y234.6500
M3S0
G4 P0.5; Tool On
G1 F300 Z0.0000
G1 F15000 X2.0000 Y234.6500 Z0.0000
M3S245
G4 P0.5; Tool Off

G0 Z0; move to z-safe height
G0 X2.0000 Y238.6500
M3S0
G4 P0.5; Tool On
G1 F300 Z0.0000
G1 F15000 X498.0000 Y238.6500 Z0.0000
M3S245
G4 P0.5; Tool Off

G0 Z0; move to z-safe height
G0 X498.0000 Y242.6500
M3S0
G4 P0.5; Tool On
G1 F300 Z0.0000
G1 F15000 X2.0000 Y242.6500 Z0.0000
M3S245
G4 P0.5; Tool Off

G0 Z0; move to z-safe height
G0 X2.0000 Y246.6500
M3S0
G4 P0.5; Tool On
G1 F300 Z0.0000
G1 F15000 X498.0000 Y246.6500 Z0.0000
M3S245
G4 P0.5; Tool Off

G0 Z0; move to z-safe height
G0 X498.0000 Y250.6500
M3S0
G4 P0.5; Tool On
G1 F300 Z0.0000
G1 F15000 X2.0000 Y250.6500 Z0.0000
M3S245
G4 P0.5; Tool Off

G0 Z0; move to z-safe height
G0 X2.0000 Y254.6500
M3S0
G4 P0.5; Tool On
G1 F300 Z0.0000
G1 F15000 X498.0000 Y254.6500 Z0.0000
M3S245
G4 P0.5; Tool Off

G0 Z0; move to z-safe height
G0 X498.0000 Y258.6500
M3S0
G4 P0.5; Tool On
G1 F300 Z0.0000
G1 F15000 X2.0000 Y258.6500 Z0.0000
M3S245
G4 P0.5; Tool Off

G0 Z0; move to z-safe height
G0 X2.0000 Y262.6500
M3S0
G4 P0.5; Tool On
G1 F300 Z0.0000
G1 F15000 X498.0000 Y262.6500 Z0.0000
M3S245
G4 P0.5; Tool Off

G0 Z0; move to z-safe height
G0 X498.0000 Y266.6500
M3S0
G4 P0.5; Tool On
G1 F300 Z0.0000
G1 F15000 X2.0000 Y266.6500 Z0.0000
M3S245
G4 P0.5; Tool Off

G0 Z0; move to z-safe height
G0 X2.0000 Y270.6500
M3S0
G4 P0.5; Tool On
G1 F300 Z0.0000
G1 F15000 X498.0000 Y270.6500 Z0.0000
M3S245
G4 P0.5; Tool Off

G0 Z0; move to z-safe height
G0 X498.0000 Y274.6500
M3S0
G4 P0.5; Tool On
G1 F300 Z0.0000
G1 F15000 X2.0000 Y274.6500 Z0.0000
M3S245
G4 P0.5; Tool Off

G0 Z0; move to z-safe height
G0 X2.0000 Y278.6500
M3S0
G4 P0.5; Tool On
G1 F300 Z0.0000
G1 F15000 X498.0000 Y278.6500 Z0.0000
M3S245
G4 P0.5; Tool Off

G0 Z0; move to z-safe height
G0 X498.0000 Y282.6500
M3S0
G4 P0.5; Tool On
G1 F300 Z0.0000
G1 F15000 X2.0000 Y282.6500 Z0.0000
M3S245
G4 P0.5; Tool Off

G0 Z0; move to z-safe height
G0 X2.0000 Y286.6500
M3S0
G4 P0.5; Tool On
G1 F300 Z0.0000
G1 F15000 X498.0000 Y286.6500 Z0.0000
M3S245
G4 P0.5; Tool Off

G0 Z0; move to z-safe height
G0 X498.0000 Y290.6500
M3S0
G4 P0.5; Tool On
G1 F300 Z0.0000
G1 F15000 X2.0000 Y290.6500 Z0.0000
M3S245
G4 P0.5; Tool Off

G0 Z0; move to z-safe height
G0 X2.0000 Y294.6500
M3S0
G4 P0.5; Tool On
G1 F300 Z0.0000
G1 F15000 X498.0000 Y294.6500 Z0.0000
M3S245
G4 P0.5; Tool Off

G0 Z0; move to z-safe height
G0 X498.0000 Y298.6500
M3S0
G4 P0.5; Tool On
G1 F300 Z0.0000
G1 F15000 X2.0000 Y298.6500 Z0.0000
M3S245
G4 P0.5; Tool Off

G0 Z0; move to z-safe height
G0 X2.0000 Y302.6500
M3S0
G4 P0.5; Tool On
G1 F300 Z0.0000
G1 F15000 X498.0000 Y302.6500 Z0.0000
M3S245
G4 P0.5; Tool Off

G0 Z0; move to z-safe height
G0 X498.0000 Y306.6500
M3S0
G4 P0.5; Tool On
G1 F300 Z0.0000
G1 F15000 X2.0000 Y306.6500 Z0.0000
M3S245
G4 P0.5; Tool Off

G0 Z0; move to z-safe height
G0 X2.0000 Y310.6500
M3S0
G4 P0.5; Tool On
G1 F300 Z0.0000
G1 F15000 X498.0000 Y310.6500 Z0.0000
M3S245
G4 P0.5; Tool Off

G0 Z0; move to z-safe height
G0 X498.0000 Y314.6500
M3S0
G4 P0.5; Tool On
G1 F300 Z0.0000
G1 F15000 X2.0000 Y314.6500 Z0.0000
M3S245
G4 P0.5; Tool Off

G0 Z0; move to z-safe height
G0 X2.0000 Y318.6500
M3S0
G4 P0.5; Tool On
G1 F300 Z0.0000
G1 F15000 X498.0000 Y318.6500 Z0.0000
M3S245
G4 P0.5; Tool Off

G0 Z0; move to z-safe height
G0 X498.0000 Y322.6500
M3S0
G4 P0.5; Tool On
G1 F300 Z0.0000
G1 F15000 X2.0000 Y322.6500 Z0.0000
M3S245
G4 P0.5; Tool Off

G0 Z0; move to z-safe height
G0 X2.0000 Y326.6500
M3S0
G4 P0.5; Tool On
G1 F300 Z0.0000
G1 F15000 X498.0000 Y326.6500 Z0.0000
M3S245
G4 P0.5; Tool Off

G0 Z0; move to z-safe height
G0 X498.0000 Y330.6500
M3S0
G4 P0.5; Tool On
G1 F300 Z0.0000
G1 F15000 X2.0000 Y330.6500 Z0.0000
M3S245
G4 P0.5; Tool Off

G0 Z0; move to z-safe height
G0 X2.0000 Y334.6500
M3S0
G4 P0.5; Tool On
G1 F300 Z0.0000
G1 F15000 X498.0000 Y334.6500 Z0.0000
M3S245
G4 P0.5; Tool Off

G0 Z0; move to z-safe height
G0 X498.0000 Y338.6500
M3S0
G4 P0.5; Tool On
G1 F300 Z0.0000
G1 F15000 X2.0000 Y338.6500 Z0.0000
M3S245
G4 P0.5; Tool Off

G0 Z0; move to z-safe height
G0 X2.0000 Y342.6500
M3S0
G4 P0.5; Tool On
G1 F300 Z0.0000
G1 F15000 X498.0000 Y342.6500 Z0.0000
M3S245
G4 P0.5; Tool Off

G0 Z0; move to z-safe height
G0 X498.0000 Y346.6500
M3S0
G4 P0.5; Tool On
G1 F300 Z0.0000
G1 F15000 X2.0000 Y346.6500 Z0.0000
M3S245
G4 P0.5; Tool Off

G0 Z0; move to z-safe height
G0 X2.0000 Y350.6500
M3S0
G4 P0.5; Tool On
G1 F300 Z0.0000
G1 F15000 X498.0000 Y350.6500 Z0.0000
M3S245
G4 P0.5; Tool Off

G0 Z0; move to z-safe height
G0 X498.0000 Y354.6500
M3S0
G4 P0.5; Tool On
G1 F300 Z0.0000
G1 F15000 X2.0000 Y354.6500 Z0.0000
M3S245
G4 P0.5; Tool Off

G0 Z0; move to z-safe height
G0 X2.0000 Y358.6500
M3S0
G4 P0.5; Tool On
G1 F300 Z0.0000
G1 F15000 X498.0000 Y358.6500 Z0.0000
M3S245
G4 P0.5; Tool Off

G0 Z0; move to z-safe height
G0 X498.0000 Y362.6500
M3S0
G4 P0.5; Tool On
G1 F300 Z0.0000
G1 F15000 X2.0000 Y362.6500 Z0.0000
M3S245
G4 P0.5; Tool Off

G0 Z0; move to z-safe height
G0 X2.0000 Y366.6500
M3S0
G4 P0.5; Tool On
G1 F300 Z0.0000
G1 F15000 X498.0000 Y366.6500 Z0.0000
M3S245
G4 P0.5; Tool Off

G0 Z0; move to z-safe height
G0 X498.0000 Y370.6500
M3S0
G4 P0.5; Tool On
G1 F300 Z0.0000
G1 F15000 X2.0000 Y370.6500 Z0.0000
M3S245
G4 P0.5; Tool Off

G0 Z0; move to z-safe height
G0 X2.0000 Y374.6500
M3S0
G4 P0.5; Tool On
G1 F300 Z0.0000
G1 F15000 X498.0000 Y374.6500 Z0.0000
M3S245
G4 P0.5; Tool Off

G0 Z0; move to z-safe height
G0 X498.0000 Y378.6500
M3S0
G4 P0.5; Tool On
G1 F300 Z0.0000
G1 F15000 X2.0000 Y378.6500 Z0.0000
M3S245
G4 P0.5; Tool Off

G0 Z0; move to z-safe height
G0 X2.0000 Y382.6500
M3S0
G4 P0.5; Tool On
G1 F300 Z0.0000
G1 F15000 X498.0000 Y382.6500 Z0.0000
M3S245
G4 P0.5; Tool Off

G0 Z0; move to z-safe height
G0 X498.0000 Y386.6500
M3S0
G4 P0.5; Tool On
G1 F300 Z0.0000
G1 F15000 X2.0000 Y386.6500 Z0.0000
M3S245
G4 P0.5; Tool Off

G0 Z0; move to z-safe height
G0 X2.0000 Y390.6500
M3S0
G4 P0.5; Tool On
G1 F300 Z0.0000
G1 F15000 X498.0000 Y390.6500 Z0.0000
M3S245
G4 P0.5; Tool Off

G0 Z0; move to z-safe height
G0 X498.0000 Y394.6500
M3S0
G4 P0.5; Tool On
G1 F300 Z0.0000
G1 F15000 X2.0000 Y394.6500 Z0.0000
M3S245
G4 P0.5; Tool Off
; retracting back to z-safe
G0 Z0

; Plotter Mode Complete
