; GCODE Generated by cam.openbuilds.com on 2023-10-15 
G21 ; mm-mode
G54; Work Coordinates
G21; mm-mode
G90; Absolute Positioning
; Plotter Mode Active

; Operation 0: Pen Plotter: (lines fill)
; Pen Diameter: 2

G0 Z0; move to z-safe height
G0 F1000 X9.0000 Y18.4900
M3S0
G4 P0.5; Tool On
G1 F300 Z0.0000
G1 F15000 X491.0000 Y18.4900 Z0.0000
M3S245
G4 P0.5; Tool Off

G0 Z0; move to z-safe height
G0 X491.0000 Y36.4900
M3S0
G4 P0.5; Tool On
G1 F300 Z0.0000
G1 F15000 X9.0000 Y36.4900 Z0.0000
M3S245
G4 P0.5; Tool Off

G0 Z0; move to z-safe height
G0 X9.0000 Y54.4900
M3S0
G4 P0.5; Tool On
G1 F300 Z0.0000
G1 F15000 X491.0000 Y54.4900 Z0.0000
M3S245
G4 P0.5; Tool Off

G0 Z0; move to z-safe height
G0 X491.0000 Y72.4900
M3S0
G4 P0.5; Tool On
G1 F300 Z0.0000
G1 F15000 X9.0000 Y72.4900 Z0.0000
M3S245
G4 P0.5; Tool Off

G0 Z0; move to z-safe height
G0 X9.0000 Y90.4900
M3S0
G4 P0.5; Tool On
G1 F300 Z0.0000
G1 F15000 X491.0000 Y90.4900 Z0.0000
M3S245
G4 P0.5; Tool Off

G0 Z0; move to z-safe height
G0 X491.0000 Y108.4900
M3S0
G4 P0.5; Tool On
G1 F300 Z0.0000
G1 F15000 X9.0000 Y108.4900 Z0.0000
M3S245
G4 P0.5; Tool Off

G0 Z0; move to z-safe height
G0 X9.0000 Y126.4900
M3S0
G4 P0.5; Tool On
G1 F300 Z0.0000
G1 F15000 X491.0000 Y126.4900 Z0.0000
M3S245
G4 P0.5; Tool Off

G0 Z0; move to z-safe height
G0 X491.0000 Y144.4900
M3S0
G4 P0.5; Tool On
G1 F300 Z0.0000
G1 F15000 X9.0000 Y144.4900 Z0.0000
M3S245
G4 P0.5; Tool Off

G0 Z0; move to z-safe height
G0 X9.0000 Y162.4900
M3S0
G4 P0.5; Tool On
G1 F300 Z0.0000
G1 F15000 X491.0000 Y162.4900 Z0.0000
M3S245
G4 P0.5; Tool Off

G0 Z0; move to z-safe height
G0 X491.0000 Y180.4900
M3S0
G4 P0.5; Tool On
G1 F300 Z0.0000
G1 F15000 X9.0000 Y180.4900 Z0.0000
M3S245
G4 P0.5; Tool Off

G0 Z0; move to z-safe height
G0 X9.0000 Y198.4900
M3S0
G4 P0.5; Tool On
G1 F300 Z0.0000
G1 F15000 X491.0000 Y198.4900 Z0.0000
M3S245
G4 P0.5; Tool Off

G0 Z0; move to z-safe height
G0 X491.0000 Y216.4900
M3S0
G4 P0.5; Tool On
G1 F300 Z0.0000
G1 F15000 X9.0000 Y216.4900 Z0.0000
M3S245
G4 P0.5; Tool Off

G0 Z0; move to z-safe height
G0 X9.0000 Y234.4900
M3S0
G4 P0.5; Tool On
G1 F300 Z0.0000
G1 F15000 X491.0000 Y234.4900 Z0.0000
M3S245
G4 P0.5; Tool Off

G0 Z0; move to z-safe height
G0 X491.0000 Y252.4900
M3S0
G4 P0.5; Tool On
G1 F300 Z0.0000
G1 F15000 X9.0000 Y252.4900 Z0.0000
M3S245
G4 P0.5; Tool Off

G0 Z0; move to z-safe height
G0 X9.0000 Y270.4900
M3S0
G4 P0.5; Tool On
G1 F300 Z0.0000
G1 F15000 X491.0000 Y270.4900 Z0.0000
M3S245
G4 P0.5; Tool Off

G0 Z0; move to z-safe height
G0 X491.0000 Y288.4900
M3S0
G4 P0.5; Tool On
G1 F300 Z0.0000
G1 F15000 X9.0000 Y288.4900 Z0.0000
M3S245
G4 P0.5; Tool Off

G0 Z0; move to z-safe height
G0 X9.0000 Y306.4900
M3S0
G4 P0.5; Tool On
G1 F300 Z0.0000
G1 F15000 X491.0000 Y306.4900 Z0.0000
M3S245
G4 P0.5; Tool Off

G0 Z0; move to z-safe height
G0 X491.0000 Y324.4900
M3S0
G4 P0.5; Tool On
G1 F300 Z0.0000
G1 F15000 X9.0000 Y324.4900 Z0.0000
M3S245
G4 P0.5; Tool Off

G0 Z0; move to z-safe height
G0 X9.0000 Y342.4900
M3S0
G4 P0.5; Tool On
G1 F300 Z0.0000
G1 F15000 X491.0000 Y342.4900 Z0.0000
M3S245
G4 P0.5; Tool Off

G0 Z0; move to z-safe height
G0 X491.0000 Y360.4900
M3S0
G4 P0.5; Tool On
G1 F300 Z0.0000
G1 F15000 X9.0000 Y360.4900 Z0.0000
M3S245
G4 P0.5; Tool Off

G0 Z0; move to z-safe height
G0 X9.0000 Y378.4900
M3S0
G4 P0.5; Tool On
G1 F300 Z0.0000
G1 F15000 X491.0000 Y378.4900 Z0.0000
M3S245
G4 P0.5; Tool Off
; retracting back to z-safe
G0 Z0

; Plotter Mode Complete
