; GCODE Generated by cam.openbuilds.com on 2023-10-15 
G21 ; mm-mode
G54; Work Coordinates
G21; mm-mode
G90; Absolute Positioning
; Plotter Mode Active

; Operation 0: Pen Plotter: (lines fill)
; Pen Diameter: 2

G0 Z0; move to z-safe height
G0 F1000 X494.0000 Y8.2800
M3S0
G4 P0.5; Tool On
G1 F300 Z0.0000
G1 F15000 X6.0000 Y8.2800 Z0.0000
M3S245
G4 P0.5; Tool Off

G0 Z0; move to z-safe height
G0 X6.0000 Y20.2800
M3S0
G4 P0.5; Tool On
G1 F300 Z0.0000
G1 F15000 X494.0000 Y20.2800 Z0.0000
M3S245
G4 P0.5; Tool Off

G0 Z0; move to z-safe height
G0 X494.0000 Y32.2800
M3S0
G4 P0.5; Tool On
G1 F300 Z0.0000
G1 F15000 X6.0000 Y32.2800 Z0.0000
M3S245
G4 P0.5; Tool Off

G0 Z0; move to z-safe height
G0 X6.0000 Y44.2800
M3S0
G4 P0.5; Tool On
G1 F300 Z0.0000
G1 F15000 X494.0000 Y44.2800 Z0.0000
M3S245
G4 P0.5; Tool Off

G0 Z0; move to z-safe height
G0 X494.0000 Y56.2800
M3S0
G4 P0.5; Tool On
G1 F300 Z0.0000
G1 F15000 X6.0000 Y56.2800 Z0.0000
M3S245
G4 P0.5; Tool Off

G0 Z0; move to z-safe height
G0 X6.0000 Y68.2800
M3S0
G4 P0.5; Tool On
G1 F300 Z0.0000
G1 F15000 X494.0000 Y68.2800 Z0.0000
M3S245
G4 P0.5; Tool Off

G0 Z0; move to z-safe height
G0 X494.0000 Y80.2800
M3S0
G4 P0.5; Tool On
G1 F300 Z0.0000
G1 F15000 X6.0000 Y80.2800 Z0.0000
M3S245
G4 P0.5; Tool Off

G0 Z0; move to z-safe height
G0 X6.0000 Y92.2800
M3S0
G4 P0.5; Tool On
G1 F300 Z0.0000
G1 F15000 X494.0000 Y92.2800 Z0.0000
M3S245
G4 P0.5; Tool Off

G0 Z0; move to z-safe height
G0 X494.0000 Y104.2800
M3S0
G4 P0.5; Tool On
G1 F300 Z0.0000
G1 F15000 X6.0000 Y104.2800 Z0.0000
M3S245
G4 P0.5; Tool Off

G0 Z0; move to z-safe height
G0 X6.0000 Y116.2800
M3S0
G4 P0.5; Tool On
G1 F300 Z0.0000
G1 F15000 X494.0000 Y116.2800 Z0.0000
M3S245
G4 P0.5; Tool Off

G0 Z0; move to z-safe height
G0 X494.0000 Y128.2800
M3S0
G4 P0.5; Tool On
G1 F300 Z0.0000
G1 F15000 X6.0000 Y128.2800 Z0.0000
M3S245
G4 P0.5; Tool Off

G0 Z0; move to z-safe height
G0 X6.0000 Y140.2800
M3S0
G4 P0.5; Tool On
G1 F300 Z0.0000
G1 F15000 X494.0000 Y140.2800 Z0.0000
M3S245
G4 P0.5; Tool Off

G0 Z0; move to z-safe height
G0 X494.0000 Y152.2800
M3S0
G4 P0.5; Tool On
G1 F300 Z0.0000
G1 F15000 X6.0000 Y152.2800 Z0.0000
M3S245
G4 P0.5; Tool Off

G0 Z0; move to z-safe height
G0 X6.0000 Y164.2800
M3S0
G4 P0.5; Tool On
G1 F300 Z0.0000
G1 F15000 X494.0000 Y164.2800 Z0.0000
M3S245
G4 P0.5; Tool Off

G0 Z0; move to z-safe height
G0 X494.0000 Y176.2800
M3S0
G4 P0.5; Tool On
G1 F300 Z0.0000
G1 F15000 X6.0000 Y176.2800 Z0.0000
M3S245
G4 P0.5; Tool Off

G0 Z0; move to z-safe height
G0 X6.0000 Y188.2800
M3S0
G4 P0.5; Tool On
G1 F300 Z0.0000
G1 F15000 X494.0000 Y188.2800 Z0.0000
M3S245
G4 P0.5; Tool Off

G0 Z0; move to z-safe height
G0 X494.0000 Y200.2800
M3S0
G4 P0.5; Tool On
G1 F300 Z0.0000
G1 F15000 X6.0000 Y200.2800 Z0.0000
M3S245
G4 P0.5; Tool Off

G0 Z0; move to z-safe height
G0 X6.0000 Y212.2800
M3S0
G4 P0.5; Tool On
G1 F300 Z0.0000
G1 F15000 X494.0000 Y212.2800 Z0.0000
M3S245
G4 P0.5; Tool Off

G0 Z0; move to z-safe height
G0 X494.0000 Y224.2800
M3S0
G4 P0.5; Tool On
G1 F300 Z0.0000
G1 F15000 X6.0000 Y224.2800 Z0.0000
M3S245
G4 P0.5; Tool Off

G0 Z0; move to z-safe height
G0 X6.0000 Y236.2800
M3S0
G4 P0.5; Tool On
G1 F300 Z0.0000
G1 F15000 X494.0000 Y236.2800 Z0.0000
M3S245
G4 P0.5; Tool Off

G0 Z0; move to z-safe height
G0 X494.0000 Y248.2800
M3S0
G4 P0.5; Tool On
G1 F300 Z0.0000
G1 F15000 X6.0000 Y248.2800 Z0.0000
M3S245
G4 P0.5; Tool Off

G0 Z0; move to z-safe height
G0 X6.0000 Y260.2800
M3S0
G4 P0.5; Tool On
G1 F300 Z0.0000
G1 F15000 X494.0000 Y260.2800 Z0.0000
M3S245
G4 P0.5; Tool Off

G0 Z0; move to z-safe height
G0 X494.0000 Y272.2800
M3S0
G4 P0.5; Tool On
G1 F300 Z0.0000
G1 F15000 X6.0000 Y272.2800 Z0.0000
M3S245
G4 P0.5; Tool Off

G0 Z0; move to z-safe height
G0 X6.0000 Y284.2800
M3S0
G4 P0.5; Tool On
G1 F300 Z0.0000
G1 F15000 X494.0000 Y284.2800 Z0.0000
M3S245
G4 P0.5; Tool Off

G0 Z0; move to z-safe height
G0 X494.0000 Y296.2800
M3S0
G4 P0.5; Tool On
G1 F300 Z0.0000
G1 F15000 X6.0000 Y296.2800 Z0.0000
M3S245
G4 P0.5; Tool Off

G0 Z0; move to z-safe height
G0 X6.0000 Y308.2800
M3S0
G4 P0.5; Tool On
G1 F300 Z0.0000
G1 F15000 X494.0000 Y308.2800 Z0.0000
M3S245
G4 P0.5; Tool Off

G0 Z0; move to z-safe height
G0 X494.0000 Y320.2800
M3S0
G4 P0.5; Tool On
G1 F300 Z0.0000
G1 F15000 X6.0000 Y320.2800 Z0.0000
M3S245
G4 P0.5; Tool Off

G0 Z0; move to z-safe height
G0 X6.0000 Y332.2800
M3S0
G4 P0.5; Tool On
G1 F300 Z0.0000
G1 F15000 X494.0000 Y332.2800 Z0.0000
M3S245
G4 P0.5; Tool Off

G0 Z0; move to z-safe height
G0 X494.0000 Y344.2800
M3S0
G4 P0.5; Tool On
G1 F300 Z0.0000
G1 F15000 X6.0000 Y344.2800 Z0.0000
M3S245
G4 P0.5; Tool Off

G0 Z0; move to z-safe height
G0 X6.0000 Y356.2800
M3S0
G4 P0.5; Tool On
G1 F300 Z0.0000
G1 F15000 X494.0000 Y356.2800 Z0.0000
M3S245
G4 P0.5; Tool Off

G0 Z0; move to z-safe height
G0 X494.0000 Y368.2800
M3S0
G4 P0.5; Tool On
G1 F300 Z0.0000
G1 F15000 X6.0000 Y368.2800 Z0.0000
M3S245
G4 P0.5; Tool Off

G0 Z0; move to z-safe height
G0 X6.0000 Y380.2800
M3S0
G4 P0.5; Tool On
G1 F300 Z0.0000
G1 F15000 X494.0000 Y380.2800 Z0.0000
M3S245
G4 P0.5; Tool Off

G0 Z0; move to z-safe height
G0 X494.0000 Y392.2800
M3S0
G4 P0.5; Tool On
G1 F300 Z0.0000
G1 F15000 X6.0000 Y392.2800 Z0.0000
M3S245
G4 P0.5; Tool Off
; retracting back to z-safe
G0 Z0

; Plotter Mode Complete
