; GCODE Generated by cam.openbuilds.com on 2023-10-15 
G21 ; mm-mode
G54; Work Coordinates
G21; mm-mode
G90; Absolute Positioning
; Plotter Mode Active

; Operation 0: Pen Plotter: (lines fill)
; Pen Diameter: 2

G0 Z0; move to z-safe height
G0 F1000 X497.0000 Y4.0600
M3S0
G4 P0.5; Tool On
G1 F300 Z0.0000
G1 F15000 X3.0000 Y4.0600 Z0.0000
M3S245
G4 P0.5; Tool Off

G0 Z0; move to z-safe height
G0 X3.0000 Y10.0600
M3S0
G4 P0.5; Tool On
G1 F300 Z0.0000
G1 F15000 X497.0000 Y10.0600 Z0.0000
M3S245
G4 P0.5; Tool Off

G0 Z0; move to z-safe height
G0 X497.0000 Y16.0600
M3S0
G4 P0.5; Tool On
G1 F300 Z0.0000
G1 F15000 X3.0000 Y16.0600 Z0.0000
M3S245
G4 P0.5; Tool Off

G0 Z0; move to z-safe height
G0 X3.0000 Y22.0600
M3S0
G4 P0.5; Tool On
G1 F300 Z0.0000
G1 F15000 X497.0000 Y22.0600 Z0.0000
M3S245
G4 P0.5; Tool Off

G0 Z0; move to z-safe height
G0 X497.0000 Y28.0600
M3S0
G4 P0.5; Tool On
G1 F300 Z0.0000
G1 F15000 X3.0000 Y28.0600 Z0.0000
M3S245
G4 P0.5; Tool Off

G0 Z0; move to z-safe height
G0 X3.0000 Y34.0600
M3S0
G4 P0.5; Tool On
G1 F300 Z0.0000
G1 F15000 X497.0000 Y34.0600 Z0.0000
M3S245
G4 P0.5; Tool Off

G0 Z0; move to z-safe height
G0 X497.0000 Y40.0600
M3S0
G4 P0.5; Tool On
G1 F300 Z0.0000
G1 F15000 X3.0000 Y40.0600 Z0.0000
M3S245
G4 P0.5; Tool Off

G0 Z0; move to z-safe height
G0 X3.0000 Y46.0600
M3S0
G4 P0.5; Tool On
G1 F300 Z0.0000
G1 F15000 X497.0000 Y46.0600 Z0.0000
M3S245
G4 P0.5; Tool Off

G0 Z0; move to z-safe height
G0 X497.0000 Y52.0600
M3S0
G4 P0.5; Tool On
G1 F300 Z0.0000
G1 F15000 X3.0000 Y52.0600 Z0.0000
M3S245
G4 P0.5; Tool Off

G0 Z0; move to z-safe height
G0 X3.0000 Y58.0600
M3S0
G4 P0.5; Tool On
G1 F300 Z0.0000
G1 F15000 X497.0000 Y58.0600 Z0.0000
M3S245
G4 P0.5; Tool Off

G0 Z0; move to z-safe height
G0 X497.0000 Y64.0600
M3S0
G4 P0.5; Tool On
G1 F300 Z0.0000
G1 F15000 X3.0000 Y64.0600 Z0.0000
M3S245
G4 P0.5; Tool Off

G0 Z0; move to z-safe height
G0 X3.0000 Y70.0600
M3S0
G4 P0.5; Tool On
G1 F300 Z0.0000
G1 F15000 X497.0000 Y70.0600 Z0.0000
M3S245
G4 P0.5; Tool Off

G0 Z0; move to z-safe height
G0 X497.0000 Y76.0600
M3S0
G4 P0.5; Tool On
G1 F300 Z0.0000
G1 F15000 X3.0000 Y76.0600 Z0.0000
M3S245
G4 P0.5; Tool Off

G0 Z0; move to z-safe height
G0 X3.0000 Y82.0600
M3S0
G4 P0.5; Tool On
G1 F300 Z0.0000
G1 F15000 X497.0000 Y82.0600 Z0.0000
M3S245
G4 P0.5; Tool Off

G0 Z0; move to z-safe height
G0 X497.0000 Y88.0600
M3S0
G4 P0.5; Tool On
G1 F300 Z0.0000
G1 F15000 X3.0000 Y88.0600 Z0.0000
M3S245
G4 P0.5; Tool Off

G0 Z0; move to z-safe height
G0 X3.0000 Y94.0600
M3S0
G4 P0.5; Tool On
G1 F300 Z0.0000
G1 F15000 X497.0000 Y94.0600 Z0.0000
M3S245
G4 P0.5; Tool Off

G0 Z0; move to z-safe height
G0 X497.0000 Y100.0600
M3S0
G4 P0.5; Tool On
G1 F300 Z0.0000
G1 F15000 X3.0000 Y100.0600 Z0.0000
M3S245
G4 P0.5; Tool Off

G0 Z0; move to z-safe height
G0 X3.0000 Y106.0600
M3S0
G4 P0.5; Tool On
G1 F300 Z0.0000
G1 F15000 X497.0000 Y106.0600 Z0.0000
M3S245
G4 P0.5; Tool Off

G0 Z0; move to z-safe height
G0 X497.0000 Y112.0600
M3S0
G4 P0.5; Tool On
G1 F300 Z0.0000
G1 F15000 X3.0000 Y112.0600 Z0.0000
M3S245
G4 P0.5; Tool Off

G0 Z0; move to z-safe height
G0 X3.0000 Y118.0600
M3S0
G4 P0.5; Tool On
G1 F300 Z0.0000
G1 F15000 X497.0000 Y118.0600 Z0.0000
M3S245
G4 P0.5; Tool Off

G0 Z0; move to z-safe height
G0 X497.0000 Y124.0600
M3S0
G4 P0.5; Tool On
G1 F300 Z0.0000
G1 F15000 X3.0000 Y124.0600 Z0.0000
M3S245
G4 P0.5; Tool Off

G0 Z0; move to z-safe height
G0 X3.0000 Y130.0600
M3S0
G4 P0.5; Tool On
G1 F300 Z0.0000
G1 F15000 X497.0000 Y130.0600 Z0.0000
M3S245
G4 P0.5; Tool Off

G0 Z0; move to z-safe height
G0 X497.0000 Y136.0600
M3S0
G4 P0.5; Tool On
G1 F300 Z0.0000
G1 F15000 X3.0000 Y136.0600 Z0.0000
M3S245
G4 P0.5; Tool Off

G0 Z0; move to z-safe height
G0 X3.0000 Y142.0600
M3S0
G4 P0.5; Tool On
G1 F300 Z0.0000
G1 F15000 X497.0000 Y142.0600 Z0.0000
M3S245
G4 P0.5; Tool Off

G0 Z0; move to z-safe height
G0 X497.0000 Y148.0600
M3S0
G4 P0.5; Tool On
G1 F300 Z0.0000
G1 F15000 X3.0000 Y148.0600 Z0.0000
M3S245
G4 P0.5; Tool Off

G0 Z0; move to z-safe height
G0 X3.0000 Y154.0600
M3S0
G4 P0.5; Tool On
G1 F300 Z0.0000
G1 F15000 X497.0000 Y154.0600 Z0.0000
M3S245
G4 P0.5; Tool Off

G0 Z0; move to z-safe height
G0 X497.0000 Y160.0600
M3S0
G4 P0.5; Tool On
G1 F300 Z0.0000
G1 F15000 X3.0000 Y160.0600 Z0.0000
M3S245
G4 P0.5; Tool Off

G0 Z0; move to z-safe height
G0 X3.0000 Y166.0600
M3S0
G4 P0.5; Tool On
G1 F300 Z0.0000
G1 F15000 X497.0000 Y166.0600 Z0.0000
M3S245
G4 P0.5; Tool Off

G0 Z0; move to z-safe height
G0 X497.0000 Y172.0600
M3S0
G4 P0.5; Tool On
G1 F300 Z0.0000
G1 F15000 X3.0000 Y172.0600 Z0.0000
M3S245
G4 P0.5; Tool Off

G0 Z0; move to z-safe height
G0 X3.0000 Y178.0600
M3S0
G4 P0.5; Tool On
G1 F300 Z0.0000
G1 F15000 X497.0000 Y178.0600 Z0.0000
M3S245
G4 P0.5; Tool Off

G0 Z0; move to z-safe height
G0 X497.0000 Y184.0600
M3S0
G4 P0.5; Tool On
G1 F300 Z0.0000
G1 F15000 X3.0000 Y184.0600 Z0.0000
M3S245
G4 P0.5; Tool Off

G0 Z0; move to z-safe height
G0 X3.0000 Y190.0600
M3S0
G4 P0.5; Tool On
G1 F300 Z0.0000
G1 F15000 X497.0000 Y190.0600 Z0.0000
M3S245
G4 P0.5; Tool Off

G0 Z0; move to z-safe height
G0 X497.0000 Y196.0600
M3S0
G4 P0.5; Tool On
G1 F300 Z0.0000
G1 F15000 X3.0000 Y196.0600 Z0.0000
M3S245
G4 P0.5; Tool Off

G0 Z0; move to z-safe height
G0 X3.0000 Y202.0600
M3S0
G4 P0.5; Tool On
G1 F300 Z0.0000
G1 F15000 X497.0000 Y202.0600 Z0.0000
M3S245
G4 P0.5; Tool Off

G0 Z0; move to z-safe height
G0 X497.0000 Y208.0600
M3S0
G4 P0.5; Tool On
G1 F300 Z0.0000
G1 F15000 X3.0000 Y208.0600 Z0.0000
M3S245
G4 P0.5; Tool Off

G0 Z0; move to z-safe height
G0 X3.0000 Y214.0600
M3S0
G4 P0.5; Tool On
G1 F300 Z0.0000
G1 F15000 X497.0000 Y214.0600 Z0.0000
M3S245
G4 P0.5; Tool Off

G0 Z0; move to z-safe height
G0 X497.0000 Y220.0600
M3S0
G4 P0.5; Tool On
G1 F300 Z0.0000
G1 F15000 X3.0000 Y220.0600 Z0.0000
M3S245
G4 P0.5; Tool Off

G0 Z0; move to z-safe height
G0 X3.0000 Y226.0600
M3S0
G4 P0.5; Tool On
G1 F300 Z0.0000
G1 F15000 X497.0000 Y226.0600 Z0.0000
M3S245
G4 P0.5; Tool Off

G0 Z0; move to z-safe height
G0 X497.0000 Y232.0600
M3S0
G4 P0.5; Tool On
G1 F300 Z0.0000
G1 F15000 X3.0000 Y232.0600 Z0.0000
M3S245
G4 P0.5; Tool Off

G0 Z0; move to z-safe height
G0 X3.0000 Y238.0600
M3S0
G4 P0.5; Tool On
G1 F300 Z0.0000
G1 F15000 X497.0000 Y238.0600 Z0.0000
M3S245
G4 P0.5; Tool Off

G0 Z0; move to z-safe height
G0 X497.0000 Y244.0600
M3S0
G4 P0.5; Tool On
G1 F300 Z0.0000
G1 F15000 X3.0000 Y244.0600 Z0.0000
M3S245
G4 P0.5; Tool Off

G0 Z0; move to z-safe height
G0 X3.0000 Y250.0600
M3S0
G4 P0.5; Tool On
G1 F300 Z0.0000
G1 F15000 X497.0000 Y250.0600 Z0.0000
M3S245
G4 P0.5; Tool Off

G0 Z0; move to z-safe height
G0 X497.0000 Y256.0600
M3S0
G4 P0.5; Tool On
G1 F300 Z0.0000
G1 F15000 X3.0000 Y256.0600 Z0.0000
M3S245
G4 P0.5; Tool Off

G0 Z0; move to z-safe height
G0 X3.0000 Y262.0600
M3S0
G4 P0.5; Tool On
G1 F300 Z0.0000
G1 F15000 X497.0000 Y262.0600 Z0.0000
M3S245
G4 P0.5; Tool Off

G0 Z0; move to z-safe height
G0 X497.0000 Y268.0600
M3S0
G4 P0.5; Tool On
G1 F300 Z0.0000
G1 F15000 X3.0000 Y268.0600 Z0.0000
M3S245
G4 P0.5; Tool Off

G0 Z0; move to z-safe height
G0 X3.0000 Y274.0600
M3S0
G4 P0.5; Tool On
G1 F300 Z0.0000
G1 F15000 X497.0000 Y274.0600 Z0.0000
M3S245
G4 P0.5; Tool Off

G0 Z0; move to z-safe height
G0 X497.0000 Y280.0600
M3S0
G4 P0.5; Tool On
G1 F300 Z0.0000
G1 F15000 X3.0000 Y280.0600 Z0.0000
M3S245
G4 P0.5; Tool Off

G0 Z0; move to z-safe height
G0 X3.0000 Y286.0600
M3S0
G4 P0.5; Tool On
G1 F300 Z0.0000
G1 F15000 X497.0000 Y286.0600 Z0.0000
M3S245
G4 P0.5; Tool Off

G0 Z0; move to z-safe height
G0 X497.0000 Y292.0600
M3S0
G4 P0.5; Tool On
G1 F300 Z0.0000
G1 F15000 X3.0000 Y292.0600 Z0.0000
M3S245
G4 P0.5; Tool Off

G0 Z0; move to z-safe height
G0 X3.0000 Y298.0600
M3S0
G4 P0.5; Tool On
G1 F300 Z0.0000
G1 F15000 X497.0000 Y298.0600 Z0.0000
M3S245
G4 P0.5; Tool Off

G0 Z0; move to z-safe height
G0 X497.0000 Y304.0600
M3S0
G4 P0.5; Tool On
G1 F300 Z0.0000
G1 F15000 X3.0000 Y304.0600 Z0.0000
M3S245
G4 P0.5; Tool Off

G0 Z0; move to z-safe height
G0 X3.0000 Y310.0600
M3S0
G4 P0.5; Tool On
G1 F300 Z0.0000
G1 F15000 X497.0000 Y310.0600 Z0.0000
M3S245
G4 P0.5; Tool Off

G0 Z0; move to z-safe height
G0 X497.0000 Y316.0600
M3S0
G4 P0.5; Tool On
G1 F300 Z0.0000
G1 F15000 X3.0000 Y316.0600 Z0.0000
M3S245
G4 P0.5; Tool Off

G0 Z0; move to z-safe height
G0 X3.0000 Y322.0600
M3S0
G4 P0.5; Tool On
G1 F300 Z0.0000
G1 F15000 X497.0000 Y322.0600 Z0.0000
M3S245
G4 P0.5; Tool Off

G0 Z0; move to z-safe height
G0 X497.0000 Y328.0600
M3S0
G4 P0.5; Tool On
G1 F300 Z0.0000
G1 F15000 X3.0000 Y328.0600 Z0.0000
M3S245
G4 P0.5; Tool Off

G0 Z0; move to z-safe height
G0 X3.0000 Y334.0600
M3S0
G4 P0.5; Tool On
G1 F300 Z0.0000
G1 F15000 X497.0000 Y334.0600 Z0.0000
M3S245
G4 P0.5; Tool Off

G0 Z0; move to z-safe height
G0 X497.0000 Y340.0600
M3S0
G4 P0.5; Tool On
G1 F300 Z0.0000
G1 F15000 X3.0000 Y340.0600 Z0.0000
M3S245
G4 P0.5; Tool Off

G0 Z0; move to z-safe height
G0 X3.0000 Y346.0600
M3S0
G4 P0.5; Tool On
G1 F300 Z0.0000
G1 F15000 X497.0000 Y346.0600 Z0.0000
M3S245
G4 P0.5; Tool Off

G0 Z0; move to z-safe height
G0 X497.0000 Y352.0600
M3S0
G4 P0.5; Tool On
G1 F300 Z0.0000
G1 F15000 X3.0000 Y352.0600 Z0.0000
M3S245
G4 P0.5; Tool Off

G0 Z0; move to z-safe height
G0 X3.0000 Y358.0600
M3S0
G4 P0.5; Tool On
G1 F300 Z0.0000
G1 F15000 X497.0000 Y358.0600 Z0.0000
M3S245
G4 P0.5; Tool Off

G0 Z0; move to z-safe height
G0 X497.0000 Y364.0600
M3S0
G4 P0.5; Tool On
G1 F300 Z0.0000
G1 F15000 X3.0000 Y364.0600 Z0.0000
M3S245
G4 P0.5; Tool Off

G0 Z0; move to z-safe height
G0 X3.0000 Y370.0600
M3S0
G4 P0.5; Tool On
G1 F300 Z0.0000
G1 F15000 X497.0000 Y370.0600 Z0.0000
M3S245
G4 P0.5; Tool Off

G0 Z0; move to z-safe height
G0 X497.0000 Y376.0600
M3S0
G4 P0.5; Tool On
G1 F300 Z0.0000
G1 F15000 X3.0000 Y376.0600 Z0.0000
M3S245
G4 P0.5; Tool Off

G0 Z0; move to z-safe height
G0 X3.0000 Y382.0600
M3S0
G4 P0.5; Tool On
G1 F300 Z0.0000
G1 F15000 X497.0000 Y382.0600 Z0.0000
M3S245
G4 P0.5; Tool Off

G0 Z0; move to z-safe height
G0 X497.0000 Y388.0600
M3S0
G4 P0.5; Tool On
G1 F300 Z0.0000
G1 F15000 X3.0000 Y388.0600 Z0.0000
M3S245
G4 P0.5; Tool Off

G0 Z0; move to z-safe height
G0 X3.0000 Y394.0600
M3S0
G4 P0.5; Tool On
G1 F300 Z0.0000
G1 F15000 X497.0000 Y394.0600 Z0.0000
M3S245
G4 P0.5; Tool Off
; retracting back to z-safe
G0 Z0

; Plotter Mode Complete
