; GCODE Generated by cam.openbuilds.com on 2023-10-15 
G21 ; mm-mode
G54; Work Coordinates
G21; mm-mode
G90; Absolute Positioning
; Plotter Mode Active

; Operation 0: Pen Plotter: (lines fill)
; Pen Diameter: 2

G0 Z0; move to z-safe height
G0 F1000 X492.0000 Y19.0900
M3S0
G4 P0.5; Tool On
G1 F300 Z0.0000
G1 F15000 X8.0000 Y19.0900 Z0.0000
M3S245
G4 P0.5; Tool Off

G0 Z0; move to z-safe height
G0 X8.0000 Y35.0900
M3S0
G4 P0.5; Tool On
G1 F300 Z0.0000
G1 F15000 X492.0000 Y35.0900 Z0.0000
M3S245
G4 P0.5; Tool Off

G0 Z0; move to z-safe height
G0 X492.0000 Y51.0900
M3S0
G4 P0.5; Tool On
G1 F300 Z0.0000
G1 F15000 X8.0000 Y51.0900 Z0.0000
M3S245
G4 P0.5; Tool Off

G0 Z0; move to z-safe height
G0 X8.0000 Y67.0900
M3S0
G4 P0.5; Tool On
G1 F300 Z0.0000
G1 F15000 X492.0000 Y67.0900 Z0.0000
M3S245
G4 P0.5; Tool Off

G0 Z0; move to z-safe height
G0 X492.0000 Y83.0900
M3S0
G4 P0.5; Tool On
G1 F300 Z0.0000
G1 F15000 X8.0000 Y83.0900 Z0.0000
M3S245
G4 P0.5; Tool Off

G0 Z0; move to z-safe height
G0 X8.0000 Y99.0900
M3S0
G4 P0.5; Tool On
G1 F300 Z0.0000
G1 F15000 X492.0000 Y99.0900 Z0.0000
M3S245
G4 P0.5; Tool Off

G0 Z0; move to z-safe height
G0 X492.0000 Y115.0900
M3S0
G4 P0.5; Tool On
G1 F300 Z0.0000
G1 F15000 X8.0000 Y115.0900 Z0.0000
M3S245
G4 P0.5; Tool Off

G0 Z0; move to z-safe height
G0 X8.0000 Y131.0900
M3S0
G4 P0.5; Tool On
G1 F300 Z0.0000
G1 F15000 X492.0000 Y131.0900 Z0.0000
M3S245
G4 P0.5; Tool Off

G0 Z0; move to z-safe height
G0 X492.0000 Y147.0900
M3S0
G4 P0.5; Tool On
G1 F300 Z0.0000
G1 F15000 X8.0000 Y147.0900 Z0.0000
M3S245
G4 P0.5; Tool Off

G0 Z0; move to z-safe height
G0 X8.0000 Y163.0900
M3S0
G4 P0.5; Tool On
G1 F300 Z0.0000
G1 F15000 X492.0000 Y163.0900 Z0.0000
M3S245
G4 P0.5; Tool Off

G0 Z0; move to z-safe height
G0 X492.0000 Y179.0900
M3S0
G4 P0.5; Tool On
G1 F300 Z0.0000
G1 F15000 X8.0000 Y179.0900 Z0.0000
M3S245
G4 P0.5; Tool Off

G0 Z0; move to z-safe height
G0 X8.0000 Y195.0900
M3S0
G4 P0.5; Tool On
G1 F300 Z0.0000
G1 F15000 X492.0000 Y195.0900 Z0.0000
M3S245
G4 P0.5; Tool Off

G0 Z0; move to z-safe height
G0 X492.0000 Y211.0900
M3S0
G4 P0.5; Tool On
G1 F300 Z0.0000
G1 F15000 X8.0000 Y211.0900 Z0.0000
M3S245
G4 P0.5; Tool Off

G0 Z0; move to z-safe height
G0 X8.0000 Y227.0900
M3S0
G4 P0.5; Tool On
G1 F300 Z0.0000
G1 F15000 X492.0000 Y227.0900 Z0.0000
M3S245
G4 P0.5; Tool Off

G0 Z0; move to z-safe height
G0 X492.0000 Y243.0900
M3S0
G4 P0.5; Tool On
G1 F300 Z0.0000
G1 F15000 X8.0000 Y243.0900 Z0.0000
M3S245
G4 P0.5; Tool Off

G0 Z0; move to z-safe height
G0 X8.0000 Y259.0900
M3S0
G4 P0.5; Tool On
G1 F300 Z0.0000
G1 F15000 X492.0000 Y259.0900 Z0.0000
M3S245
G4 P0.5; Tool Off

G0 Z0; move to z-safe height
G0 X492.0000 Y275.0900
M3S0
G4 P0.5; Tool On
G1 F300 Z0.0000
G1 F15000 X8.0000 Y275.0900 Z0.0000
M3S245
G4 P0.5; Tool Off

G0 Z0; move to z-safe height
G0 X8.0000 Y291.0900
M3S0
G4 P0.5; Tool On
G1 F300 Z0.0000
G1 F15000 X492.0000 Y291.0900 Z0.0000
M3S245
G4 P0.5; Tool Off

G0 Z0; move to z-safe height
G0 X492.0000 Y307.0900
M3S0
G4 P0.5; Tool On
G1 F300 Z0.0000
G1 F15000 X8.0000 Y307.0900 Z0.0000
M3S245
G4 P0.5; Tool Off

G0 Z0; move to z-safe height
G0 X8.0000 Y323.0900
M3S0
G4 P0.5; Tool On
G1 F300 Z0.0000
G1 F15000 X492.0000 Y323.0900 Z0.0000
M3S245
G4 P0.5; Tool Off

G0 Z0; move to z-safe height
G0 X492.0000 Y339.0900
M3S0
G4 P0.5; Tool On
G1 F300 Z0.0000
G1 F15000 X8.0000 Y339.0900 Z0.0000
M3S245
G4 P0.5; Tool Off

G0 Z0; move to z-safe height
G0 X8.0000 Y355.0900
M3S0
G4 P0.5; Tool On
G1 F300 Z0.0000
G1 F15000 X492.0000 Y355.0900 Z0.0000
M3S245
G4 P0.5; Tool Off

G0 Z0; move to z-safe height
G0 X492.0000 Y371.0900
M3S0
G4 P0.5; Tool On
G1 F300 Z0.0000
G1 F15000 X8.0000 Y371.0900 Z0.0000
M3S245
G4 P0.5; Tool Off

G0 Z0; move to z-safe height
G0 X8.0000 Y387.0900
M3S0
G4 P0.5; Tool On
G1 F300 Z0.0000
G1 F15000 X492.0000 Y387.0900 Z0.0000
M3S245
G4 P0.5; Tool Off
; retracting back to z-safe
G0 Z0

; Plotter Mode Complete
