; GCODE Generated by cam.openbuilds.com on 2023-10-15 
G21 ; mm-mode
G54; Work Coordinates
G21; mm-mode
G90; Absolute Positioning
; Plotter Mode Active

; Operation 0: Pen Plotter: (lines fill)
; Pen Diameter: 2

G0 Z0; move to z-safe height
G0 F1000 X490.0000 Y13.9000
M3S0
G4 P0.5; Tool On
G1 F300 Z0.0000
G1 F15000 X10.0000 Y13.9000 Z0.0000
M3S245
G4 P0.5; Tool Off

G0 Z0; move to z-safe height
G0 X10.0000 Y33.9000
M3S0
G4 P0.5; Tool On
G1 F300 Z0.0000
G1 F15000 X490.0000 Y33.9000 Z0.0000
M3S245
G4 P0.5; Tool Off

G0 Z0; move to z-safe height
G0 X490.0000 Y53.9000
M3S0
G4 P0.5; Tool On
G1 F300 Z0.0000
G1 F15000 X10.0000 Y53.9000 Z0.0000
M3S245
G4 P0.5; Tool Off

G0 Z0; move to z-safe height
G0 X10.0000 Y73.9000
M3S0
G4 P0.5; Tool On
G1 F300 Z0.0000
G1 F15000 X490.0000 Y73.9000 Z0.0000
M3S245
G4 P0.5; Tool Off

G0 Z0; move to z-safe height
G0 X490.0000 Y93.9000
M3S0
G4 P0.5; Tool On
G1 F300 Z0.0000
G1 F15000 X10.0000 Y93.9000 Z0.0000
M3S245
G4 P0.5; Tool Off

G0 Z0; move to z-safe height
G0 X10.0000 Y113.9000
M3S0
G4 P0.5; Tool On
G1 F300 Z0.0000
G1 F15000 X490.0000 Y113.9000 Z0.0000
M3S245
G4 P0.5; Tool Off

G0 Z0; move to z-safe height
G0 X490.0000 Y133.9000
M3S0
G4 P0.5; Tool On
G1 F300 Z0.0000
G1 F15000 X10.0000 Y133.9000 Z0.0000
M3S245
G4 P0.5; Tool Off

G0 Z0; move to z-safe height
G0 X10.0000 Y153.9000
M3S0
G4 P0.5; Tool On
G1 F300 Z0.0000
G1 F15000 X490.0000 Y153.9000 Z0.0000
M3S245
G4 P0.5; Tool Off

G0 Z0; move to z-safe height
G0 X490.0000 Y173.9000
M3S0
G4 P0.5; Tool On
G1 F300 Z0.0000
G1 F15000 X10.0000 Y173.9000 Z0.0000
M3S245
G4 P0.5; Tool Off

G0 Z0; move to z-safe height
G0 X10.0000 Y193.9000
M3S0
G4 P0.5; Tool On
G1 F300 Z0.0000
G1 F15000 X490.0000 Y193.9000 Z0.0000
M3S245
G4 P0.5; Tool Off

G0 Z0; move to z-safe height
G0 X490.0000 Y213.9000
M3S0
G4 P0.5; Tool On
G1 F300 Z0.0000
G1 F15000 X10.0000 Y213.9000 Z0.0000
M3S245
G4 P0.5; Tool Off

G0 Z0; move to z-safe height
G0 X10.0000 Y233.9000
M3S0
G4 P0.5; Tool On
G1 F300 Z0.0000
G1 F15000 X490.0000 Y233.9000 Z0.0000
M3S245
G4 P0.5; Tool Off

G0 Z0; move to z-safe height
G0 X490.0000 Y253.9000
M3S0
G4 P0.5; Tool On
G1 F300 Z0.0000
G1 F15000 X10.0000 Y253.9000 Z0.0000
M3S245
G4 P0.5; Tool Off

G0 Z0; move to z-safe height
G0 X10.0000 Y273.9000
M3S0
G4 P0.5; Tool On
G1 F300 Z0.0000
G1 F15000 X490.0000 Y273.9000 Z0.0000
M3S245
G4 P0.5; Tool Off

G0 Z0; move to z-safe height
G0 X490.0000 Y293.9000
M3S0
G4 P0.5; Tool On
G1 F300 Z0.0000
G1 F15000 X10.0000 Y293.9000 Z0.0000
M3S245
G4 P0.5; Tool Off

G0 Z0; move to z-safe height
G0 X10.0000 Y313.9000
M3S0
G4 P0.5; Tool On
G1 F300 Z0.0000
G1 F15000 X490.0000 Y313.9000 Z0.0000
M3S245
G4 P0.5; Tool Off

G0 Z0; move to z-safe height
G0 X490.0000 Y333.9000
M3S0
G4 P0.5; Tool On
G1 F300 Z0.0000
G1 F15000 X10.0000 Y333.9000 Z0.0000
M3S245
G4 P0.5; Tool Off

G0 Z0; move to z-safe height
G0 X10.0000 Y353.9000
M3S0
G4 P0.5; Tool On
G1 F300 Z0.0000
G1 F15000 X490.0000 Y353.9000 Z0.0000
M3S245
G4 P0.5; Tool Off

G0 Z0; move to z-safe height
G0 X490.0000 Y373.9000
M3S0
G4 P0.5; Tool On
G1 F300 Z0.0000
G1 F15000 X10.0000 Y373.9000 Z0.0000
M3S245
G4 P0.5; Tool Off
; retracting back to z-safe
G0 Z0

; Plotter Mode Complete
