; GCODE Generated by cam.openbuilds.com on 2023-10-15 
G21 ; mm-mode
G54; Work Coordinates
G21; mm-mode
G90; Absolute Positioning
; Plotter Mode Active

; Operation 0: Pen Plotter: (lines fill)
; Pen Diameter: 2

G0 Z0; move to z-safe height
G0 F1000 X4.0000 Y5.4700
M3S0
G4 P0.5; Tool On
G1 F300 Z0.0000
G1 F15000 X496.0000 Y5.4700 Z0.0000
M3S245
G4 P0.5; Tool Off

G0 Z0; move to z-safe height
G0 X496.0000 Y13.4700
M3S0
G4 P0.5; Tool On
G1 F300 Z0.0000
G1 F15000 X4.0000 Y13.4700 Z0.0000
M3S245
G4 P0.5; Tool Off

G0 Z0; move to z-safe height
G0 X4.0000 Y21.4700
M3S0
G4 P0.5; Tool On
G1 F300 Z0.0000
G1 F15000 X496.0000 Y21.4700 Z0.0000
M3S245
G4 P0.5; Tool Off

G0 Z0; move to z-safe height
G0 X496.0000 Y29.4700
M3S0
G4 P0.5; Tool On
G1 F300 Z0.0000
G1 F15000 X4.0000 Y29.4700 Z0.0000
M3S245
G4 P0.5; Tool Off

G0 Z0; move to z-safe height
G0 X4.0000 Y37.4700
M3S0
G4 P0.5; Tool On
G1 F300 Z0.0000
G1 F15000 X496.0000 Y37.4700 Z0.0000
M3S245
G4 P0.5; Tool Off

G0 Z0; move to z-safe height
G0 X496.0000 Y45.4700
M3S0
G4 P0.5; Tool On
G1 F300 Z0.0000
G1 F15000 X4.0000 Y45.4700 Z0.0000
M3S245
G4 P0.5; Tool Off

G0 Z0; move to z-safe height
G0 X4.0000 Y53.4700
M3S0
G4 P0.5; Tool On
G1 F300 Z0.0000
G1 F15000 X496.0000 Y53.4700 Z0.0000
M3S245
G4 P0.5; Tool Off

G0 Z0; move to z-safe height
G0 X496.0000 Y61.4700
M3S0
G4 P0.5; Tool On
G1 F300 Z0.0000
G1 F15000 X4.0000 Y61.4700 Z0.0000
M3S245
G4 P0.5; Tool Off

G0 Z0; move to z-safe height
G0 X4.0000 Y69.4700
M3S0
G4 P0.5; Tool On
G1 F300 Z0.0000
G1 F15000 X496.0000 Y69.4700 Z0.0000
M3S245
G4 P0.5; Tool Off

G0 Z0; move to z-safe height
G0 X496.0000 Y77.4700
M3S0
G4 P0.5; Tool On
G1 F300 Z0.0000
G1 F15000 X4.0000 Y77.4700 Z0.0000
M3S245
G4 P0.5; Tool Off

G0 Z0; move to z-safe height
G0 X4.0000 Y85.4700
M3S0
G4 P0.5; Tool On
G1 F300 Z0.0000
G1 F15000 X496.0000 Y85.4700 Z0.0000
M3S245
G4 P0.5; Tool Off

G0 Z0; move to z-safe height
G0 X496.0000 Y93.4700
M3S0
G4 P0.5; Tool On
G1 F300 Z0.0000
G1 F15000 X4.0000 Y93.4700 Z0.0000
M3S245
G4 P0.5; Tool Off

G0 Z0; move to z-safe height
G0 X4.0000 Y101.4700
M3S0
G4 P0.5; Tool On
G1 F300 Z0.0000
G1 F15000 X496.0000 Y101.4700 Z0.0000
M3S245
G4 P0.5; Tool Off

G0 Z0; move to z-safe height
G0 X496.0000 Y109.4700
M3S0
G4 P0.5; Tool On
G1 F300 Z0.0000
G1 F15000 X4.0000 Y109.4700 Z0.0000
M3S245
G4 P0.5; Tool Off

G0 Z0; move to z-safe height
G0 X4.0000 Y117.4700
M3S0
G4 P0.5; Tool On
G1 F300 Z0.0000
G1 F15000 X496.0000 Y117.4700 Z0.0000
M3S245
G4 P0.5; Tool Off

G0 Z0; move to z-safe height
G0 X496.0000 Y125.4700
M3S0
G4 P0.5; Tool On
G1 F300 Z0.0000
G1 F15000 X4.0000 Y125.4700 Z0.0000
M3S245
G4 P0.5; Tool Off

G0 Z0; move to z-safe height
G0 X4.0000 Y133.4700
M3S0
G4 P0.5; Tool On
G1 F300 Z0.0000
G1 F15000 X496.0000 Y133.4700 Z0.0000
M3S245
G4 P0.5; Tool Off

G0 Z0; move to z-safe height
G0 X496.0000 Y141.4700
M3S0
G4 P0.5; Tool On
G1 F300 Z0.0000
G1 F15000 X4.0000 Y141.4700 Z0.0000
M3S245
G4 P0.5; Tool Off

G0 Z0; move to z-safe height
G0 X4.0000 Y149.4700
M3S0
G4 P0.5; Tool On
G1 F300 Z0.0000
G1 F15000 X496.0000 Y149.4700 Z0.0000
M3S245
G4 P0.5; Tool Off

G0 Z0; move to z-safe height
G0 X496.0000 Y157.4700
M3S0
G4 P0.5; Tool On
G1 F300 Z0.0000
G1 F15000 X4.0000 Y157.4700 Z0.0000
M3S245
G4 P0.5; Tool Off

G0 Z0; move to z-safe height
G0 X4.0000 Y165.4700
M3S0
G4 P0.5; Tool On
G1 F300 Z0.0000
G1 F15000 X496.0000 Y165.4700 Z0.0000
M3S245
G4 P0.5; Tool Off

G0 Z0; move to z-safe height
G0 X496.0000 Y173.4700
M3S0
G4 P0.5; Tool On
G1 F300 Z0.0000
G1 F15000 X4.0000 Y173.4700 Z0.0000
M3S245
G4 P0.5; Tool Off

G0 Z0; move to z-safe height
G0 X4.0000 Y181.4700
M3S0
G4 P0.5; Tool On
G1 F300 Z0.0000
G1 F15000 X496.0000 Y181.4700 Z0.0000
M3S245
G4 P0.5; Tool Off

G0 Z0; move to z-safe height
G0 X496.0000 Y189.4700
M3S0
G4 P0.5; Tool On
G1 F300 Z0.0000
G1 F15000 X4.0000 Y189.4700 Z0.0000
M3S245
G4 P0.5; Tool Off

G0 Z0; move to z-safe height
G0 X4.0000 Y197.4700
M3S0
G4 P0.5; Tool On
G1 F300 Z0.0000
G1 F15000 X496.0000 Y197.4700 Z0.0000
M3S245
G4 P0.5; Tool Off

G0 Z0; move to z-safe height
G0 X496.0000 Y205.4700
M3S0
G4 P0.5; Tool On
G1 F300 Z0.0000
G1 F15000 X4.0000 Y205.4700 Z0.0000
M3S245
G4 P0.5; Tool Off

G0 Z0; move to z-safe height
G0 X4.0000 Y213.4700
M3S0
G4 P0.5; Tool On
G1 F300 Z0.0000
G1 F15000 X496.0000 Y213.4700 Z0.0000
M3S245
G4 P0.5; Tool Off

G0 Z0; move to z-safe height
G0 X496.0000 Y221.4700
M3S0
G4 P0.5; Tool On
G1 F300 Z0.0000
G1 F15000 X4.0000 Y221.4700 Z0.0000
M3S245
G4 P0.5; Tool Off

G0 Z0; move to z-safe height
G0 X4.0000 Y229.4700
M3S0
G4 P0.5; Tool On
G1 F300 Z0.0000
G1 F15000 X496.0000 Y229.4700 Z0.0000
M3S245
G4 P0.5; Tool Off

G0 Z0; move to z-safe height
G0 X496.0000 Y237.4700
M3S0
G4 P0.5; Tool On
G1 F300 Z0.0000
G1 F15000 X4.0000 Y237.4700 Z0.0000
M3S245
G4 P0.5; Tool Off

G0 Z0; move to z-safe height
G0 X4.0000 Y245.4700
M3S0
G4 P0.5; Tool On
G1 F300 Z0.0000
G1 F15000 X496.0000 Y245.4700 Z0.0000
M3S245
G4 P0.5; Tool Off

G0 Z0; move to z-safe height
G0 X496.0000 Y253.4700
M3S0
G4 P0.5; Tool On
G1 F300 Z0.0000
G1 F15000 X4.0000 Y253.4700 Z0.0000
M3S245
G4 P0.5; Tool Off

G0 Z0; move to z-safe height
G0 X4.0000 Y261.4700
M3S0
G4 P0.5; Tool On
G1 F300 Z0.0000
G1 F15000 X496.0000 Y261.4700 Z0.0000
M3S245
G4 P0.5; Tool Off

G0 Z0; move to z-safe height
G0 X496.0000 Y269.4700
M3S0
G4 P0.5; Tool On
G1 F300 Z0.0000
G1 F15000 X4.0000 Y269.4700 Z0.0000
M3S245
G4 P0.5; Tool Off

G0 Z0; move to z-safe height
G0 X4.0000 Y277.4700
M3S0
G4 P0.5; Tool On
G1 F300 Z0.0000
G1 F15000 X496.0000 Y277.4700 Z0.0000
M3S245
G4 P0.5; Tool Off

G0 Z0; move to z-safe height
G0 X496.0000 Y285.4700
M3S0
G4 P0.5; Tool On
G1 F300 Z0.0000
G1 F15000 X4.0000 Y285.4700 Z0.0000
M3S245
G4 P0.5; Tool Off

G0 Z0; move to z-safe height
G0 X4.0000 Y293.4700
M3S0
G4 P0.5; Tool On
G1 F300 Z0.0000
G1 F15000 X496.0000 Y293.4700 Z0.0000
M3S245
G4 P0.5; Tool Off

G0 Z0; move to z-safe height
G0 X496.0000 Y301.4700
M3S0
G4 P0.5; Tool On
G1 F300 Z0.0000
G1 F15000 X4.0000 Y301.4700 Z0.0000
M3S245
G4 P0.5; Tool Off

G0 Z0; move to z-safe height
G0 X4.0000 Y309.4700
M3S0
G4 P0.5; Tool On
G1 F300 Z0.0000
G1 F15000 X496.0000 Y309.4700 Z0.0000
M3S245
G4 P0.5; Tool Off

G0 Z0; move to z-safe height
G0 X496.0000 Y317.4700
M3S0
G4 P0.5; Tool On
G1 F300 Z0.0000
G1 F15000 X4.0000 Y317.4700 Z0.0000
M3S245
G4 P0.5; Tool Off

G0 Z0; move to z-safe height
G0 X4.0000 Y325.4700
M3S0
G4 P0.5; Tool On
G1 F300 Z0.0000
G1 F15000 X496.0000 Y325.4700 Z0.0000
M3S245
G4 P0.5; Tool Off

G0 Z0; move to z-safe height
G0 X496.0000 Y333.4700
M3S0
G4 P0.5; Tool On
G1 F300 Z0.0000
G1 F15000 X4.0000 Y333.4700 Z0.0000
M3S245
G4 P0.5; Tool Off

G0 Z0; move to z-safe height
G0 X4.0000 Y341.4700
M3S0
G4 P0.5; Tool On
G1 F300 Z0.0000
G1 F15000 X496.0000 Y341.4700 Z0.0000
M3S245
G4 P0.5; Tool Off

G0 Z0; move to z-safe height
G0 X496.0000 Y349.4700
M3S0
G4 P0.5; Tool On
G1 F300 Z0.0000
G1 F15000 X4.0000 Y349.4700 Z0.0000
M3S245
G4 P0.5; Tool Off

G0 Z0; move to z-safe height
G0 X4.0000 Y357.4700
M3S0
G4 P0.5; Tool On
G1 F300 Z0.0000
G1 F15000 X496.0000 Y357.4700 Z0.0000
M3S245
G4 P0.5; Tool Off

G0 Z0; move to z-safe height
G0 X496.0000 Y365.4700
M3S0
G4 P0.5; Tool On
G1 F300 Z0.0000
G1 F15000 X4.0000 Y365.4700 Z0.0000
M3S245
G4 P0.5; Tool Off

G0 Z0; move to z-safe height
G0 X4.0000 Y373.4700
M3S0
G4 P0.5; Tool On
G1 F300 Z0.0000
G1 F15000 X496.0000 Y373.4700 Z0.0000
M3S245
G4 P0.5; Tool Off

G0 Z0; move to z-safe height
G0 X496.0000 Y381.4700
M3S0
G4 P0.5; Tool On
G1 F300 Z0.0000
G1 F15000 X4.0000 Y381.4700 Z0.0000
M3S245
G4 P0.5; Tool Off

G0 Z0; move to z-safe height
G0 X4.0000 Y389.4700
M3S0
G4 P0.5; Tool On
G1 F300 Z0.0000
G1 F15000 X496.0000 Y389.4700 Z0.0000
M3S245
G4 P0.5; Tool Off
; retracting back to z-safe
G0 Z0

; Plotter Mode Complete
