; GCODE Generated by cam.openbuilds.com on 2023-04-02 
G21 ; mm-mode
G54; Work Coordinates
G21; mm-mode
G90; Absolute Positioning
; Plotter Mode Active

; Operation 0: Pen Plotter: (lines fill)
; Pen Diameter: 2

G0 Z0; move to z-safe height
G0 F1000 X296.0000 Y11.2000
M3S0
G4 P0.5; Tool On
G1 F300 Z0.0000
G1 F15000 X4.0000 Y11.2000 Z0.0000
M3S245
G4 P0.5; Tool Off

G0 Z0; move to z-safe height
G0 X4.0000 Y19.2000
M3S0
G4 P0.5; Tool On
G1 F300 Z0.0000
G1 F15000 X296.0000 Y19.2000 Z0.0000
M3S245
G4 P0.5; Tool Off

G0 Z0; move to z-safe height
G0 X296.0000 Y27.2000
M3S0
G4 P0.5; Tool On
G1 F300 Z0.0000
G1 F15000 X4.0000 Y27.2000 Z0.0000
M3S245
G4 P0.5; Tool Off

G0 Z0; move to z-safe height
G0 X4.0000 Y35.2000
M3S0
G4 P0.5; Tool On
G1 F300 Z0.0000
G1 F15000 X296.0000 Y35.2000 Z0.0000
M3S245
G4 P0.5; Tool Off

G0 Z0; move to z-safe height
G0 X296.0000 Y43.2000
M3S0
G4 P0.5; Tool On
G1 F300 Z0.0000
G1 F15000 X4.0000 Y43.2000 Z0.0000
M3S245
G4 P0.5; Tool Off

G0 Z0; move to z-safe height
G0 X4.0000 Y51.2000
M3S0
G4 P0.5; Tool On
G1 F300 Z0.0000
G1 F15000 X296.0000 Y51.2000 Z0.0000
M3S245
G4 P0.5; Tool Off

G0 Z0; move to z-safe height
G0 X296.0000 Y59.2000
M3S0
G4 P0.5; Tool On
G1 F300 Z0.0000
G1 F15000 X4.0000 Y59.2000 Z0.0000
M3S245
G4 P0.5; Tool Off

G0 Z0; move to z-safe height
G0 X4.0000 Y67.2000
M3S0
G4 P0.5; Tool On
G1 F300 Z0.0000
G1 F15000 X296.0000 Y67.2000 Z0.0000
M3S245
G4 P0.5; Tool Off

G0 Z0; move to z-safe height
G0 X296.0000 Y75.2000
M3S0
G4 P0.5; Tool On
G1 F300 Z0.0000
G1 F15000 X4.0000 Y75.2000 Z0.0000
M3S245
G4 P0.5; Tool Off

G0 Z0; move to z-safe height
G0 X4.0000 Y83.2000
M3S0
G4 P0.5; Tool On
G1 F300 Z0.0000
G1 F15000 X296.0000 Y83.2000 Z0.0000
M3S245
G4 P0.5; Tool Off

G0 Z0; move to z-safe height
G0 X296.0000 Y91.2000
M3S0
G4 P0.5; Tool On
G1 F300 Z0.0000
G1 F15000 X4.0000 Y91.2000 Z0.0000
M3S245
G4 P0.5; Tool Off

G0 Z0; move to z-safe height
G0 X4.0000 Y99.2000
M3S0
G4 P0.5; Tool On
G1 F300 Z0.0000
G1 F15000 X296.0000 Y99.2000 Z0.0000
M3S245
G4 P0.5; Tool Off

G0 Z0; move to z-safe height
G0 X296.0000 Y107.2000
M3S0
G4 P0.5; Tool On
G1 F300 Z0.0000
G1 F15000 X4.0000 Y107.2000 Z0.0000
M3S245
G4 P0.5; Tool Off

G0 Z0; move to z-safe height
G0 X4.0000 Y115.2000
M3S0
G4 P0.5; Tool On
G1 F300 Z0.0000
G1 F15000 X296.0000 Y115.2000 Z0.0000
M3S245
G4 P0.5; Tool Off

G0 Z0; move to z-safe height
G0 X296.0000 Y123.2000
M3S0
G4 P0.5; Tool On
G1 F300 Z0.0000
G1 F15000 X4.0000 Y123.2000 Z0.0000
M3S245
G4 P0.5; Tool Off

G0 Z0; move to z-safe height
G0 X4.0000 Y131.2000
M3S0
G4 P0.5; Tool On
G1 F300 Z0.0000
G1 F15000 X296.0000 Y131.2000 Z0.0000
M3S245
G4 P0.5; Tool Off

G0 Z0; move to z-safe height
G0 X296.0000 Y139.2000
M3S0
G4 P0.5; Tool On
G1 F300 Z0.0000
G1 F15000 X4.0000 Y139.2000 Z0.0000
M3S245
G4 P0.5; Tool Off

G0 Z0; move to z-safe height
G0 X4.0000 Y147.2000
M3S0
G4 P0.5; Tool On
G1 F300 Z0.0000
G1 F15000 X296.0000 Y147.2000 Z0.0000
M3S245
G4 P0.5; Tool Off

G0 Z0; move to z-safe height
G0 X296.0000 Y155.2000
M3S0
G4 P0.5; Tool On
G1 F300 Z0.0000
G1 F15000 X4.0000 Y155.2000 Z0.0000
M3S245
G4 P0.5; Tool Off

G0 Z0; move to z-safe height
G0 X4.0000 Y163.2000
M3S0
G4 P0.5; Tool On
G1 F300 Z0.0000
G1 F15000 X296.0000 Y163.2000 Z0.0000
M3S245
G4 P0.5; Tool Off

G0 Z0; move to z-safe height
G0 X296.0000 Y171.2000
M3S0
G4 P0.5; Tool On
G1 F300 Z0.0000
G1 F15000 X4.0000 Y171.2000 Z0.0000
M3S245
G4 P0.5; Tool Off

G0 Z0; move to z-safe height
G0 X4.0000 Y179.2000
M3S0
G4 P0.5; Tool On
G1 F300 Z0.0000
G1 F15000 X296.0000 Y179.2000 Z0.0000
M3S245
G4 P0.5; Tool Off

G0 Z0; move to z-safe height
G0 X296.0000 Y187.2000
M3S0
G4 P0.5; Tool On
G1 F300 Z0.0000
G1 F15000 X4.0000 Y187.2000 Z0.0000
M3S245
G4 P0.5; Tool Off

G0 Z0; move to z-safe height
G0 X4.0000 Y195.2000
M3S0
G4 P0.5; Tool On
G1 F300 Z0.0000
G1 F15000 X296.0000 Y195.2000 Z0.0000
M3S245
G4 P0.5; Tool Off

G0 Z0; move to z-safe height
G0 X296.0000 Y203.2000
M3S0
G4 P0.5; Tool On
G1 F300 Z0.0000
G1 F15000 X4.0000 Y203.2000 Z0.0000
M3S245
G4 P0.5; Tool Off

G0 Z0; move to z-safe height
G0 X4.0000 Y211.2000
M3S0
G4 P0.5; Tool On
G1 F300 Z0.0000
G1 F15000 X296.0000 Y211.2000 Z0.0000
M3S245
G4 P0.5; Tool Off

G0 Z0; move to z-safe height
G0 X296.0000 Y219.2000
M3S0
G4 P0.5; Tool On
G1 F300 Z0.0000
G1 F15000 X4.0000 Y219.2000 Z0.0000
M3S245
G4 P0.5; Tool Off
; retracting back to z-safe
G0 Z0

; Plotter Mode Complete
