; GCODE Generated by cam.openbuilds.com on 2023-04-02 
G21 ; mm-mode
G54; Work Coordinates
G21; mm-mode
G90; Absolute Positioning
; Plotter Mode Active

; Operation 0: Pen Plotter: (lines fill)
; Pen Diameter: 2

G0 Z0; move to z-safe height
G0 F1000 X3.0000 Y7.8000
M3S0
G4 P0.5; Tool On
G1 F300 Z0.0000
G1 F15000 X297.0000 Y7.8000 Z0.0000
M3S245
G4 P0.5; Tool Off

G0 Z0; move to z-safe height
G0 X297.0000 Y13.8000
M3S0
G4 P0.5; Tool On
G1 F300 Z0.0000
G1 F15000 X3.0000 Y13.8000 Z0.0000
M3S245
G4 P0.5; Tool Off

G0 Z0; move to z-safe height
G0 X3.0000 Y19.8000
M3S0
G4 P0.5; Tool On
G1 F300 Z0.0000
G1 F15000 X297.0000 Y19.8000 Z0.0000
M3S245
G4 P0.5; Tool Off

G0 Z0; move to z-safe height
G0 X297.0000 Y25.8000
M3S0
G4 P0.5; Tool On
G1 F300 Z0.0000
G1 F15000 X3.0000 Y25.8000 Z0.0000
M3S245
G4 P0.5; Tool Off

G0 Z0; move to z-safe height
G0 X3.0000 Y31.8000
M3S0
G4 P0.5; Tool On
G1 F300 Z0.0000
G1 F15000 X297.0000 Y31.8000 Z0.0000
M3S245
G4 P0.5; Tool Off

G0 Z0; move to z-safe height
G0 X297.0000 Y37.8000
M3S0
G4 P0.5; Tool On
G1 F300 Z0.0000
G1 F15000 X3.0000 Y37.8000 Z0.0000
M3S245
G4 P0.5; Tool Off

G0 Z0; move to z-safe height
G0 X3.0000 Y43.8000
M3S0
G4 P0.5; Tool On
G1 F300 Z0.0000
G1 F15000 X297.0000 Y43.8000 Z0.0000
M3S245
G4 P0.5; Tool Off

G0 Z0; move to z-safe height
G0 X297.0000 Y49.8000
M3S0
G4 P0.5; Tool On
G1 F300 Z0.0000
G1 F15000 X3.0000 Y49.8000 Z0.0000
M3S245
G4 P0.5; Tool Off

G0 Z0; move to z-safe height
G0 X3.0000 Y55.8000
M3S0
G4 P0.5; Tool On
G1 F300 Z0.0000
G1 F15000 X297.0000 Y55.8000 Z0.0000
M3S245
G4 P0.5; Tool Off

G0 Z0; move to z-safe height
G0 X297.0000 Y61.8000
M3S0
G4 P0.5; Tool On
G1 F300 Z0.0000
G1 F15000 X3.0000 Y61.8000 Z0.0000
M3S245
G4 P0.5; Tool Off

G0 Z0; move to z-safe height
G0 X3.0000 Y67.8000
M3S0
G4 P0.5; Tool On
G1 F300 Z0.0000
G1 F15000 X297.0000 Y67.8000 Z0.0000
M3S245
G4 P0.5; Tool Off

G0 Z0; move to z-safe height
G0 X297.0000 Y73.8000
M3S0
G4 P0.5; Tool On
G1 F300 Z0.0000
G1 F15000 X3.0000 Y73.8000 Z0.0000
M3S245
G4 P0.5; Tool Off

G0 Z0; move to z-safe height
G0 X3.0000 Y79.8000
M3S0
G4 P0.5; Tool On
G1 F300 Z0.0000
G1 F15000 X297.0000 Y79.8000 Z0.0000
M3S245
G4 P0.5; Tool Off

G0 Z0; move to z-safe height
G0 X297.0000 Y85.8000
M3S0
G4 P0.5; Tool On
G1 F300 Z0.0000
G1 F15000 X3.0000 Y85.8000 Z0.0000
M3S245
G4 P0.5; Tool Off

G0 Z0; move to z-safe height
G0 X3.0000 Y91.8000
M3S0
G4 P0.5; Tool On
G1 F300 Z0.0000
G1 F15000 X297.0000 Y91.8000 Z0.0000
M3S245
G4 P0.5; Tool Off

G0 Z0; move to z-safe height
G0 X297.0000 Y97.8000
M3S0
G4 P0.5; Tool On
G1 F300 Z0.0000
G1 F15000 X3.0000 Y97.8000 Z0.0000
M3S245
G4 P0.5; Tool Off

G0 Z0; move to z-safe height
G0 X3.0000 Y103.8000
M3S0
G4 P0.5; Tool On
G1 F300 Z0.0000
G1 F15000 X297.0000 Y103.8000 Z0.0000
M3S245
G4 P0.5; Tool Off

G0 Z0; move to z-safe height
G0 X297.0000 Y109.8000
M3S0
G4 P0.5; Tool On
G1 F300 Z0.0000
G1 F15000 X3.0000 Y109.8000 Z0.0000
M3S245
G4 P0.5; Tool Off

G0 Z0; move to z-safe height
G0 X3.0000 Y115.8000
M3S0
G4 P0.5; Tool On
G1 F300 Z0.0000
G1 F15000 X297.0000 Y115.8000 Z0.0000
M3S245
G4 P0.5; Tool Off

G0 Z0; move to z-safe height
G0 X297.0000 Y121.8000
M3S0
G4 P0.5; Tool On
G1 F300 Z0.0000
G1 F15000 X3.0000 Y121.8000 Z0.0000
M3S245
G4 P0.5; Tool Off

G0 Z0; move to z-safe height
G0 X3.0000 Y127.8000
M3S0
G4 P0.5; Tool On
G1 F300 Z0.0000
G1 F15000 X297.0000 Y127.8000 Z0.0000
M3S245
G4 P0.5; Tool Off

G0 Z0; move to z-safe height
G0 X297.0000 Y133.8000
M3S0
G4 P0.5; Tool On
G1 F300 Z0.0000
G1 F15000 X3.0000 Y133.8000 Z0.0000
M3S245
G4 P0.5; Tool Off

G0 Z0; move to z-safe height
G0 X3.0000 Y139.8000
M3S0
G4 P0.5; Tool On
G1 F300 Z0.0000
G1 F15000 X297.0000 Y139.8000 Z0.0000
M3S245
G4 P0.5; Tool Off

G0 Z0; move to z-safe height
G0 X297.0000 Y145.8000
M3S0
G4 P0.5; Tool On
G1 F300 Z0.0000
G1 F15000 X3.0000 Y145.8000 Z0.0000
M3S245
G4 P0.5; Tool Off

G0 Z0; move to z-safe height
G0 X3.0000 Y151.8000
M3S0
G4 P0.5; Tool On
G1 F300 Z0.0000
G1 F15000 X297.0000 Y151.8000 Z0.0000
M3S245
G4 P0.5; Tool Off

G0 Z0; move to z-safe height
G0 X297.0000 Y157.8000
M3S0
G4 P0.5; Tool On
G1 F300 Z0.0000
G1 F15000 X3.0000 Y157.8000 Z0.0000
M3S245
G4 P0.5; Tool Off

G0 Z0; move to z-safe height
G0 X3.0000 Y163.8000
M3S0
G4 P0.5; Tool On
G1 F300 Z0.0000
G1 F15000 X297.0000 Y163.8000 Z0.0000
M3S245
G4 P0.5; Tool Off

G0 Z0; move to z-safe height
G0 X297.0000 Y169.8000
M3S0
G4 P0.5; Tool On
G1 F300 Z0.0000
G1 F15000 X3.0000 Y169.8000 Z0.0000
M3S245
G4 P0.5; Tool Off

G0 Z0; move to z-safe height
G0 X3.0000 Y175.8000
M3S0
G4 P0.5; Tool On
G1 F300 Z0.0000
G1 F15000 X297.0000 Y175.8000 Z0.0000
M3S245
G4 P0.5; Tool Off

G0 Z0; move to z-safe height
G0 X297.0000 Y181.8000
M3S0
G4 P0.5; Tool On
G1 F300 Z0.0000
G1 F15000 X3.0000 Y181.8000 Z0.0000
M3S245
G4 P0.5; Tool Off

G0 Z0; move to z-safe height
G0 X3.0000 Y187.8000
M3S0
G4 P0.5; Tool On
G1 F300 Z0.0000
G1 F15000 X297.0000 Y187.8000 Z0.0000
M3S245
G4 P0.5; Tool Off

G0 Z0; move to z-safe height
G0 X297.0000 Y193.8000
M3S0
G4 P0.5; Tool On
G1 F300 Z0.0000
G1 F15000 X3.0000 Y193.8000 Z0.0000
M3S245
G4 P0.5; Tool Off

G0 Z0; move to z-safe height
G0 X3.0000 Y199.8000
M3S0
G4 P0.5; Tool On
G1 F300 Z0.0000
G1 F15000 X297.0000 Y199.8000 Z0.0000
M3S245
G4 P0.5; Tool Off

G0 Z0; move to z-safe height
G0 X297.0000 Y205.8000
M3S0
G4 P0.5; Tool On
G1 F300 Z0.0000
G1 F15000 X3.0000 Y205.8000 Z0.0000
M3S245
G4 P0.5; Tool Off

G0 Z0; move to z-safe height
G0 X3.0000 Y211.8000
M3S0
G4 P0.5; Tool On
G1 F300 Z0.0000
G1 F15000 X297.0000 Y211.8000 Z0.0000
M3S245
G4 P0.5; Tool Off

G0 Z0; move to z-safe height
G0 X297.0000 Y217.8000
M3S0
G4 P0.5; Tool On
G1 F300 Z0.0000
G1 F15000 X3.0000 Y217.8000 Z0.0000
M3S245
G4 P0.5; Tool Off

G0 Z0; move to z-safe height
G0 X3.0000 Y223.8000
M3S0
G4 P0.5; Tool On
G1 F300 Z0.0000
G1 F15000 X297.0000 Y223.8000 Z0.0000
M3S245
G4 P0.5; Tool Off
; retracting back to z-safe
G0 Z0

; Plotter Mode Complete
