; GCODE Generated by cam.openbuilds.com on 2023-04-02 
G21 ; mm-mode
G54; Work Coordinates
G21; mm-mode
G90; Absolute Positioning
; Plotter Mode Active

; Operation 0: Pen Plotter: (lines fill)
; Pen Diameter: 2

G0 Z0; move to z-safe height
G0 F1000 X295.0000 Y12.6000
M3S0
G4 P0.5; Tool On
G1 F300 Z0.0000
G1 F15000 X5.0000 Y12.6000 Z0.0000
M3S245
G4 P0.5; Tool Off

G0 Z0; move to z-safe height
G0 X5.0000 Y22.6000
M3S0
G4 P0.5; Tool On
G1 F300 Z0.0000
G1 F15000 X295.0000 Y22.6000 Z0.0000
M3S245
G4 P0.5; Tool Off

G0 Z0; move to z-safe height
G0 X295.0000 Y32.6000
M3S0
G4 P0.5; Tool On
G1 F300 Z0.0000
G1 F15000 X5.0000 Y32.6000 Z0.0000
M3S245
G4 P0.5; Tool Off

G0 Z0; move to z-safe height
G0 X5.0000 Y42.6000
M3S0
G4 P0.5; Tool On
G1 F300 Z0.0000
G1 F15000 X295.0000 Y42.6000 Z0.0000
M3S245
G4 P0.5; Tool Off

G0 Z0; move to z-safe height
G0 X295.0000 Y52.6000
M3S0
G4 P0.5; Tool On
G1 F300 Z0.0000
G1 F15000 X5.0000 Y52.6000 Z0.0000
M3S245
G4 P0.5; Tool Off

G0 Z0; move to z-safe height
G0 X5.0000 Y62.6000
M3S0
G4 P0.5; Tool On
G1 F300 Z0.0000
G1 F15000 X295.0000 Y62.6000 Z0.0000
M3S245
G4 P0.5; Tool Off

G0 Z0; move to z-safe height
G0 X295.0000 Y72.6000
M3S0
G4 P0.5; Tool On
G1 F300 Z0.0000
G1 F15000 X5.0000 Y72.6000 Z0.0000
M3S245
G4 P0.5; Tool Off

G0 Z0; move to z-safe height
G0 X5.0000 Y82.6000
M3S0
G4 P0.5; Tool On
G1 F300 Z0.0000
G1 F15000 X295.0000 Y82.6000 Z0.0000
M3S245
G4 P0.5; Tool Off

G0 Z0; move to z-safe height
G0 X295.0000 Y92.6000
M3S0
G4 P0.5; Tool On
G1 F300 Z0.0000
G1 F15000 X5.0000 Y92.6000 Z0.0000
M3S245
G4 P0.5; Tool Off

G0 Z0; move to z-safe height
G0 X5.0000 Y102.6000
M3S0
G4 P0.5; Tool On
G1 F300 Z0.0000
G1 F15000 X295.0000 Y102.6000 Z0.0000
M3S245
G4 P0.5; Tool Off

G0 Z0; move to z-safe height
G0 X295.0000 Y112.6000
M3S0
G4 P0.5; Tool On
G1 F300 Z0.0000
G1 F15000 X5.0000 Y112.6000 Z0.0000
M3S245
G4 P0.5; Tool Off

G0 Z0; move to z-safe height
G0 X5.0000 Y122.6000
M3S0
G4 P0.5; Tool On
G1 F300 Z0.0000
G1 F15000 X295.0000 Y122.6000 Z0.0000
M3S245
G4 P0.5; Tool Off

G0 Z0; move to z-safe height
G0 X295.0000 Y132.6000
M3S0
G4 P0.5; Tool On
G1 F300 Z0.0000
G1 F15000 X5.0000 Y132.6000 Z0.0000
M3S245
G4 P0.5; Tool Off

G0 Z0; move to z-safe height
G0 X5.0000 Y142.6000
M3S0
G4 P0.5; Tool On
G1 F300 Z0.0000
G1 F15000 X295.0000 Y142.6000 Z0.0000
M3S245
G4 P0.5; Tool Off

G0 Z0; move to z-safe height
G0 X295.0000 Y152.6000
M3S0
G4 P0.5; Tool On
G1 F300 Z0.0000
G1 F15000 X5.0000 Y152.6000 Z0.0000
M3S245
G4 P0.5; Tool Off

G0 Z0; move to z-safe height
G0 X5.0000 Y162.6000
M3S0
G4 P0.5; Tool On
G1 F300 Z0.0000
G1 F15000 X295.0000 Y162.6000 Z0.0000
M3S245
G4 P0.5; Tool Off

G0 Z0; move to z-safe height
G0 X295.0000 Y172.6000
M3S0
G4 P0.5; Tool On
G1 F300 Z0.0000
G1 F15000 X5.0000 Y172.6000 Z0.0000
M3S245
G4 P0.5; Tool Off

G0 Z0; move to z-safe height
G0 X5.0000 Y182.6000
M3S0
G4 P0.5; Tool On
G1 F300 Z0.0000
G1 F15000 X295.0000 Y182.6000 Z0.0000
M3S245
G4 P0.5; Tool Off

G0 Z0; move to z-safe height
G0 X295.0000 Y192.6000
M3S0
G4 P0.5; Tool On
G1 F300 Z0.0000
G1 F15000 X5.0000 Y192.6000 Z0.0000
M3S245
G4 P0.5; Tool Off

G0 Z0; move to z-safe height
G0 X5.0000 Y202.6000
M3S0
G4 P0.5; Tool On
G1 F300 Z0.0000
G1 F15000 X295.0000 Y202.6000 Z0.0000
M3S245
G4 P0.5; Tool Off

G0 Z0; move to z-safe height
G0 X295.0000 Y212.6000
M3S0
G4 P0.5; Tool On
G1 F300 Z0.0000
G1 F15000 X5.0000 Y212.6000 Z0.0000
M3S245
G4 P0.5; Tool Off

G0 Z0; move to z-safe height
G0 X5.0000 Y222.6000
M3S0
G4 P0.5; Tool On
G1 F300 Z0.0000
G1 F15000 X295.0000 Y222.6000 Z0.0000
M3S245
G4 P0.5; Tool Off
; retracting back to z-safe
G0 Z0

; Plotter Mode Complete
