; GCODE Generated by cam.openbuilds.com on 2023-04-02 
G21 ; mm-mode
G54; Work Coordinates
G21; mm-mode
G90; Absolute Positioning
; Plotter Mode Active

; Operation 0: Pen Plotter: (lines fill)
; Pen Diameter: 2

G0 Z0; move to z-safe height
G0 F1000 X2.0000 Y4.4000
M3S0
G4 P0.5; Tool On
G1 F300 Z0.0000
G1 F15000 X298.0000 Y4.4000 Z0.0000
M3S245
G4 P0.5; Tool Off

G0 Z0; move to z-safe height
G0 X298.0000 Y8.4000
M3S0
G4 P0.5; Tool On
G1 F300 Z0.0000
G1 F15000 X2.0000 Y8.4000 Z0.0000
M3S245
G4 P0.5; Tool Off

G0 Z0; move to z-safe height
G0 X2.0000 Y12.4000
M3S0
G4 P0.5; Tool On
G1 F300 Z0.0000
G1 F15000 X298.0000 Y12.4000 Z0.0000
M3S245
G4 P0.5; Tool Off

G0 Z0; move to z-safe height
G0 X298.0000 Y16.4000
M3S0
G4 P0.5; Tool On
G1 F300 Z0.0000
G1 F15000 X2.0000 Y16.4000 Z0.0000
M3S245
G4 P0.5; Tool Off

G0 Z0; move to z-safe height
G0 X2.0000 Y20.4000
M3S0
G4 P0.5; Tool On
G1 F300 Z0.0000
G1 F15000 X298.0000 Y20.4000 Z0.0000
M3S245
G4 P0.5; Tool Off

G0 Z0; move to z-safe height
G0 X298.0000 Y24.4000
M3S0
G4 P0.5; Tool On
G1 F300 Z0.0000
G1 F15000 X2.0000 Y24.4000 Z0.0000
M3S245
G4 P0.5; Tool Off

G0 Z0; move to z-safe height
G0 X2.0000 Y28.4000
M3S0
G4 P0.5; Tool On
G1 F300 Z0.0000
G1 F15000 X298.0000 Y28.4000 Z0.0000
M3S245
G4 P0.5; Tool Off

G0 Z0; move to z-safe height
G0 X298.0000 Y32.4000
M3S0
G4 P0.5; Tool On
G1 F300 Z0.0000
G1 F15000 X2.0000 Y32.4000 Z0.0000
M3S245
G4 P0.5; Tool Off

G0 Z0; move to z-safe height
G0 X2.0000 Y36.4000
M3S0
G4 P0.5; Tool On
G1 F300 Z0.0000
G1 F15000 X298.0000 Y36.4000 Z0.0000
M3S245
G4 P0.5; Tool Off

G0 Z0; move to z-safe height
G0 X298.0000 Y40.4000
M3S0
G4 P0.5; Tool On
G1 F300 Z0.0000
G1 F15000 X2.0000 Y40.4000 Z0.0000
M3S245
G4 P0.5; Tool Off

G0 Z0; move to z-safe height
G0 X2.0000 Y44.4000
M3S0
G4 P0.5; Tool On
G1 F300 Z0.0000
G1 F15000 X298.0000 Y44.4000 Z0.0000
M3S245
G4 P0.5; Tool Off

G0 Z0; move to z-safe height
G0 X298.0000 Y48.4000
M3S0
G4 P0.5; Tool On
G1 F300 Z0.0000
G1 F15000 X2.0000 Y48.4000 Z0.0000
M3S245
G4 P0.5; Tool Off

G0 Z0; move to z-safe height
G0 X2.0000 Y52.4000
M3S0
G4 P0.5; Tool On
G1 F300 Z0.0000
G1 F15000 X298.0000 Y52.4000 Z0.0000
M3S245
G4 P0.5; Tool Off

G0 Z0; move to z-safe height
G0 X298.0000 Y56.4000
M3S0
G4 P0.5; Tool On
G1 F300 Z0.0000
G1 F15000 X2.0000 Y56.4000 Z0.0000
M3S245
G4 P0.5; Tool Off

G0 Z0; move to z-safe height
G0 X2.0000 Y60.4000
M3S0
G4 P0.5; Tool On
G1 F300 Z0.0000
G1 F15000 X298.0000 Y60.4000 Z0.0000
M3S245
G4 P0.5; Tool Off

G0 Z0; move to z-safe height
G0 X298.0000 Y64.4000
M3S0
G4 P0.5; Tool On
G1 F300 Z0.0000
G1 F15000 X2.0000 Y64.4000 Z0.0000
M3S245
G4 P0.5; Tool Off

G0 Z0; move to z-safe height
G0 X2.0000 Y68.4000
M3S0
G4 P0.5; Tool On
G1 F300 Z0.0000
G1 F15000 X298.0000 Y68.4000 Z0.0000
M3S245
G4 P0.5; Tool Off

G0 Z0; move to z-safe height
G0 X298.0000 Y72.4000
M3S0
G4 P0.5; Tool On
G1 F300 Z0.0000
G1 F15000 X2.0000 Y72.4000 Z0.0000
M3S245
G4 P0.5; Tool Off

G0 Z0; move to z-safe height
G0 X2.0000 Y76.4000
M3S0
G4 P0.5; Tool On
G1 F300 Z0.0000
G1 F15000 X298.0000 Y76.4000 Z0.0000
M3S245
G4 P0.5; Tool Off

G0 Z0; move to z-safe height
G0 X298.0000 Y80.4000
M3S0
G4 P0.5; Tool On
G1 F300 Z0.0000
G1 F15000 X2.0000 Y80.4000 Z0.0000
M3S245
G4 P0.5; Tool Off

G0 Z0; move to z-safe height
G0 X2.0000 Y84.4000
M3S0
G4 P0.5; Tool On
G1 F300 Z0.0000
G1 F15000 X298.0000 Y84.4000 Z0.0000
M3S245
G4 P0.5; Tool Off

G0 Z0; move to z-safe height
G0 X298.0000 Y88.4000
M3S0
G4 P0.5; Tool On
G1 F300 Z0.0000
G1 F15000 X2.0000 Y88.4000 Z0.0000
M3S245
G4 P0.5; Tool Off

G0 Z0; move to z-safe height
G0 X2.0000 Y92.4000
M3S0
G4 P0.5; Tool On
G1 F300 Z0.0000
G1 F15000 X298.0000 Y92.4000 Z0.0000
M3S245
G4 P0.5; Tool Off

G0 Z0; move to z-safe height
G0 X298.0000 Y96.4000
M3S0
G4 P0.5; Tool On
G1 F300 Z0.0000
G1 F15000 X2.0000 Y96.4000 Z0.0000
M3S245
G4 P0.5; Tool Off

G0 Z0; move to z-safe height
G0 X2.0000 Y100.4000
M3S0
G4 P0.5; Tool On
G1 F300 Z0.0000
G1 F15000 X298.0000 Y100.4000 Z0.0000
M3S245
G4 P0.5; Tool Off

G0 Z0; move to z-safe height
G0 X298.0000 Y104.4000
M3S0
G4 P0.5; Tool On
G1 F300 Z0.0000
G1 F15000 X2.0000 Y104.4000 Z0.0000
M3S245
G4 P0.5; Tool Off

G0 Z0; move to z-safe height
G0 X2.0000 Y108.4000
M3S0
G4 P0.5; Tool On
G1 F300 Z0.0000
G1 F15000 X298.0000 Y108.4000 Z0.0000
M3S245
G4 P0.5; Tool Off

G0 Z0; move to z-safe height
G0 X298.0000 Y112.4000
M3S0
G4 P0.5; Tool On
G1 F300 Z0.0000
G1 F15000 X2.0000 Y112.4000 Z0.0000
M3S245
G4 P0.5; Tool Off

G0 Z0; move to z-safe height
G0 X2.0000 Y116.4000
M3S0
G4 P0.5; Tool On
G1 F300 Z0.0000
G1 F15000 X298.0000 Y116.4000 Z0.0000
M3S245
G4 P0.5; Tool Off

G0 Z0; move to z-safe height
G0 X298.0000 Y120.4000
M3S0
G4 P0.5; Tool On
G1 F300 Z0.0000
G1 F15000 X2.0000 Y120.4000 Z0.0000
M3S245
G4 P0.5; Tool Off

G0 Z0; move to z-safe height
G0 X2.0000 Y124.4000
M3S0
G4 P0.5; Tool On
G1 F300 Z0.0000
G1 F15000 X298.0000 Y124.4000 Z0.0000
M3S245
G4 P0.5; Tool Off

G0 Z0; move to z-safe height
G0 X298.0000 Y128.4000
M3S0
G4 P0.5; Tool On
G1 F300 Z0.0000
G1 F15000 X2.0000 Y128.4000 Z0.0000
M3S245
G4 P0.5; Tool Off

G0 Z0; move to z-safe height
G0 X2.0000 Y132.4000
M3S0
G4 P0.5; Tool On
G1 F300 Z0.0000
G1 F15000 X298.0000 Y132.4000 Z0.0000
M3S245
G4 P0.5; Tool Off

G0 Z0; move to z-safe height
G0 X298.0000 Y136.4000
M3S0
G4 P0.5; Tool On
G1 F300 Z0.0000
G1 F15000 X2.0000 Y136.4000 Z0.0000
M3S245
G4 P0.5; Tool Off

G0 Z0; move to z-safe height
G0 X2.0000 Y140.4000
M3S0
G4 P0.5; Tool On
G1 F300 Z0.0000
G1 F15000 X298.0000 Y140.4000 Z0.0000
M3S245
G4 P0.5; Tool Off

G0 Z0; move to z-safe height
G0 X298.0000 Y144.4000
M3S0
G4 P0.5; Tool On
G1 F300 Z0.0000
G1 F15000 X2.0000 Y144.4000 Z0.0000
M3S245
G4 P0.5; Tool Off

G0 Z0; move to z-safe height
G0 X2.0000 Y148.4000
M3S0
G4 P0.5; Tool On
G1 F300 Z0.0000
G1 F15000 X298.0000 Y148.4000 Z0.0000
M3S245
G4 P0.5; Tool Off

G0 Z0; move to z-safe height
G0 X298.0000 Y152.4000
M3S0
G4 P0.5; Tool On
G1 F300 Z0.0000
G1 F15000 X2.0000 Y152.4000 Z0.0000
M3S245
G4 P0.5; Tool Off

G0 Z0; move to z-safe height
G0 X2.0000 Y156.4000
M3S0
G4 P0.5; Tool On
G1 F300 Z0.0000
G1 F15000 X298.0000 Y156.4000 Z0.0000
M3S245
G4 P0.5; Tool Off

G0 Z0; move to z-safe height
G0 X298.0000 Y160.4000
M3S0
G4 P0.5; Tool On
G1 F300 Z0.0000
G1 F15000 X2.0000 Y160.4000 Z0.0000
M3S245
G4 P0.5; Tool Off

G0 Z0; move to z-safe height
G0 X2.0000 Y164.4000
M3S0
G4 P0.5; Tool On
G1 F300 Z0.0000
G1 F15000 X298.0000 Y164.4000 Z0.0000
M3S245
G4 P0.5; Tool Off

G0 Z0; move to z-safe height
G0 X298.0000 Y168.4000
M3S0
G4 P0.5; Tool On
G1 F300 Z0.0000
G1 F15000 X2.0000 Y168.4000 Z0.0000
M3S245
G4 P0.5; Tool Off

G0 Z0; move to z-safe height
G0 X2.0000 Y172.4000
M3S0
G4 P0.5; Tool On
G1 F300 Z0.0000
G1 F15000 X298.0000 Y172.4000 Z0.0000
M3S245
G4 P0.5; Tool Off

G0 Z0; move to z-safe height
G0 X298.0000 Y176.4000
M3S0
G4 P0.5; Tool On
G1 F300 Z0.0000
G1 F15000 X2.0000 Y176.4000 Z0.0000
M3S245
G4 P0.5; Tool Off

G0 Z0; move to z-safe height
G0 X2.0000 Y180.4000
M3S0
G4 P0.5; Tool On
G1 F300 Z0.0000
G1 F15000 X298.0000 Y180.4000 Z0.0000
M3S245
G4 P0.5; Tool Off

G0 Z0; move to z-safe height
G0 X298.0000 Y184.4000
M3S0
G4 P0.5; Tool On
G1 F300 Z0.0000
G1 F15000 X2.0000 Y184.4000 Z0.0000
M3S245
G4 P0.5; Tool Off

G0 Z0; move to z-safe height
G0 X2.0000 Y188.4000
M3S0
G4 P0.5; Tool On
G1 F300 Z0.0000
G1 F15000 X298.0000 Y188.4000 Z0.0000
M3S245
G4 P0.5; Tool Off

G0 Z0; move to z-safe height
G0 X298.0000 Y192.4000
M3S0
G4 P0.5; Tool On
G1 F300 Z0.0000
G1 F15000 X2.0000 Y192.4000 Z0.0000
M3S245
G4 P0.5; Tool Off

G0 Z0; move to z-safe height
G0 X2.0000 Y196.4000
M3S0
G4 P0.5; Tool On
G1 F300 Z0.0000
G1 F15000 X298.0000 Y196.4000 Z0.0000
M3S245
G4 P0.5; Tool Off

G0 Z0; move to z-safe height
G0 X298.0000 Y200.4000
M3S0
G4 P0.5; Tool On
G1 F300 Z0.0000
G1 F15000 X2.0000 Y200.4000 Z0.0000
M3S245
G4 P0.5; Tool Off

G0 Z0; move to z-safe height
G0 X2.0000 Y204.4000
M3S0
G4 P0.5; Tool On
G1 F300 Z0.0000
G1 F15000 X298.0000 Y204.4000 Z0.0000
M3S245
G4 P0.5; Tool Off

G0 Z0; move to z-safe height
G0 X298.0000 Y208.4000
M3S0
G4 P0.5; Tool On
G1 F300 Z0.0000
G1 F15000 X2.0000 Y208.4000 Z0.0000
M3S245
G4 P0.5; Tool Off

G0 Z0; move to z-safe height
G0 X2.0000 Y212.4000
M3S0
G4 P0.5; Tool On
G1 F300 Z0.0000
G1 F15000 X298.0000 Y212.4000 Z0.0000
M3S245
G4 P0.5; Tool Off

G0 Z0; move to z-safe height
G0 X298.0000 Y216.4000
M3S0
G4 P0.5; Tool On
G1 F300 Z0.0000
G1 F15000 X2.0000 Y216.4000 Z0.0000
M3S245
G4 P0.5; Tool Off

G0 Z0; move to z-safe height
G0 X2.0000 Y220.4000
M3S0
G4 P0.5; Tool On
G1 F300 Z0.0000
G1 F15000 X298.0000 Y220.4000 Z0.0000
M3S245
G4 P0.5; Tool Off

G0 Z0; move to z-safe height
G0 X298.0000 Y224.4000
M3S0
G4 P0.5; Tool On
G1 F300 Z0.0000
G1 F15000 X2.0000 Y224.4000 Z0.0000
M3S245
G4 P0.5; Tool Off
; retracting back to z-safe
G0 Z0

; Plotter Mode Complete
