; GCODE Generated by cam.openbuilds.com on 2023-11-01 
G21 ; mm-mode
G54; Work Coordinates
G21; mm-mode
G90; Absolute Positioning
; Plotter Mode Active

; Operation 0: Pen Plotter: (lines fill)
; Pen Diameter: 2

G0 Z0; move to z-safe height
G0 F1000 X5.0000 Y6.8700
M3S0
G4 P0.5; Tool On
G1 F300 Z0.0000
G1 F15000 X395.0000 Y6.8700 Z0.0000
M3S245
G4 P0.5; Tool Off

G0 Z0; move to z-safe height
G0 X395.0000 Y16.8700
M3S0
G4 P0.5; Tool On
G1 F300 Z0.0000
G1 F15000 X5.0000 Y16.8700 Z0.0000
M3S245
G4 P0.5; Tool Off

G0 Z0; move to z-safe height
G0 X5.0000 Y26.8700
M3S0
G4 P0.5; Tool On
G1 F300 Z0.0000
G1 F15000 X395.0000 Y26.8700 Z0.0000
M3S245
G4 P0.5; Tool Off

G0 Z0; move to z-safe height
G0 X395.0000 Y36.8700
M3S0
G4 P0.5; Tool On
G1 F300 Z0.0000
G1 F15000 X5.0000 Y36.8700 Z0.0000
M3S245
G4 P0.5; Tool Off

G0 Z0; move to z-safe height
G0 X5.0000 Y46.8700
M3S0
G4 P0.5; Tool On
G1 F300 Z0.0000
G1 F15000 X395.0000 Y46.8700 Z0.0000
M3S245
G4 P0.5; Tool Off

G0 Z0; move to z-safe height
G0 X395.0000 Y56.8700
M3S0
G4 P0.5; Tool On
G1 F300 Z0.0000
G1 F15000 X5.0000 Y56.8700 Z0.0000
M3S245
G4 P0.5; Tool Off

G0 Z0; move to z-safe height
G0 X5.0000 Y66.8700
M3S0
G4 P0.5; Tool On
G1 F300 Z0.0000
G1 F15000 X395.0000 Y66.8700 Z0.0000
M3S245
G4 P0.5; Tool Off

G0 Z0; move to z-safe height
G0 X395.0000 Y76.8700
M3S0
G4 P0.5; Tool On
G1 F300 Z0.0000
G1 F15000 X5.0000 Y76.8700 Z0.0000
M3S245
G4 P0.5; Tool Off

G0 Z0; move to z-safe height
G0 X5.0000 Y86.8700
M3S0
G4 P0.5; Tool On
G1 F300 Z0.0000
G1 F15000 X395.0000 Y86.8700 Z0.0000
M3S245
G4 P0.5; Tool Off

G0 Z0; move to z-safe height
G0 X395.0000 Y96.8700
M3S0
G4 P0.5; Tool On
G1 F300 Z0.0000
G1 F15000 X5.0000 Y96.8700 Z0.0000
M3S245
G4 P0.5; Tool Off

G0 Z0; move to z-safe height
G0 X5.0000 Y106.8700
M3S0
G4 P0.5; Tool On
G1 F300 Z0.0000
G1 F15000 X395.0000 Y106.8700 Z0.0000
M3S245
G4 P0.5; Tool Off

G0 Z0; move to z-safe height
G0 X395.0000 Y116.8700
M3S0
G4 P0.5; Tool On
G1 F300 Z0.0000
G1 F15000 X5.0000 Y116.8700 Z0.0000
M3S245
G4 P0.5; Tool Off

G0 Z0; move to z-safe height
G0 X5.0000 Y126.8700
M3S0
G4 P0.5; Tool On
G1 F300 Z0.0000
G1 F15000 X395.0000 Y126.8700 Z0.0000
M3S245
G4 P0.5; Tool Off

G0 Z0; move to z-safe height
G0 X395.0000 Y136.8700
M3S0
G4 P0.5; Tool On
G1 F300 Z0.0000
G1 F15000 X5.0000 Y136.8700 Z0.0000
M3S245
G4 P0.5; Tool Off

G0 Z0; move to z-safe height
G0 X5.0000 Y146.8700
M3S0
G4 P0.5; Tool On
G1 F300 Z0.0000
G1 F15000 X395.0000 Y146.8700 Z0.0000
M3S245
G4 P0.5; Tool Off

G0 Z0; move to z-safe height
G0 X395.0000 Y156.8700
M3S0
G4 P0.5; Tool On
G1 F300 Z0.0000
G1 F15000 X5.0000 Y156.8700 Z0.0000
M3S245
G4 P0.5; Tool Off

G0 Z0; move to z-safe height
G0 X5.0000 Y166.8700
M3S0
G4 P0.5; Tool On
G1 F300 Z0.0000
G1 F15000 X395.0000 Y166.8700 Z0.0000
M3S245
G4 P0.5; Tool Off

G0 Z0; move to z-safe height
G0 X395.0000 Y176.8700
M3S0
G4 P0.5; Tool On
G1 F300 Z0.0000
G1 F15000 X5.0000 Y176.8700 Z0.0000
M3S245
G4 P0.5; Tool Off

G0 Z0; move to z-safe height
G0 X5.0000 Y186.8700
M3S0
G4 P0.5; Tool On
G1 F300 Z0.0000
G1 F15000 X395.0000 Y186.8700 Z0.0000
M3S245
G4 P0.5; Tool Off

G0 Z0; move to z-safe height
G0 X395.0000 Y196.8700
M3S0
G4 P0.5; Tool On
G1 F300 Z0.0000
G1 F15000 X5.0000 Y196.8700 Z0.0000
M3S245
G4 P0.5; Tool Off

G0 Z0; move to z-safe height
G0 X5.0000 Y206.8700
M3S0
G4 P0.5; Tool On
G1 F300 Z0.0000
G1 F15000 X395.0000 Y206.8700 Z0.0000
M3S245
G4 P0.5; Tool Off

G0 Z0; move to z-safe height
G0 X395.0000 Y216.8700
M3S0
G4 P0.5; Tool On
G1 F300 Z0.0000
G1 F15000 X5.0000 Y216.8700 Z0.0000
M3S245
G4 P0.5; Tool Off

G0 Z0; move to z-safe height
G0 X5.0000 Y226.8700
M3S0
G4 P0.5; Tool On
G1 F300 Z0.0000
G1 F15000 X395.0000 Y226.8700 Z0.0000
M3S245
G4 P0.5; Tool Off

G0 Z0; move to z-safe height
G0 X395.0000 Y236.8700
M3S0
G4 P0.5; Tool On
G1 F300 Z0.0000
G1 F15000 X5.0000 Y236.8700 Z0.0000
M3S245
G4 P0.5; Tool Off

G0 Z0; move to z-safe height
G0 X5.0000 Y246.8700
M3S0
G4 P0.5; Tool On
G1 F300 Z0.0000
G1 F15000 X395.0000 Y246.8700 Z0.0000
M3S245
G4 P0.5; Tool Off

G0 Z0; move to z-safe height
G0 X395.0000 Y256.8700
M3S0
G4 P0.5; Tool On
G1 F300 Z0.0000
G1 F15000 X5.0000 Y256.8700 Z0.0000
M3S245
G4 P0.5; Tool Off

G0 Z0; move to z-safe height
G0 X5.0000 Y266.8700
M3S0
G4 P0.5; Tool On
G1 F300 Z0.0000
G1 F15000 X395.0000 Y266.8700 Z0.0000
M3S245
G4 P0.5; Tool Off

G0 Z0; move to z-safe height
G0 X395.0000 Y276.8700
M3S0
G4 P0.5; Tool On
G1 F300 Z0.0000
G1 F15000 X5.0000 Y276.8700 Z0.0000
M3S245
G4 P0.5; Tool Off

G0 Z0; move to z-safe height
G0 X5.0000 Y286.8700
M3S0
G4 P0.5; Tool On
G1 F300 Z0.0000
G1 F15000 X395.0000 Y286.8700 Z0.0000
M3S245
G4 P0.5; Tool Off

G0 Z0; move to z-safe height
G0 X395.0000 Y296.8700
M3S0
G4 P0.5; Tool On
G1 F300 Z0.0000
G1 F15000 X5.0000 Y296.8700 Z0.0000
M3S245
G4 P0.5; Tool Off

G0 Z0; move to z-safe height
G0 X5.0000 Y306.8700
M3S0
G4 P0.5; Tool On
G1 F300 Z0.0000
G1 F15000 X395.0000 Y306.8700 Z0.0000
M3S245
G4 P0.5; Tool Off

G0 Z0; move to z-safe height
G0 X395.0000 Y316.8700
M3S0
G4 P0.5; Tool On
G1 F300 Z0.0000
G1 F15000 X5.0000 Y316.8700 Z0.0000
M3S245
G4 P0.5; Tool Off

G0 Z0; move to z-safe height
G0 X5.0000 Y326.8700
M3S0
G4 P0.5; Tool On
G1 F300 Z0.0000
G1 F15000 X395.0000 Y326.8700 Z0.0000
M3S245
G4 P0.5; Tool Off

G0 Z0; move to z-safe height
G0 X395.0000 Y336.8700
M3S0
G4 P0.5; Tool On
G1 F300 Z0.0000
G1 F15000 X5.0000 Y336.8700 Z0.0000
M3S245
G4 P0.5; Tool Off

G0 Z0; move to z-safe height
G0 X5.0000 Y346.8700
M3S0
G4 P0.5; Tool On
G1 F300 Z0.0000
G1 F15000 X395.0000 Y346.8700 Z0.0000
M3S245
G4 P0.5; Tool Off

G0 Z0; move to z-safe height
G0 X395.0000 Y356.8700
M3S0
G4 P0.5; Tool On
G1 F300 Z0.0000
G1 F15000 X5.0000 Y356.8700 Z0.0000
M3S245
G4 P0.5; Tool Off

G0 Z0; move to z-safe height
G0 X5.0000 Y366.8700
M3S0
G4 P0.5; Tool On
G1 F300 Z0.0000
G1 F15000 X395.0000 Y366.8700 Z0.0000
M3S245
G4 P0.5; Tool Off

G0 Z0; move to z-safe height
G0 X395.0000 Y376.8700
M3S0
G4 P0.5; Tool On
G1 F300 Z0.0000
G1 F15000 X5.0000 Y376.8700 Z0.0000
M3S245
G4 P0.5; Tool Off

G0 Z0; move to z-safe height
G0 X5.0000 Y386.8700
M3S0
G4 P0.5; Tool On
G1 F300 Z0.0000
G1 F15000 X395.0000 Y386.8700 Z0.0000
M3S245
G4 P0.5; Tool Off

G0 Z0; move to z-safe height
G0 X395.0000 Y396.8700
M3S0
G4 P0.5; Tool On
G1 F300 Z0.0000
G1 F15000 X5.0000 Y396.8700 Z0.0000
M3S245
G4 P0.5; Tool Off

G0 Z0; move to z-safe height
G0 X5.0000 Y406.8700
M3S0
G4 P0.5; Tool On
G1 F300 Z0.0000
G1 F15000 X395.0000 Y406.8700 Z0.0000
M3S245
G4 P0.5; Tool Off

G0 Z0; move to z-safe height
G0 X395.0000 Y416.8700
M3S0
G4 P0.5; Tool On
G1 F300 Z0.0000
G1 F15000 X5.0000 Y416.8700 Z0.0000
M3S245
G4 P0.5; Tool Off

G0 Z0; move to z-safe height
G0 X5.0000 Y426.8700
M3S0
G4 P0.5; Tool On
G1 F300 Z0.0000
G1 F15000 X395.0000 Y426.8700 Z0.0000
M3S245
G4 P0.5; Tool Off

G0 Z0; move to z-safe height
G0 X395.0000 Y436.8700
M3S0
G4 P0.5; Tool On
G1 F300 Z0.0000
G1 F15000 X5.0000 Y436.8700 Z0.0000
M3S245
G4 P0.5; Tool Off

G0 Z0; move to z-safe height
G0 X5.0000 Y446.8700
M3S0
G4 P0.5; Tool On
G1 F300 Z0.0000
G1 F15000 X395.0000 Y446.8700 Z0.0000
M3S245
G4 P0.5; Tool Off

G0 Z0; move to z-safe height
G0 X395.0000 Y456.8700
M3S0
G4 P0.5; Tool On
G1 F300 Z0.0000
G1 F15000 X5.0000 Y456.8700 Z0.0000
M3S245
G4 P0.5; Tool Off

G0 Z0; move to z-safe height
G0 X5.0000 Y466.8700
M3S0
G4 P0.5; Tool On
G1 F300 Z0.0000
G1 F15000 X395.0000 Y466.8700 Z0.0000
M3S245
G4 P0.5; Tool Off

G0 Z0; move to z-safe height
G0 X395.0000 Y476.8700
M3S0
G4 P0.5; Tool On
G1 F300 Z0.0000
G1 F15000 X5.0000 Y476.8700 Z0.0000
M3S245
G4 P0.5; Tool Off

G0 Z0; move to z-safe height
G0 X5.0000 Y486.8700
M3S0
G4 P0.5; Tool On
G1 F300 Z0.0000
G1 F15000 X395.0000 Y486.8700 Z0.0000
M3S245
G4 P0.5; Tool Off
; retracting back to z-safe
G0 Z0

; Plotter Mode Complete
