; GCODE Generated by cam.openbuilds.com on 2023-11-01 
G21 ; mm-mode
G54; Work Coordinates
G21; mm-mode
G90; Absolute Positioning
; Plotter Mode Active

; Operation 0: Pen Plotter: (lines fill)
; Pen Diameter: 2

G0 Z0; move to z-safe height
G0 F1000 X397.0000 Y6.0600
M3S0
G4 P0.5; Tool On
G1 F300 Z0.0000
G1 F15000 X3.0000 Y6.0600 Z0.0000
M3S245
G4 P0.5; Tool Off

G0 Z0; move to z-safe height
G0 X3.0000 Y12.0600
M3S0
G4 P0.5; Tool On
G1 F300 Z0.0000
G1 F15000 X397.0000 Y12.0600 Z0.0000
M3S245
G4 P0.5; Tool Off

G0 Z0; move to z-safe height
G0 X397.0000 Y18.0600
M3S0
G4 P0.5; Tool On
G1 F300 Z0.0000
G1 F15000 X3.0000 Y18.0600 Z0.0000
M3S245
G4 P0.5; Tool Off

G0 Z0; move to z-safe height
G0 X3.0000 Y24.0600
M3S0
G4 P0.5; Tool On
G1 F300 Z0.0000
G1 F15000 X397.0000 Y24.0600 Z0.0000
M3S245
G4 P0.5; Tool Off

G0 Z0; move to z-safe height
G0 X397.0000 Y30.0600
M3S0
G4 P0.5; Tool On
G1 F300 Z0.0000
G1 F15000 X3.0000 Y30.0600 Z0.0000
M3S245
G4 P0.5; Tool Off

G0 Z0; move to z-safe height
G0 X3.0000 Y36.0600
M3S0
G4 P0.5; Tool On
G1 F300 Z0.0000
G1 F15000 X397.0000 Y36.0600 Z0.0000
M3S245
G4 P0.5; Tool Off

G0 Z0; move to z-safe height
G0 X397.0000 Y42.0600
M3S0
G4 P0.5; Tool On
G1 F300 Z0.0000
G1 F15000 X3.0000 Y42.0600 Z0.0000
M3S245
G4 P0.5; Tool Off

G0 Z0; move to z-safe height
G0 X3.0000 Y48.0600
M3S0
G4 P0.5; Tool On
G1 F300 Z0.0000
G1 F15000 X397.0000 Y48.0600 Z0.0000
M3S245
G4 P0.5; Tool Off

G0 Z0; move to z-safe height
G0 X397.0000 Y54.0600
M3S0
G4 P0.5; Tool On
G1 F300 Z0.0000
G1 F15000 X3.0000 Y54.0600 Z0.0000
M3S245
G4 P0.5; Tool Off

G0 Z0; move to z-safe height
G0 X3.0000 Y60.0600
M3S0
G4 P0.5; Tool On
G1 F300 Z0.0000
G1 F15000 X397.0000 Y60.0600 Z0.0000
M3S245
G4 P0.5; Tool Off

G0 Z0; move to z-safe height
G0 X397.0000 Y66.0600
M3S0
G4 P0.5; Tool On
G1 F300 Z0.0000
G1 F15000 X3.0000 Y66.0600 Z0.0000
M3S245
G4 P0.5; Tool Off

G0 Z0; move to z-safe height
G0 X3.0000 Y72.0600
M3S0
G4 P0.5; Tool On
G1 F300 Z0.0000
G1 F15000 X397.0000 Y72.0600 Z0.0000
M3S245
G4 P0.5; Tool Off

G0 Z0; move to z-safe height
G0 X397.0000 Y78.0600
M3S0
G4 P0.5; Tool On
G1 F300 Z0.0000
G1 F15000 X3.0000 Y78.0600 Z0.0000
M3S245
G4 P0.5; Tool Off

G0 Z0; move to z-safe height
G0 X3.0000 Y84.0600
M3S0
G4 P0.5; Tool On
G1 F300 Z0.0000
G1 F15000 X397.0000 Y84.0600 Z0.0000
M3S245
G4 P0.5; Tool Off

G0 Z0; move to z-safe height
G0 X397.0000 Y90.0600
M3S0
G4 P0.5; Tool On
G1 F300 Z0.0000
G1 F15000 X3.0000 Y90.0600 Z0.0000
M3S245
G4 P0.5; Tool Off

G0 Z0; move to z-safe height
G0 X3.0000 Y96.0600
M3S0
G4 P0.5; Tool On
G1 F300 Z0.0000
G1 F15000 X397.0000 Y96.0600 Z0.0000
M3S245
G4 P0.5; Tool Off

G0 Z0; move to z-safe height
G0 X397.0000 Y102.0600
M3S0
G4 P0.5; Tool On
G1 F300 Z0.0000
G1 F15000 X3.0000 Y102.0600 Z0.0000
M3S245
G4 P0.5; Tool Off

G0 Z0; move to z-safe height
G0 X3.0000 Y108.0600
M3S0
G4 P0.5; Tool On
G1 F300 Z0.0000
G1 F15000 X397.0000 Y108.0600 Z0.0000
M3S245
G4 P0.5; Tool Off

G0 Z0; move to z-safe height
G0 X397.0000 Y114.0600
M3S0
G4 P0.5; Tool On
G1 F300 Z0.0000
G1 F15000 X3.0000 Y114.0600 Z0.0000
M3S245
G4 P0.5; Tool Off

G0 Z0; move to z-safe height
G0 X3.0000 Y120.0600
M3S0
G4 P0.5; Tool On
G1 F300 Z0.0000
G1 F15000 X397.0000 Y120.0600 Z0.0000
M3S245
G4 P0.5; Tool Off

G0 Z0; move to z-safe height
G0 X397.0000 Y126.0600
M3S0
G4 P0.5; Tool On
G1 F300 Z0.0000
G1 F15000 X3.0000 Y126.0600 Z0.0000
M3S245
G4 P0.5; Tool Off

G0 Z0; move to z-safe height
G0 X3.0000 Y132.0600
M3S0
G4 P0.5; Tool On
G1 F300 Z0.0000
G1 F15000 X397.0000 Y132.0600 Z0.0000
M3S245
G4 P0.5; Tool Off

G0 Z0; move to z-safe height
G0 X397.0000 Y138.0600
M3S0
G4 P0.5; Tool On
G1 F300 Z0.0000
G1 F15000 X3.0000 Y138.0600 Z0.0000
M3S245
G4 P0.5; Tool Off

G0 Z0; move to z-safe height
G0 X3.0000 Y144.0600
M3S0
G4 P0.5; Tool On
G1 F300 Z0.0000
G1 F15000 X397.0000 Y144.0600 Z0.0000
M3S245
G4 P0.5; Tool Off

G0 Z0; move to z-safe height
G0 X397.0000 Y150.0600
M3S0
G4 P0.5; Tool On
G1 F300 Z0.0000
G1 F15000 X3.0000 Y150.0600 Z0.0000
M3S245
G4 P0.5; Tool Off

G0 Z0; move to z-safe height
G0 X3.0000 Y156.0600
M3S0
G4 P0.5; Tool On
G1 F300 Z0.0000
G1 F15000 X397.0000 Y156.0600 Z0.0000
M3S245
G4 P0.5; Tool Off

G0 Z0; move to z-safe height
G0 X397.0000 Y162.0600
M3S0
G4 P0.5; Tool On
G1 F300 Z0.0000
G1 F15000 X3.0000 Y162.0600 Z0.0000
M3S245
G4 P0.5; Tool Off

G0 Z0; move to z-safe height
G0 X3.0000 Y168.0600
M3S0
G4 P0.5; Tool On
G1 F300 Z0.0000
G1 F15000 X397.0000 Y168.0600 Z0.0000
M3S245
G4 P0.5; Tool Off

G0 Z0; move to z-safe height
G0 X397.0000 Y174.0600
M3S0
G4 P0.5; Tool On
G1 F300 Z0.0000
G1 F15000 X3.0000 Y174.0600 Z0.0000
M3S245
G4 P0.5; Tool Off

G0 Z0; move to z-safe height
G0 X3.0000 Y180.0600
M3S0
G4 P0.5; Tool On
G1 F300 Z0.0000
G1 F15000 X397.0000 Y180.0600 Z0.0000
M3S245
G4 P0.5; Tool Off

G0 Z0; move to z-safe height
G0 X397.0000 Y186.0600
M3S0
G4 P0.5; Tool On
G1 F300 Z0.0000
G1 F15000 X3.0000 Y186.0600 Z0.0000
M3S245
G4 P0.5; Tool Off

G0 Z0; move to z-safe height
G0 X3.0000 Y192.0600
M3S0
G4 P0.5; Tool On
G1 F300 Z0.0000
G1 F15000 X397.0000 Y192.0600 Z0.0000
M3S245
G4 P0.5; Tool Off

G0 Z0; move to z-safe height
G0 X397.0000 Y198.0600
M3S0
G4 P0.5; Tool On
G1 F300 Z0.0000
G1 F15000 X3.0000 Y198.0600 Z0.0000
M3S245
G4 P0.5; Tool Off

G0 Z0; move to z-safe height
G0 X3.0000 Y204.0600
M3S0
G4 P0.5; Tool On
G1 F300 Z0.0000
G1 F15000 X397.0000 Y204.0600 Z0.0000
M3S245
G4 P0.5; Tool Off

G0 Z0; move to z-safe height
G0 X397.0000 Y210.0600
M3S0
G4 P0.5; Tool On
G1 F300 Z0.0000
G1 F15000 X3.0000 Y210.0600 Z0.0000
M3S245
G4 P0.5; Tool Off

G0 Z0; move to z-safe height
G0 X3.0000 Y216.0600
M3S0
G4 P0.5; Tool On
G1 F300 Z0.0000
G1 F15000 X397.0000 Y216.0600 Z0.0000
M3S245
G4 P0.5; Tool Off

G0 Z0; move to z-safe height
G0 X397.0000 Y222.0600
M3S0
G4 P0.5; Tool On
G1 F300 Z0.0000
G1 F15000 X3.0000 Y222.0600 Z0.0000
M3S245
G4 P0.5; Tool Off

G0 Z0; move to z-safe height
G0 X3.0000 Y228.0600
M3S0
G4 P0.5; Tool On
G1 F300 Z0.0000
G1 F15000 X397.0000 Y228.0600 Z0.0000
M3S245
G4 P0.5; Tool Off

G0 Z0; move to z-safe height
G0 X397.0000 Y234.0600
M3S0
G4 P0.5; Tool On
G1 F300 Z0.0000
G1 F15000 X3.0000 Y234.0600 Z0.0000
M3S245
G4 P0.5; Tool Off

G0 Z0; move to z-safe height
G0 X3.0000 Y240.0600
M3S0
G4 P0.5; Tool On
G1 F300 Z0.0000
G1 F15000 X397.0000 Y240.0600 Z0.0000
M3S245
G4 P0.5; Tool Off

G0 Z0; move to z-safe height
G0 X397.0000 Y246.0600
M3S0
G4 P0.5; Tool On
G1 F300 Z0.0000
G1 F15000 X3.0000 Y246.0600 Z0.0000
M3S245
G4 P0.5; Tool Off

G0 Z0; move to z-safe height
G0 X3.0000 Y252.0600
M3S0
G4 P0.5; Tool On
G1 F300 Z0.0000
G1 F15000 X397.0000 Y252.0600 Z0.0000
M3S245
G4 P0.5; Tool Off

G0 Z0; move to z-safe height
G0 X397.0000 Y258.0600
M3S0
G4 P0.5; Tool On
G1 F300 Z0.0000
G1 F15000 X3.0000 Y258.0600 Z0.0000
M3S245
G4 P0.5; Tool Off

G0 Z0; move to z-safe height
G0 X3.0000 Y264.0600
M3S0
G4 P0.5; Tool On
G1 F300 Z0.0000
G1 F15000 X397.0000 Y264.0600 Z0.0000
M3S245
G4 P0.5; Tool Off

G0 Z0; move to z-safe height
G0 X397.0000 Y270.0600
M3S0
G4 P0.5; Tool On
G1 F300 Z0.0000
G1 F15000 X3.0000 Y270.0600 Z0.0000
M3S245
G4 P0.5; Tool Off

G0 Z0; move to z-safe height
G0 X3.0000 Y276.0600
M3S0
G4 P0.5; Tool On
G1 F300 Z0.0000
G1 F15000 X397.0000 Y276.0600 Z0.0000
M3S245
G4 P0.5; Tool Off

G0 Z0; move to z-safe height
G0 X397.0000 Y282.0600
M3S0
G4 P0.5; Tool On
G1 F300 Z0.0000
G1 F15000 X3.0000 Y282.0600 Z0.0000
M3S245
G4 P0.5; Tool Off

G0 Z0; move to z-safe height
G0 X3.0000 Y288.0600
M3S0
G4 P0.5; Tool On
G1 F300 Z0.0000
G1 F15000 X397.0000 Y288.0600 Z0.0000
M3S245
G4 P0.5; Tool Off

G0 Z0; move to z-safe height
G0 X397.0000 Y294.0600
M3S0
G4 P0.5; Tool On
G1 F300 Z0.0000
G1 F15000 X3.0000 Y294.0600 Z0.0000
M3S245
G4 P0.5; Tool Off

G0 Z0; move to z-safe height
G0 X3.0000 Y300.0600
M3S0
G4 P0.5; Tool On
G1 F300 Z0.0000
G1 F15000 X397.0000 Y300.0600 Z0.0000
M3S245
G4 P0.5; Tool Off

G0 Z0; move to z-safe height
G0 X397.0000 Y306.0600
M3S0
G4 P0.5; Tool On
G1 F300 Z0.0000
G1 F15000 X3.0000 Y306.0600 Z0.0000
M3S245
G4 P0.5; Tool Off

G0 Z0; move to z-safe height
G0 X3.0000 Y312.0600
M3S0
G4 P0.5; Tool On
G1 F300 Z0.0000
G1 F15000 X397.0000 Y312.0600 Z0.0000
M3S245
G4 P0.5; Tool Off

G0 Z0; move to z-safe height
G0 X397.0000 Y318.0600
M3S0
G4 P0.5; Tool On
G1 F300 Z0.0000
G1 F15000 X3.0000 Y318.0600 Z0.0000
M3S245
G4 P0.5; Tool Off

G0 Z0; move to z-safe height
G0 X3.0000 Y324.0600
M3S0
G4 P0.5; Tool On
G1 F300 Z0.0000
G1 F15000 X397.0000 Y324.0600 Z0.0000
M3S245
G4 P0.5; Tool Off

G0 Z0; move to z-safe height
G0 X397.0000 Y330.0600
M3S0
G4 P0.5; Tool On
G1 F300 Z0.0000
G1 F15000 X3.0000 Y330.0600 Z0.0000
M3S245
G4 P0.5; Tool Off

G0 Z0; move to z-safe height
G0 X3.0000 Y336.0600
M3S0
G4 P0.5; Tool On
G1 F300 Z0.0000
G1 F15000 X397.0000 Y336.0600 Z0.0000
M3S245
G4 P0.5; Tool Off

G0 Z0; move to z-safe height
G0 X397.0000 Y342.0600
M3S0
G4 P0.5; Tool On
G1 F300 Z0.0000
G1 F15000 X3.0000 Y342.0600 Z0.0000
M3S245
G4 P0.5; Tool Off

G0 Z0; move to z-safe height
G0 X3.0000 Y348.0600
M3S0
G4 P0.5; Tool On
G1 F300 Z0.0000
G1 F15000 X397.0000 Y348.0600 Z0.0000
M3S245
G4 P0.5; Tool Off

G0 Z0; move to z-safe height
G0 X397.0000 Y354.0600
M3S0
G4 P0.5; Tool On
G1 F300 Z0.0000
G1 F15000 X3.0000 Y354.0600 Z0.0000
M3S245
G4 P0.5; Tool Off

G0 Z0; move to z-safe height
G0 X3.0000 Y360.0600
M3S0
G4 P0.5; Tool On
G1 F300 Z0.0000
G1 F15000 X397.0000 Y360.0600 Z0.0000
M3S245
G4 P0.5; Tool Off

G0 Z0; move to z-safe height
G0 X397.0000 Y366.0600
M3S0
G4 P0.5; Tool On
G1 F300 Z0.0000
G1 F15000 X3.0000 Y366.0600 Z0.0000
M3S245
G4 P0.5; Tool Off

G0 Z0; move to z-safe height
G0 X3.0000 Y372.0600
M3S0
G4 P0.5; Tool On
G1 F300 Z0.0000
G1 F15000 X397.0000 Y372.0600 Z0.0000
M3S245
G4 P0.5; Tool Off

G0 Z0; move to z-safe height
G0 X397.0000 Y378.0600
M3S0
G4 P0.5; Tool On
G1 F300 Z0.0000
G1 F15000 X3.0000 Y378.0600 Z0.0000
M3S245
G4 P0.5; Tool Off

G0 Z0; move to z-safe height
G0 X3.0000 Y384.0600
M3S0
G4 P0.5; Tool On
G1 F300 Z0.0000
G1 F15000 X397.0000 Y384.0600 Z0.0000
M3S245
G4 P0.5; Tool Off

G0 Z0; move to z-safe height
G0 X397.0000 Y390.0600
M3S0
G4 P0.5; Tool On
G1 F300 Z0.0000
G1 F15000 X3.0000 Y390.0600 Z0.0000
M3S245
G4 P0.5; Tool Off

G0 Z0; move to z-safe height
G0 X3.0000 Y396.0600
M3S0
G4 P0.5; Tool On
G1 F300 Z0.0000
G1 F15000 X397.0000 Y396.0600 Z0.0000
M3S245
G4 P0.5; Tool Off

G0 Z0; move to z-safe height
G0 X397.0000 Y402.0600
M3S0
G4 P0.5; Tool On
G1 F300 Z0.0000
G1 F15000 X3.0000 Y402.0600 Z0.0000
M3S245
G4 P0.5; Tool Off

G0 Z0; move to z-safe height
G0 X3.0000 Y408.0600
M3S0
G4 P0.5; Tool On
G1 F300 Z0.0000
G1 F15000 X397.0000 Y408.0600 Z0.0000
M3S245
G4 P0.5; Tool Off

G0 Z0; move to z-safe height
G0 X397.0000 Y414.0600
M3S0
G4 P0.5; Tool On
G1 F300 Z0.0000
G1 F15000 X3.0000 Y414.0600 Z0.0000
M3S245
G4 P0.5; Tool Off

G0 Z0; move to z-safe height
G0 X3.0000 Y420.0600
M3S0
G4 P0.5; Tool On
G1 F300 Z0.0000
G1 F15000 X397.0000 Y420.0600 Z0.0000
M3S245
G4 P0.5; Tool Off

G0 Z0; move to z-safe height
G0 X397.0000 Y426.0600
M3S0
G4 P0.5; Tool On
G1 F300 Z0.0000
G1 F15000 X3.0000 Y426.0600 Z0.0000
M3S245
G4 P0.5; Tool Off

G0 Z0; move to z-safe height
G0 X3.0000 Y432.0600
M3S0
G4 P0.5; Tool On
G1 F300 Z0.0000
G1 F15000 X397.0000 Y432.0600 Z0.0000
M3S245
G4 P0.5; Tool Off

G0 Z0; move to z-safe height
G0 X397.0000 Y438.0600
M3S0
G4 P0.5; Tool On
G1 F300 Z0.0000
G1 F15000 X3.0000 Y438.0600 Z0.0000
M3S245
G4 P0.5; Tool Off

G0 Z0; move to z-safe height
G0 X3.0000 Y444.0600
M3S0
G4 P0.5; Tool On
G1 F300 Z0.0000
G1 F15000 X397.0000 Y444.0600 Z0.0000
M3S245
G4 P0.5; Tool Off

G0 Z0; move to z-safe height
G0 X397.0000 Y450.0600
M3S0
G4 P0.5; Tool On
G1 F300 Z0.0000
G1 F15000 X3.0000 Y450.0600 Z0.0000
M3S245
G4 P0.5; Tool Off

G0 Z0; move to z-safe height
G0 X3.0000 Y456.0600
M3S0
G4 P0.5; Tool On
G1 F300 Z0.0000
G1 F15000 X397.0000 Y456.0600 Z0.0000
M3S245
G4 P0.5; Tool Off

G0 Z0; move to z-safe height
G0 X397.0000 Y462.0600
M3S0
G4 P0.5; Tool On
G1 F300 Z0.0000
G1 F15000 X3.0000 Y462.0600 Z0.0000
M3S245
G4 P0.5; Tool Off

G0 Z0; move to z-safe height
G0 X3.0000 Y468.0600
M3S0
G4 P0.5; Tool On
G1 F300 Z0.0000
G1 F15000 X397.0000 Y468.0600 Z0.0000
M3S245
G4 P0.5; Tool Off

G0 Z0; move to z-safe height
G0 X397.0000 Y474.0600
M3S0
G4 P0.5; Tool On
G1 F300 Z0.0000
G1 F15000 X3.0000 Y474.0600 Z0.0000
M3S245
G4 P0.5; Tool Off

G0 Z0; move to z-safe height
G0 X3.0000 Y480.0600
M3S0
G4 P0.5; Tool On
G1 F300 Z0.0000
G1 F15000 X397.0000 Y480.0600 Z0.0000
M3S245
G4 P0.5; Tool Off

G0 Z0; move to z-safe height
G0 X397.0000 Y486.0600
M3S0
G4 P0.5; Tool On
G1 F300 Z0.0000
G1 F15000 X3.0000 Y486.0600 Z0.0000
M3S245
G4 P0.5; Tool Off

G0 Z0; move to z-safe height
G0 X3.0000 Y492.0600
M3S0
G4 P0.5; Tool On
G1 F300 Z0.0000
G1 F15000 X397.0000 Y492.0600 Z0.0000
M3S245
G4 P0.5; Tool Off
; retracting back to z-safe
G0 Z0

; Plotter Mode Complete
