; GCODE Generated by cam.openbuilds.com on 2023-04-23 
G21 ; mm-mode
G54; Work Coordinates
G21; mm-mode
G90; Absolute Positioning
; Plotter Mode Active

; Operation 0: Pen Plotter: (lines fill)
; Pen Diameter: 2

G0 Z0; move to z-safe height
G0 F1000 X4.0000 Y7.4700
M3S0
G4 P0.5; Tool On
G1 F300 Z0.0000
G1 F15000 X396.0000 Y7.4700 Z0.0000
M3S245
G4 P0.5; Tool Off

G0 Z0; move to z-safe height
G0 X396.0000 Y15.4700
M3S0
G4 P0.5; Tool On
G1 F300 Z0.0000
G1 F15000 X4.0000 Y15.4700 Z0.0000
M3S245
G4 P0.5; Tool Off

G0 Z0; move to z-safe height
G0 X4.0000 Y23.4700
M3S0
G4 P0.5; Tool On
G1 F300 Z0.0000
G1 F15000 X396.0000 Y23.4700 Z0.0000
M3S245
G4 P0.5; Tool Off

G0 Z0; move to z-safe height
G0 X396.0000 Y31.4700
M3S0
G4 P0.5; Tool On
G1 F300 Z0.0000
G1 F15000 X4.0000 Y31.4700 Z0.0000
M3S245
G4 P0.5; Tool Off

G0 Z0; move to z-safe height
G0 X4.0000 Y39.4700
M3S0
G4 P0.5; Tool On
G1 F300 Z0.0000
G1 F15000 X396.0000 Y39.4700 Z0.0000
M3S245
G4 P0.5; Tool Off

G0 Z0; move to z-safe height
G0 X396.0000 Y47.4700
M3S0
G4 P0.5; Tool On
G1 F300 Z0.0000
G1 F15000 X4.0000 Y47.4700 Z0.0000
M3S245
G4 P0.5; Tool Off

G0 Z0; move to z-safe height
G0 X4.0000 Y55.4700
M3S0
G4 P0.5; Tool On
G1 F300 Z0.0000
G1 F15000 X396.0000 Y55.4700 Z0.0000
M3S245
G4 P0.5; Tool Off

G0 Z0; move to z-safe height
G0 X396.0000 Y63.4700
M3S0
G4 P0.5; Tool On
G1 F300 Z0.0000
G1 F15000 X4.0000 Y63.4700 Z0.0000
M3S245
G4 P0.5; Tool Off

G0 Z0; move to z-safe height
G0 X4.0000 Y71.4700
M3S0
G4 P0.5; Tool On
G1 F300 Z0.0000
G1 F15000 X396.0000 Y71.4700 Z0.0000
M3S245
G4 P0.5; Tool Off

G0 Z0; move to z-safe height
G0 X396.0000 Y79.4700
M3S0
G4 P0.5; Tool On
G1 F300 Z0.0000
G1 F15000 X4.0000 Y79.4700 Z0.0000
M3S245
G4 P0.5; Tool Off

G0 Z0; move to z-safe height
G0 X4.0000 Y87.4700
M3S0
G4 P0.5; Tool On
G1 F300 Z0.0000
G1 F15000 X396.0000 Y87.4700 Z0.0000
M3S245
G4 P0.5; Tool Off

G0 Z0; move to z-safe height
G0 X396.0000 Y95.4700
M3S0
G4 P0.5; Tool On
G1 F300 Z0.0000
G1 F15000 X4.0000 Y95.4700 Z0.0000
M3S245
G4 P0.5; Tool Off

G0 Z0; move to z-safe height
G0 X4.0000 Y103.4700
M3S0
G4 P0.5; Tool On
G1 F300 Z0.0000
G1 F15000 X396.0000 Y103.4700 Z0.0000
M3S245
G4 P0.5; Tool Off

G0 Z0; move to z-safe height
G0 X396.0000 Y111.4700
M3S0
G4 P0.5; Tool On
G1 F300 Z0.0000
G1 F15000 X4.0000 Y111.4700 Z0.0000
M3S245
G4 P0.5; Tool Off

G0 Z0; move to z-safe height
G0 X4.0000 Y119.4700
M3S0
G4 P0.5; Tool On
G1 F300 Z0.0000
G1 F15000 X396.0000 Y119.4700 Z0.0000
M3S245
G4 P0.5; Tool Off

G0 Z0; move to z-safe height
G0 X396.0000 Y127.4700
M3S0
G4 P0.5; Tool On
G1 F300 Z0.0000
G1 F15000 X4.0000 Y127.4700 Z0.0000
M3S245
G4 P0.5; Tool Off

G0 Z0; move to z-safe height
G0 X4.0000 Y135.4700
M3S0
G4 P0.5; Tool On
G1 F300 Z0.0000
G1 F15000 X396.0000 Y135.4700 Z0.0000
M3S245
G4 P0.5; Tool Off

G0 Z0; move to z-safe height
G0 X396.0000 Y143.4700
M3S0
G4 P0.5; Tool On
G1 F300 Z0.0000
G1 F15000 X4.0000 Y143.4700 Z0.0000
M3S245
G4 P0.5; Tool Off

G0 Z0; move to z-safe height
G0 X4.0000 Y151.4700
M3S0
G4 P0.5; Tool On
G1 F300 Z0.0000
G1 F15000 X396.0000 Y151.4700 Z0.0000
M3S245
G4 P0.5; Tool Off

G0 Z0; move to z-safe height
G0 X396.0000 Y159.4700
M3S0
G4 P0.5; Tool On
G1 F300 Z0.0000
G1 F15000 X4.0000 Y159.4700 Z0.0000
M3S245
G4 P0.5; Tool Off

G0 Z0; move to z-safe height
G0 X4.0000 Y167.4700
M3S0
G4 P0.5; Tool On
G1 F300 Z0.0000
G1 F15000 X396.0000 Y167.4700 Z0.0000
M3S245
G4 P0.5; Tool Off

G0 Z0; move to z-safe height
G0 X396.0000 Y175.4700
M3S0
G4 P0.5; Tool On
G1 F300 Z0.0000
G1 F15000 X4.0000 Y175.4700 Z0.0000
M3S245
G4 P0.5; Tool Off

G0 Z0; move to z-safe height
G0 X4.0000 Y183.4700
M3S0
G4 P0.5; Tool On
G1 F300 Z0.0000
G1 F15000 X396.0000 Y183.4700 Z0.0000
M3S245
G4 P0.5; Tool Off

G0 Z0; move to z-safe height
G0 X396.0000 Y191.4700
M3S0
G4 P0.5; Tool On
G1 F300 Z0.0000
G1 F15000 X4.0000 Y191.4700 Z0.0000
M3S245
G4 P0.5; Tool Off

G0 Z0; move to z-safe height
G0 X4.0000 Y199.4700
M3S0
G4 P0.5; Tool On
G1 F300 Z0.0000
G1 F15000 X396.0000 Y199.4700 Z0.0000
M3S245
G4 P0.5; Tool Off

G0 Z0; move to z-safe height
G0 X396.0000 Y207.4700
M3S0
G4 P0.5; Tool On
G1 F300 Z0.0000
G1 F15000 X4.0000 Y207.4700 Z0.0000
M3S245
G4 P0.5; Tool Off

G0 Z0; move to z-safe height
G0 X4.0000 Y215.4700
M3S0
G4 P0.5; Tool On
G1 F300 Z0.0000
G1 F15000 X396.0000 Y215.4700 Z0.0000
M3S245
G4 P0.5; Tool Off

G0 Z0; move to z-safe height
G0 X396.0000 Y223.4700
M3S0
G4 P0.5; Tool On
G1 F300 Z0.0000
G1 F15000 X4.0000 Y223.4700 Z0.0000
M3S245
G4 P0.5; Tool Off

G0 Z0; move to z-safe height
G0 X4.0000 Y231.4700
M3S0
G4 P0.5; Tool On
G1 F300 Z0.0000
G1 F15000 X396.0000 Y231.4700 Z0.0000
M3S245
G4 P0.5; Tool Off

G0 Z0; move to z-safe height
G0 X396.0000 Y239.4700
M3S0
G4 P0.5; Tool On
G1 F300 Z0.0000
G1 F15000 X4.0000 Y239.4700 Z0.0000
M3S245
G4 P0.5; Tool Off

G0 Z0; move to z-safe height
G0 X4.0000 Y247.4700
M3S0
G4 P0.5; Tool On
G1 F300 Z0.0000
G1 F15000 X396.0000 Y247.4700 Z0.0000
M3S245
G4 P0.5; Tool Off

G0 Z0; move to z-safe height
G0 X396.0000 Y255.4700
M3S0
G4 P0.5; Tool On
G1 F300 Z0.0000
G1 F15000 X4.0000 Y255.4700 Z0.0000
M3S245
G4 P0.5; Tool Off

G0 Z0; move to z-safe height
G0 X4.0000 Y263.4700
M3S0
G4 P0.5; Tool On
G1 F300 Z0.0000
G1 F15000 X396.0000 Y263.4700 Z0.0000
M3S245
G4 P0.5; Tool Off

G0 Z0; move to z-safe height
G0 X396.0000 Y271.4700
M3S0
G4 P0.5; Tool On
G1 F300 Z0.0000
G1 F15000 X4.0000 Y271.4700 Z0.0000
M3S245
G4 P0.5; Tool Off

G0 Z0; move to z-safe height
G0 X4.0000 Y279.4700
M3S0
G4 P0.5; Tool On
G1 F300 Z0.0000
G1 F15000 X396.0000 Y279.4700 Z0.0000
M3S245
G4 P0.5; Tool Off

G0 Z0; move to z-safe height
G0 X396.0000 Y287.4700
M3S0
G4 P0.5; Tool On
G1 F300 Z0.0000
G1 F15000 X4.0000 Y287.4700 Z0.0000
M3S245
G4 P0.5; Tool Off

G0 Z0; move to z-safe height
G0 X4.0000 Y295.4700
M3S0
G4 P0.5; Tool On
G1 F300 Z0.0000
G1 F15000 X396.0000 Y295.4700 Z0.0000
M3S245
G4 P0.5; Tool Off

G0 Z0; move to z-safe height
G0 X396.0000 Y303.4700
M3S0
G4 P0.5; Tool On
G1 F300 Z0.0000
G1 F15000 X4.0000 Y303.4700 Z0.0000
M3S245
G4 P0.5; Tool Off

G0 Z0; move to z-safe height
G0 X4.0000 Y311.4700
M3S0
G4 P0.5; Tool On
G1 F300 Z0.0000
G1 F15000 X396.0000 Y311.4700 Z0.0000
M3S245
G4 P0.5; Tool Off

G0 Z0; move to z-safe height
G0 X396.0000 Y319.4700
M3S0
G4 P0.5; Tool On
G1 F300 Z0.0000
G1 F15000 X4.0000 Y319.4700 Z0.0000
M3S245
G4 P0.5; Tool Off

G0 Z0; move to z-safe height
G0 X4.0000 Y327.4700
M3S0
G4 P0.5; Tool On
G1 F300 Z0.0000
G1 F15000 X396.0000 Y327.4700 Z0.0000
M3S245
G4 P0.5; Tool Off

G0 Z0; move to z-safe height
G0 X396.0000 Y335.4700
M3S0
G4 P0.5; Tool On
G1 F300 Z0.0000
G1 F15000 X4.0000 Y335.4700 Z0.0000
M3S245
G4 P0.5; Tool Off

G0 Z0; move to z-safe height
G0 X4.0000 Y343.4700
M3S0
G4 P0.5; Tool On
G1 F300 Z0.0000
G1 F15000 X396.0000 Y343.4700 Z0.0000
M3S245
G4 P0.5; Tool Off

G0 Z0; move to z-safe height
G0 X396.0000 Y351.4700
M3S0
G4 P0.5; Tool On
G1 F300 Z0.0000
G1 F15000 X4.0000 Y351.4700 Z0.0000
M3S245
G4 P0.5; Tool Off

G0 Z0; move to z-safe height
G0 X4.0000 Y359.4700
M3S0
G4 P0.5; Tool On
G1 F300 Z0.0000
G1 F15000 X396.0000 Y359.4700 Z0.0000
M3S245
G4 P0.5; Tool Off

G0 Z0; move to z-safe height
G0 X396.0000 Y367.4700
M3S0
G4 P0.5; Tool On
G1 F300 Z0.0000
G1 F15000 X4.0000 Y367.4700 Z0.0000
M3S245
G4 P0.5; Tool Off

G0 Z0; move to z-safe height
G0 X4.0000 Y375.4700
M3S0
G4 P0.5; Tool On
G1 F300 Z0.0000
G1 F15000 X396.0000 Y375.4700 Z0.0000
M3S245
G4 P0.5; Tool Off

G0 Z0; move to z-safe height
G0 X396.0000 Y383.4700
M3S0
G4 P0.5; Tool On
G1 F300 Z0.0000
G1 F15000 X4.0000 Y383.4700 Z0.0000
M3S245
G4 P0.5; Tool Off

G0 Z0; move to z-safe height
G0 X4.0000 Y391.4700
M3S0
G4 P0.5; Tool On
G1 F300 Z0.0000
G1 F15000 X396.0000 Y391.4700 Z0.0000
M3S245
G4 P0.5; Tool Off

G0 Z0; move to z-safe height
G0 X396.0000 Y399.4700
M3S0
G4 P0.5; Tool On
G1 F300 Z0.0000
G1 F15000 X4.0000 Y399.4700 Z0.0000
M3S245
G4 P0.5; Tool Off

G0 Z0; move to z-safe height
G0 X4.0000 Y407.4700
M3S0
G4 P0.5; Tool On
G1 F300 Z0.0000
G1 F15000 X396.0000 Y407.4700 Z0.0000
M3S245
G4 P0.5; Tool Off

G0 Z0; move to z-safe height
G0 X396.0000 Y415.4700
M3S0
G4 P0.5; Tool On
G1 F300 Z0.0000
G1 F15000 X4.0000 Y415.4700 Z0.0000
M3S245
G4 P0.5; Tool Off

G0 Z0; move to z-safe height
G0 X4.0000 Y423.4700
M3S0
G4 P0.5; Tool On
G1 F300 Z0.0000
G1 F15000 X396.0000 Y423.4700 Z0.0000
M3S245
G4 P0.5; Tool Off

G0 Z0; move to z-safe height
G0 X396.0000 Y431.4700
M3S0
G4 P0.5; Tool On
G1 F300 Z0.0000
G1 F15000 X4.0000 Y431.4700 Z0.0000
M3S245
G4 P0.5; Tool Off

G0 Z0; move to z-safe height
G0 X4.0000 Y439.4700
M3S0
G4 P0.5; Tool On
G1 F300 Z0.0000
G1 F15000 X396.0000 Y439.4700 Z0.0000
M3S245
G4 P0.5; Tool Off

G0 Z0; move to z-safe height
G0 X396.0000 Y447.4700
M3S0
G4 P0.5; Tool On
G1 F300 Z0.0000
G1 F15000 X4.0000 Y447.4700 Z0.0000
M3S245
G4 P0.5; Tool Off

G0 Z0; move to z-safe height
G0 X4.0000 Y455.4700
M3S0
G4 P0.5; Tool On
G1 F300 Z0.0000
G1 F15000 X396.0000 Y455.4700 Z0.0000
M3S245
G4 P0.5; Tool Off

G0 Z0; move to z-safe height
G0 X396.0000 Y463.4700
M3S0
G4 P0.5; Tool On
G1 F300 Z0.0000
G1 F15000 X4.0000 Y463.4700 Z0.0000
M3S245
G4 P0.5; Tool Off

G0 Z0; move to z-safe height
G0 X4.0000 Y471.4700
M3S0
G4 P0.5; Tool On
G1 F300 Z0.0000
G1 F15000 X396.0000 Y471.4700 Z0.0000
M3S245
G4 P0.5; Tool Off

G0 Z0; move to z-safe height
G0 X396.0000 Y479.4700
M3S0
G4 P0.5; Tool On
G1 F300 Z0.0000
G1 F15000 X4.0000 Y479.4700 Z0.0000
M3S245
G4 P0.5; Tool Off

G0 Z0; move to z-safe height
G0 X4.0000 Y487.4700
M3S0
G4 P0.5; Tool On
G1 F300 Z0.0000
G1 F15000 X396.0000 Y487.4700 Z0.0000
M3S245
G4 P0.5; Tool Off

G0 Z0; move to z-safe height
G0 X396.0000 Y495.4700
M3S0
G4 P0.5; Tool On
G1 F300 Z0.0000
G1 F15000 X4.0000 Y495.4700 Z0.0000
M3S245
G4 P0.5; Tool Off
; retracting back to z-safe
G0 Z0

; Plotter Mode Complete
