; GCODE Generated by cam.openbuilds.com on 2023-03-29 
G21 ; mm-mode
G54; Work Coordinates
G21; mm-mode
G90; Absolute Positioning
; Plotter Mode Active

; Operation 0: Pen Plotter: (lines fill)
; Pen Diameter: 2

G0 Z0; move to z-safe height
G0 F1000 X395.5000 Y8.1700
M3S0
G4 P0.5; Tool On
G1 F300 Z0.0000
G1 F15000 X4.5000 Y8.1700 Z0.0000
M3S245
G4 P0.5; Tool Off

G0 Z0; move to z-safe height
G0 X4.5000 Y17.1700
M3S0
G4 P0.5; Tool On
G1 F300 Z0.0000
G1 F15000 X395.5000 Y17.1700 Z0.0000
M3S245
G4 P0.5; Tool Off

G0 Z0; move to z-safe height
G0 X395.5000 Y26.1700
M3S0
G4 P0.5; Tool On
G1 F300 Z0.0000
G1 F15000 X4.5000 Y26.1700 Z0.0000
M3S245
G4 P0.5; Tool Off

G0 Z0; move to z-safe height
G0 X4.5000 Y35.1700
M3S0
G4 P0.5; Tool On
G1 F300 Z0.0000
G1 F15000 X395.5000 Y35.1700 Z0.0000
M3S245
G4 P0.5; Tool Off

G0 Z0; move to z-safe height
G0 X395.5000 Y44.1700
M3S0
G4 P0.5; Tool On
G1 F300 Z0.0000
G1 F15000 X4.5000 Y44.1700 Z0.0000
M3S245
G4 P0.5; Tool Off

G0 Z0; move to z-safe height
G0 X4.5000 Y53.1700
M3S0
G4 P0.5; Tool On
G1 F300 Z0.0000
G1 F15000 X395.5000 Y53.1700 Z0.0000
M3S245
G4 P0.5; Tool Off

G0 Z0; move to z-safe height
G0 X395.5000 Y62.1700
M3S0
G4 P0.5; Tool On
G1 F300 Z0.0000
G1 F15000 X4.5000 Y62.1700 Z0.0000
M3S245
G4 P0.5; Tool Off

G0 Z0; move to z-safe height
G0 X4.5000 Y71.1700
M3S0
G4 P0.5; Tool On
G1 F300 Z0.0000
G1 F15000 X395.5000 Y71.1700 Z0.0000
M3S245
G4 P0.5; Tool Off

G0 Z0; move to z-safe height
G0 X395.5000 Y80.1700
M3S0
G4 P0.5; Tool On
G1 F300 Z0.0000
G1 F15000 X4.5000 Y80.1700 Z0.0000
M3S245
G4 P0.5; Tool Off

G0 Z0; move to z-safe height
G0 X4.5000 Y89.1700
M3S0
G4 P0.5; Tool On
G1 F300 Z0.0000
G1 F15000 X395.5000 Y89.1700 Z0.0000
M3S245
G4 P0.5; Tool Off

G0 Z0; move to z-safe height
G0 X395.5000 Y98.1700
M3S0
G4 P0.5; Tool On
G1 F300 Z0.0000
G1 F15000 X4.5000 Y98.1700 Z0.0000
M3S245
G4 P0.5; Tool Off

G0 Z0; move to z-safe height
G0 X4.5000 Y107.1700
M3S0
G4 P0.5; Tool On
G1 F300 Z0.0000
G1 F15000 X395.5000 Y107.1700 Z0.0000
M3S245
G4 P0.5; Tool Off

G0 Z0; move to z-safe height
G0 X395.5000 Y116.1700
M3S0
G4 P0.5; Tool On
G1 F300 Z0.0000
G1 F15000 X4.5000 Y116.1700 Z0.0000
M3S245
G4 P0.5; Tool Off

G0 Z0; move to z-safe height
G0 X4.5000 Y125.1700
M3S0
G4 P0.5; Tool On
G1 F300 Z0.0000
G1 F15000 X395.5000 Y125.1700 Z0.0000
M3S245
G4 P0.5; Tool Off

G0 Z0; move to z-safe height
G0 X395.5000 Y134.1700
M3S0
G4 P0.5; Tool On
G1 F300 Z0.0000
G1 F15000 X4.5000 Y134.1700 Z0.0000
M3S245
G4 P0.5; Tool Off

G0 Z0; move to z-safe height
G0 X4.5000 Y143.1700
M3S0
G4 P0.5; Tool On
G1 F300 Z0.0000
G1 F15000 X395.5000 Y143.1700 Z0.0000
M3S245
G4 P0.5; Tool Off

G0 Z0; move to z-safe height
G0 X395.5000 Y152.1700
M3S0
G4 P0.5; Tool On
G1 F300 Z0.0000
G1 F15000 X4.5000 Y152.1700 Z0.0000
M3S245
G4 P0.5; Tool Off

G0 Z0; move to z-safe height
G0 X4.5000 Y161.1700
M3S0
G4 P0.5; Tool On
G1 F300 Z0.0000
G1 F15000 X395.5000 Y161.1700 Z0.0000
M3S245
G4 P0.5; Tool Off

G0 Z0; move to z-safe height
G0 X395.5000 Y170.1700
M3S0
G4 P0.5; Tool On
G1 F300 Z0.0000
G1 F15000 X4.5000 Y170.1700 Z0.0000
M3S245
G4 P0.5; Tool Off

G0 Z0; move to z-safe height
G0 X4.5000 Y179.1700
M3S0
G4 P0.5; Tool On
G1 F300 Z0.0000
G1 F15000 X395.5000 Y179.1700 Z0.0000
M3S245
G4 P0.5; Tool Off

G0 Z0; move to z-safe height
G0 X395.5000 Y188.1700
M3S0
G4 P0.5; Tool On
G1 F300 Z0.0000
G1 F15000 X4.5000 Y188.1700 Z0.0000
M3S245
G4 P0.5; Tool Off

G0 Z0; move to z-safe height
G0 X4.5000 Y197.1700
M3S0
G4 P0.5; Tool On
G1 F300 Z0.0000
G1 F15000 X395.5000 Y197.1700 Z0.0000
M3S245
G4 P0.5; Tool Off

G0 Z0; move to z-safe height
G0 X395.5000 Y206.1700
M3S0
G4 P0.5; Tool On
G1 F300 Z0.0000
G1 F15000 X4.5000 Y206.1700 Z0.0000
M3S245
G4 P0.5; Tool Off

G0 Z0; move to z-safe height
G0 X4.5000 Y215.1700
M3S0
G4 P0.5; Tool On
G1 F300 Z0.0000
G1 F15000 X395.5000 Y215.1700 Z0.0000
M3S245
G4 P0.5; Tool Off

G0 Z0; move to z-safe height
G0 X395.5000 Y224.1700
M3S0
G4 P0.5; Tool On
G1 F300 Z0.0000
G1 F15000 X4.5000 Y224.1700 Z0.0000
M3S245
G4 P0.5; Tool Off

G0 Z0; move to z-safe height
G0 X4.5000 Y233.1700
M3S0
G4 P0.5; Tool On
G1 F300 Z0.0000
G1 F15000 X395.5000 Y233.1700 Z0.0000
M3S245
G4 P0.5; Tool Off

G0 Z0; move to z-safe height
G0 X395.5000 Y242.1700
M3S0
G4 P0.5; Tool On
G1 F300 Z0.0000
G1 F15000 X4.5000 Y242.1700 Z0.0000
M3S245
G4 P0.5; Tool Off

G0 Z0; move to z-safe height
G0 X4.5000 Y251.1700
M3S0
G4 P0.5; Tool On
G1 F300 Z0.0000
G1 F15000 X395.5000 Y251.1700 Z0.0000
M3S245
G4 P0.5; Tool Off

G0 Z0; move to z-safe height
G0 X395.5000 Y260.1700
M3S0
G4 P0.5; Tool On
G1 F300 Z0.0000
G1 F15000 X4.5000 Y260.1700 Z0.0000
M3S245
G4 P0.5; Tool Off

G0 Z0; move to z-safe height
G0 X4.5000 Y269.1700
M3S0
G4 P0.5; Tool On
G1 F300 Z0.0000
G1 F15000 X395.5000 Y269.1700 Z0.0000
M3S245
G4 P0.5; Tool Off

G0 Z0; move to z-safe height
G0 X395.5000 Y278.1700
M3S0
G4 P0.5; Tool On
G1 F300 Z0.0000
G1 F15000 X4.5000 Y278.1700 Z0.0000
M3S245
G4 P0.5; Tool Off

G0 Z0; move to z-safe height
G0 X4.5000 Y287.1700
M3S0
G4 P0.5; Tool On
G1 F300 Z0.0000
G1 F15000 X395.5000 Y287.1700 Z0.0000
M3S245
G4 P0.5; Tool Off

G0 Z0; move to z-safe height
G0 X395.5000 Y296.1700
M3S0
G4 P0.5; Tool On
G1 F300 Z0.0000
G1 F15000 X4.5000 Y296.1700 Z0.0000
M3S245
G4 P0.5; Tool Off

G0 Z0; move to z-safe height
G0 X4.5000 Y305.1700
M3S0
G4 P0.5; Tool On
G1 F300 Z0.0000
G1 F15000 X395.5000 Y305.1700 Z0.0000
M3S245
G4 P0.5; Tool Off

G0 Z0; move to z-safe height
G0 X395.5000 Y314.1700
M3S0
G4 P0.5; Tool On
G1 F300 Z0.0000
G1 F15000 X4.5000 Y314.1700 Z0.0000
M3S245
G4 P0.5; Tool Off

G0 Z0; move to z-safe height
G0 X4.5000 Y323.1700
M3S0
G4 P0.5; Tool On
G1 F300 Z0.0000
G1 F15000 X395.5000 Y323.1700 Z0.0000
M3S245
G4 P0.5; Tool Off

G0 Z0; move to z-safe height
G0 X395.5000 Y332.1700
M3S0
G4 P0.5; Tool On
G1 F300 Z0.0000
G1 F15000 X4.5000 Y332.1700 Z0.0000
M3S245
G4 P0.5; Tool Off

G0 Z0; move to z-safe height
G0 X4.5000 Y341.1700
M3S0
G4 P0.5; Tool On
G1 F300 Z0.0000
G1 F15000 X395.5000 Y341.1700 Z0.0000
M3S245
G4 P0.5; Tool Off

G0 Z0; move to z-safe height
G0 X395.5000 Y350.1700
M3S0
G4 P0.5; Tool On
G1 F300 Z0.0000
G1 F15000 X4.5000 Y350.1700 Z0.0000
M3S245
G4 P0.5; Tool Off

G0 Z0; move to z-safe height
G0 X4.5000 Y359.1700
M3S0
G4 P0.5; Tool On
G1 F300 Z0.0000
G1 F15000 X395.5000 Y359.1700 Z0.0000
M3S245
G4 P0.5; Tool Off

G0 Z0; move to z-safe height
G0 X395.5000 Y368.1700
M3S0
G4 P0.5; Tool On
G1 F300 Z0.0000
G1 F15000 X4.5000 Y368.1700 Z0.0000
M3S245
G4 P0.5; Tool Off

G0 Z0; move to z-safe height
G0 X4.5000 Y377.1700
M3S0
G4 P0.5; Tool On
G1 F300 Z0.0000
G1 F15000 X395.5000 Y377.1700 Z0.0000
M3S245
G4 P0.5; Tool Off

G0 Z0; move to z-safe height
G0 X395.5000 Y386.1700
M3S0
G4 P0.5; Tool On
G1 F300 Z0.0000
G1 F15000 X4.5000 Y386.1700 Z0.0000
M3S245
G4 P0.5; Tool Off

G0 Z0; move to z-safe height
G0 X4.5000 Y395.1700
M3S0
G4 P0.5; Tool On
G1 F300 Z0.0000
G1 F15000 X395.5000 Y395.1700 Z0.0000
M3S245
G4 P0.5; Tool Off

G0 Z0; move to z-safe height
G0 X395.5000 Y404.1700
M3S0
G4 P0.5; Tool On
G1 F300 Z0.0000
G1 F15000 X4.5000 Y404.1700 Z0.0000
M3S245
G4 P0.5; Tool Off

G0 Z0; move to z-safe height
G0 X4.5000 Y413.1700
M3S0
G4 P0.5; Tool On
G1 F300 Z0.0000
G1 F15000 X395.5000 Y413.1700 Z0.0000
M3S245
G4 P0.5; Tool Off

G0 Z0; move to z-safe height
G0 X395.5000 Y422.1700
M3S0
G4 P0.5; Tool On
G1 F300 Z0.0000
G1 F15000 X4.5000 Y422.1700 Z0.0000
M3S245
G4 P0.5; Tool Off

G0 Z0; move to z-safe height
G0 X4.5000 Y431.1700
M3S0
G4 P0.5; Tool On
G1 F300 Z0.0000
G1 F15000 X395.5000 Y431.1700 Z0.0000
M3S245
G4 P0.5; Tool Off

G0 Z0; move to z-safe height
G0 X395.5000 Y440.1700
M3S0
G4 P0.5; Tool On
G1 F300 Z0.0000
G1 F15000 X4.5000 Y440.1700 Z0.0000
M3S245
G4 P0.5; Tool Off

G0 Z0; move to z-safe height
G0 X4.5000 Y449.1700
M3S0
G4 P0.5; Tool On
G1 F300 Z0.0000
G1 F15000 X395.5000 Y449.1700 Z0.0000
M3S245
G4 P0.5; Tool Off

G0 Z0; move to z-safe height
G0 X395.5000 Y458.1700
M3S0
G4 P0.5; Tool On
G1 F300 Z0.0000
G1 F15000 X4.5000 Y458.1700 Z0.0000
M3S245
G4 P0.5; Tool Off

G0 Z0; move to z-safe height
G0 X4.5000 Y467.1700
M3S0
G4 P0.5; Tool On
G1 F300 Z0.0000
G1 F15000 X395.5000 Y467.1700 Z0.0000
M3S245
G4 P0.5; Tool Off

G0 Z0; move to z-safe height
G0 X395.5000 Y476.1700
M3S0
G4 P0.5; Tool On
G1 F300 Z0.0000
G1 F15000 X4.5000 Y476.1700 Z0.0000
M3S245
G4 P0.5; Tool Off

G0 Z0; move to z-safe height
G0 X4.5000 Y485.1700
M3S0
G4 P0.5; Tool On
G1 F300 Z0.0000
G1 F15000 X395.5000 Y485.1700 Z0.0000
M3S245
G4 P0.5; Tool Off

G0 Z0; move to z-safe height
G0 X395.5000 Y494.1700
M3S0
G4 P0.5; Tool On
G1 F300 Z0.0000
G1 F15000 X4.5000 Y494.1700 Z0.0000
M3S245
G4 P0.5; Tool Off
; retracting back to z-safe
G0 Z0

; Plotter Mode Complete
