; GCODE Generated by cam.openbuilds.com on 2023-03-27 
G21 ; mm-mode
G54; Work Coordinates
G21; mm-mode
G90; Absolute Positioning
; Plotter Mode Active

; Operation 0: Pen Plotter: (lines fill)
; Pen Diameter: 2

G0 Z0; move to z-safe height
G0 F1000 X498.7500 Y1.6000
M3S0
G4 P0.5; Tool On
G1 F300 Z0.0000
G1 F15000 X1.2500 Y1.6000 Z0.0000
M3S245
G4 P0.5; Tool Off

G0 Z0; move to z-safe height
G0 X1.2500 Y4.1000
M3S0
G4 P0.5; Tool On
G1 F300 Z0.0000
G1 F15000 X498.7500 Y4.1000 Z0.0000
M3S245
G4 P0.5; Tool Off

G0 Z0; move to z-safe height
G0 X498.7500 Y6.6000
M3S0
G4 P0.5; Tool On
G1 F300 Z0.0000
G1 F15000 X1.2500 Y6.6000 Z0.0000
M3S245
G4 P0.5; Tool Off

G0 Z0; move to z-safe height
G0 X1.2500 Y9.1000
M3S0
G4 P0.5; Tool On
G1 F300 Z0.0000
G1 F15000 X498.7500 Y9.1000 Z0.0000
M3S245
G4 P0.5; Tool Off

G0 Z0; move to z-safe height
G0 X498.7500 Y11.6000
M3S0
G4 P0.5; Tool On
G1 F300 Z0.0000
G1 F15000 X1.2500 Y11.6000 Z0.0000
M3S245
G4 P0.5; Tool Off

G0 Z0; move to z-safe height
G0 X1.2500 Y14.1000
M3S0
G4 P0.5; Tool On
G1 F300 Z0.0000
G1 F15000 X498.7500 Y14.1000 Z0.0000
M3S245
G4 P0.5; Tool Off

G0 Z0; move to z-safe height
G0 X498.7500 Y16.6000
M3S0
G4 P0.5; Tool On
G1 F300 Z0.0000
G1 F15000 X1.2500 Y16.6000 Z0.0000
M3S245
G4 P0.5; Tool Off

G0 Z0; move to z-safe height
G0 X1.2500 Y19.1000
M3S0
G4 P0.5; Tool On
G1 F300 Z0.0000
G1 F15000 X498.7500 Y19.1000 Z0.0000
M3S245
G4 P0.5; Tool Off

G0 Z0; move to z-safe height
G0 X498.7500 Y21.6000
M3S0
G4 P0.5; Tool On
G1 F300 Z0.0000
G1 F15000 X1.2500 Y21.6000 Z0.0000
M3S245
G4 P0.5; Tool Off

G0 Z0; move to z-safe height
G0 X1.2500 Y24.1000
M3S0
G4 P0.5; Tool On
G1 F300 Z0.0000
G1 F15000 X498.7500 Y24.1000 Z0.0000
M3S245
G4 P0.5; Tool Off

G0 Z0; move to z-safe height
G0 X498.7500 Y26.6000
M3S0
G4 P0.5; Tool On
G1 F300 Z0.0000
G1 F15000 X1.2500 Y26.6000 Z0.0000
M3S245
G4 P0.5; Tool Off

G0 Z0; move to z-safe height
G0 X1.2500 Y29.1000
M3S0
G4 P0.5; Tool On
G1 F300 Z0.0000
G1 F15000 X498.7500 Y29.1000 Z0.0000
M3S245
G4 P0.5; Tool Off

G0 Z0; move to z-safe height
G0 X498.7500 Y31.6000
M3S0
G4 P0.5; Tool On
G1 F300 Z0.0000
G1 F15000 X1.2500 Y31.6000 Z0.0000
M3S245
G4 P0.5; Tool Off

G0 Z0; move to z-safe height
G0 X1.2500 Y34.1000
M3S0
G4 P0.5; Tool On
G1 F300 Z0.0000
G1 F15000 X498.7500 Y34.1000 Z0.0000
M3S245
G4 P0.5; Tool Off

G0 Z0; move to z-safe height
G0 X498.7500 Y36.6000
M3S0
G4 P0.5; Tool On
G1 F300 Z0.0000
G1 F15000 X1.2500 Y36.6000 Z0.0000
M3S245
G4 P0.5; Tool Off

G0 Z0; move to z-safe height
G0 X1.2500 Y39.1000
M3S0
G4 P0.5; Tool On
G1 F300 Z0.0000
G1 F15000 X498.7500 Y39.1000 Z0.0000
M3S245
G4 P0.5; Tool Off

G0 Z0; move to z-safe height
G0 X498.7500 Y41.6000
M3S0
G4 P0.5; Tool On
G1 F300 Z0.0000
G1 F15000 X1.2500 Y41.6000 Z0.0000
M3S245
G4 P0.5; Tool Off

G0 Z0; move to z-safe height
G0 X1.2500 Y44.1000
M3S0
G4 P0.5; Tool On
G1 F300 Z0.0000
G1 F15000 X498.7500 Y44.1000 Z0.0000
M3S245
G4 P0.5; Tool Off

G0 Z0; move to z-safe height
G0 X498.7500 Y46.6000
M3S0
G4 P0.5; Tool On
G1 F300 Z0.0000
G1 F15000 X1.2500 Y46.6000 Z0.0000
M3S245
G4 P0.5; Tool Off

G0 Z0; move to z-safe height
G0 X1.2500 Y49.1000
M3S0
G4 P0.5; Tool On
G1 F300 Z0.0000
G1 F15000 X498.7500 Y49.1000 Z0.0000
M3S245
G4 P0.5; Tool Off

G0 Z0; move to z-safe height
G0 X498.7500 Y51.6000
M3S0
G4 P0.5; Tool On
G1 F300 Z0.0000
G1 F15000 X1.2500 Y51.6000 Z0.0000
M3S245
G4 P0.5; Tool Off

G0 Z0; move to z-safe height
G0 X1.2500 Y54.1000
M3S0
G4 P0.5; Tool On
G1 F300 Z0.0000
G1 F15000 X498.7500 Y54.1000 Z0.0000
M3S245
G4 P0.5; Tool Off

G0 Z0; move to z-safe height
G0 X498.7500 Y56.6000
M3S0
G4 P0.5; Tool On
G1 F300 Z0.0000
G1 F15000 X1.2500 Y56.6000 Z0.0000
M3S245
G4 P0.5; Tool Off

G0 Z0; move to z-safe height
G0 X1.2500 Y59.1000
M3S0
G4 P0.5; Tool On
G1 F300 Z0.0000
G1 F15000 X498.7500 Y59.1000 Z0.0000
M3S245
G4 P0.5; Tool Off

G0 Z0; move to z-safe height
G0 X498.7500 Y61.6000
M3S0
G4 P0.5; Tool On
G1 F300 Z0.0000
G1 F15000 X1.2500 Y61.6000 Z0.0000
M3S245
G4 P0.5; Tool Off

G0 Z0; move to z-safe height
G0 X1.2500 Y64.1000
M3S0
G4 P0.5; Tool On
G1 F300 Z0.0000
G1 F15000 X498.7500 Y64.1000 Z0.0000
M3S245
G4 P0.5; Tool Off

G0 Z0; move to z-safe height
G0 X498.7500 Y66.6000
M3S0
G4 P0.5; Tool On
G1 F300 Z0.0000
G1 F15000 X1.2500 Y66.6000 Z0.0000
M3S245
G4 P0.5; Tool Off

G0 Z0; move to z-safe height
G0 X1.2500 Y69.1000
M3S0
G4 P0.5; Tool On
G1 F300 Z0.0000
G1 F15000 X498.7500 Y69.1000 Z0.0000
M3S245
G4 P0.5; Tool Off

G0 Z0; move to z-safe height
G0 X498.7500 Y71.6000
M3S0
G4 P0.5; Tool On
G1 F300 Z0.0000
G1 F15000 X1.2500 Y71.6000 Z0.0000
M3S245
G4 P0.5; Tool Off

G0 Z0; move to z-safe height
G0 X1.2500 Y74.1000
M3S0
G4 P0.5; Tool On
G1 F300 Z0.0000
G1 F15000 X498.7500 Y74.1000 Z0.0000
M3S245
G4 P0.5; Tool Off

G0 Z0; move to z-safe height
G0 X498.7500 Y76.6000
M3S0
G4 P0.5; Tool On
G1 F300 Z0.0000
G1 F15000 X1.2500 Y76.6000 Z0.0000
M3S245
G4 P0.5; Tool Off

G0 Z0; move to z-safe height
G0 X1.2500 Y79.1000
M3S0
G4 P0.5; Tool On
G1 F300 Z0.0000
G1 F15000 X498.7500 Y79.1000 Z0.0000
M3S245
G4 P0.5; Tool Off

G0 Z0; move to z-safe height
G0 X498.7500 Y81.6000
M3S0
G4 P0.5; Tool On
G1 F300 Z0.0000
G1 F15000 X1.2500 Y81.6000 Z0.0000
M3S245
G4 P0.5; Tool Off

G0 Z0; move to z-safe height
G0 X1.2500 Y84.1000
M3S0
G4 P0.5; Tool On
G1 F300 Z0.0000
G1 F15000 X498.7500 Y84.1000 Z0.0000
M3S245
G4 P0.5; Tool Off

G0 Z0; move to z-safe height
G0 X498.7500 Y86.6000
M3S0
G4 P0.5; Tool On
G1 F300 Z0.0000
G1 F15000 X1.2500 Y86.6000 Z0.0000
M3S245
G4 P0.5; Tool Off

G0 Z0; move to z-safe height
G0 X1.2500 Y89.1000
M3S0
G4 P0.5; Tool On
G1 F300 Z0.0000
G1 F15000 X498.7500 Y89.1000 Z0.0000
M3S245
G4 P0.5; Tool Off

G0 Z0; move to z-safe height
G0 X498.7500 Y91.6000
M3S0
G4 P0.5; Tool On
G1 F300 Z0.0000
G1 F15000 X1.2500 Y91.6000 Z0.0000
M3S245
G4 P0.5; Tool Off

G0 Z0; move to z-safe height
G0 X1.2500 Y94.1000
M3S0
G4 P0.5; Tool On
G1 F300 Z0.0000
G1 F15000 X498.7500 Y94.1000 Z0.0000
M3S245
G4 P0.5; Tool Off

G0 Z0; move to z-safe height
G0 X498.7500 Y96.6000
M3S0
G4 P0.5; Tool On
G1 F300 Z0.0000
G1 F15000 X1.2500 Y96.6000 Z0.0000
M3S245
G4 P0.5; Tool Off

G0 Z0; move to z-safe height
G0 X1.2500 Y99.1000
M3S0
G4 P0.5; Tool On
G1 F300 Z0.0000
G1 F15000 X498.7500 Y99.1000 Z0.0000
M3S245
G4 P0.5; Tool Off

G0 Z0; move to z-safe height
G0 X498.7500 Y101.6000
M3S0
G4 P0.5; Tool On
G1 F300 Z0.0000
G1 F15000 X1.2500 Y101.6000 Z0.0000
M3S245
G4 P0.5; Tool Off

G0 Z0; move to z-safe height
G0 X1.2500 Y104.1000
M3S0
G4 P0.5; Tool On
G1 F300 Z0.0000
G1 F15000 X498.7500 Y104.1000 Z0.0000
M3S245
G4 P0.5; Tool Off

G0 Z0; move to z-safe height
G0 X498.7500 Y106.6000
M3S0
G4 P0.5; Tool On
G1 F300 Z0.0000
G1 F15000 X1.2500 Y106.6000 Z0.0000
M3S245
G4 P0.5; Tool Off

G0 Z0; move to z-safe height
G0 X1.2500 Y109.1000
M3S0
G4 P0.5; Tool On
G1 F300 Z0.0000
G1 F15000 X498.7500 Y109.1000 Z0.0000
M3S245
G4 P0.5; Tool Off

G0 Z0; move to z-safe height
G0 X498.7500 Y111.6000
M3S0
G4 P0.5; Tool On
G1 F300 Z0.0000
G1 F15000 X1.2500 Y111.6000 Z0.0000
M3S245
G4 P0.5; Tool Off

G0 Z0; move to z-safe height
G0 X1.2500 Y114.1000
M3S0
G4 P0.5; Tool On
G1 F300 Z0.0000
G1 F15000 X498.7500 Y114.1000 Z0.0000
M3S245
G4 P0.5; Tool Off

G0 Z0; move to z-safe height
G0 X498.7500 Y116.6000
M3S0
G4 P0.5; Tool On
G1 F300 Z0.0000
G1 F15000 X1.2500 Y116.6000 Z0.0000
M3S245
G4 P0.5; Tool Off

G0 Z0; move to z-safe height
G0 X1.2500 Y119.1000
M3S0
G4 P0.5; Tool On
G1 F300 Z0.0000
G1 F15000 X498.7500 Y119.1000 Z0.0000
M3S245
G4 P0.5; Tool Off

G0 Z0; move to z-safe height
G0 X498.7500 Y121.6000
M3S0
G4 P0.5; Tool On
G1 F300 Z0.0000
G1 F15000 X1.2500 Y121.6000 Z0.0000
M3S245
G4 P0.5; Tool Off

G0 Z0; move to z-safe height
G0 X1.2500 Y124.1000
M3S0
G4 P0.5; Tool On
G1 F300 Z0.0000
G1 F15000 X498.7500 Y124.1000 Z0.0000
M3S245
G4 P0.5; Tool Off

G0 Z0; move to z-safe height
G0 X498.7500 Y126.6000
M3S0
G4 P0.5; Tool On
G1 F300 Z0.0000
G1 F15000 X1.2500 Y126.6000 Z0.0000
M3S245
G4 P0.5; Tool Off

G0 Z0; move to z-safe height
G0 X1.2500 Y129.1000
M3S0
G4 P0.5; Tool On
G1 F300 Z0.0000
G1 F15000 X498.7500 Y129.1000 Z0.0000
M3S245
G4 P0.5; Tool Off

G0 Z0; move to z-safe height
G0 X498.7500 Y131.6000
M3S0
G4 P0.5; Tool On
G1 F300 Z0.0000
G1 F15000 X1.2500 Y131.6000 Z0.0000
M3S245
G4 P0.5; Tool Off

G0 Z0; move to z-safe height
G0 X1.2500 Y134.1000
M3S0
G4 P0.5; Tool On
G1 F300 Z0.0000
G1 F15000 X498.7500 Y134.1000 Z0.0000
M3S245
G4 P0.5; Tool Off

G0 Z0; move to z-safe height
G0 X498.7500 Y136.6000
M3S0
G4 P0.5; Tool On
G1 F300 Z0.0000
G1 F15000 X1.2500 Y136.6000 Z0.0000
M3S245
G4 P0.5; Tool Off

G0 Z0; move to z-safe height
G0 X1.2500 Y139.1000
M3S0
G4 P0.5; Tool On
G1 F300 Z0.0000
G1 F15000 X498.7500 Y139.1000 Z0.0000
M3S245
G4 P0.5; Tool Off

G0 Z0; move to z-safe height
G0 X498.7500 Y141.6000
M3S0
G4 P0.5; Tool On
G1 F300 Z0.0000
G1 F15000 X1.2500 Y141.6000 Z0.0000
M3S245
G4 P0.5; Tool Off

G0 Z0; move to z-safe height
G0 X1.2500 Y144.1000
M3S0
G4 P0.5; Tool On
G1 F300 Z0.0000
G1 F15000 X498.7500 Y144.1000 Z0.0000
M3S245
G4 P0.5; Tool Off

G0 Z0; move to z-safe height
G0 X498.7500 Y146.6000
M3S0
G4 P0.5; Tool On
G1 F300 Z0.0000
G1 F15000 X1.2500 Y146.6000 Z0.0000
M3S245
G4 P0.5; Tool Off

G0 Z0; move to z-safe height
G0 X1.2500 Y149.1000
M3S0
G4 P0.5; Tool On
G1 F300 Z0.0000
G1 F15000 X498.7500 Y149.1000 Z0.0000
M3S245
G4 P0.5; Tool Off

G0 Z0; move to z-safe height
G0 X498.7500 Y151.6000
M3S0
G4 P0.5; Tool On
G1 F300 Z0.0000
G1 F15000 X1.2500 Y151.6000 Z0.0000
M3S245
G4 P0.5; Tool Off

G0 Z0; move to z-safe height
G0 X1.2500 Y154.1000
M3S0
G4 P0.5; Tool On
G1 F300 Z0.0000
G1 F15000 X498.7500 Y154.1000 Z0.0000
M3S245
G4 P0.5; Tool Off

G0 Z0; move to z-safe height
G0 X498.7500 Y156.6000
M3S0
G4 P0.5; Tool On
G1 F300 Z0.0000
G1 F15000 X1.2500 Y156.6000 Z0.0000
M3S245
G4 P0.5; Tool Off

G0 Z0; move to z-safe height
G0 X1.2500 Y159.1000
M3S0
G4 P0.5; Tool On
G1 F300 Z0.0000
G1 F15000 X498.7500 Y159.1000 Z0.0000
M3S245
G4 P0.5; Tool Off

G0 Z0; move to z-safe height
G0 X498.7500 Y161.6000
M3S0
G4 P0.5; Tool On
G1 F300 Z0.0000
G1 F15000 X1.2500 Y161.6000 Z0.0000
M3S245
G4 P0.5; Tool Off

G0 Z0; move to z-safe height
G0 X1.2500 Y164.1000
M3S0
G4 P0.5; Tool On
G1 F300 Z0.0000
G1 F15000 X498.7500 Y164.1000 Z0.0000
M3S245
G4 P0.5; Tool Off

G0 Z0; move to z-safe height
G0 X498.7500 Y166.6000
M3S0
G4 P0.5; Tool On
G1 F300 Z0.0000
G1 F15000 X1.2500 Y166.6000 Z0.0000
M3S245
G4 P0.5; Tool Off

G0 Z0; move to z-safe height
G0 X1.2500 Y169.1000
M3S0
G4 P0.5; Tool On
G1 F300 Z0.0000
G1 F15000 X498.7500 Y169.1000 Z0.0000
M3S245
G4 P0.5; Tool Off

G0 Z0; move to z-safe height
G0 X498.7500 Y171.6000
M3S0
G4 P0.5; Tool On
G1 F300 Z0.0000
G1 F15000 X1.2500 Y171.6000 Z0.0000
M3S245
G4 P0.5; Tool Off

G0 Z0; move to z-safe height
G0 X1.2500 Y174.1000
M3S0
G4 P0.5; Tool On
G1 F300 Z0.0000
G1 F15000 X498.7500 Y174.1000 Z0.0000
M3S245
G4 P0.5; Tool Off

G0 Z0; move to z-safe height
G0 X498.7500 Y176.6000
M3S0
G4 P0.5; Tool On
G1 F300 Z0.0000
G1 F15000 X1.2500 Y176.6000 Z0.0000
M3S245
G4 P0.5; Tool Off

G0 Z0; move to z-safe height
G0 X1.2500 Y179.1000
M3S0
G4 P0.5; Tool On
G1 F300 Z0.0000
G1 F15000 X498.7500 Y179.1000 Z0.0000
M3S245
G4 P0.5; Tool Off

G0 Z0; move to z-safe height
G0 X498.7500 Y181.6000
M3S0
G4 P0.5; Tool On
G1 F300 Z0.0000
G1 F15000 X1.2500 Y181.6000 Z0.0000
M3S245
G4 P0.5; Tool Off

G0 Z0; move to z-safe height
G0 X1.2500 Y184.1000
M3S0
G4 P0.5; Tool On
G1 F300 Z0.0000
G1 F15000 X498.7500 Y184.1000 Z0.0000
M3S245
G4 P0.5; Tool Off

G0 Z0; move to z-safe height
G0 X498.7500 Y186.6000
M3S0
G4 P0.5; Tool On
G1 F300 Z0.0000
G1 F15000 X1.2500 Y186.6000 Z0.0000
M3S245
G4 P0.5; Tool Off

G0 Z0; move to z-safe height
G0 X1.2500 Y189.1000
M3S0
G4 P0.5; Tool On
G1 F300 Z0.0000
G1 F15000 X498.7500 Y189.1000 Z0.0000
M3S245
G4 P0.5; Tool Off

G0 Z0; move to z-safe height
G0 X498.7500 Y191.6000
M3S0
G4 P0.5; Tool On
G1 F300 Z0.0000
G1 F15000 X1.2500 Y191.6000 Z0.0000
M3S245
G4 P0.5; Tool Off

G0 Z0; move to z-safe height
G0 X1.2500 Y194.1000
M3S0
G4 P0.5; Tool On
G1 F300 Z0.0000
G1 F15000 X498.7500 Y194.1000 Z0.0000
M3S245
G4 P0.5; Tool Off

G0 Z0; move to z-safe height
G0 X498.7500 Y196.6000
M3S0
G4 P0.5; Tool On
G1 F300 Z0.0000
G1 F15000 X1.2500 Y196.6000 Z0.0000
M3S245
G4 P0.5; Tool Off

G0 Z0; move to z-safe height
G0 X1.2500 Y199.1000
M3S0
G4 P0.5; Tool On
G1 F300 Z0.0000
G1 F15000 X498.7500 Y199.1000 Z0.0000
M3S245
G4 P0.5; Tool Off

G0 Z0; move to z-safe height
G0 X498.7500 Y201.6000
M3S0
G4 P0.5; Tool On
G1 F300 Z0.0000
G1 F15000 X1.2500 Y201.6000 Z0.0000
M3S245
G4 P0.5; Tool Off

G0 Z0; move to z-safe height
G0 X1.2500 Y204.1000
M3S0
G4 P0.5; Tool On
G1 F300 Z0.0000
G1 F15000 X498.7500 Y204.1000 Z0.0000
M3S245
G4 P0.5; Tool Off

G0 Z0; move to z-safe height
G0 X498.7500 Y206.6000
M3S0
G4 P0.5; Tool On
G1 F300 Z0.0000
G1 F15000 X1.2500 Y206.6000 Z0.0000
M3S245
G4 P0.5; Tool Off

G0 Z0; move to z-safe height
G0 X1.2500 Y209.1000
M3S0
G4 P0.5; Tool On
G1 F300 Z0.0000
G1 F15000 X498.7500 Y209.1000 Z0.0000
M3S245
G4 P0.5; Tool Off

G0 Z0; move to z-safe height
G0 X498.7500 Y211.6000
M3S0
G4 P0.5; Tool On
G1 F300 Z0.0000
G1 F15000 X1.2500 Y211.6000 Z0.0000
M3S245
G4 P0.5; Tool Off

G0 Z0; move to z-safe height
G0 X1.2500 Y214.1000
M3S0
G4 P0.5; Tool On
G1 F300 Z0.0000
G1 F15000 X498.7500 Y214.1000 Z0.0000
M3S245
G4 P0.5; Tool Off

G0 Z0; move to z-safe height
G0 X498.7500 Y216.6000
M3S0
G4 P0.5; Tool On
G1 F300 Z0.0000
G1 F15000 X1.2500 Y216.6000 Z0.0000
M3S245
G4 P0.5; Tool Off

G0 Z0; move to z-safe height
G0 X1.2500 Y219.1000
M3S0
G4 P0.5; Tool On
G1 F300 Z0.0000
G1 F15000 X498.7500 Y219.1000 Z0.0000
M3S245
G4 P0.5; Tool Off

G0 Z0; move to z-safe height
G0 X498.7500 Y221.6000
M3S0
G4 P0.5; Tool On
G1 F300 Z0.0000
G1 F15000 X1.2500 Y221.6000 Z0.0000
M3S245
G4 P0.5; Tool Off

G0 Z0; move to z-safe height
G0 X1.2500 Y224.1000
M3S0
G4 P0.5; Tool On
G1 F300 Z0.0000
G1 F15000 X498.7500 Y224.1000 Z0.0000
M3S245
G4 P0.5; Tool Off

G0 Z0; move to z-safe height
G0 X498.7500 Y226.6000
M3S0
G4 P0.5; Tool On
G1 F300 Z0.0000
G1 F15000 X1.2500 Y226.6000 Z0.0000
M3S245
G4 P0.5; Tool Off

G0 Z0; move to z-safe height
G0 X1.2500 Y229.1000
M3S0
G4 P0.5; Tool On
G1 F300 Z0.0000
G1 F15000 X498.7500 Y229.1000 Z0.0000
M3S245
G4 P0.5; Tool Off

G0 Z0; move to z-safe height
G0 X498.7500 Y231.6000
M3S0
G4 P0.5; Tool On
G1 F300 Z0.0000
G1 F15000 X1.2500 Y231.6000 Z0.0000
M3S245
G4 P0.5; Tool Off

G0 Z0; move to z-safe height
G0 X1.2500 Y234.1000
M3S0
G4 P0.5; Tool On
G1 F300 Z0.0000
G1 F15000 X498.7500 Y234.1000 Z0.0000
M3S245
G4 P0.5; Tool Off

G0 Z0; move to z-safe height
G0 X498.7500 Y236.6000
M3S0
G4 P0.5; Tool On
G1 F300 Z0.0000
G1 F15000 X1.2500 Y236.6000 Z0.0000
M3S245
G4 P0.5; Tool Off

G0 Z0; move to z-safe height
G0 X1.2500 Y239.1000
M3S0
G4 P0.5; Tool On
G1 F300 Z0.0000
G1 F15000 X498.7500 Y239.1000 Z0.0000
M3S245
G4 P0.5; Tool Off

G0 Z0; move to z-safe height
G0 X498.7500 Y241.6000
M3S0
G4 P0.5; Tool On
G1 F300 Z0.0000
G1 F15000 X1.2500 Y241.6000 Z0.0000
M3S245
G4 P0.5; Tool Off

G0 Z0; move to z-safe height
G0 X1.2500 Y244.1000
M3S0
G4 P0.5; Tool On
G1 F300 Z0.0000
G1 F15000 X498.7500 Y244.1000 Z0.0000
M3S245
G4 P0.5; Tool Off

G0 Z0; move to z-safe height
G0 X498.7500 Y246.6000
M3S0
G4 P0.5; Tool On
G1 F300 Z0.0000
G1 F15000 X1.2500 Y246.6000 Z0.0000
M3S245
G4 P0.5; Tool Off

G0 Z0; move to z-safe height
G0 X1.2500 Y249.1000
M3S0
G4 P0.5; Tool On
G1 F300 Z0.0000
G1 F15000 X498.7500 Y249.1000 Z0.0000
M3S245
G4 P0.5; Tool Off

G0 Z0; move to z-safe height
G0 X498.7500 Y251.6000
M3S0
G4 P0.5; Tool On
G1 F300 Z0.0000
G1 F15000 X1.2500 Y251.6000 Z0.0000
M3S245
G4 P0.5; Tool Off

G0 Z0; move to z-safe height
G0 X1.2500 Y254.1000
M3S0
G4 P0.5; Tool On
G1 F300 Z0.0000
G1 F15000 X498.7500 Y254.1000 Z0.0000
M3S245
G4 P0.5; Tool Off

G0 Z0; move to z-safe height
G0 X498.7500 Y256.6000
M3S0
G4 P0.5; Tool On
G1 F300 Z0.0000
G1 F15000 X1.2500 Y256.6000 Z0.0000
M3S245
G4 P0.5; Tool Off

G0 Z0; move to z-safe height
G0 X1.2500 Y259.1000
M3S0
G4 P0.5; Tool On
G1 F300 Z0.0000
G1 F15000 X498.7500 Y259.1000 Z0.0000
M3S245
G4 P0.5; Tool Off

G0 Z0; move to z-safe height
G0 X498.7500 Y261.6000
M3S0
G4 P0.5; Tool On
G1 F300 Z0.0000
G1 F15000 X1.2500 Y261.6000 Z0.0000
M3S245
G4 P0.5; Tool Off

G0 Z0; move to z-safe height
G0 X1.2500 Y264.1000
M3S0
G4 P0.5; Tool On
G1 F300 Z0.0000
G1 F15000 X498.7500 Y264.1000 Z0.0000
M3S245
G4 P0.5; Tool Off

G0 Z0; move to z-safe height
G0 X498.7500 Y266.6000
M3S0
G4 P0.5; Tool On
G1 F300 Z0.0000
G1 F15000 X1.2500 Y266.6000 Z0.0000
M3S245
G4 P0.5; Tool Off

G0 Z0; move to z-safe height
G0 X1.2500 Y269.1000
M3S0
G4 P0.5; Tool On
G1 F300 Z0.0000
G1 F15000 X498.7500 Y269.1000 Z0.0000
M3S245
G4 P0.5; Tool Off

G0 Z0; move to z-safe height
G0 X498.7500 Y271.6000
M3S0
G4 P0.5; Tool On
G1 F300 Z0.0000
G1 F15000 X1.2500 Y271.6000 Z0.0000
M3S245
G4 P0.5; Tool Off

G0 Z0; move to z-safe height
G0 X1.2500 Y274.1000
M3S0
G4 P0.5; Tool On
G1 F300 Z0.0000
G1 F15000 X498.7500 Y274.1000 Z0.0000
M3S245
G4 P0.5; Tool Off

G0 Z0; move to z-safe height
G0 X498.7500 Y276.6000
M3S0
G4 P0.5; Tool On
G1 F300 Z0.0000
G1 F15000 X1.2500 Y276.6000 Z0.0000
M3S245
G4 P0.5; Tool Off

G0 Z0; move to z-safe height
G0 X1.2500 Y279.1000
M3S0
G4 P0.5; Tool On
G1 F300 Z0.0000
G1 F15000 X498.7500 Y279.1000 Z0.0000
M3S245
G4 P0.5; Tool Off

G0 Z0; move to z-safe height
G0 X498.7500 Y281.6000
M3S0
G4 P0.5; Tool On
G1 F300 Z0.0000
G1 F15000 X1.2500 Y281.6000 Z0.0000
M3S245
G4 P0.5; Tool Off

G0 Z0; move to z-safe height
G0 X1.2500 Y284.1000
M3S0
G4 P0.5; Tool On
G1 F300 Z0.0000
G1 F15000 X498.7500 Y284.1000 Z0.0000
M3S245
G4 P0.5; Tool Off

G0 Z0; move to z-safe height
G0 X498.7500 Y286.6000
M3S0
G4 P0.5; Tool On
G1 F300 Z0.0000
G1 F15000 X1.2500 Y286.6000 Z0.0000
M3S245
G4 P0.5; Tool Off

G0 Z0; move to z-safe height
G0 X1.2500 Y289.1000
M3S0
G4 P0.5; Tool On
G1 F300 Z0.0000
G1 F15000 X498.7500 Y289.1000 Z0.0000
M3S245
G4 P0.5; Tool Off

G0 Z0; move to z-safe height
G0 X498.7500 Y291.6000
M3S0
G4 P0.5; Tool On
G1 F300 Z0.0000
G1 F15000 X1.2500 Y291.6000 Z0.0000
M3S245
G4 P0.5; Tool Off

G0 Z0; move to z-safe height
G0 X1.2500 Y294.1000
M3S0
G4 P0.5; Tool On
G1 F300 Z0.0000
G1 F15000 X498.7500 Y294.1000 Z0.0000
M3S245
G4 P0.5; Tool Off

G0 Z0; move to z-safe height
G0 X498.7500 Y296.6000
M3S0
G4 P0.5; Tool On
G1 F300 Z0.0000
G1 F15000 X1.2500 Y296.6000 Z0.0000
M3S245
G4 P0.5; Tool Off

G0 Z0; move to z-safe height
G0 X1.2500 Y299.1000
M3S0
G4 P0.5; Tool On
G1 F300 Z0.0000
G1 F15000 X498.7500 Y299.1000 Z0.0000
M3S245
G4 P0.5; Tool Off

G0 Z0; move to z-safe height
G0 X498.7500 Y301.6000
M3S0
G4 P0.5; Tool On
G1 F300 Z0.0000
G1 F15000 X1.2500 Y301.6000 Z0.0000
M3S245
G4 P0.5; Tool Off

G0 Z0; move to z-safe height
G0 X1.2500 Y304.1000
M3S0
G4 P0.5; Tool On
G1 F300 Z0.0000
G1 F15000 X498.7500 Y304.1000 Z0.0000
M3S245
G4 P0.5; Tool Off

G0 Z0; move to z-safe height
G0 X498.7500 Y306.6000
M3S0
G4 P0.5; Tool On
G1 F300 Z0.0000
G1 F15000 X1.2500 Y306.6000 Z0.0000
M3S245
G4 P0.5; Tool Off

G0 Z0; move to z-safe height
G0 X1.2500 Y309.1000
M3S0
G4 P0.5; Tool On
G1 F300 Z0.0000
G1 F15000 X498.7500 Y309.1000 Z0.0000
M3S245
G4 P0.5; Tool Off

G0 Z0; move to z-safe height
G0 X498.7500 Y311.6000
M3S0
G4 P0.5; Tool On
G1 F300 Z0.0000
G1 F15000 X1.2500 Y311.6000 Z0.0000
M3S245
G4 P0.5; Tool Off

G0 Z0; move to z-safe height
G0 X1.2500 Y314.1000
M3S0
G4 P0.5; Tool On
G1 F300 Z0.0000
G1 F15000 X498.7500 Y314.1000 Z0.0000
M3S245
G4 P0.5; Tool Off

G0 Z0; move to z-safe height
G0 X498.7500 Y316.6000
M3S0
G4 P0.5; Tool On
G1 F300 Z0.0000
G1 F15000 X1.2500 Y316.6000 Z0.0000
M3S245
G4 P0.5; Tool Off

G0 Z0; move to z-safe height
G0 X1.2500 Y319.1000
M3S0
G4 P0.5; Tool On
G1 F300 Z0.0000
G1 F15000 X498.7500 Y319.1000 Z0.0000
M3S245
G4 P0.5; Tool Off

G0 Z0; move to z-safe height
G0 X498.7500 Y321.6000
M3S0
G4 P0.5; Tool On
G1 F300 Z0.0000
G1 F15000 X1.2500 Y321.6000 Z0.0000
M3S245
G4 P0.5; Tool Off

G0 Z0; move to z-safe height
G0 X1.2500 Y324.1000
M3S0
G4 P0.5; Tool On
G1 F300 Z0.0000
G1 F15000 X498.7500 Y324.1000 Z0.0000
M3S245
G4 P0.5; Tool Off

G0 Z0; move to z-safe height
G0 X498.7500 Y326.6000
M3S0
G4 P0.5; Tool On
G1 F300 Z0.0000
G1 F15000 X1.2500 Y326.6000 Z0.0000
M3S245
G4 P0.5; Tool Off

G0 Z0; move to z-safe height
G0 X1.2500 Y329.1000
M3S0
G4 P0.5; Tool On
G1 F300 Z0.0000
G1 F15000 X498.7500 Y329.1000 Z0.0000
M3S245
G4 P0.5; Tool Off

G0 Z0; move to z-safe height
G0 X498.7500 Y331.6000
M3S0
G4 P0.5; Tool On
G1 F300 Z0.0000
G1 F15000 X1.2500 Y331.6000 Z0.0000
M3S245
G4 P0.5; Tool Off

G0 Z0; move to z-safe height
G0 X1.2500 Y334.1000
M3S0
G4 P0.5; Tool On
G1 F300 Z0.0000
G1 F15000 X498.7500 Y334.1000 Z0.0000
M3S245
G4 P0.5; Tool Off

G0 Z0; move to z-safe height
G0 X498.7500 Y336.6000
M3S0
G4 P0.5; Tool On
G1 F300 Z0.0000
G1 F15000 X1.2500 Y336.6000 Z0.0000
M3S245
G4 P0.5; Tool Off

G0 Z0; move to z-safe height
G0 X1.2500 Y339.1000
M3S0
G4 P0.5; Tool On
G1 F300 Z0.0000
G1 F15000 X498.7500 Y339.1000 Z0.0000
M3S245
G4 P0.5; Tool Off

G0 Z0; move to z-safe height
G0 X498.7500 Y341.6000
M3S0
G4 P0.5; Tool On
G1 F300 Z0.0000
G1 F15000 X1.2500 Y341.6000 Z0.0000
M3S245
G4 P0.5; Tool Off

G0 Z0; move to z-safe height
G0 X1.2500 Y344.1000
M3S0
G4 P0.5; Tool On
G1 F300 Z0.0000
G1 F15000 X498.7500 Y344.1000 Z0.0000
M3S245
G4 P0.5; Tool Off

G0 Z0; move to z-safe height
G0 X498.7500 Y346.6000
M3S0
G4 P0.5; Tool On
G1 F300 Z0.0000
G1 F15000 X1.2500 Y346.6000 Z0.0000
M3S245
G4 P0.5; Tool Off

G0 Z0; move to z-safe height
G0 X1.2500 Y349.1000
M3S0
G4 P0.5; Tool On
G1 F300 Z0.0000
G1 F15000 X498.7500 Y349.1000 Z0.0000
M3S245
G4 P0.5; Tool Off

G0 Z0; move to z-safe height
G0 X498.7500 Y351.6000
M3S0
G4 P0.5; Tool On
G1 F300 Z0.0000
G1 F15000 X1.2500 Y351.6000 Z0.0000
M3S245
G4 P0.5; Tool Off

G0 Z0; move to z-safe height
G0 X1.2500 Y354.1000
M3S0
G4 P0.5; Tool On
G1 F300 Z0.0000
G1 F15000 X498.7500 Y354.1000 Z0.0000
M3S245
G4 P0.5; Tool Off

G0 Z0; move to z-safe height
G0 X498.7500 Y356.6000
M3S0
G4 P0.5; Tool On
G1 F300 Z0.0000
G1 F15000 X1.2500 Y356.6000 Z0.0000
M3S245
G4 P0.5; Tool Off

G0 Z0; move to z-safe height
G0 X1.2500 Y359.1000
M3S0
G4 P0.5; Tool On
G1 F300 Z0.0000
G1 F15000 X498.7500 Y359.1000 Z0.0000
M3S245
G4 P0.5; Tool Off

G0 Z0; move to z-safe height
G0 X498.7500 Y361.6000
M3S0
G4 P0.5; Tool On
G1 F300 Z0.0000
G1 F15000 X1.2500 Y361.6000 Z0.0000
M3S245
G4 P0.5; Tool Off

G0 Z0; move to z-safe height
G0 X1.2500 Y364.1000
M3S0
G4 P0.5; Tool On
G1 F300 Z0.0000
G1 F15000 X498.7500 Y364.1000 Z0.0000
M3S245
G4 P0.5; Tool Off

G0 Z0; move to z-safe height
G0 X498.7500 Y366.6000
M3S0
G4 P0.5; Tool On
G1 F300 Z0.0000
G1 F15000 X1.2500 Y366.6000 Z0.0000
M3S245
G4 P0.5; Tool Off

G0 Z0; move to z-safe height
G0 X1.2500 Y369.1000
M3S0
G4 P0.5; Tool On
G1 F300 Z0.0000
G1 F15000 X498.7500 Y369.1000 Z0.0000
M3S245
G4 P0.5; Tool Off

G0 Z0; move to z-safe height
G0 X498.7500 Y371.6000
M3S0
G4 P0.5; Tool On
G1 F300 Z0.0000
G1 F15000 X1.2500 Y371.6000 Z0.0000
M3S245
G4 P0.5; Tool Off

G0 Z0; move to z-safe height
G0 X1.2500 Y374.1000
M3S0
G4 P0.5; Tool On
G1 F300 Z0.0000
G1 F15000 X498.7500 Y374.1000 Z0.0000
M3S245
G4 P0.5; Tool Off

G0 Z0; move to z-safe height
G0 X498.7500 Y376.6000
M3S0
G4 P0.5; Tool On
G1 F300 Z0.0000
G1 F15000 X1.2500 Y376.6000 Z0.0000
M3S245
G4 P0.5; Tool Off

G0 Z0; move to z-safe height
G0 X1.2500 Y379.1000
M3S0
G4 P0.5; Tool On
G1 F300 Z0.0000
G1 F15000 X498.7500 Y379.1000 Z0.0000
M3S245
G4 P0.5; Tool Off

G0 Z0; move to z-safe height
G0 X498.7500 Y381.6000
M3S0
G4 P0.5; Tool On
G1 F300 Z0.0000
G1 F15000 X1.2500 Y381.6000 Z0.0000
M3S245
G4 P0.5; Tool Off

G0 Z0; move to z-safe height
G0 X1.2500 Y384.1000
M3S0
G4 P0.5; Tool On
G1 F300 Z0.0000
G1 F15000 X498.7500 Y384.1000 Z0.0000
M3S245
G4 P0.5; Tool Off

G0 Z0; move to z-safe height
G0 X498.7500 Y386.6000
M3S0
G4 P0.5; Tool On
G1 F300 Z0.0000
G1 F15000 X1.2500 Y386.6000 Z0.0000
M3S245
G4 P0.5; Tool Off

G0 Z0; move to z-safe height
G0 X1.2500 Y389.1000
M3S0
G4 P0.5; Tool On
G1 F300 Z0.0000
G1 F15000 X498.7500 Y389.1000 Z0.0000
M3S245
G4 P0.5; Tool Off

G0 Z0; move to z-safe height
G0 X498.7500 Y391.6000
M3S0
G4 P0.5; Tool On
G1 F300 Z0.0000
G1 F15000 X1.2500 Y391.6000 Z0.0000
M3S245
G4 P0.5; Tool Off

G0 Z0; move to z-safe height
G0 X1.2500 Y394.1000
M3S0
G4 P0.5; Tool On
G1 F300 Z0.0000
G1 F15000 X498.7500 Y394.1000 Z0.0000
M3S245
G4 P0.5; Tool Off

G0 Z0; move to z-safe height
G0 X498.7500 Y396.6000
M3S0
G4 P0.5; Tool On
G1 F300 Z0.0000
G1 F15000 X1.2500 Y396.6000 Z0.0000
M3S245
G4 P0.5; Tool Off
; retracting back to z-safe
G0 Z0

; Plotter Mode Complete
