; GCODE Generated by cam.openbuilds.com on 2023-03-28 
G21 ; mm-mode
G54; Work Coordinates
G21; mm-mode
G90; Absolute Positioning
; Plotter Mode Active

; Operation 0: Pen Plotter: (lines fill)
; Pen Diameter: 2

G0 Z0; move to z-safe height
G0 F1000 X398.5000 Y3.9500
M3S0
G4 P0.5; Tool On
G1 F300 Z0.0000
G1 F15000 X1.5000 Y3.9500 Z0.0000
M3S245
G4 P0.5; Tool Off

G0 Z0; move to z-safe height
G0 X1.5000 Y6.9500
M3S0
G4 P0.5; Tool On
G1 F300 Z0.0000
G1 F15000 X398.5000 Y6.9500 Z0.0000
M3S245
G4 P0.5; Tool Off

G0 Z0; move to z-safe height
G0 X398.5000 Y9.9500
M3S0
G4 P0.5; Tool On
G1 F300 Z0.0000
G1 F15000 X1.5000 Y9.9500 Z0.0000
M3S245
G4 P0.5; Tool Off

G0 Z0; move to z-safe height
G0 X1.5000 Y12.9500
M3S0
G4 P0.5; Tool On
G1 F300 Z0.0000
G1 F15000 X398.5000 Y12.9500 Z0.0000
M3S245
G4 P0.5; Tool Off

G0 Z0; move to z-safe height
G0 X398.5000 Y15.9500
M3S0
G4 P0.5; Tool On
G1 F300 Z0.0000
G1 F15000 X1.5000 Y15.9500 Z0.0000
M3S245
G4 P0.5; Tool Off

G0 Z0; move to z-safe height
G0 X1.5000 Y18.9500
M3S0
G4 P0.5; Tool On
G1 F300 Z0.0000
G1 F15000 X398.5000 Y18.9500 Z0.0000
M3S245
G4 P0.5; Tool Off

G0 Z0; move to z-safe height
G0 X398.5000 Y21.9500
M3S0
G4 P0.5; Tool On
G1 F300 Z0.0000
G1 F15000 X1.5000 Y21.9500 Z0.0000
M3S245
G4 P0.5; Tool Off

G0 Z0; move to z-safe height
G0 X1.5000 Y24.9500
M3S0
G4 P0.5; Tool On
G1 F300 Z0.0000
G1 F15000 X398.5000 Y24.9500 Z0.0000
M3S245
G4 P0.5; Tool Off

G0 Z0; move to z-safe height
G0 X398.5000 Y27.9500
M3S0
G4 P0.5; Tool On
G1 F300 Z0.0000
G1 F15000 X1.5000 Y27.9500 Z0.0000
M3S245
G4 P0.5; Tool Off

G0 Z0; move to z-safe height
G0 X1.5000 Y30.9500
M3S0
G4 P0.5; Tool On
G1 F300 Z0.0000
G1 F15000 X398.5000 Y30.9500 Z0.0000
M3S245
G4 P0.5; Tool Off

G0 Z0; move to z-safe height
G0 X398.5000 Y33.9500
M3S0
G4 P0.5; Tool On
G1 F300 Z0.0000
G1 F15000 X1.5000 Y33.9500 Z0.0000
M3S245
G4 P0.5; Tool Off

G0 Z0; move to z-safe height
G0 X1.5000 Y36.9500
M3S0
G4 P0.5; Tool On
G1 F300 Z0.0000
G1 F15000 X398.5000 Y36.9500 Z0.0000
M3S245
G4 P0.5; Tool Off

G0 Z0; move to z-safe height
G0 X398.5000 Y39.9500
M3S0
G4 P0.5; Tool On
G1 F300 Z0.0000
G1 F15000 X1.5000 Y39.9500 Z0.0000
M3S245
G4 P0.5; Tool Off

G0 Z0; move to z-safe height
G0 X1.5000 Y42.9500
M3S0
G4 P0.5; Tool On
G1 F300 Z0.0000
G1 F15000 X398.5000 Y42.9500 Z0.0000
M3S245
G4 P0.5; Tool Off

G0 Z0; move to z-safe height
G0 X398.5000 Y45.9500
M3S0
G4 P0.5; Tool On
G1 F300 Z0.0000
G1 F15000 X1.5000 Y45.9500 Z0.0000
M3S245
G4 P0.5; Tool Off

G0 Z0; move to z-safe height
G0 X1.5000 Y48.9500
M3S0
G4 P0.5; Tool On
G1 F300 Z0.0000
G1 F15000 X398.5000 Y48.9500 Z0.0000
M3S245
G4 P0.5; Tool Off

G0 Z0; move to z-safe height
G0 X398.5000 Y51.9500
M3S0
G4 P0.5; Tool On
G1 F300 Z0.0000
G1 F15000 X1.5000 Y51.9500 Z0.0000
M3S245
G4 P0.5; Tool Off

G0 Z0; move to z-safe height
G0 X1.5000 Y54.9500
M3S0
G4 P0.5; Tool On
G1 F300 Z0.0000
G1 F15000 X398.5000 Y54.9500 Z0.0000
M3S245
G4 P0.5; Tool Off

G0 Z0; move to z-safe height
G0 X398.5000 Y57.9500
M3S0
G4 P0.5; Tool On
G1 F300 Z0.0000
G1 F15000 X1.5000 Y57.9500 Z0.0000
M3S245
G4 P0.5; Tool Off

G0 Z0; move to z-safe height
G0 X1.5000 Y60.9500
M3S0
G4 P0.5; Tool On
G1 F300 Z0.0000
G1 F15000 X398.5000 Y60.9500 Z0.0000
M3S245
G4 P0.5; Tool Off

G0 Z0; move to z-safe height
G0 X398.5000 Y63.9500
M3S0
G4 P0.5; Tool On
G1 F300 Z0.0000
G1 F15000 X1.5000 Y63.9500 Z0.0000
M3S245
G4 P0.5; Tool Off

G0 Z0; move to z-safe height
G0 X1.5000 Y66.9500
M3S0
G4 P0.5; Tool On
G1 F300 Z0.0000
G1 F15000 X398.5000 Y66.9500 Z0.0000
M3S245
G4 P0.5; Tool Off

G0 Z0; move to z-safe height
G0 X398.5000 Y69.9500
M3S0
G4 P0.5; Tool On
G1 F300 Z0.0000
G1 F15000 X1.5000 Y69.9500 Z0.0000
M3S245
G4 P0.5; Tool Off

G0 Z0; move to z-safe height
G0 X1.5000 Y72.9500
M3S0
G4 P0.5; Tool On
G1 F300 Z0.0000
G1 F15000 X398.5000 Y72.9500 Z0.0000
M3S245
G4 P0.5; Tool Off

G0 Z0; move to z-safe height
G0 X398.5000 Y75.9500
M3S0
G4 P0.5; Tool On
G1 F300 Z0.0000
G1 F15000 X1.5000 Y75.9500 Z0.0000
M3S245
G4 P0.5; Tool Off

G0 Z0; move to z-safe height
G0 X1.5000 Y78.9500
M3S0
G4 P0.5; Tool On
G1 F300 Z0.0000
G1 F15000 X398.5000 Y78.9500 Z0.0000
M3S245
G4 P0.5; Tool Off

G0 Z0; move to z-safe height
G0 X398.5000 Y81.9500
M3S0
G4 P0.5; Tool On
G1 F300 Z0.0000
G1 F15000 X1.5000 Y81.9500 Z0.0000
M3S245
G4 P0.5; Tool Off

G0 Z0; move to z-safe height
G0 X1.5000 Y84.9500
M3S0
G4 P0.5; Tool On
G1 F300 Z0.0000
G1 F15000 X398.5000 Y84.9500 Z0.0000
M3S245
G4 P0.5; Tool Off

G0 Z0; move to z-safe height
G0 X398.5000 Y87.9500
M3S0
G4 P0.5; Tool On
G1 F300 Z0.0000
G1 F15000 X1.5000 Y87.9500 Z0.0000
M3S245
G4 P0.5; Tool Off

G0 Z0; move to z-safe height
G0 X1.5000 Y90.9500
M3S0
G4 P0.5; Tool On
G1 F300 Z0.0000
G1 F15000 X398.5000 Y90.9500 Z0.0000
M3S245
G4 P0.5; Tool Off

G0 Z0; move to z-safe height
G0 X398.5000 Y93.9500
M3S0
G4 P0.5; Tool On
G1 F300 Z0.0000
G1 F15000 X1.5000 Y93.9500 Z0.0000
M3S245
G4 P0.5; Tool Off

G0 Z0; move to z-safe height
G0 X1.5000 Y96.9500
M3S0
G4 P0.5; Tool On
G1 F300 Z0.0000
G1 F15000 X398.5000 Y96.9500 Z0.0000
M3S245
G4 P0.5; Tool Off

G0 Z0; move to z-safe height
G0 X398.5000 Y99.9500
M3S0
G4 P0.5; Tool On
G1 F300 Z0.0000
G1 F15000 X1.5000 Y99.9500 Z0.0000
M3S245
G4 P0.5; Tool Off

G0 Z0; move to z-safe height
G0 X1.5000 Y102.9500
M3S0
G4 P0.5; Tool On
G1 F300 Z0.0000
G1 F15000 X398.5000 Y102.9500 Z0.0000
M3S245
G4 P0.5; Tool Off

G0 Z0; move to z-safe height
G0 X398.5000 Y105.9500
M3S0
G4 P0.5; Tool On
G1 F300 Z0.0000
G1 F15000 X1.5000 Y105.9500 Z0.0000
M3S245
G4 P0.5; Tool Off

G0 Z0; move to z-safe height
G0 X1.5000 Y108.9500
M3S0
G4 P0.5; Tool On
G1 F300 Z0.0000
G1 F15000 X398.5000 Y108.9500 Z0.0000
M3S245
G4 P0.5; Tool Off

G0 Z0; move to z-safe height
G0 X398.5000 Y111.9500
M3S0
G4 P0.5; Tool On
G1 F300 Z0.0000
G1 F15000 X1.5000 Y111.9500 Z0.0000
M3S245
G4 P0.5; Tool Off

G0 Z0; move to z-safe height
G0 X1.5000 Y114.9500
M3S0
G4 P0.5; Tool On
G1 F300 Z0.0000
G1 F15000 X398.5000 Y114.9500 Z0.0000
M3S245
G4 P0.5; Tool Off

G0 Z0; move to z-safe height
G0 X398.5000 Y117.9500
M3S0
G4 P0.5; Tool On
G1 F300 Z0.0000
G1 F15000 X1.5000 Y117.9500 Z0.0000
M3S245
G4 P0.5; Tool Off

G0 Z0; move to z-safe height
G0 X1.5000 Y120.9500
M3S0
G4 P0.5; Tool On
G1 F300 Z0.0000
G1 F15000 X398.5000 Y120.9500 Z0.0000
M3S245
G4 P0.5; Tool Off

G0 Z0; move to z-safe height
G0 X398.5000 Y123.9500
M3S0
G4 P0.5; Tool On
G1 F300 Z0.0000
G1 F15000 X1.5000 Y123.9500 Z0.0000
M3S245
G4 P0.5; Tool Off

G0 Z0; move to z-safe height
G0 X1.5000 Y126.9500
M3S0
G4 P0.5; Tool On
G1 F300 Z0.0000
G1 F15000 X398.5000 Y126.9500 Z0.0000
M3S245
G4 P0.5; Tool Off

G0 Z0; move to z-safe height
G0 X398.5000 Y129.9500
M3S0
G4 P0.5; Tool On
G1 F300 Z0.0000
G1 F15000 X1.5000 Y129.9500 Z0.0000
M3S245
G4 P0.5; Tool Off

G0 Z0; move to z-safe height
G0 X1.5000 Y132.9500
M3S0
G4 P0.5; Tool On
G1 F300 Z0.0000
G1 F15000 X398.5000 Y132.9500 Z0.0000
M3S245
G4 P0.5; Tool Off

G0 Z0; move to z-safe height
G0 X398.5000 Y135.9500
M3S0
G4 P0.5; Tool On
G1 F300 Z0.0000
G1 F15000 X1.5000 Y135.9500 Z0.0000
M3S245
G4 P0.5; Tool Off

G0 Z0; move to z-safe height
G0 X1.5000 Y138.9500
M3S0
G4 P0.5; Tool On
G1 F300 Z0.0000
G1 F15000 X398.5000 Y138.9500 Z0.0000
M3S245
G4 P0.5; Tool Off

G0 Z0; move to z-safe height
G0 X398.5000 Y141.9500
M3S0
G4 P0.5; Tool On
G1 F300 Z0.0000
G1 F15000 X1.5000 Y141.9500 Z0.0000
M3S245
G4 P0.5; Tool Off

G0 Z0; move to z-safe height
G0 X1.5000 Y144.9500
M3S0
G4 P0.5; Tool On
G1 F300 Z0.0000
G1 F15000 X398.5000 Y144.9500 Z0.0000
M3S245
G4 P0.5; Tool Off

G0 Z0; move to z-safe height
G0 X398.5000 Y147.9500
M3S0
G4 P0.5; Tool On
G1 F300 Z0.0000
G1 F15000 X1.5000 Y147.9500 Z0.0000
M3S245
G4 P0.5; Tool Off

G0 Z0; move to z-safe height
G0 X1.5000 Y150.9500
M3S0
G4 P0.5; Tool On
G1 F300 Z0.0000
G1 F15000 X398.5000 Y150.9500 Z0.0000
M3S245
G4 P0.5; Tool Off

G0 Z0; move to z-safe height
G0 X398.5000 Y153.9500
M3S0
G4 P0.5; Tool On
G1 F300 Z0.0000
G1 F15000 X1.5000 Y153.9500 Z0.0000
M3S245
G4 P0.5; Tool Off

G0 Z0; move to z-safe height
G0 X1.5000 Y156.9500
M3S0
G4 P0.5; Tool On
G1 F300 Z0.0000
G1 F15000 X398.5000 Y156.9500 Z0.0000
M3S245
G4 P0.5; Tool Off

G0 Z0; move to z-safe height
G0 X398.5000 Y159.9500
M3S0
G4 P0.5; Tool On
G1 F300 Z0.0000
G1 F15000 X1.5000 Y159.9500 Z0.0000
M3S245
G4 P0.5; Tool Off

G0 Z0; move to z-safe height
G0 X1.5000 Y162.9500
M3S0
G4 P0.5; Tool On
G1 F300 Z0.0000
G1 F15000 X398.5000 Y162.9500 Z0.0000
M3S245
G4 P0.5; Tool Off

G0 Z0; move to z-safe height
G0 X398.5000 Y165.9500
M3S0
G4 P0.5; Tool On
G1 F300 Z0.0000
G1 F15000 X1.5000 Y165.9500 Z0.0000
M3S245
G4 P0.5; Tool Off

G0 Z0; move to z-safe height
G0 X1.5000 Y168.9500
M3S0
G4 P0.5; Tool On
G1 F300 Z0.0000
G1 F15000 X398.5000 Y168.9500 Z0.0000
M3S245
G4 P0.5; Tool Off

G0 Z0; move to z-safe height
G0 X398.5000 Y171.9500
M3S0
G4 P0.5; Tool On
G1 F300 Z0.0000
G1 F15000 X1.5000 Y171.9500 Z0.0000
M3S245
G4 P0.5; Tool Off

G0 Z0; move to z-safe height
G0 X1.5000 Y174.9500
M3S0
G4 P0.5; Tool On
G1 F300 Z0.0000
G1 F15000 X398.5000 Y174.9500 Z0.0000
M3S245
G4 P0.5; Tool Off

G0 Z0; move to z-safe height
G0 X398.5000 Y177.9500
M3S0
G4 P0.5; Tool On
G1 F300 Z0.0000
G1 F15000 X1.5000 Y177.9500 Z0.0000
M3S245
G4 P0.5; Tool Off

G0 Z0; move to z-safe height
G0 X1.5000 Y180.9500
M3S0
G4 P0.5; Tool On
G1 F300 Z0.0000
G1 F15000 X398.5000 Y180.9500 Z0.0000
M3S245
G4 P0.5; Tool Off

G0 Z0; move to z-safe height
G0 X398.5000 Y183.9500
M3S0
G4 P0.5; Tool On
G1 F300 Z0.0000
G1 F15000 X1.5000 Y183.9500 Z0.0000
M3S245
G4 P0.5; Tool Off

G0 Z0; move to z-safe height
G0 X1.5000 Y186.9500
M3S0
G4 P0.5; Tool On
G1 F300 Z0.0000
G1 F15000 X398.5000 Y186.9500 Z0.0000
M3S245
G4 P0.5; Tool Off

G0 Z0; move to z-safe height
G0 X398.5000 Y189.9500
M3S0
G4 P0.5; Tool On
G1 F300 Z0.0000
G1 F15000 X1.5000 Y189.9500 Z0.0000
M3S245
G4 P0.5; Tool Off

G0 Z0; move to z-safe height
G0 X1.5000 Y192.9500
M3S0
G4 P0.5; Tool On
G1 F300 Z0.0000
G1 F15000 X398.5000 Y192.9500 Z0.0000
M3S245
G4 P0.5; Tool Off

G0 Z0; move to z-safe height
G0 X398.5000 Y195.9500
M3S0
G4 P0.5; Tool On
G1 F300 Z0.0000
G1 F15000 X1.5000 Y195.9500 Z0.0000
M3S245
G4 P0.5; Tool Off

G0 Z0; move to z-safe height
G0 X1.5000 Y198.9500
M3S0
G4 P0.5; Tool On
G1 F300 Z0.0000
G1 F15000 X398.5000 Y198.9500 Z0.0000
M3S245
G4 P0.5; Tool Off

G0 Z0; move to z-safe height
G0 X398.5000 Y201.9500
M3S0
G4 P0.5; Tool On
G1 F300 Z0.0000
G1 F15000 X1.5000 Y201.9500 Z0.0000
M3S245
G4 P0.5; Tool Off

G0 Z0; move to z-safe height
G0 X1.5000 Y204.9500
M3S0
G4 P0.5; Tool On
G1 F300 Z0.0000
G1 F15000 X398.5000 Y204.9500 Z0.0000
M3S245
G4 P0.5; Tool Off

G0 Z0; move to z-safe height
G0 X398.5000 Y207.9500
M3S0
G4 P0.5; Tool On
G1 F300 Z0.0000
G1 F15000 X1.5000 Y207.9500 Z0.0000
M3S245
G4 P0.5; Tool Off

G0 Z0; move to z-safe height
G0 X1.5000 Y210.9500
M3S0
G4 P0.5; Tool On
G1 F300 Z0.0000
G1 F15000 X398.5000 Y210.9500 Z0.0000
M3S245
G4 P0.5; Tool Off

G0 Z0; move to z-safe height
G0 X398.5000 Y213.9500
M3S0
G4 P0.5; Tool On
G1 F300 Z0.0000
G1 F15000 X1.5000 Y213.9500 Z0.0000
M3S245
G4 P0.5; Tool Off

G0 Z0; move to z-safe height
G0 X1.5000 Y216.9500
M3S0
G4 P0.5; Tool On
G1 F300 Z0.0000
G1 F15000 X398.5000 Y216.9500 Z0.0000
M3S245
G4 P0.5; Tool Off

G0 Z0; move to z-safe height
G0 X398.5000 Y219.9500
M3S0
G4 P0.5; Tool On
G1 F300 Z0.0000
G1 F15000 X1.5000 Y219.9500 Z0.0000
M3S245
G4 P0.5; Tool Off

G0 Z0; move to z-safe height
G0 X1.5000 Y222.9500
M3S0
G4 P0.5; Tool On
G1 F300 Z0.0000
G1 F15000 X398.5000 Y222.9500 Z0.0000
M3S245
G4 P0.5; Tool Off

G0 Z0; move to z-safe height
G0 X398.5000 Y225.9500
M3S0
G4 P0.5; Tool On
G1 F300 Z0.0000
G1 F15000 X1.5000 Y225.9500 Z0.0000
M3S245
G4 P0.5; Tool Off

G0 Z0; move to z-safe height
G0 X1.5000 Y228.9500
M3S0
G4 P0.5; Tool On
G1 F300 Z0.0000
G1 F15000 X398.5000 Y228.9500 Z0.0000
M3S245
G4 P0.5; Tool Off

G0 Z0; move to z-safe height
G0 X398.5000 Y231.9500
M3S0
G4 P0.5; Tool On
G1 F300 Z0.0000
G1 F15000 X1.5000 Y231.9500 Z0.0000
M3S245
G4 P0.5; Tool Off

G0 Z0; move to z-safe height
G0 X1.5000 Y234.9500
M3S0
G4 P0.5; Tool On
G1 F300 Z0.0000
G1 F15000 X398.5000 Y234.9500 Z0.0000
M3S245
G4 P0.5; Tool Off

G0 Z0; move to z-safe height
G0 X398.5000 Y237.9500
M3S0
G4 P0.5; Tool On
G1 F300 Z0.0000
G1 F15000 X1.5000 Y237.9500 Z0.0000
M3S245
G4 P0.5; Tool Off

G0 Z0; move to z-safe height
G0 X1.5000 Y240.9500
M3S0
G4 P0.5; Tool On
G1 F300 Z0.0000
G1 F15000 X398.5000 Y240.9500 Z0.0000
M3S245
G4 P0.5; Tool Off

G0 Z0; move to z-safe height
G0 X398.5000 Y243.9500
M3S0
G4 P0.5; Tool On
G1 F300 Z0.0000
G1 F15000 X1.5000 Y243.9500 Z0.0000
M3S245
G4 P0.5; Tool Off

G0 Z0; move to z-safe height
G0 X1.5000 Y246.9500
M3S0
G4 P0.5; Tool On
G1 F300 Z0.0000
G1 F15000 X398.5000 Y246.9500 Z0.0000
M3S245
G4 P0.5; Tool Off

G0 Z0; move to z-safe height
G0 X398.5000 Y249.9500
M3S0
G4 P0.5; Tool On
G1 F300 Z0.0000
G1 F15000 X1.5000 Y249.9500 Z0.0000
M3S245
G4 P0.5; Tool Off

G0 Z0; move to z-safe height
G0 X1.5000 Y252.9500
M3S0
G4 P0.5; Tool On
G1 F300 Z0.0000
G1 F15000 X398.5000 Y252.9500 Z0.0000
M3S245
G4 P0.5; Tool Off

G0 Z0; move to z-safe height
G0 X398.5000 Y255.9500
M3S0
G4 P0.5; Tool On
G1 F300 Z0.0000
G1 F15000 X1.5000 Y255.9500 Z0.0000
M3S245
G4 P0.5; Tool Off

G0 Z0; move to z-safe height
G0 X1.5000 Y258.9500
M3S0
G4 P0.5; Tool On
G1 F300 Z0.0000
G1 F15000 X398.5000 Y258.9500 Z0.0000
M3S245
G4 P0.5; Tool Off

G0 Z0; move to z-safe height
G0 X398.5000 Y261.9500
M3S0
G4 P0.5; Tool On
G1 F300 Z0.0000
G1 F15000 X1.5000 Y261.9500 Z0.0000
M3S245
G4 P0.5; Tool Off

G0 Z0; move to z-safe height
G0 X1.5000 Y264.9500
M3S0
G4 P0.5; Tool On
G1 F300 Z0.0000
G1 F15000 X398.5000 Y264.9500 Z0.0000
M3S245
G4 P0.5; Tool Off

G0 Z0; move to z-safe height
G0 X398.5000 Y267.9500
M3S0
G4 P0.5; Tool On
G1 F300 Z0.0000
G1 F15000 X1.5000 Y267.9500 Z0.0000
M3S245
G4 P0.5; Tool Off

G0 Z0; move to z-safe height
G0 X1.5000 Y270.9500
M3S0
G4 P0.5; Tool On
G1 F300 Z0.0000
G1 F15000 X398.5000 Y270.9500 Z0.0000
M3S245
G4 P0.5; Tool Off

G0 Z0; move to z-safe height
G0 X398.5000 Y273.9500
M3S0
G4 P0.5; Tool On
G1 F300 Z0.0000
G1 F15000 X1.5000 Y273.9500 Z0.0000
M3S245
G4 P0.5; Tool Off

G0 Z0; move to z-safe height
G0 X1.5000 Y276.9500
M3S0
G4 P0.5; Tool On
G1 F300 Z0.0000
G1 F15000 X398.5000 Y276.9500 Z0.0000
M3S245
G4 P0.5; Tool Off

G0 Z0; move to z-safe height
G0 X398.5000 Y279.9500
M3S0
G4 P0.5; Tool On
G1 F300 Z0.0000
G1 F15000 X1.5000 Y279.9500 Z0.0000
M3S245
G4 P0.5; Tool Off

G0 Z0; move to z-safe height
G0 X1.5000 Y282.9500
M3S0
G4 P0.5; Tool On
G1 F300 Z0.0000
G1 F15000 X398.5000 Y282.9500 Z0.0000
M3S245
G4 P0.5; Tool Off

G0 Z0; move to z-safe height
G0 X398.5000 Y285.9500
M3S0
G4 P0.5; Tool On
G1 F300 Z0.0000
G1 F15000 X1.5000 Y285.9500 Z0.0000
M3S245
G4 P0.5; Tool Off

G0 Z0; move to z-safe height
G0 X1.5000 Y288.9500
M3S0
G4 P0.5; Tool On
G1 F300 Z0.0000
G1 F15000 X398.5000 Y288.9500 Z0.0000
M3S245
G4 P0.5; Tool Off

G0 Z0; move to z-safe height
G0 X398.5000 Y291.9500
M3S0
G4 P0.5; Tool On
G1 F300 Z0.0000
G1 F15000 X1.5000 Y291.9500 Z0.0000
M3S245
G4 P0.5; Tool Off

G0 Z0; move to z-safe height
G0 X1.5000 Y294.9500
M3S0
G4 P0.5; Tool On
G1 F300 Z0.0000
G1 F15000 X398.5000 Y294.9500 Z0.0000
M3S245
G4 P0.5; Tool Off

G0 Z0; move to z-safe height
G0 X398.5000 Y297.9500
M3S0
G4 P0.5; Tool On
G1 F300 Z0.0000
G1 F15000 X1.5000 Y297.9500 Z0.0000
M3S245
G4 P0.5; Tool Off

G0 Z0; move to z-safe height
G0 X1.5000 Y300.9500
M3S0
G4 P0.5; Tool On
G1 F300 Z0.0000
G1 F15000 X398.5000 Y300.9500 Z0.0000
M3S245
G4 P0.5; Tool Off

G0 Z0; move to z-safe height
G0 X398.5000 Y303.9500
M3S0
G4 P0.5; Tool On
G1 F300 Z0.0000
G1 F15000 X1.5000 Y303.9500 Z0.0000
M3S245
G4 P0.5; Tool Off

G0 Z0; move to z-safe height
G0 X1.5000 Y306.9500
M3S0
G4 P0.5; Tool On
G1 F300 Z0.0000
G1 F15000 X398.5000 Y306.9500 Z0.0000
M3S245
G4 P0.5; Tool Off

G0 Z0; move to z-safe height
G0 X398.5000 Y309.9500
M3S0
G4 P0.5; Tool On
G1 F300 Z0.0000
G1 F15000 X1.5000 Y309.9500 Z0.0000
M3S245
G4 P0.5; Tool Off

G0 Z0; move to z-safe height
G0 X1.5000 Y312.9500
M3S0
G4 P0.5; Tool On
G1 F300 Z0.0000
G1 F15000 X398.5000 Y312.9500 Z0.0000
M3S245
G4 P0.5; Tool Off

G0 Z0; move to z-safe height
G0 X398.5000 Y315.9500
M3S0
G4 P0.5; Tool On
G1 F300 Z0.0000
G1 F15000 X1.5000 Y315.9500 Z0.0000
M3S245
G4 P0.5; Tool Off

G0 Z0; move to z-safe height
G0 X1.5000 Y318.9500
M3S0
G4 P0.5; Tool On
G1 F300 Z0.0000
G1 F15000 X398.5000 Y318.9500 Z0.0000
M3S245
G4 P0.5; Tool Off

G0 Z0; move to z-safe height
G0 X398.5000 Y321.9500
M3S0
G4 P0.5; Tool On
G1 F300 Z0.0000
G1 F15000 X1.5000 Y321.9500 Z0.0000
M3S245
G4 P0.5; Tool Off

G0 Z0; move to z-safe height
G0 X1.5000 Y324.9500
M3S0
G4 P0.5; Tool On
G1 F300 Z0.0000
G1 F15000 X398.5000 Y324.9500 Z0.0000
M3S245
G4 P0.5; Tool Off

G0 Z0; move to z-safe height
G0 X398.5000 Y327.9500
M3S0
G4 P0.5; Tool On
G1 F300 Z0.0000
G1 F15000 X1.5000 Y327.9500 Z0.0000
M3S245
G4 P0.5; Tool Off

G0 Z0; move to z-safe height
G0 X1.5000 Y330.9500
M3S0
G4 P0.5; Tool On
G1 F300 Z0.0000
G1 F15000 X398.5000 Y330.9500 Z0.0000
M3S245
G4 P0.5; Tool Off

G0 Z0; move to z-safe height
G0 X398.5000 Y333.9500
M3S0
G4 P0.5; Tool On
G1 F300 Z0.0000
G1 F15000 X1.5000 Y333.9500 Z0.0000
M3S245
G4 P0.5; Tool Off

G0 Z0; move to z-safe height
G0 X1.5000 Y336.9500
M3S0
G4 P0.5; Tool On
G1 F300 Z0.0000
G1 F15000 X398.5000 Y336.9500 Z0.0000
M3S245
G4 P0.5; Tool Off

G0 Z0; move to z-safe height
G0 X398.5000 Y339.9500
M3S0
G4 P0.5; Tool On
G1 F300 Z0.0000
G1 F15000 X1.5000 Y339.9500 Z0.0000
M3S245
G4 P0.5; Tool Off

G0 Z0; move to z-safe height
G0 X1.5000 Y342.9500
M3S0
G4 P0.5; Tool On
G1 F300 Z0.0000
G1 F15000 X398.5000 Y342.9500 Z0.0000
M3S245
G4 P0.5; Tool Off

G0 Z0; move to z-safe height
G0 X398.5000 Y345.9500
M3S0
G4 P0.5; Tool On
G1 F300 Z0.0000
G1 F15000 X1.5000 Y345.9500 Z0.0000
M3S245
G4 P0.5; Tool Off

G0 Z0; move to z-safe height
G0 X1.5000 Y348.9500
M3S0
G4 P0.5; Tool On
G1 F300 Z0.0000
G1 F15000 X398.5000 Y348.9500 Z0.0000
M3S245
G4 P0.5; Tool Off

G0 Z0; move to z-safe height
G0 X398.5000 Y351.9500
M3S0
G4 P0.5; Tool On
G1 F300 Z0.0000
G1 F15000 X1.5000 Y351.9500 Z0.0000
M3S245
G4 P0.5; Tool Off

G0 Z0; move to z-safe height
G0 X1.5000 Y354.9500
M3S0
G4 P0.5; Tool On
G1 F300 Z0.0000
G1 F15000 X398.5000 Y354.9500 Z0.0000
M3S245
G4 P0.5; Tool Off

G0 Z0; move to z-safe height
G0 X398.5000 Y357.9500
M3S0
G4 P0.5; Tool On
G1 F300 Z0.0000
G1 F15000 X1.5000 Y357.9500 Z0.0000
M3S245
G4 P0.5; Tool Off

G0 Z0; move to z-safe height
G0 X1.5000 Y360.9500
M3S0
G4 P0.5; Tool On
G1 F300 Z0.0000
G1 F15000 X398.5000 Y360.9500 Z0.0000
M3S245
G4 P0.5; Tool Off

G0 Z0; move to z-safe height
G0 X398.5000 Y363.9500
M3S0
G4 P0.5; Tool On
G1 F300 Z0.0000
G1 F15000 X1.5000 Y363.9500 Z0.0000
M3S245
G4 P0.5; Tool Off

G0 Z0; move to z-safe height
G0 X1.5000 Y366.9500
M3S0
G4 P0.5; Tool On
G1 F300 Z0.0000
G1 F15000 X398.5000 Y366.9500 Z0.0000
M3S245
G4 P0.5; Tool Off

G0 Z0; move to z-safe height
G0 X398.5000 Y369.9500
M3S0
G4 P0.5; Tool On
G1 F300 Z0.0000
G1 F15000 X1.5000 Y369.9500 Z0.0000
M3S245
G4 P0.5; Tool Off

G0 Z0; move to z-safe height
G0 X1.5000 Y372.9500
M3S0
G4 P0.5; Tool On
G1 F300 Z0.0000
G1 F15000 X398.5000 Y372.9500 Z0.0000
M3S245
G4 P0.5; Tool Off

G0 Z0; move to z-safe height
G0 X398.5000 Y375.9500
M3S0
G4 P0.5; Tool On
G1 F300 Z0.0000
G1 F15000 X1.5000 Y375.9500 Z0.0000
M3S245
G4 P0.5; Tool Off

G0 Z0; move to z-safe height
G0 X1.5000 Y378.9500
M3S0
G4 P0.5; Tool On
G1 F300 Z0.0000
G1 F15000 X398.5000 Y378.9500 Z0.0000
M3S245
G4 P0.5; Tool Off

G0 Z0; move to z-safe height
G0 X398.5000 Y381.9500
M3S0
G4 P0.5; Tool On
G1 F300 Z0.0000
G1 F15000 X1.5000 Y381.9500 Z0.0000
M3S245
G4 P0.5; Tool Off

G0 Z0; move to z-safe height
G0 X1.5000 Y384.9500
M3S0
G4 P0.5; Tool On
G1 F300 Z0.0000
G1 F15000 X398.5000 Y384.9500 Z0.0000
M3S245
G4 P0.5; Tool Off

G0 Z0; move to z-safe height
G0 X398.5000 Y387.9500
M3S0
G4 P0.5; Tool On
G1 F300 Z0.0000
G1 F15000 X1.5000 Y387.9500 Z0.0000
M3S245
G4 P0.5; Tool Off

G0 Z0; move to z-safe height
G0 X1.5000 Y390.9500
M3S0
G4 P0.5; Tool On
G1 F300 Z0.0000
G1 F15000 X398.5000 Y390.9500 Z0.0000
M3S245
G4 P0.5; Tool Off

G0 Z0; move to z-safe height
G0 X398.5000 Y393.9500
M3S0
G4 P0.5; Tool On
G1 F300 Z0.0000
G1 F15000 X1.5000 Y393.9500 Z0.0000
M3S245
G4 P0.5; Tool Off

G0 Z0; move to z-safe height
G0 X1.5000 Y396.9500
M3S0
G4 P0.5; Tool On
G1 F300 Z0.0000
G1 F15000 X398.5000 Y396.9500 Z0.0000
M3S245
G4 P0.5; Tool Off

G0 Z0; move to z-safe height
G0 X398.5000 Y399.9500
M3S0
G4 P0.5; Tool On
G1 F300 Z0.0000
G1 F15000 X1.5000 Y399.9500 Z0.0000
M3S245
G4 P0.5; Tool Off

G0 Z0; move to z-safe height
G0 X1.5000 Y402.9500
M3S0
G4 P0.5; Tool On
G1 F300 Z0.0000
G1 F15000 X398.5000 Y402.9500 Z0.0000
M3S245
G4 P0.5; Tool Off

G0 Z0; move to z-safe height
G0 X398.5000 Y405.9500
M3S0
G4 P0.5; Tool On
G1 F300 Z0.0000
G1 F15000 X1.5000 Y405.9500 Z0.0000
M3S245
G4 P0.5; Tool Off

G0 Z0; move to z-safe height
G0 X1.5000 Y408.9500
M3S0
G4 P0.5; Tool On
G1 F300 Z0.0000
G1 F15000 X398.5000 Y408.9500 Z0.0000
M3S245
G4 P0.5; Tool Off

G0 Z0; move to z-safe height
G0 X398.5000 Y411.9500
M3S0
G4 P0.5; Tool On
G1 F300 Z0.0000
G1 F15000 X1.5000 Y411.9500 Z0.0000
M3S245
G4 P0.5; Tool Off

G0 Z0; move to z-safe height
G0 X1.5000 Y414.9500
M3S0
G4 P0.5; Tool On
G1 F300 Z0.0000
G1 F15000 X398.5000 Y414.9500 Z0.0000
M3S245
G4 P0.5; Tool Off

G0 Z0; move to z-safe height
G0 X398.5000 Y417.9500
M3S0
G4 P0.5; Tool On
G1 F300 Z0.0000
G1 F15000 X1.5000 Y417.9500 Z0.0000
M3S245
G4 P0.5; Tool Off

G0 Z0; move to z-safe height
G0 X1.5000 Y420.9500
M3S0
G4 P0.5; Tool On
G1 F300 Z0.0000
G1 F15000 X398.5000 Y420.9500 Z0.0000
M3S245
G4 P0.5; Tool Off

G0 Z0; move to z-safe height
G0 X398.5000 Y423.9500
M3S0
G4 P0.5; Tool On
G1 F300 Z0.0000
G1 F15000 X1.5000 Y423.9500 Z0.0000
M3S245
G4 P0.5; Tool Off

G0 Z0; move to z-safe height
G0 X1.5000 Y426.9500
M3S0
G4 P0.5; Tool On
G1 F300 Z0.0000
G1 F15000 X398.5000 Y426.9500 Z0.0000
M3S245
G4 P0.5; Tool Off

G0 Z0; move to z-safe height
G0 X398.5000 Y429.9500
M3S0
G4 P0.5; Tool On
G1 F300 Z0.0000
G1 F15000 X1.5000 Y429.9500 Z0.0000
M3S245
G4 P0.5; Tool Off

G0 Z0; move to z-safe height
G0 X1.5000 Y432.9500
M3S0
G4 P0.5; Tool On
G1 F300 Z0.0000
G1 F15000 X398.5000 Y432.9500 Z0.0000
M3S245
G4 P0.5; Tool Off

G0 Z0; move to z-safe height
G0 X398.5000 Y435.9500
M3S0
G4 P0.5; Tool On
G1 F300 Z0.0000
G1 F15000 X1.5000 Y435.9500 Z0.0000
M3S245
G4 P0.5; Tool Off

G0 Z0; move to z-safe height
G0 X1.5000 Y438.9500
M3S0
G4 P0.5; Tool On
G1 F300 Z0.0000
G1 F15000 X398.5000 Y438.9500 Z0.0000
M3S245
G4 P0.5; Tool Off

G0 Z0; move to z-safe height
G0 X398.5000 Y441.9500
M3S0
G4 P0.5; Tool On
G1 F300 Z0.0000
G1 F15000 X1.5000 Y441.9500 Z0.0000
M3S245
G4 P0.5; Tool Off

G0 Z0; move to z-safe height
G0 X1.5000 Y444.9500
M3S0
G4 P0.5; Tool On
G1 F300 Z0.0000
G1 F15000 X398.5000 Y444.9500 Z0.0000
M3S245
G4 P0.5; Tool Off

G0 Z0; move to z-safe height
G0 X398.5000 Y447.9500
M3S0
G4 P0.5; Tool On
G1 F300 Z0.0000
G1 F15000 X1.5000 Y447.9500 Z0.0000
M3S245
G4 P0.5; Tool Off

G0 Z0; move to z-safe height
G0 X1.5000 Y450.9500
M3S0
G4 P0.5; Tool On
G1 F300 Z0.0000
G1 F15000 X398.5000 Y450.9500 Z0.0000
M3S245
G4 P0.5; Tool Off

G0 Z0; move to z-safe height
G0 X398.5000 Y453.9500
M3S0
G4 P0.5; Tool On
G1 F300 Z0.0000
G1 F15000 X1.5000 Y453.9500 Z0.0000
M3S245
G4 P0.5; Tool Off

G0 Z0; move to z-safe height
G0 X1.5000 Y456.9500
M3S0
G4 P0.5; Tool On
G1 F300 Z0.0000
G1 F15000 X398.5000 Y456.9500 Z0.0000
M3S245
G4 P0.5; Tool Off

G0 Z0; move to z-safe height
G0 X398.5000 Y459.9500
M3S0
G4 P0.5; Tool On
G1 F300 Z0.0000
G1 F15000 X1.5000 Y459.9500 Z0.0000
M3S245
G4 P0.5; Tool Off

G0 Z0; move to z-safe height
G0 X1.5000 Y462.9500
M3S0
G4 P0.5; Tool On
G1 F300 Z0.0000
G1 F15000 X398.5000 Y462.9500 Z0.0000
M3S245
G4 P0.5; Tool Off

G0 Z0; move to z-safe height
G0 X398.5000 Y465.9500
M3S0
G4 P0.5; Tool On
G1 F300 Z0.0000
G1 F15000 X1.5000 Y465.9500 Z0.0000
M3S245
G4 P0.5; Tool Off

G0 Z0; move to z-safe height
G0 X1.5000 Y468.9500
M3S0
G4 P0.5; Tool On
G1 F300 Z0.0000
G1 F15000 X398.5000 Y468.9500 Z0.0000
M3S245
G4 P0.5; Tool Off

G0 Z0; move to z-safe height
G0 X398.5000 Y471.9500
M3S0
G4 P0.5; Tool On
G1 F300 Z0.0000
G1 F15000 X1.5000 Y471.9500 Z0.0000
M3S245
G4 P0.5; Tool Off

G0 Z0; move to z-safe height
G0 X1.5000 Y474.9500
M3S0
G4 P0.5; Tool On
G1 F300 Z0.0000
G1 F15000 X398.5000 Y474.9500 Z0.0000
M3S245
G4 P0.5; Tool Off

G0 Z0; move to z-safe height
G0 X398.5000 Y477.9500
M3S0
G4 P0.5; Tool On
G1 F300 Z0.0000
G1 F15000 X1.5000 Y477.9500 Z0.0000
M3S245
G4 P0.5; Tool Off

G0 Z0; move to z-safe height
G0 X1.5000 Y480.9500
M3S0
G4 P0.5; Tool On
G1 F300 Z0.0000
G1 F15000 X398.5000 Y480.9500 Z0.0000
M3S245
G4 P0.5; Tool Off

G0 Z0; move to z-safe height
G0 X398.5000 Y483.9500
M3S0
G4 P0.5; Tool On
G1 F300 Z0.0000
G1 F15000 X1.5000 Y483.9500 Z0.0000
M3S245
G4 P0.5; Tool Off

G0 Z0; move to z-safe height
G0 X1.5000 Y486.9500
M3S0
G4 P0.5; Tool On
G1 F300 Z0.0000
G1 F15000 X398.5000 Y486.9500 Z0.0000
M3S245
G4 P0.5; Tool Off

G0 Z0; move to z-safe height
G0 X398.5000 Y489.9500
M3S0
G4 P0.5; Tool On
G1 F300 Z0.0000
G1 F15000 X1.5000 Y489.9500 Z0.0000
M3S245
G4 P0.5; Tool Off

G0 Z0; move to z-safe height
G0 X1.5000 Y492.9500
M3S0
G4 P0.5; Tool On
G1 F300 Z0.0000
G1 F15000 X398.5000 Y492.9500 Z0.0000
M3S245
G4 P0.5; Tool Off

G0 Z0; move to z-safe height
G0 X398.5000 Y495.9500
M3S0
G4 P0.5; Tool On
G1 F300 Z0.0000
G1 F15000 X1.5000 Y495.9500 Z0.0000
M3S245
G4 P0.5; Tool Off
; retracting back to z-safe
G0 Z0

; Plotter Mode Complete
