; GCODE Generated by cam.openbuilds.com on 2023-04-02 
G21 ; mm-mode
G54; Work Coordinates
G21; mm-mode
G90; Absolute Positioning
; Plotter Mode Active

; Operation 0: Pen Plotter: (lines fill)
; Pen Diameter: 2

G0 Z0; move to z-safe height
G0 F1000 X7.5000 Y15.3800
M3S0
G4 P0.5; Tool On
G1 F300 Z0.0000
G1 F15000 X392.5000 Y15.3800 Z0.0000
M3S245
G4 P0.5; Tool Off

G0 Z0; move to z-safe height
G0 X392.5000 Y30.3800
M3S0
G4 P0.5; Tool On
G1 F300 Z0.0000
G1 F15000 X7.5000 Y30.3800 Z0.0000
M3S245
G4 P0.5; Tool Off

G0 Z0; move to z-safe height
G0 X7.5000 Y45.3800
M3S0
G4 P0.5; Tool On
G1 F300 Z0.0000
G1 F15000 X392.5000 Y45.3800 Z0.0000
M3S245
G4 P0.5; Tool Off

G0 Z0; move to z-safe height
G0 X392.5000 Y60.3800
M3S0
G4 P0.5; Tool On
G1 F300 Z0.0000
G1 F15000 X7.5000 Y60.3800 Z0.0000
M3S245
G4 P0.5; Tool Off

G0 Z0; move to z-safe height
G0 X7.5000 Y75.3800
M3S0
G4 P0.5; Tool On
G1 F300 Z0.0000
G1 F15000 X392.5000 Y75.3800 Z0.0000
M3S245
G4 P0.5; Tool Off

G0 Z0; move to z-safe height
G0 X392.5000 Y90.3800
M3S0
G4 P0.5; Tool On
G1 F300 Z0.0000
G1 F15000 X7.5000 Y90.3800 Z0.0000
M3S245
G4 P0.5; Tool Off

G0 Z0; move to z-safe height
G0 X7.5000 Y105.3800
M3S0
G4 P0.5; Tool On
G1 F300 Z0.0000
G1 F15000 X392.5000 Y105.3800 Z0.0000
M3S245
G4 P0.5; Tool Off

G0 Z0; move to z-safe height
G0 X392.5000 Y120.3800
M3S0
G4 P0.5; Tool On
G1 F300 Z0.0000
G1 F15000 X7.5000 Y120.3800 Z0.0000
M3S245
G4 P0.5; Tool Off

G0 Z0; move to z-safe height
G0 X7.5000 Y135.3800
M3S0
G4 P0.5; Tool On
G1 F300 Z0.0000
G1 F15000 X392.5000 Y135.3800 Z0.0000
M3S245
G4 P0.5; Tool Off

G0 Z0; move to z-safe height
G0 X392.5000 Y150.3800
M3S0
G4 P0.5; Tool On
G1 F300 Z0.0000
G1 F15000 X7.5000 Y150.3800 Z0.0000
M3S245
G4 P0.5; Tool Off

G0 Z0; move to z-safe height
G0 X7.5000 Y165.3800
M3S0
G4 P0.5; Tool On
G1 F300 Z0.0000
G1 F15000 X392.5000 Y165.3800 Z0.0000
M3S245
G4 P0.5; Tool Off

G0 Z0; move to z-safe height
G0 X392.5000 Y180.3800
M3S0
G4 P0.5; Tool On
G1 F300 Z0.0000
G1 F15000 X7.5000 Y180.3800 Z0.0000
M3S245
G4 P0.5; Tool Off

G0 Z0; move to z-safe height
G0 X7.5000 Y195.3800
M3S0
G4 P0.5; Tool On
G1 F300 Z0.0000
G1 F15000 X392.5000 Y195.3800 Z0.0000
M3S245
G4 P0.5; Tool Off

G0 Z0; move to z-safe height
G0 X392.5000 Y210.3800
M3S0
G4 P0.5; Tool On
G1 F300 Z0.0000
G1 F15000 X7.5000 Y210.3800 Z0.0000
M3S245
G4 P0.5; Tool Off

G0 Z0; move to z-safe height
G0 X7.5000 Y225.3800
M3S0
G4 P0.5; Tool On
G1 F300 Z0.0000
G1 F15000 X392.5000 Y225.3800 Z0.0000
M3S245
G4 P0.5; Tool Off

G0 Z0; move to z-safe height
G0 X392.5000 Y240.3800
M3S0
G4 P0.5; Tool On
G1 F300 Z0.0000
G1 F15000 X7.5000 Y240.3800 Z0.0000
M3S245
G4 P0.5; Tool Off

G0 Z0; move to z-safe height
G0 X7.5000 Y255.3800
M3S0
G4 P0.5; Tool On
G1 F300 Z0.0000
G1 F15000 X392.5000 Y255.3800 Z0.0000
M3S245
G4 P0.5; Tool Off

G0 Z0; move to z-safe height
G0 X392.5000 Y270.3800
M3S0
G4 P0.5; Tool On
G1 F300 Z0.0000
G1 F15000 X7.5000 Y270.3800 Z0.0000
M3S245
G4 P0.5; Tool Off

G0 Z0; move to z-safe height
G0 X7.5000 Y285.3800
M3S0
G4 P0.5; Tool On
G1 F300 Z0.0000
G1 F15000 X392.5000 Y285.3800 Z0.0000
M3S245
G4 P0.5; Tool Off

G0 Z0; move to z-safe height
G0 X392.5000 Y300.3800
M3S0
G4 P0.5; Tool On
G1 F300 Z0.0000
G1 F15000 X7.5000 Y300.3800 Z0.0000
M3S245
G4 P0.5; Tool Off

G0 Z0; move to z-safe height
G0 X7.5000 Y315.3800
M3S0
G4 P0.5; Tool On
G1 F300 Z0.0000
G1 F15000 X392.5000 Y315.3800 Z0.0000
M3S245
G4 P0.5; Tool Off

G0 Z0; move to z-safe height
G0 X392.5000 Y330.3800
M3S0
G4 P0.5; Tool On
G1 F300 Z0.0000
G1 F15000 X7.5000 Y330.3800 Z0.0000
M3S245
G4 P0.5; Tool Off

G0 Z0; move to z-safe height
G0 X7.5000 Y345.3800
M3S0
G4 P0.5; Tool On
G1 F300 Z0.0000
G1 F15000 X392.5000 Y345.3800 Z0.0000
M3S245
G4 P0.5; Tool Off

G0 Z0; move to z-safe height
G0 X392.5000 Y360.3800
M3S0
G4 P0.5; Tool On
G1 F300 Z0.0000
G1 F15000 X7.5000 Y360.3800 Z0.0000
M3S245
G4 P0.5; Tool Off

G0 Z0; move to z-safe height
G0 X7.5000 Y375.3800
M3S0
G4 P0.5; Tool On
G1 F300 Z0.0000
G1 F15000 X392.5000 Y375.3800 Z0.0000
M3S245
G4 P0.5; Tool Off

G0 Z0; move to z-safe height
G0 X392.5000 Y390.3800
M3S0
G4 P0.5; Tool On
G1 F300 Z0.0000
G1 F15000 X7.5000 Y390.3800 Z0.0000
M3S245
G4 P0.5; Tool Off

G0 Z0; move to z-safe height
G0 X7.5000 Y405.3800
M3S0
G4 P0.5; Tool On
G1 F300 Z0.0000
G1 F15000 X392.5000 Y405.3800 Z0.0000
M3S245
G4 P0.5; Tool Off

G0 Z0; move to z-safe height
G0 X392.5000 Y420.3800
M3S0
G4 P0.5; Tool On
G1 F300 Z0.0000
G1 F15000 X7.5000 Y420.3800 Z0.0000
M3S245
G4 P0.5; Tool Off

G0 Z0; move to z-safe height
G0 X7.5000 Y435.3800
M3S0
G4 P0.5; Tool On
G1 F300 Z0.0000
G1 F15000 X392.5000 Y435.3800 Z0.0000
M3S245
G4 P0.5; Tool Off

G0 Z0; move to z-safe height
G0 X392.5000 Y450.3800
M3S0
G4 P0.5; Tool On
G1 F300 Z0.0000
G1 F15000 X7.5000 Y450.3800 Z0.0000
M3S245
G4 P0.5; Tool Off

G0 Z0; move to z-safe height
G0 X7.5000 Y465.3800
M3S0
G4 P0.5; Tool On
G1 F300 Z0.0000
G1 F15000 X392.5000 Y465.3800 Z0.0000
M3S245
G4 P0.5; Tool Off

G0 Z0; move to z-safe height
G0 X392.5000 Y480.3800
M3S0
G4 P0.5; Tool On
G1 F300 Z0.0000
G1 F15000 X7.5000 Y480.3800 Z0.0000
M3S245
G4 P0.5; Tool Off
; retracting back to z-safe
G0 Z0

; Plotter Mode Complete
