; GCODE Generated by cam.openbuilds.com on 2023-11-01 
G21 ; mm-mode
G54; Work Coordinates
G21; mm-mode
G90; Absolute Positioning
; Plotter Mode Active

; Operation 0: Pen Plotter: (lines fill)
; Pen Diameter: 2

G0 Z0; move to z-safe height
G0 F1000 X398.0000 Y4.6500
M3S0
G4 P0.5; Tool On
G1 F300 Z0.0000
G1 F15000 X2.0000 Y4.6500 Z0.0000
M3S245
G4 P0.5; Tool Off

G0 Z0; move to z-safe height
G0 X2.0000 Y8.6500
M3S0
G4 P0.5; Tool On
G1 F300 Z0.0000
G1 F15000 X398.0000 Y8.6500 Z0.0000
M3S245
G4 P0.5; Tool Off

G0 Z0; move to z-safe height
G0 X398.0000 Y12.6500
M3S0
G4 P0.5; Tool On
G1 F300 Z0.0000
G1 F15000 X2.0000 Y12.6500 Z0.0000
M3S245
G4 P0.5; Tool Off

G0 Z0; move to z-safe height
G0 X2.0000 Y16.6500
M3S0
G4 P0.5; Tool On
G1 F300 Z0.0000
G1 F15000 X398.0000 Y16.6500 Z0.0000
M3S245
G4 P0.5; Tool Off

G0 Z0; move to z-safe height
G0 X398.0000 Y20.6500
M3S0
G4 P0.5; Tool On
G1 F300 Z0.0000
G1 F15000 X2.0000 Y20.6500 Z0.0000
M3S245
G4 P0.5; Tool Off

G0 Z0; move to z-safe height
G0 X2.0000 Y24.6500
M3S0
G4 P0.5; Tool On
G1 F300 Z0.0000
G1 F15000 X398.0000 Y24.6500 Z0.0000
M3S245
G4 P0.5; Tool Off

G0 Z0; move to z-safe height
G0 X398.0000 Y28.6500
M3S0
G4 P0.5; Tool On
G1 F300 Z0.0000
G1 F15000 X2.0000 Y28.6500 Z0.0000
M3S245
G4 P0.5; Tool Off

G0 Z0; move to z-safe height
G0 X2.0000 Y32.6500
M3S0
G4 P0.5; Tool On
G1 F300 Z0.0000
G1 F15000 X398.0000 Y32.6500 Z0.0000
M3S245
G4 P0.5; Tool Off

G0 Z0; move to z-safe height
G0 X398.0000 Y36.6500
M3S0
G4 P0.5; Tool On
G1 F300 Z0.0000
G1 F15000 X2.0000 Y36.6500 Z0.0000
M3S245
G4 P0.5; Tool Off

G0 Z0; move to z-safe height
G0 X2.0000 Y40.6500
M3S0
G4 P0.5; Tool On
G1 F300 Z0.0000
G1 F15000 X398.0000 Y40.6500 Z0.0000
M3S245
G4 P0.5; Tool Off

G0 Z0; move to z-safe height
G0 X398.0000 Y44.6500
M3S0
G4 P0.5; Tool On
G1 F300 Z0.0000
G1 F15000 X2.0000 Y44.6500 Z0.0000
M3S245
G4 P0.5; Tool Off

G0 Z0; move to z-safe height
G0 X2.0000 Y48.6500
M3S0
G4 P0.5; Tool On
G1 F300 Z0.0000
G1 F15000 X398.0000 Y48.6500 Z0.0000
M3S245
G4 P0.5; Tool Off

G0 Z0; move to z-safe height
G0 X398.0000 Y52.6500
M3S0
G4 P0.5; Tool On
G1 F300 Z0.0000
G1 F15000 X2.0000 Y52.6500 Z0.0000
M3S245
G4 P0.5; Tool Off

G0 Z0; move to z-safe height
G0 X2.0000 Y56.6500
M3S0
G4 P0.5; Tool On
G1 F300 Z0.0000
G1 F15000 X398.0000 Y56.6500 Z0.0000
M3S245
G4 P0.5; Tool Off

G0 Z0; move to z-safe height
G0 X398.0000 Y60.6500
M3S0
G4 P0.5; Tool On
G1 F300 Z0.0000
G1 F15000 X2.0000 Y60.6500 Z0.0000
M3S245
G4 P0.5; Tool Off

G0 Z0; move to z-safe height
G0 X2.0000 Y64.6500
M3S0
G4 P0.5; Tool On
G1 F300 Z0.0000
G1 F15000 X398.0000 Y64.6500 Z0.0000
M3S245
G4 P0.5; Tool Off

G0 Z0; move to z-safe height
G0 X398.0000 Y68.6500
M3S0
G4 P0.5; Tool On
G1 F300 Z0.0000
G1 F15000 X2.0000 Y68.6500 Z0.0000
M3S245
G4 P0.5; Tool Off

G0 Z0; move to z-safe height
G0 X2.0000 Y72.6500
M3S0
G4 P0.5; Tool On
G1 F300 Z0.0000
G1 F15000 X398.0000 Y72.6500 Z0.0000
M3S245
G4 P0.5; Tool Off

G0 Z0; move to z-safe height
G0 X398.0000 Y76.6500
M3S0
G4 P0.5; Tool On
G1 F300 Z0.0000
G1 F15000 X2.0000 Y76.6500 Z0.0000
M3S245
G4 P0.5; Tool Off

G0 Z0; move to z-safe height
G0 X2.0000 Y80.6500
M3S0
G4 P0.5; Tool On
G1 F300 Z0.0000
G1 F15000 X398.0000 Y80.6500 Z0.0000
M3S245
G4 P0.5; Tool Off

G0 Z0; move to z-safe height
G0 X398.0000 Y84.6500
M3S0
G4 P0.5; Tool On
G1 F300 Z0.0000
G1 F15000 X2.0000 Y84.6500 Z0.0000
M3S245
G4 P0.5; Tool Off

G0 Z0; move to z-safe height
G0 X2.0000 Y88.6500
M3S0
G4 P0.5; Tool On
G1 F300 Z0.0000
G1 F15000 X398.0000 Y88.6500 Z0.0000
M3S245
G4 P0.5; Tool Off

G0 Z0; move to z-safe height
G0 X398.0000 Y92.6500
M3S0
G4 P0.5; Tool On
G1 F300 Z0.0000
G1 F15000 X2.0000 Y92.6500 Z0.0000
M3S245
G4 P0.5; Tool Off

G0 Z0; move to z-safe height
G0 X2.0000 Y96.6500
M3S0
G4 P0.5; Tool On
G1 F300 Z0.0000
G1 F15000 X398.0000 Y96.6500 Z0.0000
M3S245
G4 P0.5; Tool Off

G0 Z0; move to z-safe height
G0 X398.0000 Y100.6500
M3S0
G4 P0.5; Tool On
G1 F300 Z0.0000
G1 F15000 X2.0000 Y100.6500 Z0.0000
M3S245
G4 P0.5; Tool Off

G0 Z0; move to z-safe height
G0 X2.0000 Y104.6500
M3S0
G4 P0.5; Tool On
G1 F300 Z0.0000
G1 F15000 X398.0000 Y104.6500 Z0.0000
M3S245
G4 P0.5; Tool Off

G0 Z0; move to z-safe height
G0 X398.0000 Y108.6500
M3S0
G4 P0.5; Tool On
G1 F300 Z0.0000
G1 F15000 X2.0000 Y108.6500 Z0.0000
M3S245
G4 P0.5; Tool Off

G0 Z0; move to z-safe height
G0 X2.0000 Y112.6500
M3S0
G4 P0.5; Tool On
G1 F300 Z0.0000
G1 F15000 X398.0000 Y112.6500 Z0.0000
M3S245
G4 P0.5; Tool Off

G0 Z0; move to z-safe height
G0 X398.0000 Y116.6500
M3S0
G4 P0.5; Tool On
G1 F300 Z0.0000
G1 F15000 X2.0000 Y116.6500 Z0.0000
M3S245
G4 P0.5; Tool Off

G0 Z0; move to z-safe height
G0 X2.0000 Y120.6500
M3S0
G4 P0.5; Tool On
G1 F300 Z0.0000
G1 F15000 X398.0000 Y120.6500 Z0.0000
M3S245
G4 P0.5; Tool Off

G0 Z0; move to z-safe height
G0 X398.0000 Y124.6500
M3S0
G4 P0.5; Tool On
G1 F300 Z0.0000
G1 F15000 X2.0000 Y124.6500 Z0.0000
M3S245
G4 P0.5; Tool Off

G0 Z0; move to z-safe height
G0 X2.0000 Y128.6500
M3S0
G4 P0.5; Tool On
G1 F300 Z0.0000
G1 F15000 X398.0000 Y128.6500 Z0.0000
M3S245
G4 P0.5; Tool Off

G0 Z0; move to z-safe height
G0 X398.0000 Y132.6500
M3S0
G4 P0.5; Tool On
G1 F300 Z0.0000
G1 F15000 X2.0000 Y132.6500 Z0.0000
M3S245
G4 P0.5; Tool Off

G0 Z0; move to z-safe height
G0 X2.0000 Y136.6500
M3S0
G4 P0.5; Tool On
G1 F300 Z0.0000
G1 F15000 X398.0000 Y136.6500 Z0.0000
M3S245
G4 P0.5; Tool Off

G0 Z0; move to z-safe height
G0 X398.0000 Y140.6500
M3S0
G4 P0.5; Tool On
G1 F300 Z0.0000
G1 F15000 X2.0000 Y140.6500 Z0.0000
M3S245
G4 P0.5; Tool Off

G0 Z0; move to z-safe height
G0 X2.0000 Y144.6500
M3S0
G4 P0.5; Tool On
G1 F300 Z0.0000
G1 F15000 X398.0000 Y144.6500 Z0.0000
M3S245
G4 P0.5; Tool Off

G0 Z0; move to z-safe height
G0 X398.0000 Y148.6500
M3S0
G4 P0.5; Tool On
G1 F300 Z0.0000
G1 F15000 X2.0000 Y148.6500 Z0.0000
M3S245
G4 P0.5; Tool Off

G0 Z0; move to z-safe height
G0 X2.0000 Y152.6500
M3S0
G4 P0.5; Tool On
G1 F300 Z0.0000
G1 F15000 X398.0000 Y152.6500 Z0.0000
M3S245
G4 P0.5; Tool Off

G0 Z0; move to z-safe height
G0 X398.0000 Y156.6500
M3S0
G4 P0.5; Tool On
G1 F300 Z0.0000
G1 F15000 X2.0000 Y156.6500 Z0.0000
M3S245
G4 P0.5; Tool Off

G0 Z0; move to z-safe height
G0 X2.0000 Y160.6500
M3S0
G4 P0.5; Tool On
G1 F300 Z0.0000
G1 F15000 X398.0000 Y160.6500 Z0.0000
M3S245
G4 P0.5; Tool Off

G0 Z0; move to z-safe height
G0 X398.0000 Y164.6500
M3S0
G4 P0.5; Tool On
G1 F300 Z0.0000
G1 F15000 X2.0000 Y164.6500 Z0.0000
M3S245
G4 P0.5; Tool Off

G0 Z0; move to z-safe height
G0 X2.0000 Y168.6500
M3S0
G4 P0.5; Tool On
G1 F300 Z0.0000
G1 F15000 X398.0000 Y168.6500 Z0.0000
M3S245
G4 P0.5; Tool Off

G0 Z0; move to z-safe height
G0 X398.0000 Y172.6500
M3S0
G4 P0.5; Tool On
G1 F300 Z0.0000
G1 F15000 X2.0000 Y172.6500 Z0.0000
M3S245
G4 P0.5; Tool Off

G0 Z0; move to z-safe height
G0 X2.0000 Y176.6500
M3S0
G4 P0.5; Tool On
G1 F300 Z0.0000
G1 F15000 X398.0000 Y176.6500 Z0.0000
M3S245
G4 P0.5; Tool Off

G0 Z0; move to z-safe height
G0 X398.0000 Y180.6500
M3S0
G4 P0.5; Tool On
G1 F300 Z0.0000
G1 F15000 X2.0000 Y180.6500 Z0.0000
M3S245
G4 P0.5; Tool Off

G0 Z0; move to z-safe height
G0 X2.0000 Y184.6500
M3S0
G4 P0.5; Tool On
G1 F300 Z0.0000
G1 F15000 X398.0000 Y184.6500 Z0.0000
M3S245
G4 P0.5; Tool Off

G0 Z0; move to z-safe height
G0 X398.0000 Y188.6500
M3S0
G4 P0.5; Tool On
G1 F300 Z0.0000
G1 F15000 X2.0000 Y188.6500 Z0.0000
M3S245
G4 P0.5; Tool Off

G0 Z0; move to z-safe height
G0 X2.0000 Y192.6500
M3S0
G4 P0.5; Tool On
G1 F300 Z0.0000
G1 F15000 X398.0000 Y192.6500 Z0.0000
M3S245
G4 P0.5; Tool Off

G0 Z0; move to z-safe height
G0 X398.0000 Y196.6500
M3S0
G4 P0.5; Tool On
G1 F300 Z0.0000
G1 F15000 X2.0000 Y196.6500 Z0.0000
M3S245
G4 P0.5; Tool Off

G0 Z0; move to z-safe height
G0 X2.0000 Y200.6500
M3S0
G4 P0.5; Tool On
G1 F300 Z0.0000
G1 F15000 X398.0000 Y200.6500 Z0.0000
M3S245
G4 P0.5; Tool Off

G0 Z0; move to z-safe height
G0 X398.0000 Y204.6500
M3S0
G4 P0.5; Tool On
G1 F300 Z0.0000
G1 F15000 X2.0000 Y204.6500 Z0.0000
M3S245
G4 P0.5; Tool Off

G0 Z0; move to z-safe height
G0 X2.0000 Y208.6500
M3S0
G4 P0.5; Tool On
G1 F300 Z0.0000
G1 F15000 X398.0000 Y208.6500 Z0.0000
M3S245
G4 P0.5; Tool Off

G0 Z0; move to z-safe height
G0 X398.0000 Y212.6500
M3S0
G4 P0.5; Tool On
G1 F300 Z0.0000
G1 F15000 X2.0000 Y212.6500 Z0.0000
M3S245
G4 P0.5; Tool Off

G0 Z0; move to z-safe height
G0 X2.0000 Y216.6500
M3S0
G4 P0.5; Tool On
G1 F300 Z0.0000
G1 F15000 X398.0000 Y216.6500 Z0.0000
M3S245
G4 P0.5; Tool Off

G0 Z0; move to z-safe height
G0 X398.0000 Y220.6500
M3S0
G4 P0.5; Tool On
G1 F300 Z0.0000
G1 F15000 X2.0000 Y220.6500 Z0.0000
M3S245
G4 P0.5; Tool Off

G0 Z0; move to z-safe height
G0 X2.0000 Y224.6500
M3S0
G4 P0.5; Tool On
G1 F300 Z0.0000
G1 F15000 X398.0000 Y224.6500 Z0.0000
M3S245
G4 P0.5; Tool Off

G0 Z0; move to z-safe height
G0 X398.0000 Y228.6500
M3S0
G4 P0.5; Tool On
G1 F300 Z0.0000
G1 F15000 X2.0000 Y228.6500 Z0.0000
M3S245
G4 P0.5; Tool Off

G0 Z0; move to z-safe height
G0 X2.0000 Y232.6500
M3S0
G4 P0.5; Tool On
G1 F300 Z0.0000
G1 F15000 X398.0000 Y232.6500 Z0.0000
M3S245
G4 P0.5; Tool Off

G0 Z0; move to z-safe height
G0 X398.0000 Y236.6500
M3S0
G4 P0.5; Tool On
G1 F300 Z0.0000
G1 F15000 X2.0000 Y236.6500 Z0.0000
M3S245
G4 P0.5; Tool Off

G0 Z0; move to z-safe height
G0 X2.0000 Y240.6500
M3S0
G4 P0.5; Tool On
G1 F300 Z0.0000
G1 F15000 X398.0000 Y240.6500 Z0.0000
M3S245
G4 P0.5; Tool Off

G0 Z0; move to z-safe height
G0 X398.0000 Y244.6500
M3S0
G4 P0.5; Tool On
G1 F300 Z0.0000
G1 F15000 X2.0000 Y244.6500 Z0.0000
M3S245
G4 P0.5; Tool Off

G0 Z0; move to z-safe height
G0 X2.0000 Y248.6500
M3S0
G4 P0.5; Tool On
G1 F300 Z0.0000
G1 F15000 X398.0000 Y248.6500 Z0.0000
M3S245
G4 P0.5; Tool Off

G0 Z0; move to z-safe height
G0 X398.0000 Y252.6500
M3S0
G4 P0.5; Tool On
G1 F300 Z0.0000
G1 F15000 X2.0000 Y252.6500 Z0.0000
M3S245
G4 P0.5; Tool Off

G0 Z0; move to z-safe height
G0 X2.0000 Y256.6500
M3S0
G4 P0.5; Tool On
G1 F300 Z0.0000
G1 F15000 X398.0000 Y256.6500 Z0.0000
M3S245
G4 P0.5; Tool Off

G0 Z0; move to z-safe height
G0 X398.0000 Y260.6500
M3S0
G4 P0.5; Tool On
G1 F300 Z0.0000
G1 F15000 X2.0000 Y260.6500 Z0.0000
M3S245
G4 P0.5; Tool Off

G0 Z0; move to z-safe height
G0 X2.0000 Y264.6500
M3S0
G4 P0.5; Tool On
G1 F300 Z0.0000
G1 F15000 X398.0000 Y264.6500 Z0.0000
M3S245
G4 P0.5; Tool Off

G0 Z0; move to z-safe height
G0 X398.0000 Y268.6500
M3S0
G4 P0.5; Tool On
G1 F300 Z0.0000
G1 F15000 X2.0000 Y268.6500 Z0.0000
M3S245
G4 P0.5; Tool Off

G0 Z0; move to z-safe height
G0 X2.0000 Y272.6500
M3S0
G4 P0.5; Tool On
G1 F300 Z0.0000
G1 F15000 X398.0000 Y272.6500 Z0.0000
M3S245
G4 P0.5; Tool Off

G0 Z0; move to z-safe height
G0 X398.0000 Y276.6500
M3S0
G4 P0.5; Tool On
G1 F300 Z0.0000
G1 F15000 X2.0000 Y276.6500 Z0.0000
M3S245
G4 P0.5; Tool Off

G0 Z0; move to z-safe height
G0 X2.0000 Y280.6500
M3S0
G4 P0.5; Tool On
G1 F300 Z0.0000
G1 F15000 X398.0000 Y280.6500 Z0.0000
M3S245
G4 P0.5; Tool Off

G0 Z0; move to z-safe height
G0 X398.0000 Y284.6500
M3S0
G4 P0.5; Tool On
G1 F300 Z0.0000
G1 F15000 X2.0000 Y284.6500 Z0.0000
M3S245
G4 P0.5; Tool Off

G0 Z0; move to z-safe height
G0 X2.0000 Y288.6500
M3S0
G4 P0.5; Tool On
G1 F300 Z0.0000
G1 F15000 X398.0000 Y288.6500 Z0.0000
M3S245
G4 P0.5; Tool Off

G0 Z0; move to z-safe height
G0 X398.0000 Y292.6500
M3S0
G4 P0.5; Tool On
G1 F300 Z0.0000
G1 F15000 X2.0000 Y292.6500 Z0.0000
M3S245
G4 P0.5; Tool Off

G0 Z0; move to z-safe height
G0 X2.0000 Y296.6500
M3S0
G4 P0.5; Tool On
G1 F300 Z0.0000
G1 F15000 X398.0000 Y296.6500 Z0.0000
M3S245
G4 P0.5; Tool Off

G0 Z0; move to z-safe height
G0 X398.0000 Y300.6500
M3S0
G4 P0.5; Tool On
G1 F300 Z0.0000
G1 F15000 X2.0000 Y300.6500 Z0.0000
M3S245
G4 P0.5; Tool Off

G0 Z0; move to z-safe height
G0 X2.0000 Y304.6500
M3S0
G4 P0.5; Tool On
G1 F300 Z0.0000
G1 F15000 X398.0000 Y304.6500 Z0.0000
M3S245
G4 P0.5; Tool Off

G0 Z0; move to z-safe height
G0 X398.0000 Y308.6500
M3S0
G4 P0.5; Tool On
G1 F300 Z0.0000
G1 F15000 X2.0000 Y308.6500 Z0.0000
M3S245
G4 P0.5; Tool Off

G0 Z0; move to z-safe height
G0 X2.0000 Y312.6500
M3S0
G4 P0.5; Tool On
G1 F300 Z0.0000
G1 F15000 X398.0000 Y312.6500 Z0.0000
M3S245
G4 P0.5; Tool Off

G0 Z0; move to z-safe height
G0 X398.0000 Y316.6500
M3S0
G4 P0.5; Tool On
G1 F300 Z0.0000
G1 F15000 X2.0000 Y316.6500 Z0.0000
M3S245
G4 P0.5; Tool Off

G0 Z0; move to z-safe height
G0 X2.0000 Y320.6500
M3S0
G4 P0.5; Tool On
G1 F300 Z0.0000
G1 F15000 X398.0000 Y320.6500 Z0.0000
M3S245
G4 P0.5; Tool Off

G0 Z0; move to z-safe height
G0 X398.0000 Y324.6500
M3S0
G4 P0.5; Tool On
G1 F300 Z0.0000
G1 F15000 X2.0000 Y324.6500 Z0.0000
M3S245
G4 P0.5; Tool Off

G0 Z0; move to z-safe height
G0 X2.0000 Y328.6500
M3S0
G4 P0.5; Tool On
G1 F300 Z0.0000
G1 F15000 X398.0000 Y328.6500 Z0.0000
M3S245
G4 P0.5; Tool Off

G0 Z0; move to z-safe height
G0 X398.0000 Y332.6500
M3S0
G4 P0.5; Tool On
G1 F300 Z0.0000
G1 F15000 X2.0000 Y332.6500 Z0.0000
M3S245
G4 P0.5; Tool Off

G0 Z0; move to z-safe height
G0 X2.0000 Y336.6500
M3S0
G4 P0.5; Tool On
G1 F300 Z0.0000
G1 F15000 X398.0000 Y336.6500 Z0.0000
M3S245
G4 P0.5; Tool Off

G0 Z0; move to z-safe height
G0 X398.0000 Y340.6500
M3S0
G4 P0.5; Tool On
G1 F300 Z0.0000
G1 F15000 X2.0000 Y340.6500 Z0.0000
M3S245
G4 P0.5; Tool Off

G0 Z0; move to z-safe height
G0 X2.0000 Y344.6500
M3S0
G4 P0.5; Tool On
G1 F300 Z0.0000
G1 F15000 X398.0000 Y344.6500 Z0.0000
M3S245
G4 P0.5; Tool Off

G0 Z0; move to z-safe height
G0 X398.0000 Y348.6500
M3S0
G4 P0.5; Tool On
G1 F300 Z0.0000
G1 F15000 X2.0000 Y348.6500 Z0.0000
M3S245
G4 P0.5; Tool Off

G0 Z0; move to z-safe height
G0 X2.0000 Y352.6500
M3S0
G4 P0.5; Tool On
G1 F300 Z0.0000
G1 F15000 X398.0000 Y352.6500 Z0.0000
M3S245
G4 P0.5; Tool Off

G0 Z0; move to z-safe height
G0 X398.0000 Y356.6500
M3S0
G4 P0.5; Tool On
G1 F300 Z0.0000
G1 F15000 X2.0000 Y356.6500 Z0.0000
M3S245
G4 P0.5; Tool Off

G0 Z0; move to z-safe height
G0 X2.0000 Y360.6500
M3S0
G4 P0.5; Tool On
G1 F300 Z0.0000
G1 F15000 X398.0000 Y360.6500 Z0.0000
M3S245
G4 P0.5; Tool Off

G0 Z0; move to z-safe height
G0 X398.0000 Y364.6500
M3S0
G4 P0.5; Tool On
G1 F300 Z0.0000
G1 F15000 X2.0000 Y364.6500 Z0.0000
M3S245
G4 P0.5; Tool Off

G0 Z0; move to z-safe height
G0 X2.0000 Y368.6500
M3S0
G4 P0.5; Tool On
G1 F300 Z0.0000
G1 F15000 X398.0000 Y368.6500 Z0.0000
M3S245
G4 P0.5; Tool Off

G0 Z0; move to z-safe height
G0 X398.0000 Y372.6500
M3S0
G4 P0.5; Tool On
G1 F300 Z0.0000
G1 F15000 X2.0000 Y372.6500 Z0.0000
M3S245
G4 P0.5; Tool Off

G0 Z0; move to z-safe height
G0 X2.0000 Y376.6500
M3S0
G4 P0.5; Tool On
G1 F300 Z0.0000
G1 F15000 X398.0000 Y376.6500 Z0.0000
M3S245
G4 P0.5; Tool Off

G0 Z0; move to z-safe height
G0 X398.0000 Y380.6500
M3S0
G4 P0.5; Tool On
G1 F300 Z0.0000
G1 F15000 X2.0000 Y380.6500 Z0.0000
M3S245
G4 P0.5; Tool Off

G0 Z0; move to z-safe height
G0 X2.0000 Y384.6500
M3S0
G4 P0.5; Tool On
G1 F300 Z0.0000
G1 F15000 X398.0000 Y384.6500 Z0.0000
M3S245
G4 P0.5; Tool Off

G0 Z0; move to z-safe height
G0 X398.0000 Y388.6500
M3S0
G4 P0.5; Tool On
G1 F300 Z0.0000
G1 F15000 X2.0000 Y388.6500 Z0.0000
M3S245
G4 P0.5; Tool Off

G0 Z0; move to z-safe height
G0 X2.0000 Y392.6500
M3S0
G4 P0.5; Tool On
G1 F300 Z0.0000
G1 F15000 X398.0000 Y392.6500 Z0.0000
M3S245
G4 P0.5; Tool Off

G0 Z0; move to z-safe height
G0 X398.0000 Y396.6500
M3S0
G4 P0.5; Tool On
G1 F300 Z0.0000
G1 F15000 X2.0000 Y396.6500 Z0.0000
M3S245
G4 P0.5; Tool Off

G0 Z0; move to z-safe height
G0 X2.0000 Y400.6500
M3S0
G4 P0.5; Tool On
G1 F300 Z0.0000
G1 F15000 X398.0000 Y400.6500 Z0.0000
M3S245
G4 P0.5; Tool Off

G0 Z0; move to z-safe height
G0 X398.0000 Y404.6500
M3S0
G4 P0.5; Tool On
G1 F300 Z0.0000
G1 F15000 X2.0000 Y404.6500 Z0.0000
M3S245
G4 P0.5; Tool Off

G0 Z0; move to z-safe height
G0 X2.0000 Y408.6500
M3S0
G4 P0.5; Tool On
G1 F300 Z0.0000
G1 F15000 X398.0000 Y408.6500 Z0.0000
M3S245
G4 P0.5; Tool Off

G0 Z0; move to z-safe height
G0 X398.0000 Y412.6500
M3S0
G4 P0.5; Tool On
G1 F300 Z0.0000
G1 F15000 X2.0000 Y412.6500 Z0.0000
M3S245
G4 P0.5; Tool Off

G0 Z0; move to z-safe height
G0 X2.0000 Y416.6500
M3S0
G4 P0.5; Tool On
G1 F300 Z0.0000
G1 F15000 X398.0000 Y416.6500 Z0.0000
M3S245
G4 P0.5; Tool Off

G0 Z0; move to z-safe height
G0 X398.0000 Y420.6500
M3S0
G4 P0.5; Tool On
G1 F300 Z0.0000
G1 F15000 X2.0000 Y420.6500 Z0.0000
M3S245
G4 P0.5; Tool Off

G0 Z0; move to z-safe height
G0 X2.0000 Y424.6500
M3S0
G4 P0.5; Tool On
G1 F300 Z0.0000
G1 F15000 X398.0000 Y424.6500 Z0.0000
M3S245
G4 P0.5; Tool Off

G0 Z0; move to z-safe height
G0 X398.0000 Y428.6500
M3S0
G4 P0.5; Tool On
G1 F300 Z0.0000
G1 F15000 X2.0000 Y428.6500 Z0.0000
M3S245
G4 P0.5; Tool Off

G0 Z0; move to z-safe height
G0 X2.0000 Y432.6500
M3S0
G4 P0.5; Tool On
G1 F300 Z0.0000
G1 F15000 X398.0000 Y432.6500 Z0.0000
M3S245
G4 P0.5; Tool Off

G0 Z0; move to z-safe height
G0 X398.0000 Y436.6500
M3S0
G4 P0.5; Tool On
G1 F300 Z0.0000
G1 F15000 X2.0000 Y436.6500 Z0.0000
M3S245
G4 P0.5; Tool Off

G0 Z0; move to z-safe height
G0 X2.0000 Y440.6500
M3S0
G4 P0.5; Tool On
G1 F300 Z0.0000
G1 F15000 X398.0000 Y440.6500 Z0.0000
M3S245
G4 P0.5; Tool Off

G0 Z0; move to z-safe height
G0 X398.0000 Y444.6500
M3S0
G4 P0.5; Tool On
G1 F300 Z0.0000
G1 F15000 X2.0000 Y444.6500 Z0.0000
M3S245
G4 P0.5; Tool Off

G0 Z0; move to z-safe height
G0 X2.0000 Y448.6500
M3S0
G4 P0.5; Tool On
G1 F300 Z0.0000
G1 F15000 X398.0000 Y448.6500 Z0.0000
M3S245
G4 P0.5; Tool Off

G0 Z0; move to z-safe height
G0 X398.0000 Y452.6500
M3S0
G4 P0.5; Tool On
G1 F300 Z0.0000
G1 F15000 X2.0000 Y452.6500 Z0.0000
M3S245
G4 P0.5; Tool Off

G0 Z0; move to z-safe height
G0 X2.0000 Y456.6500
M3S0
G4 P0.5; Tool On
G1 F300 Z0.0000
G1 F15000 X398.0000 Y456.6500 Z0.0000
M3S245
G4 P0.5; Tool Off

G0 Z0; move to z-safe height
G0 X398.0000 Y460.6500
M3S0
G4 P0.5; Tool On
G1 F300 Z0.0000
G1 F15000 X2.0000 Y460.6500 Z0.0000
M3S245
G4 P0.5; Tool Off

G0 Z0; move to z-safe height
G0 X2.0000 Y464.6500
M3S0
G4 P0.5; Tool On
G1 F300 Z0.0000
G1 F15000 X398.0000 Y464.6500 Z0.0000
M3S245
G4 P0.5; Tool Off

G0 Z0; move to z-safe height
G0 X398.0000 Y468.6500
M3S0
G4 P0.5; Tool On
G1 F300 Z0.0000
G1 F15000 X2.0000 Y468.6500 Z0.0000
M3S245
G4 P0.5; Tool Off

G0 Z0; move to z-safe height
G0 X2.0000 Y472.6500
M3S0
G4 P0.5; Tool On
G1 F300 Z0.0000
G1 F15000 X398.0000 Y472.6500 Z0.0000
M3S245
G4 P0.5; Tool Off

G0 Z0; move to z-safe height
G0 X398.0000 Y476.6500
M3S0
G4 P0.5; Tool On
G1 F300 Z0.0000
G1 F15000 X2.0000 Y476.6500 Z0.0000
M3S245
G4 P0.5; Tool Off

G0 Z0; move to z-safe height
G0 X2.0000 Y480.6500
M3S0
G4 P0.5; Tool On
G1 F300 Z0.0000
G1 F15000 X398.0000 Y480.6500 Z0.0000
M3S245
G4 P0.5; Tool Off

G0 Z0; move to z-safe height
G0 X398.0000 Y484.6500
M3S0
G4 P0.5; Tool On
G1 F300 Z0.0000
G1 F15000 X2.0000 Y484.6500 Z0.0000
M3S245
G4 P0.5; Tool Off

G0 Z0; move to z-safe height
G0 X2.0000 Y488.6500
M3S0
G4 P0.5; Tool On
G1 F300 Z0.0000
G1 F15000 X398.0000 Y488.6500 Z0.0000
M3S245
G4 P0.5; Tool Off

G0 Z0; move to z-safe height
G0 X398.0000 Y492.6500
M3S0
G4 P0.5; Tool On
G1 F300 Z0.0000
G1 F15000 X2.0000 Y492.6500 Z0.0000
M3S245
G4 P0.5; Tool Off

G0 Z0; move to z-safe height
G0 X2.0000 Y496.6500
M3S0
G4 P0.5; Tool On
G1 F300 Z0.0000
G1 F15000 X398.0000 Y496.6500 Z0.0000
M3S245
G4 P0.5; Tool Off
; retracting back to z-safe
G0 Z0

; Plotter Mode Complete
