; GCODE Generated by cam.openbuilds.com on 2023-11-01 
G21 ; mm-mode
G54; Work Coordinates
G21; mm-mode
G90; Absolute Positioning
; Plotter Mode Active

; Operation 0: Pen Plotter: (lines fill)
; Pen Diameter: 2

G0 Z0; move to z-safe height
G0 F1000 X394.0000 Y10.2800
M3S0
G4 P0.5; Tool On
G1 F300 Z0.0000
G1 F15000 X6.0000 Y10.2800 Z0.0000
M3S245
G4 P0.5; Tool Off

G0 Z0; move to z-safe height
G0 X6.0000 Y22.2800
M3S0
G4 P0.5; Tool On
G1 F300 Z0.0000
G1 F15000 X394.0000 Y22.2800 Z0.0000
M3S245
G4 P0.5; Tool Off

G0 Z0; move to z-safe height
G0 X394.0000 Y34.2800
M3S0
G4 P0.5; Tool On
G1 F300 Z0.0000
G1 F15000 X6.0000 Y34.2800 Z0.0000
M3S245
G4 P0.5; Tool Off

G0 Z0; move to z-safe height
G0 X6.0000 Y46.2800
M3S0
G4 P0.5; Tool On
G1 F300 Z0.0000
G1 F15000 X394.0000 Y46.2800 Z0.0000
M3S245
G4 P0.5; Tool Off

G0 Z0; move to z-safe height
G0 X394.0000 Y58.2800
M3S0
G4 P0.5; Tool On
G1 F300 Z0.0000
G1 F15000 X6.0000 Y58.2800 Z0.0000
M3S245
G4 P0.5; Tool Off

G0 Z0; move to z-safe height
G0 X6.0000 Y70.2800
M3S0
G4 P0.5; Tool On
G1 F300 Z0.0000
G1 F15000 X394.0000 Y70.2800 Z0.0000
M3S245
G4 P0.5; Tool Off

G0 Z0; move to z-safe height
G0 X394.0000 Y82.2800
M3S0
G4 P0.5; Tool On
G1 F300 Z0.0000
G1 F15000 X6.0000 Y82.2800 Z0.0000
M3S245
G4 P0.5; Tool Off

G0 Z0; move to z-safe height
G0 X6.0000 Y94.2800
M3S0
G4 P0.5; Tool On
G1 F300 Z0.0000
G1 F15000 X394.0000 Y94.2800 Z0.0000
M3S245
G4 P0.5; Tool Off

G0 Z0; move to z-safe height
G0 X394.0000 Y106.2800
M3S0
G4 P0.5; Tool On
G1 F300 Z0.0000
G1 F15000 X6.0000 Y106.2800 Z0.0000
M3S245
G4 P0.5; Tool Off

G0 Z0; move to z-safe height
G0 X6.0000 Y118.2800
M3S0
G4 P0.5; Tool On
G1 F300 Z0.0000
G1 F15000 X394.0000 Y118.2800 Z0.0000
M3S245
G4 P0.5; Tool Off

G0 Z0; move to z-safe height
G0 X394.0000 Y130.2800
M3S0
G4 P0.5; Tool On
G1 F300 Z0.0000
G1 F15000 X6.0000 Y130.2800 Z0.0000
M3S245
G4 P0.5; Tool Off

G0 Z0; move to z-safe height
G0 X6.0000 Y142.2800
M3S0
G4 P0.5; Tool On
G1 F300 Z0.0000
G1 F15000 X394.0000 Y142.2800 Z0.0000
M3S245
G4 P0.5; Tool Off

G0 Z0; move to z-safe height
G0 X394.0000 Y154.2800
M3S0
G4 P0.5; Tool On
G1 F300 Z0.0000
G1 F15000 X6.0000 Y154.2800 Z0.0000
M3S245
G4 P0.5; Tool Off

G0 Z0; move to z-safe height
G0 X6.0000 Y166.2800
M3S0
G4 P0.5; Tool On
G1 F300 Z0.0000
G1 F15000 X394.0000 Y166.2800 Z0.0000
M3S245
G4 P0.5; Tool Off

G0 Z0; move to z-safe height
G0 X394.0000 Y178.2800
M3S0
G4 P0.5; Tool On
G1 F300 Z0.0000
G1 F15000 X6.0000 Y178.2800 Z0.0000
M3S245
G4 P0.5; Tool Off

G0 Z0; move to z-safe height
G0 X6.0000 Y190.2800
M3S0
G4 P0.5; Tool On
G1 F300 Z0.0000
G1 F15000 X394.0000 Y190.2800 Z0.0000
M3S245
G4 P0.5; Tool Off

G0 Z0; move to z-safe height
G0 X394.0000 Y202.2800
M3S0
G4 P0.5; Tool On
G1 F300 Z0.0000
G1 F15000 X6.0000 Y202.2800 Z0.0000
M3S245
G4 P0.5; Tool Off

G0 Z0; move to z-safe height
G0 X6.0000 Y214.2800
M3S0
G4 P0.5; Tool On
G1 F300 Z0.0000
G1 F15000 X394.0000 Y214.2800 Z0.0000
M3S245
G4 P0.5; Tool Off

G0 Z0; move to z-safe height
G0 X394.0000 Y226.2800
M3S0
G4 P0.5; Tool On
G1 F300 Z0.0000
G1 F15000 X6.0000 Y226.2800 Z0.0000
M3S245
G4 P0.5; Tool Off

G0 Z0; move to z-safe height
G0 X6.0000 Y238.2800
M3S0
G4 P0.5; Tool On
G1 F300 Z0.0000
G1 F15000 X394.0000 Y238.2800 Z0.0000
M3S245
G4 P0.5; Tool Off

G0 Z0; move to z-safe height
G0 X394.0000 Y250.2800
M3S0
G4 P0.5; Tool On
G1 F300 Z0.0000
G1 F15000 X6.0000 Y250.2800 Z0.0000
M3S245
G4 P0.5; Tool Off

G0 Z0; move to z-safe height
G0 X6.0000 Y262.2800
M3S0
G4 P0.5; Tool On
G1 F300 Z0.0000
G1 F15000 X394.0000 Y262.2800 Z0.0000
M3S245
G4 P0.5; Tool Off

G0 Z0; move to z-safe height
G0 X394.0000 Y274.2800
M3S0
G4 P0.5; Tool On
G1 F300 Z0.0000
G1 F15000 X6.0000 Y274.2800 Z0.0000
M3S245
G4 P0.5; Tool Off

G0 Z0; move to z-safe height
G0 X6.0000 Y286.2800
M3S0
G4 P0.5; Tool On
G1 F300 Z0.0000
G1 F15000 X394.0000 Y286.2800 Z0.0000
M3S245
G4 P0.5; Tool Off

G0 Z0; move to z-safe height
G0 X394.0000 Y298.2800
M3S0
G4 P0.5; Tool On
G1 F300 Z0.0000
G1 F15000 X6.0000 Y298.2800 Z0.0000
M3S245
G4 P0.5; Tool Off

G0 Z0; move to z-safe height
G0 X6.0000 Y310.2800
M3S0
G4 P0.5; Tool On
G1 F300 Z0.0000
G1 F15000 X394.0000 Y310.2800 Z0.0000
M3S245
G4 P0.5; Tool Off

G0 Z0; move to z-safe height
G0 X394.0000 Y322.2800
M3S0
G4 P0.5; Tool On
G1 F300 Z0.0000
G1 F15000 X6.0000 Y322.2800 Z0.0000
M3S245
G4 P0.5; Tool Off

G0 Z0; move to z-safe height
G0 X6.0000 Y334.2800
M3S0
G4 P0.5; Tool On
G1 F300 Z0.0000
G1 F15000 X394.0000 Y334.2800 Z0.0000
M3S245
G4 P0.5; Tool Off

G0 Z0; move to z-safe height
G0 X394.0000 Y346.2800
M3S0
G4 P0.5; Tool On
G1 F300 Z0.0000
G1 F15000 X6.0000 Y346.2800 Z0.0000
M3S245
G4 P0.5; Tool Off

G0 Z0; move to z-safe height
G0 X6.0000 Y358.2800
M3S0
G4 P0.5; Tool On
G1 F300 Z0.0000
G1 F15000 X394.0000 Y358.2800 Z0.0000
M3S245
G4 P0.5; Tool Off

G0 Z0; move to z-safe height
G0 X394.0000 Y370.2800
M3S0
G4 P0.5; Tool On
G1 F300 Z0.0000
G1 F15000 X6.0000 Y370.2800 Z0.0000
M3S245
G4 P0.5; Tool Off

G0 Z0; move to z-safe height
G0 X6.0000 Y382.2800
M3S0
G4 P0.5; Tool On
G1 F300 Z0.0000
G1 F15000 X394.0000 Y382.2800 Z0.0000
M3S245
G4 P0.5; Tool Off

G0 Z0; move to z-safe height
G0 X394.0000 Y394.2800
M3S0
G4 P0.5; Tool On
G1 F300 Z0.0000
G1 F15000 X6.0000 Y394.2800 Z0.0000
M3S245
G4 P0.5; Tool Off

G0 Z0; move to z-safe height
G0 X6.0000 Y406.2800
M3S0
G4 P0.5; Tool On
G1 F300 Z0.0000
G1 F15000 X394.0000 Y406.2800 Z0.0000
M3S245
G4 P0.5; Tool Off

G0 Z0; move to z-safe height
G0 X394.0000 Y418.2800
M3S0
G4 P0.5; Tool On
G1 F300 Z0.0000
G1 F15000 X6.0000 Y418.2800 Z0.0000
M3S245
G4 P0.5; Tool Off

G0 Z0; move to z-safe height
G0 X6.0000 Y430.2800
M3S0
G4 P0.5; Tool On
G1 F300 Z0.0000
G1 F15000 X394.0000 Y430.2800 Z0.0000
M3S245
G4 P0.5; Tool Off

G0 Z0; move to z-safe height
G0 X394.0000 Y442.2800
M3S0
G4 P0.5; Tool On
G1 F300 Z0.0000
G1 F15000 X6.0000 Y442.2800 Z0.0000
M3S245
G4 P0.5; Tool Off

G0 Z0; move to z-safe height
G0 X6.0000 Y454.2800
M3S0
G4 P0.5; Tool On
G1 F300 Z0.0000
G1 F15000 X394.0000 Y454.2800 Z0.0000
M3S245
G4 P0.5; Tool Off

G0 Z0; move to z-safe height
G0 X394.0000 Y466.2800
M3S0
G4 P0.5; Tool On
G1 F300 Z0.0000
G1 F15000 X6.0000 Y466.2800 Z0.0000
M3S245
G4 P0.5; Tool Off

G0 Z0; move to z-safe height
G0 X6.0000 Y478.2800
M3S0
G4 P0.5; Tool On
G1 F300 Z0.0000
G1 F15000 X394.0000 Y478.2800 Z0.0000
M3S245
G4 P0.5; Tool Off

G0 Z0; move to z-safe height
G0 X394.0000 Y490.2800
M3S0
G4 P0.5; Tool On
G1 F300 Z0.0000
G1 F15000 X6.0000 Y490.2800 Z0.0000
M3S245
G4 P0.5; Tool Off
; retracting back to z-safe
G0 Z0

; Plotter Mode Complete
