; GCODE Generated by cam.openbuilds.com on 2023-03-28 
G21 ; mm-mode
G54; Work Coordinates
G21; mm-mode
G90; Absolute Positioning
; Plotter Mode Active

; Operation 0: Pen Plotter: (lines fill)
; Pen Diameter: 2

G0 Z0; move to z-safe height
G0 F1000 X352.0000 Y8.8300
M3S0
G4 P0.5; Tool On
G1 F300 Z0.0000
G1 F15000 X3.0000 Y8.8300 Z0.0000
M3S245
G4 P0.5; Tool Off

G0 Z0; move to z-safe height
G0 X3.0000 Y14.8300
M3S0
G4 P0.5; Tool On
G1 F300 Z0.0000
G1 F15000 X352.0000 Y14.8300 Z0.0000
M3S245
G4 P0.5; Tool Off

G0 Z0; move to z-safe height
G0 X352.0000 Y20.8300
M3S0
G4 P0.5; Tool On
G1 F300 Z0.0000
G1 F15000 X3.0000 Y20.8300 Z0.0000
M3S245
G4 P0.5; Tool Off

G0 Z0; move to z-safe height
G0 X3.0000 Y26.8300
M3S0
G4 P0.5; Tool On
G1 F300 Z0.0000
G1 F15000 X352.0000 Y26.8300 Z0.0000
M3S245
G4 P0.5; Tool Off

G0 Z0; move to z-safe height
G0 X352.0000 Y32.8300
M3S0
G4 P0.5; Tool On
G1 F300 Z0.0000
G1 F15000 X3.0000 Y32.8300 Z0.0000
M3S245
G4 P0.5; Tool Off

G0 Z0; move to z-safe height
G0 X3.0000 Y38.8300
M3S0
G4 P0.5; Tool On
G1 F300 Z0.0000
G1 F15000 X352.0000 Y38.8300 Z0.0000
M3S245
G4 P0.5; Tool Off

G0 Z0; move to z-safe height
G0 X352.0000 Y44.8300
M3S0
G4 P0.5; Tool On
G1 F300 Z0.0000
G1 F15000 X3.0000 Y44.8300 Z0.0000
M3S245
G4 P0.5; Tool Off

G0 Z0; move to z-safe height
G0 X3.0000 Y50.8300
M3S0
G4 P0.5; Tool On
G1 F300 Z0.0000
G1 F15000 X352.0000 Y50.8300 Z0.0000
M3S245
G4 P0.5; Tool Off

G0 Z0; move to z-safe height
G0 X352.0000 Y56.8300
M3S0
G4 P0.5; Tool On
G1 F300 Z0.0000
G1 F15000 X3.0000 Y56.8300 Z0.0000
M3S245
G4 P0.5; Tool Off

G0 Z0; move to z-safe height
G0 X3.0000 Y62.8300
M3S0
G4 P0.5; Tool On
G1 F300 Z0.0000
G1 F15000 X352.0000 Y62.8300 Z0.0000
M3S245
G4 P0.5; Tool Off

G0 Z0; move to z-safe height
G0 X352.0000 Y68.8300
M3S0
G4 P0.5; Tool On
G1 F300 Z0.0000
G1 F15000 X3.0000 Y68.8300 Z0.0000
M3S245
G4 P0.5; Tool Off

G0 Z0; move to z-safe height
G0 X3.0000 Y74.8300
M3S0
G4 P0.5; Tool On
G1 F300 Z0.0000
G1 F15000 X352.0000 Y74.8300 Z0.0000
M3S245
G4 P0.5; Tool Off

G0 Z0; move to z-safe height
G0 X352.0000 Y80.8300
M3S0
G4 P0.5; Tool On
G1 F300 Z0.0000
G1 F15000 X3.0000 Y80.8300 Z0.0000
M3S245
G4 P0.5; Tool Off

G0 Z0; move to z-safe height
G0 X3.0000 Y86.8300
M3S0
G4 P0.5; Tool On
G1 F300 Z0.0000
G1 F15000 X352.0000 Y86.8300 Z0.0000
M3S245
G4 P0.5; Tool Off

G0 Z0; move to z-safe height
G0 X352.0000 Y92.8300
M3S0
G4 P0.5; Tool On
G1 F300 Z0.0000
G1 F15000 X3.0000 Y92.8300 Z0.0000
M3S245
G4 P0.5; Tool Off

G0 Z0; move to z-safe height
G0 X3.0000 Y98.8300
M3S0
G4 P0.5; Tool On
G1 F300 Z0.0000
G1 F15000 X352.0000 Y98.8300 Z0.0000
M3S245
G4 P0.5; Tool Off

G0 Z0; move to z-safe height
G0 X352.0000 Y104.8300
M3S0
G4 P0.5; Tool On
G1 F300 Z0.0000
G1 F15000 X3.0000 Y104.8300 Z0.0000
M3S245
G4 P0.5; Tool Off

G0 Z0; move to z-safe height
G0 X3.0000 Y110.8300
M3S0
G4 P0.5; Tool On
G1 F300 Z0.0000
G1 F15000 X352.0000 Y110.8300 Z0.0000
M3S245
G4 P0.5; Tool Off

G0 Z0; move to z-safe height
G0 X352.0000 Y116.8300
M3S0
G4 P0.5; Tool On
G1 F300 Z0.0000
G1 F15000 X3.0000 Y116.8300 Z0.0000
M3S245
G4 P0.5; Tool Off

G0 Z0; move to z-safe height
G0 X3.0000 Y122.8300
M3S0
G4 P0.5; Tool On
G1 F300 Z0.0000
G1 F15000 X352.0000 Y122.8300 Z0.0000
M3S245
G4 P0.5; Tool Off

G0 Z0; move to z-safe height
G0 X352.0000 Y128.8300
M3S0
G4 P0.5; Tool On
G1 F300 Z0.0000
G1 F15000 X3.0000 Y128.8300 Z0.0000
M3S245
G4 P0.5; Tool Off

G0 Z0; move to z-safe height
G0 X3.0000 Y134.8300
M3S0
G4 P0.5; Tool On
G1 F300 Z0.0000
G1 F15000 X352.0000 Y134.8300 Z0.0000
M3S245
G4 P0.5; Tool Off

G0 Z0; move to z-safe height
G0 X352.0000 Y140.8300
M3S0
G4 P0.5; Tool On
G1 F300 Z0.0000
G1 F15000 X3.0000 Y140.8300 Z0.0000
M3S245
G4 P0.5; Tool Off

G0 Z0; move to z-safe height
G0 X3.0000 Y146.8300
M3S0
G4 P0.5; Tool On
G1 F300 Z0.0000
G1 F15000 X352.0000 Y146.8300 Z0.0000
M3S245
G4 P0.5; Tool Off

G0 Z0; move to z-safe height
G0 X352.0000 Y152.8300
M3S0
G4 P0.5; Tool On
G1 F300 Z0.0000
G1 F15000 X3.0000 Y152.8300 Z0.0000
M3S245
G4 P0.5; Tool Off

G0 Z0; move to z-safe height
G0 X3.0000 Y158.8300
M3S0
G4 P0.5; Tool On
G1 F300 Z0.0000
G1 F15000 X352.0000 Y158.8300 Z0.0000
M3S245
G4 P0.5; Tool Off

G0 Z0; move to z-safe height
G0 X352.0000 Y164.8300
M3S0
G4 P0.5; Tool On
G1 F300 Z0.0000
G1 F15000 X3.0000 Y164.8300 Z0.0000
M3S245
G4 P0.5; Tool Off

G0 Z0; move to z-safe height
G0 X3.0000 Y170.8300
M3S0
G4 P0.5; Tool On
G1 F300 Z0.0000
G1 F15000 X352.0000 Y170.8300 Z0.0000
M3S245
G4 P0.5; Tool Off

G0 Z0; move to z-safe height
G0 X352.0000 Y176.8300
M3S0
G4 P0.5; Tool On
G1 F300 Z0.0000
G1 F15000 X3.0000 Y176.8300 Z0.0000
M3S245
G4 P0.5; Tool Off

G0 Z0; move to z-safe height
G0 X3.0000 Y182.8300
M3S0
G4 P0.5; Tool On
G1 F300 Z0.0000
G1 F15000 X352.0000 Y182.8300 Z0.0000
M3S245
G4 P0.5; Tool Off

G0 Z0; move to z-safe height
G0 X352.0000 Y188.8300
M3S0
G4 P0.5; Tool On
G1 F300 Z0.0000
G1 F15000 X3.0000 Y188.8300 Z0.0000
M3S245
G4 P0.5; Tool Off

G0 Z0; move to z-safe height
G0 X3.0000 Y194.8300
M3S0
G4 P0.5; Tool On
G1 F300 Z0.0000
G1 F15000 X352.0000 Y194.8300 Z0.0000
M3S245
G4 P0.5; Tool Off

G0 Z0; move to z-safe height
G0 X352.0000 Y200.8300
M3S0
G4 P0.5; Tool On
G1 F300 Z0.0000
G1 F15000 X3.0000 Y200.8300 Z0.0000
M3S245
G4 P0.5; Tool Off

G0 Z0; move to z-safe height
G0 X3.0000 Y206.8300
M3S0
G4 P0.5; Tool On
G1 F300 Z0.0000
G1 F15000 X352.0000 Y206.8300 Z0.0000
M3S245
G4 P0.5; Tool Off

G0 Z0; move to z-safe height
G0 X352.0000 Y212.8300
M3S0
G4 P0.5; Tool On
G1 F300 Z0.0000
G1 F15000 X3.0000 Y212.8300 Z0.0000
M3S245
G4 P0.5; Tool Off

G0 Z0; move to z-safe height
G0 X3.0000 Y218.8300
M3S0
G4 P0.5; Tool On
G1 F300 Z0.0000
G1 F15000 X352.0000 Y218.8300 Z0.0000
M3S245
G4 P0.5; Tool Off

G0 Z0; move to z-safe height
G0 X352.0000 Y224.8300
M3S0
G4 P0.5; Tool On
G1 F300 Z0.0000
G1 F15000 X3.0000 Y224.8300 Z0.0000
M3S245
G4 P0.5; Tool Off

G0 Z0; move to z-safe height
G0 X3.0000 Y230.8300
M3S0
G4 P0.5; Tool On
G1 F300 Z0.0000
G1 F15000 X352.0000 Y230.8300 Z0.0000
M3S245
G4 P0.5; Tool Off

G0 Z0; move to z-safe height
G0 X352.0000 Y236.8300
M3S0
G4 P0.5; Tool On
G1 F300 Z0.0000
G1 F15000 X3.0000 Y236.8300 Z0.0000
M3S245
G4 P0.5; Tool Off

G0 Z0; move to z-safe height
G0 X3.0000 Y242.8300
M3S0
G4 P0.5; Tool On
G1 F300 Z0.0000
G1 F15000 X352.0000 Y242.8300 Z0.0000
M3S245
G4 P0.5; Tool Off

G0 Z0; move to z-safe height
G0 X352.0000 Y248.8300
M3S0
G4 P0.5; Tool On
G1 F300 Z0.0000
G1 F15000 X3.0000 Y248.8300 Z0.0000
M3S245
G4 P0.5; Tool Off

G0 Z0; move to z-safe height
G0 X3.0000 Y254.8300
M3S0
G4 P0.5; Tool On
G1 F300 Z0.0000
G1 F15000 X352.0000 Y254.8300 Z0.0000
M3S245
G4 P0.5; Tool Off

G0 Z0; move to z-safe height
G0 X352.0000 Y260.8300
M3S0
G4 P0.5; Tool On
G1 F300 Z0.0000
G1 F15000 X3.0000 Y260.8300 Z0.0000
M3S245
G4 P0.5; Tool Off

G0 Z0; move to z-safe height
G0 X3.0000 Y266.8300
M3S0
G4 P0.5; Tool On
G1 F300 Z0.0000
G1 F15000 X352.0000 Y266.8300 Z0.0000
M3S245
G4 P0.5; Tool Off

G0 Z0; move to z-safe height
G0 X352.0000 Y272.8300
M3S0
G4 P0.5; Tool On
G1 F300 Z0.0000
G1 F15000 X3.0000 Y272.8300 Z0.0000
M3S245
G4 P0.5; Tool Off

G0 Z0; move to z-safe height
G0 X3.0000 Y278.8300
M3S0
G4 P0.5; Tool On
G1 F300 Z0.0000
G1 F15000 X352.0000 Y278.8300 Z0.0000
M3S245
G4 P0.5; Tool Off

G0 Z0; move to z-safe height
G0 X352.0000 Y284.8300
M3S0
G4 P0.5; Tool On
G1 F300 Z0.0000
G1 F15000 X3.0000 Y284.8300 Z0.0000
M3S245
G4 P0.5; Tool Off

G0 Z0; move to z-safe height
G0 X3.0000 Y290.8300
M3S0
G4 P0.5; Tool On
G1 F300 Z0.0000
G1 F15000 X352.0000 Y290.8300 Z0.0000
M3S245
G4 P0.5; Tool Off

G0 Z0; move to z-safe height
G0 X352.0000 Y296.8300
M3S0
G4 P0.5; Tool On
G1 F300 Z0.0000
G1 F15000 X3.0000 Y296.8300 Z0.0000
M3S245
G4 P0.5; Tool Off

G0 Z0; move to z-safe height
G0 X3.0000 Y302.8300
M3S0
G4 P0.5; Tool On
G1 F300 Z0.0000
G1 F15000 X352.0000 Y302.8300 Z0.0000
M3S245
G4 P0.5; Tool Off

G0 Z0; move to z-safe height
G0 X352.0000 Y308.8300
M3S0
G4 P0.5; Tool On
G1 F300 Z0.0000
G1 F15000 X3.0000 Y308.8300 Z0.0000
M3S245
G4 P0.5; Tool Off

G0 Z0; move to z-safe height
G0 X3.0000 Y314.8300
M3S0
G4 P0.5; Tool On
G1 F300 Z0.0000
G1 F15000 X352.0000 Y314.8300 Z0.0000
M3S245
G4 P0.5; Tool Off

G0 Z0; move to z-safe height
G0 X352.0000 Y320.8300
M3S0
G4 P0.5; Tool On
G1 F300 Z0.0000
G1 F15000 X3.0000 Y320.8300 Z0.0000
M3S245
G4 P0.5; Tool Off

G0 Z0; move to z-safe height
G0 X3.0000 Y326.8300
M3S0
G4 P0.5; Tool On
G1 F300 Z0.0000
G1 F15000 X352.0000 Y326.8300 Z0.0000
M3S245
G4 P0.5; Tool Off

G0 Z0; move to z-safe height
G0 X352.0000 Y332.8300
M3S0
G4 P0.5; Tool On
G1 F300 Z0.0000
G1 F15000 X3.0000 Y332.8300 Z0.0000
M3S245
G4 P0.5; Tool Off

G0 Z0; move to z-safe height
G0 X3.0000 Y338.8300
M3S0
G4 P0.5; Tool On
G1 F300 Z0.0000
G1 F15000 X352.0000 Y338.8300 Z0.0000
M3S245
G4 P0.5; Tool Off

G0 Z0; move to z-safe height
G0 X352.0000 Y344.8300
M3S0
G4 P0.5; Tool On
G1 F300 Z0.0000
G1 F15000 X3.0000 Y344.8300 Z0.0000
M3S245
G4 P0.5; Tool Off

G0 Z0; move to z-safe height
G0 X3.0000 Y350.8300
M3S0
G4 P0.5; Tool On
G1 F300 Z0.0000
G1 F15000 X352.0000 Y350.8300 Z0.0000
M3S245
G4 P0.5; Tool Off

G0 Z0; move to z-safe height
G0 X352.0000 Y356.8300
M3S0
G4 P0.5; Tool On
G1 F300 Z0.0000
G1 F15000 X3.0000 Y356.8300 Z0.0000
M3S245
G4 P0.5; Tool Off

G0 Z0; move to z-safe height
G0 X3.0000 Y362.8300
M3S0
G4 P0.5; Tool On
G1 F300 Z0.0000
G1 F15000 X352.0000 Y362.8300 Z0.0000
M3S245
G4 P0.5; Tool Off

G0 Z0; move to z-safe height
G0 X352.0000 Y368.8300
M3S0
G4 P0.5; Tool On
G1 F300 Z0.0000
G1 F15000 X3.0000 Y368.8300 Z0.0000
M3S245
G4 P0.5; Tool Off

G0 Z0; move to z-safe height
G0 X3.0000 Y374.8300
M3S0
G4 P0.5; Tool On
G1 F300 Z0.0000
G1 F15000 X352.0000 Y374.8300 Z0.0000
M3S245
G4 P0.5; Tool Off

G0 Z0; move to z-safe height
G0 X352.0000 Y380.8300
M3S0
G4 P0.5; Tool On
G1 F300 Z0.0000
G1 F15000 X3.0000 Y380.8300 Z0.0000
M3S245
G4 P0.5; Tool Off

G0 Z0; move to z-safe height
G0 X3.0000 Y386.8300
M3S0
G4 P0.5; Tool On
G1 F300 Z0.0000
G1 F15000 X352.0000 Y386.8300 Z0.0000
M3S245
G4 P0.5; Tool Off

G0 Z0; move to z-safe height
G0 X352.0000 Y392.8300
M3S0
G4 P0.5; Tool On
G1 F300 Z0.0000
G1 F15000 X3.0000 Y392.8300 Z0.0000
M3S245
G4 P0.5; Tool Off
; retracting back to z-safe
G0 Z0

; Plotter Mode Complete
