; GCODE Generated by cam.openbuilds.com on 2023-04-02 
G21 ; mm-mode
G54; Work Coordinates
G21; mm-mode
G90; Absolute Positioning
; Plotter Mode Active

; Operation 0: Pen Plotter: (lines fill)
; Pen Diameter: 2

G0 Z0; move to z-safe height
G0 F1000 X3.0000 Y7.7500
M3S0
G4 P0.5; Tool On
G1 F300 Z0.0000
G1 F15000 X353.0000 Y7.7500 Z0.0000
M3S245
G4 P0.5; Tool Off

G0 Z0; move to z-safe height
G0 X353.0000 Y13.7500
M3S0
G4 P0.5; Tool On
G1 F300 Z0.0000
G1 F15000 X3.0000 Y13.7500 Z0.0000
M3S245
G4 P0.5; Tool Off

G0 Z0; move to z-safe height
G0 X3.0000 Y19.7500
M3S0
G4 P0.5; Tool On
G1 F300 Z0.0000
G1 F15000 X353.0000 Y19.7500 Z0.0000
M3S245
G4 P0.5; Tool Off

G0 Z0; move to z-safe height
G0 X353.0000 Y25.7500
M3S0
G4 P0.5; Tool On
G1 F300 Z0.0000
G1 F15000 X3.0000 Y25.7500 Z0.0000
M3S245
G4 P0.5; Tool Off

G0 Z0; move to z-safe height
G0 X3.0000 Y31.7500
M3S0
G4 P0.5; Tool On
G1 F300 Z0.0000
G1 F15000 X353.0000 Y31.7500 Z0.0000
M3S245
G4 P0.5; Tool Off

G0 Z0; move to z-safe height
G0 X353.0000 Y37.7500
M3S0
G4 P0.5; Tool On
G1 F300 Z0.0000
G1 F15000 X3.0000 Y37.7500 Z0.0000
M3S245
G4 P0.5; Tool Off

G0 Z0; move to z-safe height
G0 X3.0000 Y43.7500
M3S0
G4 P0.5; Tool On
G1 F300 Z0.0000
G1 F15000 X353.0000 Y43.7500 Z0.0000
M3S245
G4 P0.5; Tool Off

G0 Z0; move to z-safe height
G0 X353.0000 Y49.7500
M3S0
G4 P0.5; Tool On
G1 F300 Z0.0000
G1 F15000 X3.0000 Y49.7500 Z0.0000
M3S245
G4 P0.5; Tool Off

G0 Z0; move to z-safe height
G0 X3.0000 Y55.7500
M3S0
G4 P0.5; Tool On
G1 F300 Z0.0000
G1 F15000 X353.0000 Y55.7500 Z0.0000
M3S245
G4 P0.5; Tool Off

G0 Z0; move to z-safe height
G0 X353.0000 Y61.7500
M3S0
G4 P0.5; Tool On
G1 F300 Z0.0000
G1 F15000 X3.0000 Y61.7500 Z0.0000
M3S245
G4 P0.5; Tool Off

G0 Z0; move to z-safe height
G0 X3.0000 Y67.7500
M3S0
G4 P0.5; Tool On
G1 F300 Z0.0000
G1 F15000 X353.0000 Y67.7500 Z0.0000
M3S245
G4 P0.5; Tool Off

G0 Z0; move to z-safe height
G0 X353.0000 Y73.7500
M3S0
G4 P0.5; Tool On
G1 F300 Z0.0000
G1 F15000 X3.0000 Y73.7500 Z0.0000
M3S245
G4 P0.5; Tool Off

G0 Z0; move to z-safe height
G0 X3.0000 Y79.7500
M3S0
G4 P0.5; Tool On
G1 F300 Z0.0000
G1 F15000 X353.0000 Y79.7500 Z0.0000
M3S245
G4 P0.5; Tool Off

G0 Z0; move to z-safe height
G0 X353.0000 Y85.7500
M3S0
G4 P0.5; Tool On
G1 F300 Z0.0000
G1 F15000 X3.0000 Y85.7500 Z0.0000
M3S245
G4 P0.5; Tool Off

G0 Z0; move to z-safe height
G0 X3.0000 Y91.7500
M3S0
G4 P0.5; Tool On
G1 F300 Z0.0000
G1 F15000 X353.0000 Y91.7500 Z0.0000
M3S245
G4 P0.5; Tool Off

G0 Z0; move to z-safe height
G0 X353.0000 Y97.7500
M3S0
G4 P0.5; Tool On
G1 F300 Z0.0000
G1 F15000 X3.0000 Y97.7500 Z0.0000
M3S245
G4 P0.5; Tool Off

G0 Z0; move to z-safe height
G0 X3.0000 Y103.7500
M3S0
G4 P0.5; Tool On
G1 F300 Z0.0000
G1 F15000 X353.0000 Y103.7500 Z0.0000
M3S245
G4 P0.5; Tool Off

G0 Z0; move to z-safe height
G0 X353.0000 Y109.7500
M3S0
G4 P0.5; Tool On
G1 F300 Z0.0000
G1 F15000 X3.0000 Y109.7500 Z0.0000
M3S245
G4 P0.5; Tool Off

G0 Z0; move to z-safe height
G0 X3.0000 Y115.7500
M3S0
G4 P0.5; Tool On
G1 F300 Z0.0000
G1 F15000 X353.0000 Y115.7500 Z0.0000
M3S245
G4 P0.5; Tool Off

G0 Z0; move to z-safe height
G0 X353.0000 Y121.7500
M3S0
G4 P0.5; Tool On
G1 F300 Z0.0000
G1 F15000 X3.0000 Y121.7500 Z0.0000
M3S245
G4 P0.5; Tool Off

G0 Z0; move to z-safe height
G0 X3.0000 Y127.7500
M3S0
G4 P0.5; Tool On
G1 F300 Z0.0000
G1 F15000 X353.0000 Y127.7500 Z0.0000
M3S245
G4 P0.5; Tool Off

G0 Z0; move to z-safe height
G0 X353.0000 Y133.7500
M3S0
G4 P0.5; Tool On
G1 F300 Z0.0000
G1 F15000 X3.0000 Y133.7500 Z0.0000
M3S245
G4 P0.5; Tool Off

G0 Z0; move to z-safe height
G0 X3.0000 Y139.7500
M3S0
G4 P0.5; Tool On
G1 F300 Z0.0000
G1 F15000 X353.0000 Y139.7500 Z0.0000
M3S245
G4 P0.5; Tool Off

G0 Z0; move to z-safe height
G0 X353.0000 Y145.7500
M3S0
G4 P0.5; Tool On
G1 F300 Z0.0000
G1 F15000 X3.0000 Y145.7500 Z0.0000
M3S245
G4 P0.5; Tool Off

G0 Z0; move to z-safe height
G0 X3.0000 Y151.7500
M3S0
G4 P0.5; Tool On
G1 F300 Z0.0000
G1 F15000 X353.0000 Y151.7500 Z0.0000
M3S245
G4 P0.5; Tool Off

G0 Z0; move to z-safe height
G0 X353.0000 Y157.7500
M3S0
G4 P0.5; Tool On
G1 F300 Z0.0000
G1 F15000 X3.0000 Y157.7500 Z0.0000
M3S245
G4 P0.5; Tool Off

G0 Z0; move to z-safe height
G0 X3.0000 Y163.7500
M3S0
G4 P0.5; Tool On
G1 F300 Z0.0000
G1 F15000 X353.0000 Y163.7500 Z0.0000
M3S245
G4 P0.5; Tool Off

G0 Z0; move to z-safe height
G0 X353.0000 Y169.7500
M3S0
G4 P0.5; Tool On
G1 F300 Z0.0000
G1 F15000 X3.0000 Y169.7500 Z0.0000
M3S245
G4 P0.5; Tool Off

G0 Z0; move to z-safe height
G0 X3.0000 Y175.7500
M3S0
G4 P0.5; Tool On
G1 F300 Z0.0000
G1 F15000 X353.0000 Y175.7500 Z0.0000
M3S245
G4 P0.5; Tool Off

G0 Z0; move to z-safe height
G0 X353.0000 Y181.7500
M3S0
G4 P0.5; Tool On
G1 F300 Z0.0000
G1 F15000 X3.0000 Y181.7500 Z0.0000
M3S245
G4 P0.5; Tool Off

G0 Z0; move to z-safe height
G0 X3.0000 Y187.7500
M3S0
G4 P0.5; Tool On
G1 F300 Z0.0000
G1 F15000 X353.0000 Y187.7500 Z0.0000
M3S245
G4 P0.5; Tool Off

G0 Z0; move to z-safe height
G0 X353.0000 Y193.7500
M3S0
G4 P0.5; Tool On
G1 F300 Z0.0000
G1 F15000 X3.0000 Y193.7500 Z0.0000
M3S245
G4 P0.5; Tool Off

G0 Z0; move to z-safe height
G0 X3.0000 Y199.7500
M3S0
G4 P0.5; Tool On
G1 F300 Z0.0000
G1 F15000 X353.0000 Y199.7500 Z0.0000
M3S245
G4 P0.5; Tool Off

G0 Z0; move to z-safe height
G0 X353.0000 Y205.7500
M3S0
G4 P0.5; Tool On
G1 F300 Z0.0000
G1 F15000 X3.0000 Y205.7500 Z0.0000
M3S245
G4 P0.5; Tool Off

G0 Z0; move to z-safe height
G0 X3.0000 Y211.7500
M3S0
G4 P0.5; Tool On
G1 F300 Z0.0000
G1 F15000 X353.0000 Y211.7500 Z0.0000
M3S245
G4 P0.5; Tool Off

G0 Z0; move to z-safe height
G0 X353.0000 Y217.7500
M3S0
G4 P0.5; Tool On
G1 F300 Z0.0000
G1 F15000 X3.0000 Y217.7500 Z0.0000
M3S245
G4 P0.5; Tool Off

G0 Z0; move to z-safe height
G0 X3.0000 Y223.7500
M3S0
G4 P0.5; Tool On
G1 F300 Z0.0000
G1 F15000 X353.0000 Y223.7500 Z0.0000
M3S245
G4 P0.5; Tool Off

G0 Z0; move to z-safe height
G0 X353.0000 Y229.7500
M3S0
G4 P0.5; Tool On
G1 F300 Z0.0000
G1 F15000 X3.0000 Y229.7500 Z0.0000
M3S245
G4 P0.5; Tool Off

G0 Z0; move to z-safe height
G0 X3.0000 Y235.7500
M3S0
G4 P0.5; Tool On
G1 F300 Z0.0000
G1 F15000 X353.0000 Y235.7500 Z0.0000
M3S245
G4 P0.5; Tool Off

G0 Z0; move to z-safe height
G0 X353.0000 Y241.7500
M3S0
G4 P0.5; Tool On
G1 F300 Z0.0000
G1 F15000 X3.0000 Y241.7500 Z0.0000
M3S245
G4 P0.5; Tool Off

G0 Z0; move to z-safe height
G0 X3.0000 Y247.7500
M3S0
G4 P0.5; Tool On
G1 F300 Z0.0000
G1 F15000 X353.0000 Y247.7500 Z0.0000
M3S245
G4 P0.5; Tool Off

G0 Z0; move to z-safe height
G0 X353.0000 Y253.7500
M3S0
G4 P0.5; Tool On
G1 F300 Z0.0000
G1 F15000 X3.0000 Y253.7500 Z0.0000
M3S245
G4 P0.5; Tool Off

G0 Z0; move to z-safe height
G0 X3.0000 Y259.7500
M3S0
G4 P0.5; Tool On
G1 F300 Z0.0000
G1 F15000 X353.0000 Y259.7500 Z0.0000
M3S245
G4 P0.5; Tool Off

G0 Z0; move to z-safe height
G0 X353.0000 Y265.7500
M3S0
G4 P0.5; Tool On
G1 F300 Z0.0000
G1 F15000 X3.0000 Y265.7500 Z0.0000
M3S245
G4 P0.5; Tool Off

G0 Z0; move to z-safe height
G0 X3.0000 Y271.7500
M3S0
G4 P0.5; Tool On
G1 F300 Z0.0000
G1 F15000 X353.0000 Y271.7500 Z0.0000
M3S245
G4 P0.5; Tool Off
; retracting back to z-safe
G0 Z0

; Plotter Mode Complete
