; GCODE Generated by cam.openbuilds.com on 2023-04-02 
G21 ; mm-mode
G54; Work Coordinates
G21; mm-mode
G90; Absolute Positioning
; Plotter Mode Active

; Operation 0: Pen Plotter: (lines fill)
; Pen Diameter: 2

G0 Z0; move to z-safe height
G0 F1000 X5.0000 Y10.5600
M3S0
G4 P0.5; Tool On
G1 F300 Z0.0000
G1 F15000 X351.0000 Y10.5600 Z0.0000
M3S245
G4 P0.5; Tool Off

G0 Z0; move to z-safe height
G0 X351.0000 Y20.5600
M3S0
G4 P0.5; Tool On
G1 F300 Z0.0000
G1 F15000 X5.0000 Y20.5600 Z0.0000
M3S245
G4 P0.5; Tool Off

G0 Z0; move to z-safe height
G0 X5.0000 Y30.5600
M3S0
G4 P0.5; Tool On
G1 F300 Z0.0000
G1 F15000 X351.0000 Y30.5600 Z0.0000
M3S245
G4 P0.5; Tool Off

G0 Z0; move to z-safe height
G0 X351.0000 Y40.5600
M3S0
G4 P0.5; Tool On
G1 F300 Z0.0000
G1 F15000 X5.0000 Y40.5600 Z0.0000
M3S245
G4 P0.5; Tool Off

G0 Z0; move to z-safe height
G0 X5.0000 Y50.5600
M3S0
G4 P0.5; Tool On
G1 F300 Z0.0000
G1 F15000 X351.0000 Y50.5600 Z0.0000
M3S245
G4 P0.5; Tool Off

G0 Z0; move to z-safe height
G0 X351.0000 Y60.5600
M3S0
G4 P0.5; Tool On
G1 F300 Z0.0000
G1 F15000 X5.0000 Y60.5600 Z0.0000
M3S245
G4 P0.5; Tool Off

G0 Z0; move to z-safe height
G0 X5.0000 Y70.5600
M3S0
G4 P0.5; Tool On
G1 F300 Z0.0000
G1 F15000 X351.0000 Y70.5600 Z0.0000
M3S245
G4 P0.5; Tool Off

G0 Z0; move to z-safe height
G0 X351.0000 Y80.5600
M3S0
G4 P0.5; Tool On
G1 F300 Z0.0000
G1 F15000 X5.0000 Y80.5600 Z0.0000
M3S245
G4 P0.5; Tool Off

G0 Z0; move to z-safe height
G0 X5.0000 Y90.5600
M3S0
G4 P0.5; Tool On
G1 F300 Z0.0000
G1 F15000 X351.0000 Y90.5600 Z0.0000
M3S245
G4 P0.5; Tool Off

G0 Z0; move to z-safe height
G0 X351.0000 Y100.5600
M3S0
G4 P0.5; Tool On
G1 F300 Z0.0000
G1 F15000 X5.0000 Y100.5600 Z0.0000
M3S245
G4 P0.5; Tool Off

G0 Z0; move to z-safe height
G0 X5.0000 Y110.5600
M3S0
G4 P0.5; Tool On
G1 F300 Z0.0000
G1 F15000 X351.0000 Y110.5600 Z0.0000
M3S245
G4 P0.5; Tool Off

G0 Z0; move to z-safe height
G0 X351.0000 Y120.5600
M3S0
G4 P0.5; Tool On
G1 F300 Z0.0000
G1 F15000 X5.0000 Y120.5600 Z0.0000
M3S245
G4 P0.5; Tool Off

G0 Z0; move to z-safe height
G0 X5.0000 Y130.5600
M3S0
G4 P0.5; Tool On
G1 F300 Z0.0000
G1 F15000 X351.0000 Y130.5600 Z0.0000
M3S245
G4 P0.5; Tool Off

G0 Z0; move to z-safe height
G0 X351.0000 Y140.5600
M3S0
G4 P0.5; Tool On
G1 F300 Z0.0000
G1 F15000 X5.0000 Y140.5600 Z0.0000
M3S245
G4 P0.5; Tool Off

G0 Z0; move to z-safe height
G0 X5.0000 Y150.5600
M3S0
G4 P0.5; Tool On
G1 F300 Z0.0000
G1 F15000 X351.0000 Y150.5600 Z0.0000
M3S245
G4 P0.5; Tool Off

G0 Z0; move to z-safe height
G0 X351.0000 Y160.5600
M3S0
G4 P0.5; Tool On
G1 F300 Z0.0000
G1 F15000 X5.0000 Y160.5600 Z0.0000
M3S245
G4 P0.5; Tool Off

G0 Z0; move to z-safe height
G0 X5.0000 Y170.5600
M3S0
G4 P0.5; Tool On
G1 F300 Z0.0000
G1 F15000 X351.0000 Y170.5600 Z0.0000
M3S245
G4 P0.5; Tool Off

G0 Z0; move to z-safe height
G0 X351.0000 Y180.5600
M3S0
G4 P0.5; Tool On
G1 F300 Z0.0000
G1 F15000 X5.0000 Y180.5600 Z0.0000
M3S245
G4 P0.5; Tool Off

G0 Z0; move to z-safe height
G0 X5.0000 Y190.5600
M3S0
G4 P0.5; Tool On
G1 F300 Z0.0000
G1 F15000 X351.0000 Y190.5600 Z0.0000
M3S245
G4 P0.5; Tool Off

G0 Z0; move to z-safe height
G0 X351.0000 Y200.5600
M3S0
G4 P0.5; Tool On
G1 F300 Z0.0000
G1 F15000 X5.0000 Y200.5600 Z0.0000
M3S245
G4 P0.5; Tool Off

G0 Z0; move to z-safe height
G0 X5.0000 Y210.5600
M3S0
G4 P0.5; Tool On
G1 F300 Z0.0000
G1 F15000 X351.0000 Y210.5600 Z0.0000
M3S245
G4 P0.5; Tool Off

G0 Z0; move to z-safe height
G0 X351.0000 Y220.5600
M3S0
G4 P0.5; Tool On
G1 F300 Z0.0000
G1 F15000 X5.0000 Y220.5600 Z0.0000
M3S245
G4 P0.5; Tool Off

G0 Z0; move to z-safe height
G0 X5.0000 Y230.5600
M3S0
G4 P0.5; Tool On
G1 F300 Z0.0000
G1 F15000 X351.0000 Y230.5600 Z0.0000
M3S245
G4 P0.5; Tool Off

G0 Z0; move to z-safe height
G0 X351.0000 Y240.5600
M3S0
G4 P0.5; Tool On
G1 F300 Z0.0000
G1 F15000 X5.0000 Y240.5600 Z0.0000
M3S245
G4 P0.5; Tool Off

G0 Z0; move to z-safe height
G0 X5.0000 Y250.5600
M3S0
G4 P0.5; Tool On
G1 F300 Z0.0000
G1 F15000 X351.0000 Y250.5600 Z0.0000
M3S245
G4 P0.5; Tool Off

G0 Z0; move to z-safe height
G0 X351.0000 Y260.5600
M3S0
G4 P0.5; Tool On
G1 F300 Z0.0000
G1 F15000 X5.0000 Y260.5600 Z0.0000
M3S245
G4 P0.5; Tool Off

G0 Z0; move to z-safe height
G0 X5.0000 Y270.5600
M3S0
G4 P0.5; Tool On
G1 F300 Z0.0000
G1 F15000 X351.0000 Y270.5600 Z0.0000
M3S245
G4 P0.5; Tool Off
; retracting back to z-safe
G0 Z0

; Plotter Mode Complete
