; GCODE Generated by cam.openbuilds.com on 2023-04-02 
G21 ; mm-mode
G54; Work Coordinates
G21; mm-mode
G90; Absolute Positioning
; Plotter Mode Active

; Operation 0: Pen Plotter: (lines fill)
; Pen Diameter: 2

G0 Z0; move to z-safe height
G0 F1000 X354.0000 Y4.3500
M3S0
G4 P0.5; Tool On
G1 F300 Z0.0000
G1 F15000 X2.0000 Y4.3500 Z0.0000
M3S245
G4 P0.5; Tool Off

G0 Z0; move to z-safe height
G0 X2.0000 Y8.3500
M3S0
G4 P0.5; Tool On
G1 F300 Z0.0000
G1 F15000 X354.0000 Y8.3500 Z0.0000
M3S245
G4 P0.5; Tool Off

G0 Z0; move to z-safe height
G0 X354.0000 Y12.3500
M3S0
G4 P0.5; Tool On
G1 F300 Z0.0000
G1 F15000 X2.0000 Y12.3500 Z0.0000
M3S245
G4 P0.5; Tool Off

G0 Z0; move to z-safe height
G0 X2.0000 Y16.3500
M3S0
G4 P0.5; Tool On
G1 F300 Z0.0000
G1 F15000 X354.0000 Y16.3500 Z0.0000
M3S245
G4 P0.5; Tool Off

G0 Z0; move to z-safe height
G0 X354.0000 Y20.3500
M3S0
G4 P0.5; Tool On
G1 F300 Z0.0000
G1 F15000 X2.0000 Y20.3500 Z0.0000
M3S245
G4 P0.5; Tool Off

G0 Z0; move to z-safe height
G0 X2.0000 Y24.3500
M3S0
G4 P0.5; Tool On
G1 F300 Z0.0000
G1 F15000 X354.0000 Y24.3500 Z0.0000
M3S245
G4 P0.5; Tool Off

G0 Z0; move to z-safe height
G0 X354.0000 Y28.3500
M3S0
G4 P0.5; Tool On
G1 F300 Z0.0000
G1 F15000 X2.0000 Y28.3500 Z0.0000
M3S245
G4 P0.5; Tool Off

G0 Z0; move to z-safe height
G0 X2.0000 Y32.3500
M3S0
G4 P0.5; Tool On
G1 F300 Z0.0000
G1 F15000 X354.0000 Y32.3500 Z0.0000
M3S245
G4 P0.5; Tool Off

G0 Z0; move to z-safe height
G0 X354.0000 Y36.3500
M3S0
G4 P0.5; Tool On
G1 F300 Z0.0000
G1 F15000 X2.0000 Y36.3500 Z0.0000
M3S245
G4 P0.5; Tool Off

G0 Z0; move to z-safe height
G0 X2.0000 Y40.3500
M3S0
G4 P0.5; Tool On
G1 F300 Z0.0000
G1 F15000 X354.0000 Y40.3500 Z0.0000
M3S245
G4 P0.5; Tool Off

G0 Z0; move to z-safe height
G0 X354.0000 Y44.3500
M3S0
G4 P0.5; Tool On
G1 F300 Z0.0000
G1 F15000 X2.0000 Y44.3500 Z0.0000
M3S245
G4 P0.5; Tool Off

G0 Z0; move to z-safe height
G0 X2.0000 Y48.3500
M3S0
G4 P0.5; Tool On
G1 F300 Z0.0000
G1 F15000 X354.0000 Y48.3500 Z0.0000
M3S245
G4 P0.5; Tool Off

G0 Z0; move to z-safe height
G0 X354.0000 Y52.3500
M3S0
G4 P0.5; Tool On
G1 F300 Z0.0000
G1 F15000 X2.0000 Y52.3500 Z0.0000
M3S245
G4 P0.5; Tool Off

G0 Z0; move to z-safe height
G0 X2.0000 Y56.3500
M3S0
G4 P0.5; Tool On
G1 F300 Z0.0000
G1 F15000 X354.0000 Y56.3500 Z0.0000
M3S245
G4 P0.5; Tool Off

G0 Z0; move to z-safe height
G0 X354.0000 Y60.3500
M3S0
G4 P0.5; Tool On
G1 F300 Z0.0000
G1 F15000 X2.0000 Y60.3500 Z0.0000
M3S245
G4 P0.5; Tool Off

G0 Z0; move to z-safe height
G0 X2.0000 Y64.3500
M3S0
G4 P0.5; Tool On
G1 F300 Z0.0000
G1 F15000 X354.0000 Y64.3500 Z0.0000
M3S245
G4 P0.5; Tool Off

G0 Z0; move to z-safe height
G0 X354.0000 Y68.3500
M3S0
G4 P0.5; Tool On
G1 F300 Z0.0000
G1 F15000 X2.0000 Y68.3500 Z0.0000
M3S245
G4 P0.5; Tool Off

G0 Z0; move to z-safe height
G0 X2.0000 Y72.3500
M3S0
G4 P0.5; Tool On
G1 F300 Z0.0000
G1 F15000 X354.0000 Y72.3500 Z0.0000
M3S245
G4 P0.5; Tool Off

G0 Z0; move to z-safe height
G0 X354.0000 Y76.3500
M3S0
G4 P0.5; Tool On
G1 F300 Z0.0000
G1 F15000 X2.0000 Y76.3500 Z0.0000
M3S245
G4 P0.5; Tool Off

G0 Z0; move to z-safe height
G0 X2.0000 Y80.3500
M3S0
G4 P0.5; Tool On
G1 F300 Z0.0000
G1 F15000 X354.0000 Y80.3500 Z0.0000
M3S245
G4 P0.5; Tool Off

G0 Z0; move to z-safe height
G0 X354.0000 Y84.3500
M3S0
G4 P0.5; Tool On
G1 F300 Z0.0000
G1 F15000 X2.0000 Y84.3500 Z0.0000
M3S245
G4 P0.5; Tool Off

G0 Z0; move to z-safe height
G0 X2.0000 Y88.3500
M3S0
G4 P0.5; Tool On
G1 F300 Z0.0000
G1 F15000 X354.0000 Y88.3500 Z0.0000
M3S245
G4 P0.5; Tool Off

G0 Z0; move to z-safe height
G0 X354.0000 Y92.3500
M3S0
G4 P0.5; Tool On
G1 F300 Z0.0000
G1 F15000 X2.0000 Y92.3500 Z0.0000
M3S245
G4 P0.5; Tool Off

G0 Z0; move to z-safe height
G0 X2.0000 Y96.3500
M3S0
G4 P0.5; Tool On
G1 F300 Z0.0000
G1 F15000 X354.0000 Y96.3500 Z0.0000
M3S245
G4 P0.5; Tool Off

G0 Z0; move to z-safe height
G0 X354.0000 Y100.3500
M3S0
G4 P0.5; Tool On
G1 F300 Z0.0000
G1 F15000 X2.0000 Y100.3500 Z0.0000
M3S245
G4 P0.5; Tool Off

G0 Z0; move to z-safe height
G0 X2.0000 Y104.3500
M3S0
G4 P0.5; Tool On
G1 F300 Z0.0000
G1 F15000 X354.0000 Y104.3500 Z0.0000
M3S245
G4 P0.5; Tool Off

G0 Z0; move to z-safe height
G0 X354.0000 Y108.3500
M3S0
G4 P0.5; Tool On
G1 F300 Z0.0000
G1 F15000 X2.0000 Y108.3500 Z0.0000
M3S245
G4 P0.5; Tool Off

G0 Z0; move to z-safe height
G0 X2.0000 Y112.3500
M3S0
G4 P0.5; Tool On
G1 F300 Z0.0000
G1 F15000 X354.0000 Y112.3500 Z0.0000
M3S245
G4 P0.5; Tool Off

G0 Z0; move to z-safe height
G0 X354.0000 Y116.3500
M3S0
G4 P0.5; Tool On
G1 F300 Z0.0000
G1 F15000 X2.0000 Y116.3500 Z0.0000
M3S245
G4 P0.5; Tool Off

G0 Z0; move to z-safe height
G0 X2.0000 Y120.3500
M3S0
G4 P0.5; Tool On
G1 F300 Z0.0000
G1 F15000 X354.0000 Y120.3500 Z0.0000
M3S245
G4 P0.5; Tool Off

G0 Z0; move to z-safe height
G0 X354.0000 Y124.3500
M3S0
G4 P0.5; Tool On
G1 F300 Z0.0000
G1 F15000 X2.0000 Y124.3500 Z0.0000
M3S245
G4 P0.5; Tool Off

G0 Z0; move to z-safe height
G0 X2.0000 Y128.3500
M3S0
G4 P0.5; Tool On
G1 F300 Z0.0000
G1 F15000 X354.0000 Y128.3500 Z0.0000
M3S245
G4 P0.5; Tool Off

G0 Z0; move to z-safe height
G0 X354.0000 Y132.3500
M3S0
G4 P0.5; Tool On
G1 F300 Z0.0000
G1 F15000 X2.0000 Y132.3500 Z0.0000
M3S245
G4 P0.5; Tool Off

G0 Z0; move to z-safe height
G0 X2.0000 Y136.3500
M3S0
G4 P0.5; Tool On
G1 F300 Z0.0000
G1 F15000 X354.0000 Y136.3500 Z0.0000
M3S245
G4 P0.5; Tool Off

G0 Z0; move to z-safe height
G0 X354.0000 Y140.3500
M3S0
G4 P0.5; Tool On
G1 F300 Z0.0000
G1 F15000 X2.0000 Y140.3500 Z0.0000
M3S245
G4 P0.5; Tool Off

G0 Z0; move to z-safe height
G0 X2.0000 Y144.3500
M3S0
G4 P0.5; Tool On
G1 F300 Z0.0000
G1 F15000 X354.0000 Y144.3500 Z0.0000
M3S245
G4 P0.5; Tool Off

G0 Z0; move to z-safe height
G0 X354.0000 Y148.3500
M3S0
G4 P0.5; Tool On
G1 F300 Z0.0000
G1 F15000 X2.0000 Y148.3500 Z0.0000
M3S245
G4 P0.5; Tool Off

G0 Z0; move to z-safe height
G0 X2.0000 Y152.3500
M3S0
G4 P0.5; Tool On
G1 F300 Z0.0000
G1 F15000 X354.0000 Y152.3500 Z0.0000
M3S245
G4 P0.5; Tool Off

G0 Z0; move to z-safe height
G0 X354.0000 Y156.3500
M3S0
G4 P0.5; Tool On
G1 F300 Z0.0000
G1 F15000 X2.0000 Y156.3500 Z0.0000
M3S245
G4 P0.5; Tool Off

G0 Z0; move to z-safe height
G0 X2.0000 Y160.3500
M3S0
G4 P0.5; Tool On
G1 F300 Z0.0000
G1 F15000 X354.0000 Y160.3500 Z0.0000
M3S245
G4 P0.5; Tool Off

G0 Z0; move to z-safe height
G0 X354.0000 Y164.3500
M3S0
G4 P0.5; Tool On
G1 F300 Z0.0000
G1 F15000 X2.0000 Y164.3500 Z0.0000
M3S245
G4 P0.5; Tool Off

G0 Z0; move to z-safe height
G0 X2.0000 Y168.3500
M3S0
G4 P0.5; Tool On
G1 F300 Z0.0000
G1 F15000 X354.0000 Y168.3500 Z0.0000
M3S245
G4 P0.5; Tool Off

G0 Z0; move to z-safe height
G0 X354.0000 Y172.3500
M3S0
G4 P0.5; Tool On
G1 F300 Z0.0000
G1 F15000 X2.0000 Y172.3500 Z0.0000
M3S245
G4 P0.5; Tool Off

G0 Z0; move to z-safe height
G0 X2.0000 Y176.3500
M3S0
G4 P0.5; Tool On
G1 F300 Z0.0000
G1 F15000 X354.0000 Y176.3500 Z0.0000
M3S245
G4 P0.5; Tool Off

G0 Z0; move to z-safe height
G0 X354.0000 Y180.3500
M3S0
G4 P0.5; Tool On
G1 F300 Z0.0000
G1 F15000 X2.0000 Y180.3500 Z0.0000
M3S245
G4 P0.5; Tool Off

G0 Z0; move to z-safe height
G0 X2.0000 Y184.3500
M3S0
G4 P0.5; Tool On
G1 F300 Z0.0000
G1 F15000 X354.0000 Y184.3500 Z0.0000
M3S245
G4 P0.5; Tool Off

G0 Z0; move to z-safe height
G0 X354.0000 Y188.3500
M3S0
G4 P0.5; Tool On
G1 F300 Z0.0000
G1 F15000 X2.0000 Y188.3500 Z0.0000
M3S245
G4 P0.5; Tool Off

G0 Z0; move to z-safe height
G0 X2.0000 Y192.3500
M3S0
G4 P0.5; Tool On
G1 F300 Z0.0000
G1 F15000 X354.0000 Y192.3500 Z0.0000
M3S245
G4 P0.5; Tool Off

G0 Z0; move to z-safe height
G0 X354.0000 Y196.3500
M3S0
G4 P0.5; Tool On
G1 F300 Z0.0000
G1 F15000 X2.0000 Y196.3500 Z0.0000
M3S245
G4 P0.5; Tool Off

G0 Z0; move to z-safe height
G0 X2.0000 Y200.3500
M3S0
G4 P0.5; Tool On
G1 F300 Z0.0000
G1 F15000 X354.0000 Y200.3500 Z0.0000
M3S245
G4 P0.5; Tool Off

G0 Z0; move to z-safe height
G0 X354.0000 Y204.3500
M3S0
G4 P0.5; Tool On
G1 F300 Z0.0000
G1 F15000 X2.0000 Y204.3500 Z0.0000
M3S245
G4 P0.5; Tool Off

G0 Z0; move to z-safe height
G0 X2.0000 Y208.3500
M3S0
G4 P0.5; Tool On
G1 F300 Z0.0000
G1 F15000 X354.0000 Y208.3500 Z0.0000
M3S245
G4 P0.5; Tool Off

G0 Z0; move to z-safe height
G0 X354.0000 Y212.3500
M3S0
G4 P0.5; Tool On
G1 F300 Z0.0000
G1 F15000 X2.0000 Y212.3500 Z0.0000
M3S245
G4 P0.5; Tool Off

G0 Z0; move to z-safe height
G0 X2.0000 Y216.3500
M3S0
G4 P0.5; Tool On
G1 F300 Z0.0000
G1 F15000 X354.0000 Y216.3500 Z0.0000
M3S245
G4 P0.5; Tool Off

G0 Z0; move to z-safe height
G0 X354.0000 Y220.3500
M3S0
G4 P0.5; Tool On
G1 F300 Z0.0000
G1 F15000 X2.0000 Y220.3500 Z0.0000
M3S245
G4 P0.5; Tool Off

G0 Z0; move to z-safe height
G0 X2.0000 Y224.3500
M3S0
G4 P0.5; Tool On
G1 F300 Z0.0000
G1 F15000 X354.0000 Y224.3500 Z0.0000
M3S245
G4 P0.5; Tool Off

G0 Z0; move to z-safe height
G0 X354.0000 Y228.3500
M3S0
G4 P0.5; Tool On
G1 F300 Z0.0000
G1 F15000 X2.0000 Y228.3500 Z0.0000
M3S245
G4 P0.5; Tool Off

G0 Z0; move to z-safe height
G0 X2.0000 Y232.3500
M3S0
G4 P0.5; Tool On
G1 F300 Z0.0000
G1 F15000 X354.0000 Y232.3500 Z0.0000
M3S245
G4 P0.5; Tool Off

G0 Z0; move to z-safe height
G0 X354.0000 Y236.3500
M3S0
G4 P0.5; Tool On
G1 F300 Z0.0000
G1 F15000 X2.0000 Y236.3500 Z0.0000
M3S245
G4 P0.5; Tool Off

G0 Z0; move to z-safe height
G0 X2.0000 Y240.3500
M3S0
G4 P0.5; Tool On
G1 F300 Z0.0000
G1 F15000 X354.0000 Y240.3500 Z0.0000
M3S245
G4 P0.5; Tool Off

G0 Z0; move to z-safe height
G0 X354.0000 Y244.3500
M3S0
G4 P0.5; Tool On
G1 F300 Z0.0000
G1 F15000 X2.0000 Y244.3500 Z0.0000
M3S245
G4 P0.5; Tool Off

G0 Z0; move to z-safe height
G0 X2.0000 Y248.3500
M3S0
G4 P0.5; Tool On
G1 F300 Z0.0000
G1 F15000 X354.0000 Y248.3500 Z0.0000
M3S245
G4 P0.5; Tool Off

G0 Z0; move to z-safe height
G0 X354.0000 Y252.3500
M3S0
G4 P0.5; Tool On
G1 F300 Z0.0000
G1 F15000 X2.0000 Y252.3500 Z0.0000
M3S245
G4 P0.5; Tool Off

G0 Z0; move to z-safe height
G0 X2.0000 Y256.3500
M3S0
G4 P0.5; Tool On
G1 F300 Z0.0000
G1 F15000 X354.0000 Y256.3500 Z0.0000
M3S245
G4 P0.5; Tool Off

G0 Z0; move to z-safe height
G0 X354.0000 Y260.3500
M3S0
G4 P0.5; Tool On
G1 F300 Z0.0000
G1 F15000 X2.0000 Y260.3500 Z0.0000
M3S245
G4 P0.5; Tool Off

G0 Z0; move to z-safe height
G0 X2.0000 Y264.3500
M3S0
G4 P0.5; Tool On
G1 F300 Z0.0000
G1 F15000 X354.0000 Y264.3500 Z0.0000
M3S245
G4 P0.5; Tool Off

G0 Z0; move to z-safe height
G0 X354.0000 Y268.3500
M3S0
G4 P0.5; Tool On
G1 F300 Z0.0000
G1 F15000 X2.0000 Y268.3500 Z0.0000
M3S245
G4 P0.5; Tool Off

G0 Z0; move to z-safe height
G0 X2.0000 Y272.3500
M3S0
G4 P0.5; Tool On
G1 F300 Z0.0000
G1 F15000 X354.0000 Y272.3500 Z0.0000
M3S245
G4 P0.5; Tool Off

G0 Z0; move to z-safe height
G0 X354.0000 Y276.3500
M3S0
G4 P0.5; Tool On
G1 F300 Z0.0000
G1 F15000 X2.0000 Y276.3500 Z0.0000
M3S245
G4 P0.5; Tool Off
; retracting back to z-safe
G0 Z0

; Plotter Mode Complete
