; GCODE Generated by cam.openbuilds.com on 2023-04-02 
G21 ; mm-mode
G54; Work Coordinates
G21; mm-mode
G90; Absolute Positioning
; Plotter Mode Active

; Operation 0: Pen Plotter: (lines fill)
; Pen Diameter: 2

G0 Z0; move to z-safe height
G0 F1000 X4.0000 Y7.1600
M3S0
G4 P0.5; Tool On
G1 F300 Z0.0000
G1 F15000 X352.0000 Y7.1600 Z0.0000
M3S245
G4 P0.5; Tool Off

G0 Z0; move to z-safe height
G0 X352.0000 Y15.1600
M3S0
G4 P0.5; Tool On
G1 F300 Z0.0000
G1 F15000 X4.0000 Y15.1600 Z0.0000
M3S245
G4 P0.5; Tool Off

G0 Z0; move to z-safe height
G0 X4.0000 Y23.1600
M3S0
G4 P0.5; Tool On
G1 F300 Z0.0000
G1 F15000 X352.0000 Y23.1600 Z0.0000
M3S245
G4 P0.5; Tool Off

G0 Z0; move to z-safe height
G0 X352.0000 Y31.1600
M3S0
G4 P0.5; Tool On
G1 F300 Z0.0000
G1 F15000 X4.0000 Y31.1600 Z0.0000
M3S245
G4 P0.5; Tool Off

G0 Z0; move to z-safe height
G0 X4.0000 Y39.1600
M3S0
G4 P0.5; Tool On
G1 F300 Z0.0000
G1 F15000 X352.0000 Y39.1600 Z0.0000
M3S245
G4 P0.5; Tool Off

G0 Z0; move to z-safe height
G0 X352.0000 Y47.1600
M3S0
G4 P0.5; Tool On
G1 F300 Z0.0000
G1 F15000 X4.0000 Y47.1600 Z0.0000
M3S245
G4 P0.5; Tool Off

G0 Z0; move to z-safe height
G0 X4.0000 Y55.1600
M3S0
G4 P0.5; Tool On
G1 F300 Z0.0000
G1 F15000 X352.0000 Y55.1600 Z0.0000
M3S245
G4 P0.5; Tool Off

G0 Z0; move to z-safe height
G0 X352.0000 Y63.1600
M3S0
G4 P0.5; Tool On
G1 F300 Z0.0000
G1 F15000 X4.0000 Y63.1600 Z0.0000
M3S245
G4 P0.5; Tool Off

G0 Z0; move to z-safe height
G0 X4.0000 Y71.1600
M3S0
G4 P0.5; Tool On
G1 F300 Z0.0000
G1 F15000 X352.0000 Y71.1600 Z0.0000
M3S245
G4 P0.5; Tool Off

G0 Z0; move to z-safe height
G0 X352.0000 Y79.1600
M3S0
G4 P0.5; Tool On
G1 F300 Z0.0000
G1 F15000 X4.0000 Y79.1600 Z0.0000
M3S245
G4 P0.5; Tool Off

G0 Z0; move to z-safe height
G0 X4.0000 Y87.1600
M3S0
G4 P0.5; Tool On
G1 F300 Z0.0000
G1 F15000 X352.0000 Y87.1600 Z0.0000
M3S245
G4 P0.5; Tool Off

G0 Z0; move to z-safe height
G0 X352.0000 Y95.1600
M3S0
G4 P0.5; Tool On
G1 F300 Z0.0000
G1 F15000 X4.0000 Y95.1600 Z0.0000
M3S245
G4 P0.5; Tool Off

G0 Z0; move to z-safe height
G0 X4.0000 Y103.1600
M3S0
G4 P0.5; Tool On
G1 F300 Z0.0000
G1 F15000 X352.0000 Y103.1600 Z0.0000
M3S245
G4 P0.5; Tool Off

G0 Z0; move to z-safe height
G0 X352.0000 Y111.1600
M3S0
G4 P0.5; Tool On
G1 F300 Z0.0000
G1 F15000 X4.0000 Y111.1600 Z0.0000
M3S245
G4 P0.5; Tool Off

G0 Z0; move to z-safe height
G0 X4.0000 Y119.1600
M3S0
G4 P0.5; Tool On
G1 F300 Z0.0000
G1 F15000 X352.0000 Y119.1600 Z0.0000
M3S245
G4 P0.5; Tool Off

G0 Z0; move to z-safe height
G0 X352.0000 Y127.1600
M3S0
G4 P0.5; Tool On
G1 F300 Z0.0000
G1 F15000 X4.0000 Y127.1600 Z0.0000
M3S245
G4 P0.5; Tool Off

G0 Z0; move to z-safe height
G0 X4.0000 Y135.1600
M3S0
G4 P0.5; Tool On
G1 F300 Z0.0000
G1 F15000 X352.0000 Y135.1600 Z0.0000
M3S245
G4 P0.5; Tool Off

G0 Z0; move to z-safe height
G0 X352.0000 Y143.1600
M3S0
G4 P0.5; Tool On
G1 F300 Z0.0000
G1 F15000 X4.0000 Y143.1600 Z0.0000
M3S245
G4 P0.5; Tool Off

G0 Z0; move to z-safe height
G0 X4.0000 Y151.1600
M3S0
G4 P0.5; Tool On
G1 F300 Z0.0000
G1 F15000 X352.0000 Y151.1600 Z0.0000
M3S245
G4 P0.5; Tool Off

G0 Z0; move to z-safe height
G0 X352.0000 Y159.1600
M3S0
G4 P0.5; Tool On
G1 F300 Z0.0000
G1 F15000 X4.0000 Y159.1600 Z0.0000
M3S245
G4 P0.5; Tool Off

G0 Z0; move to z-safe height
G0 X4.0000 Y167.1600
M3S0
G4 P0.5; Tool On
G1 F300 Z0.0000
G1 F15000 X352.0000 Y167.1600 Z0.0000
M3S245
G4 P0.5; Tool Off

G0 Z0; move to z-safe height
G0 X352.0000 Y175.1600
M3S0
G4 P0.5; Tool On
G1 F300 Z0.0000
G1 F15000 X4.0000 Y175.1600 Z0.0000
M3S245
G4 P0.5; Tool Off

G0 Z0; move to z-safe height
G0 X4.0000 Y183.1600
M3S0
G4 P0.5; Tool On
G1 F300 Z0.0000
G1 F15000 X352.0000 Y183.1600 Z0.0000
M3S245
G4 P0.5; Tool Off

G0 Z0; move to z-safe height
G0 X352.0000 Y191.1600
M3S0
G4 P0.5; Tool On
G1 F300 Z0.0000
G1 F15000 X4.0000 Y191.1600 Z0.0000
M3S245
G4 P0.5; Tool Off

G0 Z0; move to z-safe height
G0 X4.0000 Y199.1600
M3S0
G4 P0.5; Tool On
G1 F300 Z0.0000
G1 F15000 X352.0000 Y199.1600 Z0.0000
M3S245
G4 P0.5; Tool Off

G0 Z0; move to z-safe height
G0 X352.0000 Y207.1600
M3S0
G4 P0.5; Tool On
G1 F300 Z0.0000
G1 F15000 X4.0000 Y207.1600 Z0.0000
M3S245
G4 P0.5; Tool Off

G0 Z0; move to z-safe height
G0 X4.0000 Y215.1600
M3S0
G4 P0.5; Tool On
G1 F300 Z0.0000
G1 F15000 X352.0000 Y215.1600 Z0.0000
M3S245
G4 P0.5; Tool Off

G0 Z0; move to z-safe height
G0 X352.0000 Y223.1600
M3S0
G4 P0.5; Tool On
G1 F300 Z0.0000
G1 F15000 X4.0000 Y223.1600 Z0.0000
M3S245
G4 P0.5; Tool Off

G0 Z0; move to z-safe height
G0 X4.0000 Y231.1600
M3S0
G4 P0.5; Tool On
G1 F300 Z0.0000
G1 F15000 X352.0000 Y231.1600 Z0.0000
M3S245
G4 P0.5; Tool Off

G0 Z0; move to z-safe height
G0 X352.0000 Y239.1600
M3S0
G4 P0.5; Tool On
G1 F300 Z0.0000
G1 F15000 X4.0000 Y239.1600 Z0.0000
M3S245
G4 P0.5; Tool Off

G0 Z0; move to z-safe height
G0 X4.0000 Y247.1600
M3S0
G4 P0.5; Tool On
G1 F300 Z0.0000
G1 F15000 X352.0000 Y247.1600 Z0.0000
M3S245
G4 P0.5; Tool Off

G0 Z0; move to z-safe height
G0 X352.0000 Y255.1600
M3S0
G4 P0.5; Tool On
G1 F300 Z0.0000
G1 F15000 X4.0000 Y255.1600 Z0.0000
M3S245
G4 P0.5; Tool Off

G0 Z0; move to z-safe height
G0 X4.0000 Y263.1600
M3S0
G4 P0.5; Tool On
G1 F300 Z0.0000
G1 F15000 X352.0000 Y263.1600 Z0.0000
M3S245
G4 P0.5; Tool Off

G0 Z0; move to z-safe height
G0 X352.0000 Y271.1600
M3S0
G4 P0.5; Tool On
G1 F300 Z0.0000
G1 F15000 X4.0000 Y271.1600 Z0.0000
M3S245
G4 P0.5; Tool Off
; retracting back to z-safe
G0 Z0

; Plotter Mode Complete
